%
(s-011-015)
(T1  D=1 CR=0 - ZMIN=-2 - flat end mill)
G90 G94
G17
G21
G28 G91 Z0
G90

(Clear)
M9
T1 M6
S5000 M3
G54
M8
G0 X-115.907 Y-15.898
Z12
Z2
Z0.5
G3 X-115.423 Y-16.023 Z0.29 I0.242 J-0.062 F333.3
X-115.907 Y-15.898 Z0.079 I-0.242 J0.062
X-115.423 Y-16.023 Z-0.131 I0.242 J-0.062
X-115.907 Y-15.898 Z-0.342 I-0.242 J0.062
X-115.423 Y-16.023 Z-0.552 I0.242 J-0.062
X-115.907 Y-15.898 Z-0.763 I-0.242 J0.062
X-115.697 Y-16.208 Z-0.876 I0.242 J-0.062
X-115.415 Y-15.96 Z-0.99 I0.031 J0.248
X-115.915 I-0.25
X-115.415 I0.25
G1 X-115.378 Y-15.815 F1000
X-115.375 Y-15.74
X-115.4 Y-15.669
X-115.487 Y-15.547
X-115.622 Y-15.482
X-115.772 Y-15.473
X-115.916 Y-15.516
X-116.038 Y-15.602
X-116.129 Y-15.721
X-116.181 Y-15.862
X-116.189 Y-16.012
X-116.155 Y-16.158
X-116.08 Y-16.288
X-115.972 Y-16.392
X-115.839 Y-16.461
X-115.692 Y-16.489
X-115.542 Y-16.476
X-115.403 Y-16.421
X-115.284 Y-16.329
X-115.194 Y-16.209
X-115.124 Y-16.076
X-115.081 Y-15.933
X-115.071 Y-15.783
X-115.098 Y-15.635
X-115.155 Y-15.497
X-115.246 Y-15.377
X-115.361 Y-15.281
X-115.496 Y-15.214
X-115.642 Y-15.18
X-115.791 Y-15.174
X-115.939 Y-15.203
X-116.078 Y-15.258
X-116.204 Y-15.34
X-116.31 Y-15.446
X-116.397 Y-15.568
X-116.458 Y-15.705
X-116.493 Y-15.851
X-116.502 Y-16.001
X-116.482 Y-16.149
X-116.437 Y-16.292
X-116.367 Y-16.425
X-116.272 Y-16.542
X-116.16 Y-16.641
X-116.032 Y-16.719
X-115.891 Y-16.771
X-115.744 Y-16.8
X-115.594
X-115.446 Y-16.774
X-115.305 Y-16.723
X-115.176 Y-16.647
X-115.061 Y-16.551
X-114.96 Y-16.44
X-114.877 Y-16.315
X-114.813 Y-16.179
X-114.769 Y-16.036
X-114.748 Y-15.887
X-114.751 Y-15.737
X-114.774 Y-15.589
X-114.821 Y-15.447
X-114.891 Y-15.314
X-114.978 Y-15.192
X-115.084 Y-15.086
X-115.206 Y-14.998
X-115.339 Y-14.928
X-115.481 Y-14.88
X-115.628 Y-14.853
X-115.669 Y-14.852
X-115.733 Y-14.858
X-115.794 Y-14.883
X-115.845 Y-14.923
X-115.868 Y-14.946
X-115.913 Y-14.981
X-115.953 Y-15.007
X-115.995 Y-15.029
X-116.037 Y-15.047
X-116.095 Y-15.065
X-116.122 Y-15.071
X-116.168 Y-15.077
X-116.316 Y-15.102
X-116.446 Y-15.176
X-116.559 Y-15.275
X-116.654 Y-15.392
X-116.729 Y-15.522
X-116.783 Y-15.661
X-116.817 Y-15.807
X-116.82 Y-15.844
Y-15.892
X-116.81 Y-15.938
X-116.79 Y-15.982
X-116.36 Y-16.732
X-116.278 Y-16.858
X-116.168 Y-16.959
X-116.039 Y-17.036
X-115.898 Y-17.088
X-115.751 Y-17.117
X-115.601 Y-17.124
X-115.452 Y-17.111
X-115.306 Y-17.077
X-115.166 Y-17.023
X-115.033 Y-16.953
X-114.91 Y-16.868
X-114.798 Y-16.768
X-114.738 Y-16.701
X-114.705 Y-16.655
X-114.685 Y-16.602
X-114.678 Y-16.546
X-114.685 Y-16.514
X-114.701 Y-16.486
X-114.725 Y-16.464
X-114.755 Y-16.452
X-114.787 Y-16.45
X-115.408 Y-16.506
X-115.694 Y-16.532
X-116.28 Y-16.585
X-116.318 Y-16.596
X-116.348 Y-16.621
X-116.367 Y-16.655
X-116.371 Y-16.694
X-116.36 Y-16.732
X-116.135 Y-17.121
X-116.122 Y-17.145
X-116.104 Y-17.177
X-116.076 Y-17.213
X-116.046 Y-17.232
X-116.011 Y-17.239
X-115.976 Y-17.233
X-115.945 Y-17.214
X-115.923 Y-17.187
X-115.913 Y-17.153
X-115.915 Y-17.117
X-115.93 Y-17.085
X-115.937 Y-17.075
X-115.963 Y-17.049
X-115.997 Y-17.035
X-116.034 Y-17.034
X-116.068 Y-17.047
X-116.095 Y-17.072
X-116.112 Y-17.105
X-116.114 Y-17.142
X-116.104 Y-17.177
X-116.089 Y-17.198
X-116.081 Y-17.208
X-116.07 Y-17.219
X-116.054 Y-17.23
X-116.037 Y-17.237
X-116.027 Y-17.24
X-116.016 Y-17.242
X-115.191
X-115.145
X-115.107
X-114.957 Y-17.235
X-114.818 Y-17.178
X-114.792 Y-17.162
X-114.731 Y-17.11
X-114.692 Y-17.041
X-114.678 Y-16.962
X-114.685 Y-16.929
X-114.703 Y-16.9
X-114.729 Y-16.879
X-114.76 Y-16.867
X-114.794
X-114.826 Y-16.878
X-115.151 Y-17.054
X-115.18 Y-17.078
X-115.198 Y-17.11
X-115.203 Y-17.147
X-115.194 Y-17.183
X-115.173 Y-17.213
X-115.143 Y-17.234
X-115.107 Y-17.242
X-114.789
X-114.779 Y-17.241
X-114.768 Y-17.239
X-114.749 Y-17.232
X-114.731 Y-17.219
X-114.72 Y-17.209
X-114.694 Y-17.177
X-114.688 Y-17.166
X-114.684 Y-17.155
X-114.68 Y-17.14
X-114.678 Y-17.124
Y-15.356
X-114.686 Y-15.207
X-114.736 Y-15.065
X-114.815 Y-14.938
X-114.915 Y-14.826
X-115.031 Y-14.731
X-115.158 Y-14.652
X-115.295 Y-14.589
X-115.439 Y-14.547
X-115.461 Y-14.545
X-115.567 Y-14.557
X-115.656 Y-14.615
X-115.711 Y-14.706
X-115.714 Y-14.736
X-115.709 Y-14.765
X-115.695 Y-14.792
X-115.674 Y-14.813
X-115.294 Y-15.095
X-114.838 Y-15.433
X-114.806 Y-15.449
X-114.77 Y-15.453
X-114.735 Y-15.443
X-114.706 Y-15.422
X-114.686 Y-15.392
X-114.678 Y-15.356
Y-14.934
X-114.686 Y-14.784
X-114.745 Y-14.646
X-114.834 Y-14.526
X-114.944 Y-14.424
X-115.069 Y-14.34
X-115.205 Y-14.278
X-115.351 Y-14.242
X-115.446 Y-14.241
X-115.563 Y-14.272
X-115.649 Y-14.357
X-115.68 Y-14.474
X-115.682 Y-14.558
X-115.685 Y-14.6
X-115.692 Y-14.643
X-115.699 Y-14.669
X-115.711 Y-14.706
X-115.714 Y-14.738
X-115.707 Y-14.769
X-115.691 Y-14.797
X-115.667 Y-14.818
X-115.637 Y-14.83
X-115.394 Y-14.888
X-114.801 Y-15.028
X-114.766 Y-15.03
X-114.733 Y-15.02
X-114.705 Y-14.998
X-114.686 Y-14.969
X-114.678 Y-14.934
Y-14.558
X-114.686 Y-14.408
X-114.748 Y-14.272
X-114.843 Y-14.156
X-114.96 Y-14.063
X-115.093 Y-13.992
X-115.236 Y-13.946
X-115.385 Y-13.93
X-115.474 Y-13.941
X-115.579 Y-13.98
X-115.654 Y-14.064
X-115.68 Y-14.172
Y-14.474
X-115.673 Y-14.509
X-115.654 Y-14.538
X-115.625 Y-14.56
X-115.591 Y-14.57
X-115.407 Y-14.589
X-114.789 Y-14.654
X-114.756 Y-14.652
X-114.726 Y-14.64
X-114.701 Y-14.619
X-114.685 Y-14.59
X-114.678 Y-14.558
Y-14.174
X-114.686 Y-14.024
X-114.763 Y-13.896
X-114.871 Y-13.791
X-114.997 Y-13.711
X-115.136 Y-13.653
X-115.283 Y-13.623
X-115.433 Y-13.622
X-115.496 Y-13.635
X-115.591 Y-13.68
X-115.657 Y-13.761
X-115.68 Y-13.863
Y-14.172
X-115.672 Y-14.21
X-115.65 Y-14.241
X-115.618 Y-14.262
X-115.581 Y-14.269
X-115.41
X-114.779 Y-14.27
X-114.741 Y-14.263
X-114.709 Y-14.242
X-114.687 Y-14.211
X-114.678 Y-14.174
Y-13.836
X-114.682 Y-13.761
X-114.736 Y-13.621
X-114.832 Y-13.506
X-114.953 Y-13.417
X-115.089 Y-13.355
X-115.234 Y-13.316
X-115.384 Y-13.307
X-115.533 Y-13.327
X-115.535 Y-13.328
X-115.612 Y-13.379
X-115.663 Y-13.455
X-115.68 Y-13.544
Y-13.863
X-115.672 Y-13.901
X-115.649 Y-13.933
X-115.616 Y-13.953
X-115.577 Y-13.96
X-115.41 Y-13.954
X-114.775 Y-13.933
X-114.739 Y-13.924
X-114.708 Y-13.903
X-114.687 Y-13.872
X-114.678 Y-13.836
Y-13.545
X-114.686 Y-13.395
X-114.76 Y-13.264
X-114.867 Y-13.159
X-114.994 Y-13.08
X-115.134 Y-13.025
X-115.281 Y-12.996
X-115.431 Y-12.993
X-115.494 Y-13.006
X-115.59 Y-13.05
X-115.657 Y-13.132
X-115.68 Y-13.234
Y-13.544
X-115.672 Y-13.581
X-115.65 Y-13.613
X-115.618 Y-13.634
X-115.581 Y-13.641
X-115.41
X-114.778
X-114.741 Y-13.634
X-114.709 Y-13.613
X-114.687 Y-13.582
X-114.678 Y-13.545
Y-13.207
X-114.682 Y-13.132
X-114.735 Y-12.991
X-114.831 Y-12.877
X-114.953 Y-12.789
X-115.089 Y-12.726
X-115.234 Y-12.688
X-115.384 Y-12.679
X-115.533 Y-12.699
X-115.535 Y-12.7
X-115.612 Y-12.75
X-115.663 Y-12.826
X-115.68 Y-12.916
Y-13.234
X-115.672 Y-13.272
X-115.649 Y-13.304
X-115.616 Y-13.325
X-115.577 Y-13.331
X-115.41 Y-13.325
X-114.775 Y-13.303
X-114.738 Y-13.295
X-114.708 Y-13.274
X-114.687 Y-13.243
X-114.678 Y-13.207
Y-12.907
X-114.686 Y-12.757
X-114.763 Y-12.628
X-114.872 Y-12.525
X-115 Y-12.448
X-115.141 Y-12.395
X-115.288 Y-12.366
X-115.438 Y-12.365
X-115.497 Y-12.378
X-115.591 Y-12.422
X-115.657 Y-12.504
X-115.68 Y-12.606
Y-12.916
X-115.672 Y-12.953
X-115.65 Y-12.985
X-115.617 Y-13.005
X-115.579 Y-13.012
X-115.41 Y-13.01
X-114.777 Y-13.003
X-114.74 Y-12.996
X-114.708 Y-12.975
X-114.687 Y-12.944
X-114.678 Y-12.907
Y-12.569
X-114.682 Y-12.494
X-114.738 Y-12.355
X-114.837 Y-12.242
X-114.959 Y-12.155
X-115.096 Y-12.095
X-115.242 Y-12.058
X-115.392 Y-12.05
X-115.481 Y-12.063
X-115.583 Y-12.104
X-115.655 Y-12.187
X-115.68 Y-12.294
Y-12.606
X-115.671 Y-12.644
X-115.648 Y-12.676
X-115.615 Y-12.696
X-115.576 Y-12.702
X-115.409 Y-12.695
X-114.774 Y-12.665
X-114.738 Y-12.657
X-114.707 Y-12.636
X-114.687 Y-12.605
X-114.678 Y-12.569
Y-12.278
X-114.686 Y-12.128
X-114.763 Y-11.999
X-114.872 Y-11.896
X-115 Y-11.819
X-115.141 Y-11.765
X-115.288 Y-11.738
X-115.438 Y-11.74
X-115.499 Y-11.754
X-115.593 Y-11.799
X-115.657 Y-11.88
X-115.68 Y-11.982
Y-12.294
X-115.672 Y-12.332
X-115.649 Y-12.363
X-115.617 Y-12.384
X-115.578 Y-12.39
X-115.41 Y-12.387
X-114.776 Y-12.374
X-114.739 Y-12.366
X-114.708 Y-12.345
X-114.687 Y-12.314
X-114.678 Y-12.278
Y-11.978
X-114.686 Y-11.828
X-114.757 Y-11.696
X-114.862 Y-11.589
X-114.989 Y-11.509
X-115.129 Y-11.455
X-115.276 Y-11.426
X-115.426 Y-11.427
X-115.494 Y-11.44
X-115.59 Y-11.484
X-115.657 Y-11.566
X-115.68 Y-11.669
Y-11.982
X-115.672 Y-12.019
X-115.65 Y-12.05
X-115.618 Y-12.071
X-115.58 Y-12.078
X-115.41 Y-12.077
X-114.778 Y-12.074
X-114.741 Y-12.067
X-114.709 Y-12.046
X-114.687 Y-12.015
X-114.678 Y-11.978
Y-11.64
X-114.686 Y-11.49
X-114.766 Y-11.363
X-114.877 Y-11.262
X-115.006 Y-11.186
X-115.147 Y-11.135
X-115.295 Y-11.11
X-115.445 Y-11.115
X-115.502 Y-11.128
X-115.594 Y-11.174
X-115.658 Y-11.255
X-115.68 Y-11.355
Y-11.669
X-115.671 Y-11.707
X-115.649 Y-11.739
X-115.615 Y-11.759
X-115.577 Y-11.765
X-115.41 Y-11.759
X-114.775 Y-11.736
X-114.738 Y-11.728
X-114.708 Y-11.707
X-114.687 Y-11.676
X-114.678 Y-11.64
Y-11.349
X-114.686 Y-11.199
X-114.756 Y-11.066
X-114.862 Y-10.96
X-114.989 Y-10.88
X-115.129 Y-10.827
X-115.277 Y-10.799
X-115.427 Y-10.8
X-115.494 Y-10.814
X-115.59 Y-10.858
X-115.657 Y-10.939
X-115.68 Y-11.042
Y-11.355
X-115.672 Y-11.393
X-115.65 Y-11.424
X-115.617 Y-11.445
X-115.58 Y-11.452
X-115.41 Y-11.45
X-114.777 Y-11.445
X-114.74 Y-11.438
X-114.709 Y-11.417
X-114.687 Y-11.386
X-114.678 Y-11.349
Y-11.011
X-114.686 Y-10.861
X-114.766 Y-10.734
X-114.877 Y-10.633
X-115.007 Y-10.558
X-115.148 Y-10.507
X-115.296 Y-10.483
X-115.446 Y-10.488
X-115.502 Y-10.501
X-115.594 Y-10.547
X-115.658 Y-10.628
X-115.68 Y-10.728
Y-11.042
X-115.671 Y-11.08
X-115.649 Y-11.112
X-115.615 Y-11.132
X-115.577 Y-11.139
X-115.41 Y-11.132
X-114.774 Y-11.107
X-114.738 Y-11.099
X-114.707 Y-11.078
X-114.687 Y-11.047
X-114.678 Y-11.011
Y-10.711
X-114.686 Y-10.561
X-114.76 Y-10.431
X-114.868 Y-10.327
X-114.996 Y-10.249
X-115.137 Y-10.197
X-115.285 Y-10.17
X-115.435 Y-10.173
X-115.497 Y-10.187
X-115.592 Y-10.232
X-115.657 Y-10.313
X-115.68 Y-10.415
Y-10.728
X-115.672 Y-10.766
X-115.649 Y-10.797
X-115.616 Y-10.818
X-115.578 Y-10.825
X-115.41 Y-10.821
X-114.776 Y-10.807
X-114.739 Y-10.799
X-114.708 Y-10.779
X-114.687 Y-10.748
X-114.678 Y-10.711
Y-10.373
X-114.682 Y-10.298
X-114.736 Y-10.158
X-114.834 Y-10.045
X-114.957 Y-9.959
X-115.095 Y-9.899
X-115.24 Y-9.863
X-115.39 Y-9.857
X-115.482 Y-9.87
X-115.583 Y-9.911
X-115.655 Y-9.994
X-115.68 Y-10.101
Y-10.415
X-115.671 Y-10.453
X-115.648 Y-10.485
X-115.614 Y-10.505
X-115.575 Y-10.511
X-115.409 Y-10.502
X-114.773 Y-10.469
X-114.737 Y-10.461
X-114.707 Y-10.44
X-114.686 Y-10.409
X-114.678 Y-10.373
Y-10.082
X-114.686 Y-9.932
X-114.763 Y-9.803
X-114.872 Y-9.7
X-115.001 Y-9.623
X-115.141 Y-9.571
X-115.289 Y-9.544
X-115.439 Y-9.547
X-115.5 Y-9.561
X-115.593 Y-9.606
X-115.657 Y-9.687
X-115.68 Y-9.788
Y-10.101
X-115.672 Y-10.139
X-115.649 Y-10.17
X-115.616 Y-10.191
X-115.578 Y-10.198
X-115.41 Y-10.193
X-114.776 Y-10.178
X-114.739 Y-10.17
X-114.708 Y-10.149
X-114.687 Y-10.118
X-114.678 Y-10.082
Y-9.782
X-114.686 Y-9.632
X-114.757 Y-9.5
X-114.863 Y-9.394
X-114.99 Y-9.314
X-115.13 Y-9.261
X-115.277 Y-9.232
X-115.427 Y-9.233
X-115.494 Y-9.247
X-115.59 Y-9.291
X-115.657 Y-9.373
X-115.68 Y-9.475
Y-9.788
X-115.672 Y-9.825
X-115.65 Y-9.857
X-115.617 Y-9.877
X-115.58 Y-9.885
X-115.41 Y-9.883
X-114.778 Y-9.878
X-114.74 Y-9.871
X-114.709 Y-9.85
X-114.687 Y-9.819
X-114.678 Y-9.782
Y-9.444
X-114.686 Y-9.294
X-114.766 Y-9.167
X-114.877 Y-9.067
X-115.007 Y-8.991
X-115.148 Y-8.941
X-115.296 Y-8.916
X-115.446 Y-8.921
X-115.502 Y-8.935
X-115.594 Y-8.98
X-115.658 Y-9.061
X-115.68 Y-9.161
Y-9.475
X-115.671 Y-9.513
X-115.649 Y-9.545
X-115.615 Y-9.565
X-115.577 Y-9.572
X-115.41 Y-9.565
X-114.774 Y-9.54
X-114.738 Y-9.532
X-114.707 Y-9.511
X-114.687 Y-9.48
X-114.678 Y-9.444
Y-9.152
X-114.686 Y-9.003
X-114.757 Y-8.87
X-114.863 Y-8.765
X-114.99 Y-8.685
X-115.131 Y-8.633
X-115.278 Y-8.604
X-115.428 Y-8.606
X-115.495 Y-8.62
X-115.59 Y-8.664
X-115.657 Y-8.746
X-115.68 Y-8.848
Y-9.161
X-115.672 Y-9.199
X-115.65 Y-9.23
X-115.617 Y-9.251
X-115.579 Y-9.258
X-115.41 Y-9.256
X-114.777 Y-9.249
X-114.74 Y-9.241
X-114.708 Y-9.22
X-114.687 Y-9.189
X-114.678 Y-9.152
Y-8.815
X-114.686 Y-8.665
X-114.767 Y-8.538
X-114.878 Y-8.438
X-115.008 Y-8.363
X-115.149 Y-8.313
X-115.297 Y-8.288
X-115.447 Y-8.294
X-115.503 Y-8.307
X-115.595 Y-8.353
X-115.658 Y-8.434
X-115.68 Y-8.534
Y-8.848
X-115.671 Y-8.886
X-115.648 Y-8.918
X-115.615 Y-8.938
X-115.576 Y-8.944
X-115.41 Y-8.938
X-114.774 Y-8.911
X-114.738 Y-8.903
X-114.707 Y-8.882
X-114.687 Y-8.851
X-114.678 Y-8.815
Y-8.515
X-114.686 Y-8.365
X-114.761 Y-8.235
X-114.869 Y-8.131
X-114.997 Y-8.054
X-115.138 Y-8.002
X-115.286 Y-7.976
X-115.436 Y-7.979
X-115.498 Y-7.993
X-115.592 Y-8.037
X-115.657 Y-8.119
X-115.68 Y-8.22
Y-8.534
X-115.672 Y-8.572
X-115.649 Y-8.603
X-115.616 Y-8.624
X-115.578 Y-8.63
X-115.41 Y-8.626
X-114.776 Y-8.611
X-114.739 Y-8.603
X-114.708 Y-8.582
X-114.687 Y-8.551
X-114.678 Y-8.515
Y-8.177
X-114.682 Y-8.102
X-114.737 Y-7.962
X-114.835 Y-7.849
X-114.958 Y-7.763
X-115.096 Y-7.704
X-115.242 Y-7.669
X-115.392 Y-7.662
X-115.482 Y-7.676
X-115.583 Y-7.717
X-115.655 Y-7.8
X-115.68 Y-7.907
Y-8.22
X-115.671 Y-8.259
X-115.648 Y-8.291
X-115.614 Y-8.311
X-115.575 Y-8.317
X-115.409 Y-8.308
X-114.773 Y-8.273
X-114.737 Y-8.264
X-114.707 Y-8.243
X-114.686 Y-8.213
X-114.678 Y-8.177
Y-7.885
Y-7.839
Y-7.801
X-114.682 Y-7.726
X-114.729 Y-7.653
X-114.781 Y-7.596
X-114.849 Y-7.559
X-114.925 Y-7.546
X-114.962 Y-7.555
X-114.993 Y-7.576
X-115.014 Y-7.608
X-115.022 Y-7.645
X-115.015 Y-7.683
X-114.994 Y-7.715
X-114.851 Y-7.866
X-114.819 Y-7.889
X-114.781 Y-7.897
X-114.743 Y-7.891
X-114.71 Y-7.87
X-114.687 Y-7.839
X-114.678 Y-7.801
X-114.679 Y-7.653
X-114.68 Y-7.643
X-114.684 Y-7.63
X-114.69 Y-7.615
X-114.698 Y-7.601
X-114.711 Y-7.587
X-114.726 Y-7.573
X-114.736 Y-7.564
X-114.747 Y-7.558
X-114.758 Y-7.553
X-114.777 Y-7.548
X-114.853 Y-7.546
X-115.53
X-115.581 Y-7.548
X-115.597 Y-7.552
X-115.614 Y-7.56
X-115.625 Y-7.567
X-115.656 Y-7.596
X-115.669 Y-7.614
X-115.676 Y-7.632
X-115.679 Y-7.643
X-115.68 Y-7.653
Y-7.907
X-115.671 Y-7.945
X-115.649 Y-7.976
X-115.616 Y-7.997
X-115.577 Y-8.003
X-115.539 Y-8.002 Z-0.982
X-115.506 Y-8.001 Z-0.961
X-115.485 Y-8 Z-0.928
X-115.477 Z-0.89
G0 Z2
X-115.284 Y-15.111
Z-0.79
G1 Z-0.89 F1000
X-115.292 Y-15.11 Z-0.928
X-115.313 Y-15.107 Z-0.961
X-115.345 Y-15.103 Z-0.982
X-115.383 Y-15.098 Z-0.99
G3 X-116.168 Y-15.077 I-0.489 J-3.613
G1 X-116.206 Y-15.081
X-116.249 Y-15.082
X-116.291 Y-15.079
X-116.365 Y-15.065
X-116.376 Y-15.062
X-116.521 Y-15.025
X-116.666 Y-15.063
X-116.795 Y-15.14
X-116.904 Y-15.243
X-116.993 Y-15.363
X-117.006 Y-15.386
X-117.031 Y-15.461
X-117.03 Y-15.539
X-117.003 Y-15.613
X-116.79 Y-15.982
X-116.766 Y-16.009
X-116.733 Y-16.026
X-116.696 Y-16.029
X-116.661 Y-16.019
X-116.631 Y-15.997
X-116.612 Y-15.965
X-116.539 Y-15.776
X-116.315 Y-15.193
X-116.308 Y-15.161
X-116.312 Y-15.13
X-116.325 Y-15.101
X-116.347 Y-15.077
X-116.376 Y-15.062
X-116.418 Y-15.049
X-116.46 Y-15.032
X-116.547 Y-14.981
X-116.569 Y-14.964
X-116.632 Y-14.922
X-116.78 Y-14.897
X-116.926 Y-14.932
X-117.058 Y-15.004
X-117.112 Y-15.052
X-117.172 Y-15.138
X-117.189 Y-15.242
X-117.158 Y-15.342
X-117.003 Y-15.613
X-116.98 Y-15.639
X-116.949 Y-15.655
X-116.915 Y-15.66
X-116.881 Y-15.654
X-116.852 Y-15.636
X-116.83 Y-15.609
X-116.544 Y-15.09
X-116.533 Y-15.057
Y-15.022
X-116.546 Y-14.99
X-116.569 Y-14.964
X-116.588 Y-14.95
X-116.629 Y-14.91
X-116.643 Y-14.896
X-116.685 Y-14.838
X-116.731 Y-14.779
X-116.866 Y-14.714
X-117.016 Y-14.71
X-117.16 Y-14.753
X-117.218 Y-14.79
X-117.299 Y-14.876
X-117.327 Y-14.99
X-117.296 Y-15.103
X-117.158 Y-15.342
X-117.132 Y-15.37
X-117.098 Y-15.386
X-117.059 Y-15.388
X-117.023 Y-15.376
X-116.994 Y-15.351
X-116.689 Y-14.955
X-116.674 Y-14.928
X-116.668 Y-14.897
X-116.672 Y-14.866
X-116.685 Y-14.838
X-116.704 Y-14.812
X-116.778 Y-14.683
X-116.818 Y-14.62
X-116.931 Y-14.52
X-117.076 Y-14.484
X-117.225 Y-14.501
X-117.363 Y-14.559
X-117.383 Y-14.577
X-117.445 Y-14.663
X-117.462 Y-14.767
X-117.431 Y-14.868
X-117.296 Y-15.103
X-117.272 Y-15.129
X-117.241 Y-15.146
X-117.206 Y-15.15
X-117.172 Y-15.143
X-117.143 Y-15.124
X-116.798 Y-14.803
X-116.778 Y-14.777
X-116.768 Y-14.746
Y-14.714
X-116.778 Y-14.683
X-116.912 Y-14.448
X-116.952 Y-14.385
X-117.07 Y-14.292
X-117.216 Y-14.258
X-117.366 Y-14.271
X-117.503 Y-14.331
X-117.516 Y-14.343
X-117.578 Y-14.429
X-117.596 Y-14.534
X-117.565 Y-14.635
X-117.431 Y-14.868
X-117.408 Y-14.894
X-117.377 Y-14.91
X-117.342 Y-14.915
X-117.308 Y-14.907
X-117.278 Y-14.888
X-116.932 Y-14.568
X-116.912 Y-14.542
X-116.902 Y-14.512
Y-14.479
X-116.912 Y-14.448
X-117.042 Y-14.22
X-117.082 Y-14.157
X-117.199 Y-14.063
X-117.345 Y-14.028
X-117.495 Y-14.038
X-117.633 Y-14.097
X-117.647 Y-14.11
X-117.711 Y-14.196
X-117.729 Y-14.301
X-117.698 Y-14.403
X-117.565 Y-14.635
X-117.542 Y-14.661
X-117.511 Y-14.677
X-117.477 Y-14.682
X-117.443 Y-14.675
X-117.413 Y-14.656
X-117.063 Y-14.341
X-117.043 Y-14.315
X-117.032 Y-14.284
Y-14.252
X-117.042 Y-14.22
X-117.186 Y-13.967
X-117.227 Y-13.904
X-117.351 Y-13.819
X-117.498 Y-13.792
X-117.647 Y-13.81
X-117.783 Y-13.874
X-117.791 Y-13.882
X-117.849 Y-13.967
X-117.864 Y-14.069
X-117.834 Y-14.168
X-117.698 Y-14.403
X-117.674 Y-14.43
X-117.642 Y-14.446
X-117.607 Y-14.45
X-117.572 Y-14.442
X-117.543 Y-14.421
X-117.204 Y-14.084
X-117.186 Y-14.059
X-117.176 Y-14.029
Y-13.997
X-117.186 Y-13.967
X-117.306 Y-13.757
X-117.347 Y-13.694
X-117.463 Y-13.6
X-117.609 Y-13.563
X-117.758 Y-13.571
X-117.897 Y-13.629
X-117.913 Y-13.642
X-117.978 Y-13.728
X-117.997 Y-13.834
X-117.966 Y-13.938
X-117.834 Y-14.168
X-117.811 Y-14.194
X-117.78 Y-14.21
X-117.746 Y-14.215
X-117.712 Y-14.208
X-117.683 Y-14.19
X-117.329 Y-13.879
X-117.308 Y-13.853
X-117.296 Y-13.822
Y-13.788
X-117.306 Y-13.757
X-117.442 Y-13.519
X-117.482 Y-13.456
X-117.6 Y-13.363
X-117.746 Y-13.328
X-117.895 Y-13.339
X-118.033 Y-13.398
X-118.05 Y-13.412
X-118.112 Y-13.498
X-118.13 Y-13.603
X-118.1 Y-13.705
X-117.966 Y-13.938
X-117.943 Y-13.964
X-117.912 Y-13.98
X-117.877 Y-13.985
X-117.843 Y-13.977
X-117.814 Y-13.959
X-117.463 Y-13.64
X-117.443 Y-13.614
X-117.432 Y-13.583
Y-13.55
X-117.442 Y-13.519
X-117.572 Y-13.291
X-117.612 Y-13.228
X-117.728 Y-13.133
X-117.874 Y-13.096
X-118.023 Y-13.106
X-118.162 Y-13.163
X-118.18 Y-13.178
X-118.245 Y-13.264
X-118.264 Y-13.37
X-118.233 Y-13.474
X-118.1 Y-13.705
X-118.077 Y-13.731
X-118.046 Y-13.747
X-118.012 Y-13.752
X-117.978 Y-13.745
X-117.948 Y-13.727
X-117.594 Y-13.413
X-117.573 Y-13.387
X-117.562 Y-13.356
Y-13.323
X-117.572 Y-13.291
X-117.716 Y-13.038
X-117.757 Y-12.975
X-117.88 Y-12.889
X-118.027 Y-12.86
X-118.176 Y-12.877
X-118.312 Y-12.939
X-118.324 Y-12.95
X-118.383 Y-13.036
X-118.399 Y-13.139
X-118.368 Y-13.238
X-118.233 Y-13.474
X-118.209 Y-13.5
X-118.177 Y-13.516
X-118.142 Y-13.521
X-118.107 Y-13.512
X-118.078 Y-13.492
X-117.735 Y-13.156
X-117.716 Y-13.13
X-117.706 Y-13.1
Y-13.068
X-117.716 Y-13.038
X-117.84 Y-12.822
X-117.88 Y-12.758
X-117.998 Y-12.666
X-118.144 Y-12.63
X-118.293 Y-12.639
X-118.432 Y-12.697
X-118.448 Y-12.711
X-118.513 Y-12.797
X-118.532 Y-12.903
X-118.501 Y-13.007
X-118.368 Y-13.238
X-118.345 Y-13.264
X-118.314 Y-13.28
X-118.28 Y-13.285
X-118.246 Y-13.278
X-118.217 Y-13.26
X-117.862 Y-12.943
X-117.841 Y-12.917
X-117.83 Y-12.886
X-117.829 Y-12.853
X-117.84 Y-12.822
X-117.971 Y-12.591
X-118.012 Y-12.528
X-118.128 Y-12.433
X-118.274 Y-12.396
X-118.423 Y-12.406
X-118.562 Y-12.463
X-118.581 Y-12.479
X-118.646 Y-12.565
X-118.665 Y-12.671
X-118.635 Y-12.775
X-118.501 Y-13.007
X-118.478 Y-13.033
X-118.448 Y-13.049
X-118.413 Y-13.054
X-118.379 Y-13.047
X-118.35 Y-13.029
X-117.994 Y-12.712
X-117.973 Y-12.686
X-117.962 Y-12.655
X-117.961 Y-12.622
X-117.971 Y-12.591
X-118.102 Y-12.362
X-118.142 Y-12.299
X-118.257 Y-12.202
X-118.402 Y-12.164
X-118.552 Y-12.172
X-118.691 Y-12.228
X-118.712 Y-12.245
X-118.779 Y-12.332
X-118.799 Y-12.439
X-118.768 Y-12.543
X-118.635 Y-12.775
X-118.612 Y-12.8
X-118.581 Y-12.817
X-118.547 Y-12.822
X-118.513 Y-12.815
X-118.484 Y-12.797
X-118.125 Y-12.484
X-118.104 Y-12.458
X-118.092 Y-12.427
Y-12.394
X-118.102 Y-12.362
X-118.237 Y-12.126
X-118.277 Y-12.062
X-118.393 Y-11.967
X-118.538 Y-11.931
X-118.688 Y-11.94
X-118.827 Y-11.997
X-118.848 Y-12.014
X-118.913 Y-12.1
X-118.932 Y-12.207
X-118.902 Y-12.31
X-118.768 Y-12.543
X-118.745 Y-12.569
X-118.714 Y-12.585
X-118.68 Y-12.59
X-118.646 Y-12.583
X-118.616 Y-12.565
X-118.259 Y-12.247
X-118.238 Y-12.221
X-118.227 Y-12.19
X-118.226 Y-12.157
X-118.237 Y-12.126
X-118.369 Y-11.893
X-118.41 Y-11.83
X-118.525 Y-11.735
X-118.671 Y-11.698
X-118.821 Y-11.707
X-118.96 Y-11.764
X-118.981 Y-11.781
X-119.046 Y-11.867
X-119.066 Y-11.974
X-119.035 Y-12.078
X-118.902 Y-12.31
X-118.879 Y-12.336
X-118.848 Y-12.353
X-118.814 Y-12.358
X-118.78 Y-12.351
X-118.75 Y-12.332
X-118.392 Y-12.015
X-118.371 Y-11.989
X-118.359 Y-11.958
Y-11.925
X-118.369 Y-11.893
X-118.515 Y-11.637
X-118.556 Y-11.574
X-118.679 Y-11.489
X-118.826 Y-11.461
X-118.975 Y-11.478
X-119.112 Y-11.54
X-119.126 Y-11.553
X-119.185 Y-11.639
X-119.202 Y-11.742
X-119.171 Y-11.842
X-119.035 Y-12.078
X-119.011 Y-12.104
X-118.98 Y-12.121
X-118.944 Y-12.125
X-118.91 Y-12.116
X-118.88 Y-12.096
X-118.534 Y-11.755
X-118.515 Y-11.73
X-118.505 Y-11.699
Y-11.668
X-118.515 Y-11.637
X-118.632 Y-11.433
X-118.672 Y-11.37
X-118.786 Y-11.272
X-118.931 Y-11.232
X-119.081 Y-11.237
X-119.221 Y-11.292
X-119.244 Y-11.31
X-119.313 Y-11.396
X-119.335 Y-11.505
X-119.304 Y-11.611
X-119.171 Y-11.842
X-119.148 Y-11.867
X-119.118 Y-11.884
X-119.085 Y-11.889
X-119.051 Y-11.883
X-119.022 Y-11.865
X-118.656 Y-11.556
X-118.634 Y-11.53
X-118.622 Y-11.499
X-118.621 Y-11.465
X-118.632 Y-11.433
X-118.762 Y-11.205
X-118.843 Y-11.078
X-118.975 Y-11.008
X-119.124 Y-10.989
X-119.271 Y-11.018
X-119.404 Y-11.087
X-119.407 Y-11.091
X-119.46 Y-11.175
X-119.473 Y-11.274
X-119.443 Y-11.37
X-119.304 Y-11.611
X-119.281 Y-11.636
X-119.251 Y-11.653
X-119.218 Y-11.658
X-119.184 Y-11.652
X-119.155 Y-11.635
X-118.787 Y-11.328
X-118.765 Y-11.303
X-118.752 Y-11.271
Y-11.237
X-118.762 Y-11.205
X-118.914 Y-10.939
X-118.954 Y-10.876
X-119.077 Y-10.79
X-119.224 Y-10.759
X-119.373 Y-10.772
X-119.511 Y-10.831
X-119.525 Y-10.843
X-119.588 Y-10.929
X-119.607 Y-11.035
X-119.576 Y-11.137
X-119.443 Y-11.37
X-119.419 Y-11.396
X-119.388 Y-11.412
X-119.353 Y-11.417
X-119.319 Y-11.409
X-119.289 Y-11.39
X-118.934 Y-11.059
X-118.914 Y-11.033
X-118.904 Y-11.002
X-118.903 Y-10.97
X-118.914 Y-10.939
X-119.032 Y-10.732
X-119.113 Y-10.605
X-119.245 Y-10.535
X-119.394 Y-10.517
X-119.542 Y-10.544
X-119.675 Y-10.613
X-119.679 Y-10.617
X-119.732 Y-10.702
X-119.745 Y-10.801
X-119.714 Y-10.897
X-119.576 Y-11.137
X-119.553 Y-11.163
X-119.524 Y-11.179
X-119.49 Y-11.185
X-119.457 Y-11.179
X-119.427 Y-11.162
X-119.057 Y-10.855
X-119.035 Y-10.83
X-119.022 Y-10.798
X-119.021 Y-10.764
X-119.032 Y-10.732
X-119.167 Y-10.494
X-119.248 Y-10.368
X-119.381 Y-10.299
X-119.53 Y-10.282
X-119.678 Y-10.306
X-119.811 Y-10.375
X-119.814 Y-10.377
X-119.868 Y-10.462
X-119.882 Y-10.562
X-119.851 Y-10.659
X-119.714 Y-10.897
X-119.692 Y-10.922
X-119.662 Y-10.938
X-119.629 Y-10.944
X-119.596 Y-10.938
X-119.566 Y-10.922
X-119.193 Y-10.618
X-119.17 Y-10.593
X-119.158 Y-10.561
X-119.157 Y-10.527
X-119.167 Y-10.494
X-119.306 Y-10.25
X-119.347 Y-10.187
X-119.462 Y-10.091
X-119.606 Y-10.05
X-119.756 Y-10.055
X-119.897 Y-10.107
X-119.922 Y-10.126
X-119.992 Y-10.212
X-120.015 Y-10.321
X-119.984 Y-10.428
X-119.851 Y-10.659
X-119.829 Y-10.684
X-119.799 Y-10.7
X-119.765 Y-10.706
X-119.732 Y-10.7
X-119.703 Y-10.683
X-119.331 Y-10.374
X-119.309 Y-10.348
X-119.297 Y-10.317
X-119.296 Y-10.283
X-119.306 Y-10.25
X-119.438 Y-10.021
X-119.518 Y-9.894
X-119.651 Y-9.824
X-119.8 Y-9.805
X-119.947 Y-9.833
X-120.081 Y-9.901
X-120.086 Y-9.907
X-120.14 Y-9.992
X-120.152 Y-10.092
X-120.122 Y-10.187
X-119.984 Y-10.428
X-119.961 Y-10.454
X-119.931 Y-10.47
X-119.898 Y-10.476
X-119.864 Y-10.47
X-119.835 Y-10.453
X-119.462 Y-10.144
X-119.44 Y-10.118
X-119.428 Y-10.087
X-119.427 Y-10.053
X-119.438 Y-10.021
X-119.59 Y-9.753
X-119.631 Y-9.69
X-119.754 Y-9.605
X-119.901 Y-9.574
X-120.051 Y-9.587
X-120.188 Y-9.646
X-120.204 Y-9.659
X-120.268 Y-9.746
X-120.287 Y-9.851
X-120.256 Y-9.954
X-120.122 Y-10.187
X-120.099 Y-10.213
X-120.068 Y-10.23
X-120.033 Y-10.234
X-119.999 Y-10.227
X-119.969 Y-10.208
X-119.611 Y-9.872
X-119.591 Y-9.847
X-119.58 Y-9.816
Y-9.784
X-119.59 Y-9.753
X-119.707 Y-9.549
X-119.787 Y-9.423
X-119.919 Y-9.351
X-120.068 Y-9.332
X-120.216 Y-9.357
X-120.35 Y-9.425
X-120.371 Y-9.446
X-120.431 Y-9.549
X-120.433 Y-9.667
X-120.376 Y-9.772
X-120.352 Y-9.798
X-120.33 Y-9.828
X-120.256 Y-9.954
X-120.234 Y-9.98
X-120.204 Y-9.996
X-120.171 Y-10.002
X-120.138 Y-9.996
X-120.108 Y-9.979
X-119.732 Y-9.673
X-119.71 Y-9.648
X-119.697 Y-9.616
X-119.696 Y-9.582
X-119.707 Y-9.549
X-119.844 Y-9.308
X-119.885 Y-9.245
X-119.997 Y-9.145
X-120.141 Y-9.102
X-120.291 Y-9.106
X-120.433 Y-9.154
X-120.555 Y-9.24
X-120.646 Y-9.36
X-120.648 Y-9.363
X-120.663 Y-9.478
X-120.62 Y-9.586
X-120.532 Y-9.66
X-120.494 Y-9.669
X-120.456 Y-9.662
X-119.897 Y-9.448
X-119.868 Y-9.431
X-119.846 Y-9.405
X-119.835 Y-9.373
X-119.834 Y-9.34
X-119.844 Y-9.308
X-119.981 Y-9.068
X-120.021 Y-9.005
X-120.134 Y-8.906
X-120.279 Y-8.865
X-120.428 Y-8.87
X-120.573 Y-8.91
X-120.704 Y-8.984
X-120.814 Y-9.085
X-120.895 Y-9.212
X-120.917 Y-9.287
X-120.924 Y-9.395
X-120.88 Y-9.495
X-120.796 Y-9.564
X-120.691 Y-9.588
X-120.68 Y-9.589
X-120.532 Y-9.66
X-120.502 Y-9.668
X-120.471 Y-9.666
X-120.443 Y-9.656
X-120.419 Y-9.637
X-119.996 Y-9.183
X-119.979 Y-9.157
X-119.97 Y-9.128
X-119.971 Y-9.097
X-119.981 Y-9.068
X-120.113 Y-8.836
X-120.194 Y-8.71
X-120.327 Y-8.64
X-120.475 Y-8.616
X-120.624 Y-8.63
X-120.766 Y-8.676
X-120.897 Y-8.75
X-121.013 Y-8.845
X-121.108 Y-8.961
X-121.177 Y-9.094
X-121.216 Y-9.239
X-121.218 Y-9.389
X-121.208 Y-9.426
X-121.148 Y-9.531
X-121.044 Y-9.592
X-120.923 Y-9.593
X-120.912 Y-9.591
X-120.691 Y-9.588
X-120.585 Y-9.455
X-120.116 Y-8.87
X-120.11 Y-8.854
X-120.113 Y-8.836
X-120.267 Y-8.566
X-120.308 Y-8.503
X-120.427 Y-8.413
X-120.572 Y-8.373
X-120.722 Y-8.371
X-120.869 Y-8.401
X-121.009 Y-8.455
X-121.137 Y-8.533
X-121.251 Y-8.63
X-121.35 Y-8.743
X-121.431 Y-8.87
X-121.49 Y-9.007
X-121.529 Y-9.152
X-121.54 Y-9.302
X-121.518 Y-9.45
X-121.464 Y-9.59
X-121.432 Y-9.634
X-121.348 Y-9.705
X-121.242 Y-9.73
X-121.136 Y-9.704
X-120.923 Y-9.593
X-120.906 Y-9.581
X-120.892 Y-9.565
X-120.661 Y-9.227
X-120.273 Y-8.66
X-120.259 Y-8.63
X-120.257 Y-8.598
X-120.267 Y-8.566
X-120.393 Y-8.346
X-120.474 Y-8.219
X-120.603 Y-8.144
X-120.75 Y-8.111
X-120.9
X-121.047 Y-8.14
X-121.187 Y-8.193
X-121.318 Y-8.266
X-121.439 Y-8.355
X-121.548 Y-8.458
X-121.643 Y-8.574
X-121.723 Y-8.701
X-121.788 Y-8.836
X-121.836 Y-8.978
X-121.864 Y-9.126
X-121.873 Y-9.275
X-121.859 Y-9.425
X-121.823 Y-9.57
X-121.76 Y-9.706
X-121.671 Y-9.828
X-121.598 Y-9.888
X-121.504 Y-9.935
X-121.399 Y-9.936
X-121.305 Y-9.892
X-121.239 Y-9.81
X-121.231 Y-9.785
X-121.229 Y-9.759
X-121.226 Y-9.724
X-121.209 Y-9.691
X-121.183 Y-9.667
X-120.654 Y-9.335
X-120.165 Y-9.027
X-120.13 Y-9.013
X-120.093 Y-9.014
X-120.058 Y-9.028
X-120.031 Y-9.054
X-120.015 Y-9.088
X-120.013 Y-9.125
X-120.025 Y-9.161
X-120.049 Y-9.19
X-120.082 Y-9.207
X-120.12 Y-9.212
X-120.156 Y-9.202
X-120.186 Y-9.179
X-120.205 Y-9.147
X-120.212 Y-9.11
G3 X-120.393 Y-8.346 I-1.582 J0.029
G1 X-120.542 Y-8.085
X-120.623 Y-7.958
X-120.751 Y-7.881
X-120.897 Y-7.844
X-121.047 Y-7.841
X-121.195 Y-7.865
X-121.338 Y-7.911
X-121.473 Y-7.975
X-121.6 Y-8.054
X-121.718 Y-8.147
X-121.825 Y-8.253
X-121.92 Y-8.369
X-122.004 Y-8.493
X-122.075 Y-8.625
X-122.133 Y-8.763
X-122.176 Y-8.907
X-122.204 Y-9.055
X-122.218 Y-9.204
X-122.214 Y-9.354
X-122.193 Y-9.502
X-122.154 Y-9.647
X-122.098 Y-9.786
X-122.021 Y-9.915
X-121.925 Y-10.03
X-121.81 Y-10.127
X-121.676 Y-10.194
X-121.633 Y-10.205
X-121.513 Y-10.204
X-121.407 Y-10.148
X-121.338 Y-10.05
X-121.239 Y-9.81
X-120.931 Y-9.088
X-120.812 Y-8.811
X-120.539 Y-8.17
X-120.531 Y-8.142
X-120.532 Y-8.112
X-120.542 Y-8.085
X-120.704 Y-7.801
X-120.785 Y-7.675
X-120.917 Y-7.603
X-121.063 Y-7.57
X-121.213 Y-7.566
X-121.361 Y-7.587
X-121.505 Y-7.629
X-121.643 Y-7.688
X-121.774 Y-7.761
X-121.897 Y-7.848
X-122.011 Y-7.945
X-122.116 Y-8.052
X-122.211 Y-8.168
X-122.296 Y-8.291
X-122.315 Y-8.324
X-122.332 Y-8.36
X-122.342 Y-8.399
X-122.345 Y-8.44
X-122.337 Y-8.477
X-122.315 Y-8.508
X-122.283 Y-8.529
X-122.245 Y-8.536
X-122.208 Y-8.529
X-121.658 Y-8.306
X-121.328 Y-8.172
X-120.755 Y-7.94
X-120.727 Y-7.923
X-120.705 Y-7.897
X-120.694 Y-7.866
X-120.693 Y-7.833
X-120.704 Y-7.801
X-120.822 Y-7.595
X-120.83 Y-7.584
X-120.841 Y-7.572
X-120.859 Y-7.559
X-120.875 Y-7.552
X-120.891 Y-7.548
X-120.944 Y-7.546
X-121.705
X-121.855 Y-7.554
X-122 Y-7.592
X-122.135 Y-7.657
X-122.26 Y-7.741
X-122.266 Y-7.746
X-122.309 Y-7.797
X-122.336 Y-7.857
X-122.345 Y-7.922
X-122.339 Y-7.955
X-122.322 Y-7.983
X-122.296 Y-8.005
X-122.265 Y-8.017
X-122.232 Y-8.018
X-122.2 Y-8.008
X-122.129 Y-7.972
X-121.664 Y-7.735
X-121.634 Y-7.712
X-121.615 Y-7.68
X-121.609 Y-7.643
X-121.617 Y-7.607
X-121.638 Y-7.576
X-121.669 Y-7.554
X-121.705 Y-7.546
X-122.213
X-122.252 Y-7.548
X-122.263 Y-7.55
X-122.275 Y-7.555
X-122.286 Y-7.56
X-122.298 Y-7.569
X-122.313 Y-7.584
X-122.325 Y-7.6
X-122.335 Y-7.616
X-122.341 Y-7.632
X-122.344 Y-7.643
X-122.345 Y-7.653
Y-9.706
X-122.338 Y-9.856
X-122.299 Y-10
X-122.23 Y-10.134
X-122.14 Y-10.253
X-122.031 Y-10.356
X-121.904 Y-10.437
X-121.763 Y-10.489
X-121.615 Y-10.509
X-121.552 Y-10.502
X-121.446 Y-10.463
X-121.371 Y-10.379
X-121.343 Y-10.27
Y-10.166
X-121.342 Y-10.082
X-121.338 Y-10.05
X-121.341 Y-10.018
X-121.353 Y-9.989
X-121.373 Y-9.965
X-121.4 Y-9.949
X-121.659 Y-9.842
X-122.208 Y-9.617
X-122.245 Y-9.609
X-122.283 Y-9.616
X-122.315 Y-9.637
X-122.337 Y-9.668
X-122.345 Y-9.706
Y-10.166
X-122.338 Y-10.316
X-122.283 Y-10.455
X-122.193 Y-10.576
X-122.08 Y-10.674
X-121.95 Y-10.748
X-121.808 Y-10.796
X-121.659 Y-10.814
X-121.509 Y-10.802
X-121.498 Y-10.798
X-121.417 Y-10.749
X-121.363 Y-10.671
X-121.343 Y-10.579
Y-10.27
X-121.351 Y-10.236
X-121.369 Y-10.206
X-121.397 Y-10.185
X-121.431 Y-10.174
X-121.619 Y-10.15
X-122.233 Y-10.07
X-122.266 Y-10.072
X-122.297 Y-10.084
X-122.322 Y-10.105
X-122.339 Y-10.134
X-122.345 Y-10.166
Y-10.55
X-122.338 Y-10.7
X-122.269 Y-10.833
X-122.165 Y-10.942
X-122.041 Y-11.026
X-121.904 Y-11.086
X-121.758 Y-11.121
X-121.608 Y-11.129
X-121.536 Y-11.116
X-121.437 Y-11.073
X-121.368 Y-10.991
X-121.343 Y-10.886
Y-10.579
X-121.352 Y-10.542
X-121.373 Y-10.511
X-121.403 Y-10.49
X-121.44 Y-10.482
X-121.614 Y-10.476
X-122.242 Y-10.454
X-122.281 Y-10.46
X-122.314 Y-10.481
X-122.337 Y-10.512
X-122.345 Y-10.55
Y-10.888
X-122.338 Y-11.038
X-122.263 Y-11.168
X-122.155 Y-11.272
X-122.029 Y-11.353
X-121.89 Y-11.409
X-121.743 Y-11.439
X-121.593
X-121.529 Y-11.425
X-121.433 Y-11.381
X-121.367 Y-11.299
X-121.343 Y-11.197
Y-10.886
X-121.352 Y-10.849
X-121.374 Y-10.818
X-121.406 Y-10.797
X-121.444 Y-10.79
X-121.614
X-122.246 Y-10.792
X-122.283 Y-10.799
X-122.315 Y-10.82
X-122.337 Y-10.851
X-122.345 Y-10.888
Y-11.226
X-122.342 Y-11.301
X-122.289 Y-11.441
X-122.193 Y-11.557
X-122.072 Y-11.645
X-121.935 Y-11.707
X-121.79 Y-11.745
X-121.64 Y-11.754
X-121.492 Y-11.734
X-121.489 Y-11.732
X-121.412 Y-11.682
X-121.361 Y-11.606
X-121.343 Y-11.516
Y-11.197
X-121.352 Y-11.159
X-121.375 Y-11.127
X-121.408 Y-11.107
X-121.447 Y-11.1
X-121.614 Y-11.107
X-122.249 Y-11.13
X-122.286 Y-11.138
X-122.316 Y-11.159
X-122.337 Y-11.19
X-122.345 Y-11.226
Y-11.517
X-122.338 Y-11.667
X-122.264 Y-11.798
X-122.157 Y-11.903
X-122.029 Y-11.982
X-121.89 Y-12.036
X-121.742 Y-12.065
X-121.592 Y-12.068
X-121.529 Y-12.055
X-121.434 Y-12.011
X-121.367 Y-11.929
X-121.343 Y-11.826
Y-11.516
X-121.352 Y-11.479
X-121.374 Y-11.448
X-121.406 Y-11.427
X-121.444 Y-11.42
X-121.614
X-122.246 Y-11.421
X-122.283 Y-11.428
X-122.315 Y-11.449
X-122.337 Y-11.48
X-122.345 Y-11.517
Y-11.855
X-122.342 Y-11.93
X-122.289 Y-12.071
X-122.192 Y-12.185
X-122.07 Y-12.273
X-121.934 Y-12.335
X-121.789 Y-12.373
X-121.639 Y-12.382
X-121.49 Y-12.362
X-121.412 Y-12.311
X-121.361 Y-12.235
X-121.343 Y-12.145
Y-11.826
X-121.352 Y-11.788
X-121.375 Y-11.757
X-121.408 Y-11.736
X-121.447 Y-11.73
X-121.614 Y-11.736
X-122.249 Y-11.759
X-122.286 Y-11.767
X-122.316 Y-11.788
X-122.337 Y-11.819
X-122.345 Y-11.855
Y-12.155
X-122.338 Y-12.305
X-122.261 Y-12.434
X-122.151 Y-12.536
X-122.023 Y-12.614
X-121.883 Y-12.667
X-121.735 Y-12.695
X-121.585 Y-12.696
X-121.527 Y-12.683
X-121.432 Y-12.639
X-121.367 Y-12.557
X-121.343 Y-12.455
Y-12.145
X-121.352 Y-12.108
X-121.374 Y-12.076
X-121.407 Y-12.056
X-121.445 Y-12.049
X-121.614 Y-12.051
X-122.247 Y-12.059
X-122.284 Y-12.066
X-122.315 Y-12.087
X-122.337 Y-12.118
X-122.345 Y-12.155
Y-12.493
X-122.342 Y-12.568
X-122.285 Y-12.707
X-122.187 Y-12.82
X-122.064 Y-12.906
X-121.927 Y-12.967
X-121.781 Y-13.004
X-121.631 Y-13.011
X-121.543 Y-12.998
X-121.441 Y-12.957
X-121.369 Y-12.874
X-121.343 Y-12.767
Y-12.455
X-121.353 Y-12.417
X-121.376 Y-12.385
X-121.409 Y-12.365
X-121.448 Y-12.359
X-121.614 Y-12.367
X-122.25 Y-12.397
X-122.286 Y-12.405
X-122.317 Y-12.426
X-122.337 Y-12.457
X-122.345 Y-12.493
Y-12.784
X-122.338 Y-12.934
X-122.261 Y-13.063
X-122.151 Y-13.165
X-122.023 Y-13.243
X-121.883 Y-13.296
X-121.735 Y-13.323
X-121.585 Y-13.321
X-121.524 Y-13.307
X-121.431 Y-13.262
X-121.366 Y-13.181
X-121.343 Y-13.08
Y-12.767
X-121.352 Y-12.729
X-121.375 Y-12.698
X-121.407 Y-12.677
X-121.446 Y-12.671
X-121.614 Y-12.674
X-122.248 Y-12.688
X-122.285 Y-12.696
X-122.316 Y-12.717
X-122.337 Y-12.748
X-122.345 Y-12.784
Y-13.084
X-122.338 Y-13.234
X-122.267 Y-13.366
X-122.161 Y-13.472
X-122.034 Y-13.553
X-121.894 Y-13.606
X-121.747 Y-13.635
X-121.597 Y-13.634
X-121.53 Y-13.621
X-121.434 Y-13.577
X-121.367 Y-13.495
X-121.343 Y-13.392
Y-13.08
X-121.352 Y-13.042
X-121.374 Y-13.011
X-121.406 Y-12.99
X-121.444 Y-12.983
X-121.614 Y-12.984
X-122.246 Y-12.988
X-122.283 Y-12.995
X-122.315 Y-13.016
X-122.337 Y-13.047
X-122.345 Y-13.084
Y-13.422
X-122.338 Y-13.572
X-122.258 Y-13.699
X-122.147 Y-13.8
X-122.018 Y-13.876
X-121.876 Y-13.926
X-121.728 Y-13.951
X-121.578 Y-13.946
X-121.522 Y-13.933
X-121.43 Y-13.887
X-121.366 Y-13.806
X-121.343 Y-13.706
Y-13.392
X-121.352 Y-13.354
X-121.375 Y-13.322
X-121.409 Y-13.302
X-121.447 Y-13.296
X-121.614 Y-13.302
X-122.249 Y-13.326
X-122.286 Y-13.334
X-122.316 Y-13.355
X-122.337 Y-13.386
X-122.345 Y-13.422
Y-13.714
X-122.338 Y-13.863
X-122.268 Y-13.996
X-122.161 Y-14.102
X-122.034 Y-14.181
X-121.894 Y-14.234
X-121.747 Y-14.263
X-121.597 Y-14.262
X-121.529 Y-14.248
X-121.434 Y-14.203
X-121.367 Y-14.122
X-121.343 Y-14.019
Y-13.706
X-121.352 Y-13.669
X-121.374 Y-13.637
X-121.407 Y-13.616
X-121.444 Y-13.609
X-121.614 Y-13.611
X-122.247 Y-13.617
X-122.284 Y-13.625
X-122.315 Y-13.645
X-122.337 Y-13.677
X-122.345 Y-13.714
Y-14.051
X-122.338 Y-14.201
X-122.258 Y-14.328
X-122.146 Y-14.428
X-122.017 Y-14.504
X-121.875 Y-14.554
X-121.727 Y-14.579
X-121.577 Y-14.573
X-121.521 Y-14.56
X-121.429 Y-14.514
X-121.366 Y-14.433
X-121.343 Y-14.333
Y-14.019
X-121.352 Y-13.981
X-121.375 Y-13.949
X-121.409 Y-13.929
X-121.447 Y-13.923
X-121.614 Y-13.929
X-122.25 Y-13.955
X-122.286 Y-13.963
X-122.316 Y-13.984
X-122.337 Y-14.015
X-122.345 Y-14.051
Y-14.351
X-122.338 Y-14.501
X-122.264 Y-14.631
X-122.155 Y-14.735
X-122.027 Y-14.813
X-121.886 Y-14.864
X-121.739 Y-14.891
X-121.589 Y-14.888
X-121.526 Y-14.874
X-121.432 Y-14.83
X-121.367 Y-14.748
X-121.343 Y-14.647
Y-14.333
X-121.352 Y-14.295
X-121.375 Y-14.264
X-121.407 Y-14.243
X-121.446 Y-14.237
X-121.614 Y-14.24
X-122.248 Y-14.255
X-122.285 Y-14.263
X-122.316 Y-14.284
X-122.337 Y-14.315
X-122.345 Y-14.351
Y-14.689
X-122.342 Y-14.764
X-122.287 Y-14.904
X-122.189 Y-15.017
X-122.066 Y-15.103
X-121.929 Y-15.163
X-121.783 Y-15.198
X-121.633 Y-15.205
X-121.542 Y-15.191
X-121.441 Y-15.15
X-121.369 Y-15.067
X-121.343 Y-14.96
Y-14.647
X-121.353 Y-14.608
X-121.376 Y-14.576
X-121.41 Y-14.556
X-121.449 Y-14.55
X-121.615 Y-14.559
X-122.251 Y-14.593
X-122.287 Y-14.602
X-122.317 Y-14.623
X-122.337 Y-14.653
X-122.345 Y-14.689
Y-14.981
X-122.338 Y-15.13
X-122.261 Y-15.259
X-122.151 Y-15.362
X-122.023 Y-15.439
X-121.882 Y-15.491
X-121.734 Y-15.517
X-121.584 Y-15.515
X-121.524 Y-15.501
X-121.431 Y-15.455
X-121.366 Y-15.374
X-121.343 Y-15.273
Y-14.96
X-121.352 Y-14.923
X-121.375 Y-14.891
X-121.408 Y-14.87
X-121.446 Y-14.864
X-121.614 Y-14.868
X-122.248 Y-14.884
X-122.285 Y-14.892
X-122.316 Y-14.913
X-122.337 Y-14.944
X-122.345 Y-14.981
Y-15.28
X-122.338 Y-15.43
X-122.267 Y-15.562
X-122.16 Y-15.668
X-122.033 Y-15.748
X-121.893 Y-15.801
X-121.746 Y-15.83
X-121.596 Y-15.829
X-121.529 Y-15.815
X-121.434 Y-15.771
X-121.367 Y-15.689
X-121.343 Y-15.586
Y-15.273
X-121.352 Y-15.236
X-121.374 Y-15.205
X-121.407 Y-15.184
X-121.444 Y-15.177
X-121.614 Y-15.178
X-122.246 Y-15.184
X-122.284 Y-15.191
X-122.315 Y-15.212
X-122.337 Y-15.243
X-122.345 Y-15.28
Y-15.618
X-122.338 Y-15.768
X-122.257 Y-15.895
X-122.146 Y-15.995
X-122.017 Y-16.071
X-121.875 Y-16.121
X-121.727 Y-16.145
X-121.577 Y-16.14
X-121.521 Y-16.127
X-121.429 Y-16.081
X-121.366 Y-16
X-121.343 Y-15.9
Y-15.586
X-121.352 Y-15.548
X-121.375 Y-15.516
X-121.409 Y-15.496
X-121.447 Y-15.49
X-121.614 Y-15.496
X-122.25 Y-15.522
X-122.286 Y-15.53
X-122.316 Y-15.551
X-122.337 Y-15.582
X-122.345 Y-15.618
Y-15.91
X-122.338 Y-16.06
X-122.267 Y-16.192
X-122.16 Y-16.297
X-122.033 Y-16.376
X-121.893 Y-16.429
X-121.745 Y-16.457
X-121.595 Y-16.456
X-121.529 Y-16.442
X-121.433 Y-16.398
X-121.367 Y-16.316
X-121.343 Y-16.213
Y-15.9
X-121.352 Y-15.863
X-121.374 Y-15.831
X-121.407 Y-15.811
X-121.445 Y-15.804
X-121.614 Y-15.806
X-122.247 Y-15.813
X-122.284 Y-15.821
X-122.315 Y-15.842
X-122.337 Y-15.873
X-122.345 Y-15.91
Y-16.248
X-122.338 Y-16.397
X-122.257 Y-16.524
X-122.145 Y-16.624
X-122.016 Y-16.699
X-121.874 Y-16.749
X-121.726 Y-16.773
X-121.576 Y-16.768
X-121.521 Y-16.754
X-121.429 Y-16.708
X-121.366 Y-16.628
X-121.343 Y-16.528
Y-16.213
X-121.352 Y-16.175
X-121.375 Y-16.144
X-121.409 Y-16.123
X-121.448 Y-16.117
X-121.614 Y-16.124
X-122.25 Y-16.151
X-122.286 Y-16.16
X-122.317 Y-16.181
X-122.337 Y-16.211
X-122.345 Y-16.248
Y-16.547
X-122.338 Y-16.697
X-122.263 Y-16.827
X-122.155 Y-16.931
X-122.026 Y-17.008
X-121.885 Y-17.059
X-121.737 Y-17.086
X-121.587 Y-17.083
X-121.526 Y-17.069
X-121.432 Y-17.024
X-121.367 Y-16.943
X-121.343 Y-16.841
Y-16.528
X-121.352 Y-16.49
X-121.375 Y-16.458
X-121.408 Y-16.438
X-121.446 Y-16.431
X-121.614 Y-16.435
X-122.248 Y-16.451
X-122.285 Y-16.459
X-122.316 Y-16.48
X-122.337 Y-16.511
X-122.345 Y-16.547
Y-16.885
Y-16.923
Y-16.97
X-122.344 Y-17.007
X-122.269 Y-17.137
X-122.228 Y-17.177
X-122.18 Y-17.212
X-122.125 Y-17.234
X-122.066 Y-17.242
X-122.028 Y-17.233
X-121.997 Y-17.211
X-121.976 Y-17.178
X-121.97 Y-17.14
X-121.978 Y-17.102
X-122 Y-17.07
X-122.176 Y-16.901
X-122.208 Y-16.88
X-122.246 Y-16.873
X-122.283 Y-16.881
X-122.315 Y-16.901
X-122.337 Y-16.933
X-122.345 Y-16.97
Y-17.134
X-122.343 Y-17.145
X-122.34 Y-17.156
X-122.336 Y-17.166
X-122.317 Y-17.198
X-122.309 Y-17.209
X-122.298 Y-17.22
X-122.287 Y-17.227
X-122.276 Y-17.233
X-122.266 Y-17.237
X-122.255 Y-17.24
X-122.245 Y-17.241
X-122.128 Y-17.242
X-121.49
X-121.452
X-121.441 Y-17.24
X-121.43 Y-17.238
X-121.42 Y-17.234
X-121.409 Y-17.229
X-121.399 Y-17.222
X-121.388 Y-17.213
X-121.367 Y-17.188
X-121.359 Y-17.177
X-121.353 Y-17.166
X-121.349 Y-17.156
X-121.346 Y-17.145
X-121.344 Y-17.134
X-121.343 Y-16.841
X-121.348 Y-16.813
X-121.361 Y-16.788
X-121.39 Y-16.771 Z-0.983
X-121.415 Y-16.756 Z-0.966
X-121.434 Y-16.745 Z-0.939
X-121.443 Z-0.916
X-121.447 Z-0.89
G0 Z2
X-111.92 Y-15.66
Z0.5
G3 X-111.436 Y-15.785 Z0.29 I0.242 J-0.062 F333.3
X-111.92 Y-15.66 Z0.079 I-0.242 J0.062
X-111.436 Y-15.785 Z-0.131 I0.242 J-0.062
X-111.92 Y-15.66 Z-0.342 I-0.242 J0.062
X-111.436 Y-15.785 Z-0.552 I0.242 J-0.062
X-111.92 Y-15.66 Z-0.763 I-0.242 J0.062
X-111.71 Y-15.971 Z-0.876 I0.242 J-0.062
X-111.428 Y-15.723 Z-0.99 I0.031 J0.248
X-111.928 I-0.25
X-111.428 I0.25
G1 X-111.391 Y-15.577 F1000
X-111.388 Y-15.502
X-111.413 Y-15.432
X-111.5 Y-15.31
X-111.635 Y-15.244
X-111.785 Y-15.235
X-111.929 Y-15.278
X-112.052 Y-15.364
X-112.125 Y-15.46
X-112.146 Y-15.495
X-112.162 Y-15.532
X-112.17 Y-15.571
X-112.177 Y-15.618
X-112.182 Y-15.656
X-112.183 Y-15.677
X-112.178 Y-15.741
X-112.156 Y-15.889
X-112.095 Y-16.026
X-111.994 Y-16.137
X-111.864 Y-16.213
X-111.718 Y-16.247
X-111.568 Y-16.239
X-111.427 Y-16.188
X-111.306 Y-16.099
X-111.214 Y-15.981
X-111.192 Y-15.94
X-111.173 Y-15.895
X-111.164 Y-15.848
X-111.165 Y-15.799
X-111.184 Y-15.656
X-111.189 Y-15.572
Y-15.487
Y-15.337
X-111.252 Y-15.201
X-111.349 Y-15.087
X-111.476 Y-15.006
X-111.617 Y-14.957
X-111.766 Y-14.941
X-111.915 Y-14.96
X-111.948 Y-14.971
X-112.021 Y-15.01
X-112.075 Y-15.072
X-112.105 Y-15.149
X-112.104 Y-15.181
X-112.093 Y-15.212
X-112.073 Y-15.238
X-112.046 Y-15.256
X-111.878 Y-15.328
X-111.328 Y-15.567
X-111.292 Y-15.575
X-111.255 Y-15.57
X-111.223 Y-15.551
X-111.2 Y-15.523
X-111.189 Y-15.487
X-111.182 Y-15.403
X-111.152 Y-15.188
X-111.145 Y-15.113
X-111.18 Y-14.967
X-111.267 Y-14.845
X-111.383 Y-14.75
X-111.517 Y-14.683
X-111.662 Y-14.645
X-111.812 Y-14.634
X-111.82 Y-14.635
X-111.903 Y-14.663
X-111.969 Y-14.719
X-112.01 Y-14.795
X-112.014 Y-14.829
X-112.006 Y-14.862
X-111.987 Y-14.89
X-111.96 Y-14.911
X-111.826 Y-14.981
X-111.297 Y-15.259
X-111.261 Y-15.27
X-111.224 Y-15.266
X-111.19 Y-15.25
X-111.165 Y-15.222
X-111.152 Y-15.188
X-111.147 Y-15.15
X-111.13 Y-15.081
X-111.098 Y-14.981
X-111.079 Y-14.908
X-111.087 Y-14.758
X-111.153 Y-14.624
X-111.254 Y-14.513
X-111.377 Y-14.427
X-111.514 Y-14.365
X-111.543 Y-14.358
X-111.631 Y-14.355
X-111.714 Y-14.384
X-111.78 Y-14.442
X-111.795 Y-14.475
X-111.798 Y-14.512
X-111.787 Y-14.547
X-111.765 Y-14.576
X-111.702 Y-14.632
X-111.259 Y-15.022
X-111.225 Y-15.041
X-111.187 Y-15.047
X-111.149 Y-15.037
X-111.118 Y-15.014
X-111.098 Y-14.981
X-111.071 Y-14.896
X-111.046 Y-14.825
X-111.019 Y-14.765
X-110.965 Y-14.625
X-110.987 Y-14.477
X-111.055 Y-14.344
X-111.155 Y-14.231
X-111.229 Y-14.177
X-111.325 Y-14.136
X-111.429 Y-14.14
X-111.52 Y-14.19
X-111.542 Y-14.219
X-111.552 Y-14.254
X-111.548 Y-14.29
X-111.532 Y-14.322
X-111.189 Y-14.781
X-111.164 Y-14.804
X-111.133 Y-14.818
X-111.099 Y-14.821
X-111.067 Y-14.812
X-111.039 Y-14.793
X-111.019 Y-14.765
X-111.002 Y-14.727
X-110.982 Y-14.697
X-110.944 Y-14.643
X-110.908 Y-14.596
X-110.865 Y-14.535
X-110.819 Y-14.392
X-110.84 Y-14.243
X-110.903 Y-14.108
X-110.961 Y-14.04
X-111.039 Y-13.98
X-111.136 Y-13.958
X-111.232 Y-13.977
X-111.263 Y-14
X-111.283 Y-14.033
X-111.289 Y-14.07
X-111.281 Y-14.108
X-111.077 Y-14.573
X-111.058 Y-14.601
X-111.031 Y-14.621
X-110.999 Y-14.631
X-110.965 Y-14.63
X-110.934 Y-14.618
X-110.908 Y-14.596
X-110.877 Y-14.556
X-110.758 Y-14.42
X-110.73 Y-14.389
X-110.68 Y-14.333
X-110.641 Y-14.189
X-110.66 Y-14.04
X-110.682 Y-13.993
X-110.755 Y-13.904
X-110.862 Y-13.861
X-110.977 Y-13.875
X-111.009 Y-13.897
X-111.03 Y-13.929
X-111.038 Y-13.968
X-111.03 Y-14.006
X-110.884 Y-14.35
X-110.864 Y-14.38
X-110.834 Y-14.401
X-110.799 Y-14.411
X-110.763 Y-14.406
X-110.73 Y-14.389
X-110.597 Y-14.279
X-110.541 Y-14.229
X-110.5 Y-14.166
X-110.455 Y-14.023
X-110.461 Y-13.982
X-110.498 Y-13.888
X-110.571 Y-13.818
X-110.667 Y-13.786
X-110.768 Y-13.797
X-110.798 Y-13.816
X-110.82 Y-13.844
X-110.831 Y-13.878
X-110.829 Y-13.914
X-110.755 Y-14.222
X-110.738 Y-14.258
X-110.709 Y-14.285
X-110.672 Y-14.298
X-110.633 Y-14.296
X-110.597 Y-14.279
X-110.525 Y-14.22
X-110.454 Y-14.165
X-110.426 Y-14.149
X-110.363 Y-14.108
X-110.322 Y-14.045
X-110.319 Y-14.034
X-110.316 Y-13.908
X-110.379 Y-13.8
X-110.489 Y-13.74
X-110.614 Y-13.745
X-110.643 Y-13.761
X-110.665 Y-13.786
X-110.678 Y-13.817
X-110.679 Y-13.85
X-110.67 Y-13.882
X-110.562 Y-14.104
X-110.538 Y-14.136
X-110.504 Y-14.155
X-110.464 Y-14.16
X-110.426 Y-14.149
X-110.403 Y-14.136
X-110.322 Y-14.099
X-110.284 Y-14.083
X-110.251 Y-14.066
X-110.197 Y-14.014
X-110.182 Y-13.893
X-110.232 Y-13.782
X-110.331 Y-13.712
X-110.453 Y-13.703
X-110.487 Y-13.718
X-110.513 Y-13.744
X-110.527 Y-13.778
X-110.529 Y-13.815
X-110.517 Y-13.85
X-110.408 Y-14.04
X-110.385 Y-14.067
X-110.354 Y-14.084
X-110.319 Y-14.09
X-110.284 Y-14.083
X-110.2 Y-14.046
X-110.153 Y-14.029
X-110.119 Y-14.014
X-110.068 Y-13.959
X-110.055 Y-13.848
X-110.102 Y-13.745
X-110.194 Y-13.681
X-110.306 Y-13.673
X-110.329 Y-13.682
X-110.349 Y-13.696
G3 X-110.153 Y-14.029 I0.133 J-0.146
G1 X-110.031 Y-13.983
X-109.996 Y-13.968
X-109.943 Y-13.915
X-109.931 Y-13.811
X-109.973 Y-13.716
X-110.058 Y-13.655
X-110.162 Y-13.646
X-110.196 Y-13.662
G3 X-110.031 Y-13.983 I0.107 J-0.148
G1 X-109.946 Y-13.951
X-109.899 Y-13.938
X-109.864 Y-13.926
X-109.815 Y-13.868
X-109.807 Y-13.772
X-109.848 Y-13.685
X-109.927 Y-13.63
X-110.023 Y-13.621
X-110.046 Y-13.629
X-110.065 Y-13.644
G3 X-109.899 Y-13.938 I0.123 J-0.125
G1 X-109.777 Y-13.904
X-109.741 Y-13.892
X-109.691 Y-13.836
X-109.683 Y-13.744
X-109.722 Y-13.661
X-109.797 Y-13.608
X-109.888 Y-13.598
X-109.909 Y-13.605
X-109.927 Y-13.618
G3 X-109.777 Y-13.904 I0.112 J-0.124
G1 X-109.692 Y-13.881
X-109.646 Y-13.87
X-109.61 Y-13.859
X-109.573 Y-13.764
X-109.597 Y-13.665
X-109.672 Y-13.596
X-109.772 Y-13.58
X-109.803 Y-13.593
X-109.825 Y-13.617
G3 X-109.646 Y-13.87 I0.146 J-0.086
G1 X-109.607 Y-13.861
X-109.561 Y-13.851
X-109.525 Y-13.842
X-109.471 Y-13.789
X-109.459 Y-13.705
X-109.491 Y-13.626
X-109.558 Y-13.574
X-109.642 Y-13.562
X-109.672 Y-13.574
G3 X-109.561 Y-13.851 I0.086 J-0.126
G1 X-109.438 Y-13.826
X-109.402 Y-13.817
X-109.35 Y-13.763
X-109.347 Y-13.655
X-109.413 Y-13.57
X-109.518 Y-13.547
X-109.549 Y-13.56
G3 X-109.438 Y-13.826 I0.087 J-0.12
G1 X-109.322 Y-13.803
X-109.285 Y-13.794
X-109.231 Y-13.742
X-109.234 Y-13.636
X-109.301 Y-13.555
X-109.404 Y-13.533
X-109.422 Y-13.538
X-109.438 Y-13.549
G3 X-109.322 Y-13.803 I0.095 J-0.11
G1 X-109.223 Y-13.784
X-109.186 Y-13.776
X-109.128 Y-13.729
X-109.124 Y-13.624
X-109.188 Y-13.542
X-109.29 Y-13.519
X-109.314 Y-13.527
G3 X-109.223 Y-13.784 I0.071 J-0.12
G1 X-109.1 Y-13.761
X-109.063 Y-13.753
X-109.011 Y-13.699
X-109.015 Y-13.6
X-109.079 Y-13.525
X-109.176 Y-13.505
X-109.193 Y-13.51
X-109.207 Y-13.519
G3 X-109.1 Y-13.761 I0.087 J-0.107
G1 X-108.969 Y-13.737
X-108.932 Y-13.728
X-108.887 Y-13.668
X-108.898 Y-13.575
X-108.962 Y-13.507
X-109.054 Y-13.489
X-109.074 Y-13.496
X-109.091 Y-13.51
G3 X-108.969 Y-13.737 I0.102 J-0.092
G1 X-108.884 Y-13.721
X-108.848 Y-13.712
X-108.791 Y-13.664
X-108.79 Y-13.569
X-108.849 Y-13.495
X-108.942 Y-13.475
X-108.959 Y-13.48
G3 X-108.884 Y-13.721 I0.056 J-0.115
G1 X-108.846 Y-13.713
X-108.761 Y-13.695
X-108.726 Y-13.684
X-108.676 Y-13.628
X-108.684 Y-13.54
X-108.745 Y-13.475
X-108.832 Y-13.46
X-108.855 Y-13.47
X-108.885 Y-13.499
X-108.904 Y-13.537
X-108.909 Y-13.579
X-108.899 Y-13.62
X-108.877 Y-13.656
X-108.844 Y-13.682
X-108.804 Y-13.695
X-108.761
X-108.63 Y-13.663
X-108.594 Y-13.652
X-108.574 Y-13.577
X-108.597 Y-13.503
X-108.657 Y-13.454
X-108.734 Y-13.444
X-108.758 Y-13.455
X-108.775 Y-13.476
X-108.787 Y-13.516
Y-13.557
X-108.773 Y-13.597
X-108.747 Y-13.63
X-108.712 Y-13.653
X-108.672 Y-13.665
X-108.63 Y-13.663
X-108.546 Y-13.642
X-108.508 Y-13.633
X-108.493 Y-13.629
X-108.458 Y-13.618
G0 Z2
X-109.178 Y-13.579
Z-0.79
G1 Z-0.89 F1000
X-109.17 Y-13.581 Z-0.928
X-109.15 Y-13.587 Z-0.961
X-109.118 Y-13.596 Z-0.982
X-109.082 Y-13.607 Z-0.99
G3 X-108.493 Y-13.629 I0.337 J1.138
G1 X-108.476 Y-13.625
X-108.458 Y-13.618
X-108.441 Y-13.607
X-108.423 Y-13.589
X-108.416 Y-13.578
X-108.409 Y-13.559
X-108.405 Y-13.543
X-108.403 Y-13.525
X-108.413 Y-13.499
X-108.432 Y-13.479
X-108.457 Y-13.467
X-108.488 Y-13.466
X-108.517 Y-13.478
X-108.537 Y-13.501
X-108.546 Y-13.531
X-108.542 Y-13.561
X-108.525 Y-13.587
X-108.499 Y-13.604
X-108.468 Y-13.608
X-108.439 Y-13.598
X-108.416 Y-13.578
X-108.411 Y-13.567
X-108.407 Y-13.556
X-108.404 Y-13.545
X-108.403 Y-13.525
X-108.406 Y-13.506
X-108.412 Y-13.487
X-108.428 Y-13.46
X-108.437 Y-13.448
X-108.448 Y-13.435
X-108.468 Y-13.421
X-108.488 Y-13.413
X-108.508 Y-13.409
X-108.518
X-108.529 Y-13.41
X-108.846 Y-13.462
X-109.269 Y-13.516
X-109.692 Y-13.568
X-109.861 Y-13.594
X-109.946 Y-13.608
X-110.2 Y-13.653
X-110.284 Y-13.669
X-110.538 Y-13.72
X-110.623 Y-13.747
X-110.792 Y-13.805
X-110.877 Y-13.836
X-111.13 Y-13.934
X-111.215 Y-13.97
X-111.3 Y-14.007
X-111.359 Y-14.051
X-111.469 Y-14.145
X-111.638 Y-14.293
X-111.723 Y-14.37
X-111.892 Y-14.586
X-111.935 Y-14.643
X-111.976 Y-14.702
X-111.989 Y-14.727
X-112.016 Y-14.812
X-112.041 Y-14.896
X-112.089 Y-15.065
X-112.12 Y-15.234
X-112.135 Y-15.318
X-112.146 Y-15.382
X-112.17 Y-15.571
X-112.179 Y-15.7
X-112.178 Y-15.741
X-112.17 Y-15.825
X-112.145 Y-15.994
X-112.117 Y-16.163
X-112.101 Y-16.236
X-112.025 Y-16.365
X-111.907 Y-16.458
X-111.768 Y-16.514
X-111.619 Y-16.531
X-111.469 Y-16.517
X-111.326 Y-16.473
X-111.194 Y-16.401
X-111.173 Y-16.384
X-111.112 Y-16.31
X-111.086 Y-16.218
X-111.098 Y-16.124
X-111.12 Y-16.091
X-111.152 Y-16.068
X-111.19 Y-16.06
X-111.403 Y-16.058
X-112.017 Y-16.05
X-112.051 Y-16.056
X-112.08 Y-16.072
X-112.103 Y-16.098
X-112.116 Y-16.129
X-112.117 Y-16.163
X-112.103 Y-16.248
X-112.085 Y-16.332
X-112.065 Y-16.416
X-112.061 Y-16.426
X-112.02 Y-16.501
X-111.996 Y-16.541
X-111.912 Y-16.665
X-111.789 Y-16.751
X-111.647 Y-16.8
X-111.498 Y-16.815
X-111.349 Y-16.8
X-111.204 Y-16.76
X-111.071 Y-16.691
X-111.03 Y-16.656
X-110.966 Y-16.569
X-110.948 Y-16.463
X-110.98 Y-16.359
X-110.996 Y-16.332
X-111.046 Y-16.239
X-111.084 Y-16.163
X-111.114 Y-16.079
X-111.134 Y-15.994
X-111.151 Y-15.91
X-111.165 Y-15.799
X-111.178 Y-15.764
X-111.202 Y-15.737
X-111.234 Y-15.719
X-111.271 Y-15.715
X-111.307 Y-15.725
X-111.336 Y-15.746
X-111.527 Y-15.946
X-111.981 Y-16.423
X-111.999 Y-16.449
X-112.008 Y-16.479
X-112.007 Y-16.511
X-111.996 Y-16.541
X-111.976 Y-16.573
X-111.794 Y-16.839
X-111.776 Y-16.864
X-111.682 Y-16.981
X-111.549 Y-17.051
X-111.402 Y-17.081
X-111.252 Y-17.078
X-111.105 Y-17.047
X-110.968 Y-16.986
X-110.847 Y-16.898
X-110.823 Y-16.869
X-110.776 Y-16.774
X-110.777 Y-16.668
X-110.824 Y-16.574
X-110.851 Y-16.552
X-110.884 Y-16.541
X-110.919 Y-16.542
X-111.136 Y-16.588
X-111.713 Y-16.711
X-111.749 Y-16.726
X-111.776 Y-16.754
X-111.791 Y-16.79
Y-16.829
X-111.776 Y-16.864
X-111.733 Y-16.923
X-111.664 Y-17.008
X-111.651 Y-17.019
X-111.553 Y-17.083
X-111.384 Y-17.18
X-111.338 Y-17.206
X-111.203 Y-17.272
X-111.054 Y-17.288
X-110.906 Y-17.263
X-110.768 Y-17.204
X-110.65 Y-17.111
X-110.615 Y-17.064
X-110.57 Y-16.947
X-110.592 Y-16.823
X-110.675 Y-16.728
X-110.707 Y-16.716
X-110.742 Y-16.715
X-110.775 Y-16.726
X-110.829 Y-16.756
X-111.334 Y-17.033
X-111.361 Y-17.055
X-111.379 Y-17.084
X-111.386 Y-17.118
X-111.381 Y-17.153
X-111.364 Y-17.183
X-111.338 Y-17.206
X-111.13 Y-17.321
X-111.025 Y-17.371
X-111.014 Y-17.375
X-111.003 Y-17.378
X-110.877 Y-17.404
X-110.728 Y-17.423
X-110.584 Y-17.381
X-110.461 Y-17.295
X-110.365 Y-17.18
X-110.354 Y-17.152
X-110.34 Y-17.044
X-110.377 Y-16.941
X-110.457 Y-16.866
X-110.487 Y-16.856
X-110.518 Y-16.855
X-110.548 Y-16.865
X-110.574 Y-16.884
X-110.925 Y-17.236
X-110.945 Y-17.265
X-110.953 Y-17.299
X-110.95 Y-17.334
X-110.934 Y-17.365
X-110.909 Y-17.39
X-110.877 Y-17.404
X-110.792 Y-17.419
X-110.538 Y-17.457
X-110.388 Y-17.466
X-110.251 Y-17.406
X-110.149 Y-17.296
X-110.136 Y-17.264
X-110.119 Y-17.147
X-110.161 Y-17.037
X-110.252 Y-16.962
X-110.284 Y-16.954
X-110.317 Y-16.957
X-110.347 Y-16.971
X-110.371 Y-16.994
X-110.6 Y-17.298
X-110.615 Y-17.328
X-110.62 Y-17.362
X-110.613 Y-17.395
X-110.596 Y-17.424
X-110.57 Y-17.445
X-110.538 Y-17.457
X-110.284 Y-17.485
X-110.2 Y-17.486
X-110.125 Y-17.478
X-109.991 Y-17.41
X-109.904 Y-17.288
X-109.91 Y-17.168
X-109.973 Y-17.068
X-110.078 Y-17.012
X-110.113
X-110.147 Y-17.023
X-110.174 Y-17.046
X-110.192 Y-17.077
X-110.289 Y-17.353
X-110.294 Y-17.39
X-110.286 Y-17.426
X-110.266 Y-17.456
X-110.236 Y-17.477
X-110.2 Y-17.486
X-110.115 Y-17.481
X-110.031 Y-17.472
X-109.946 Y-17.463
X-109.872 Y-17.45
X-109.808 Y-17.41
X-109.803 Y-17.404
X-109.753 Y-17.297
X-109.766 Y-17.181
X-109.837 Y-17.087
X-109.946 Y-17.044
X-109.982 Y-17.043
X-110.016 Y-17.056
X-110.044 Y-17.079
X-110.061 Y-17.111
X-110.066 Y-17.147
X-110.054 Y-17.368
X-110.044 Y-17.407
X-110.02 Y-17.438
X-109.985 Y-17.458
X-109.946 Y-17.463
X-109.861 Y-17.453
X-109.777 Y-17.442
X-109.703 Y-17.428
X-109.636 Y-17.327
Y-17.206
X-109.703 Y-17.105
X-109.815 Y-17.058
X-109.848 Y-17.061
G3 X-109.777 Y-17.442 I0.053 J-0.187
G1 X-109.691 Y-17.43
X-109.645 Y-17.423
X-109.607 Y-17.417
X-109.572 Y-17.404
X-109.516 Y-17.355
X-109.493 Y-17.263
X-109.516 Y-17.171
X-109.581 Y-17.101
X-109.672 Y-17.072
X-109.695 Y-17.075
X-109.717 Y-17.083
G3 X-109.607 Y-17.417 I0.088 J-0.156
G1 X-109.523 Y-17.392
X-109.476 Y-17.374
X-109.442 Y-17.359
X-109.388 Y-17.307
X-109.374 Y-17.222
X-109.403 Y-17.141
X-109.469 Y-17.086
X-109.554 Y-17.07
X-109.586 Y-17.078
G3 X-109.476 Y-17.374 I0.06 J-0.146
G1 X-109.354 Y-17.327
X-109.32 Y-17.311
X-109.282 Y-17.231
X-109.297 Y-17.143
X-109.359 Y-17.079
X-109.446 Y-17.06
X-109.473 Y-17.07
G3 X-109.354 Y-17.327 I0.073 J-0.123
G1 X-109.269 Y-17.293
X-109.227 Y-17.275
X-109.192 Y-17.261
X-109.158 Y-17.245
X-109.165 Y-17.144
X-109.232 Y-17.067
X-109.332 Y-17.047
X-109.355 Y-17.056
X-109.373 Y-17.073
X-109.383 Y-17.096
G3 X-109.192 Y-17.261 I0.141 J-0.031
G1 X-109.126 Y-17.234
X-109.1 Y-17.223
X-109.066 Y-17.208
X-109.051 Y-17.196
X-109.033 Y-17.177
X-109.035 Y-17.168
X-109.05 Y-17.139
X-109.072 Y-17.117
X-109.101 Y-17.102
X-109.133 Y-17.098
X-109.78 Y-17.109
X-109.835 Y-17.11
X-109.871 Y-17.117
X-109.902 Y-17.138
X-109.924 Y-17.168
X-109.933 Y-17.204
X-109.928 Y-17.241
X-109.91 Y-17.274
X-109.881 Y-17.298
X-109.845 Y-17.309
G3 X-109.066 Y-17.208 I0.193 J1.571
G1 X-109.05 Y-17.196
X-109.033 Y-17.177
X-109.027 Y-17.166
X-109.022 Y-17.156
X-109.019 Y-17.145
X-109.017 Y-17.121
Y-17.113
X-109.028 Y-17.085
X-109.051 Y-17.065
X-109.08 Y-17.057
X-109.11 Y-17.063
X-109.135 Y-17.081
X-109.148 Y-17.108
Y-17.139
X-109.135 Y-17.166
X-109.111 Y-17.185
X-109.081 Y-17.191
X-109.051 Y-17.183
X-109.032 Y-17.167
X-109.019 Y-17.145
X-109.017 Y-17.134
Y-17.113
X-109.018 Y-17.103
X-109.02 Y-17.092
X-109.025 Y-17.079
X-109.033 Y-17.065
X-109.044 Y-17.051
X-109.06 Y-17.037
X-109.08 Y-17.027
X-109.1 Y-17.022
X-109.11 Y-17.02
X-109.121
X-109.4 Y-17.055
X-109.485 Y-17.064
X-109.607 Y-17.074
X-109.65 Y-17.073
X-109.692 Y-17.071
X-109.946 Y-17.044
X-110.21 Y-16.981
X-110.221 Y-16.976
X-110.454 Y-16.867
X-110.504 Y-16.839
X-110.707 Y-16.708
X-110.745 Y-16.67
X-110.883 Y-16.501
X-110.946 Y-16.416
X-110.98 Y-16.359
X-110.998 Y-16.338
X-111.022 Y-16.322
X-111.044 Y-16.318 Z-0.988
X-111.064 Y-16.313 Z-0.98
X-111.092 Y-16.321 Z-0.958
X-111.111 Y-16.327 Z-0.927
X-111.118 Y-16.329 Z-0.89
G0 Z2
X-107.12 Y-15.975
Z0.5
G3 X-106.636 Y-16.099 Z0.29 I0.242 J-0.062 F333.3
X-107.12 Y-15.975 Z0.079 I-0.242 J0.062
X-106.636 Y-16.099 Z-0.131 I0.242 J-0.062
X-107.12 Y-15.975 Z-0.342 I-0.242 J0.062
X-106.636 Y-16.099 Z-0.552 I0.242 J-0.062
X-107.12 Y-15.975 Z-0.763 I-0.242 J0.062
X-106.909 Y-16.285 Z-0.876 I0.242 J-0.062
X-106.628 Y-16.037 Z-0.99 I0.031 J0.248
X-107.128 I-0.25
X-106.628 I0.25
G1 X-106.591 Y-15.892 F1000
X-106.588 Y-15.817
X-106.613 Y-15.746
X-106.7 Y-15.624
X-106.835 Y-15.558
X-106.985 Y-15.55
X-107.129 Y-15.592
X-107.251 Y-15.679
X-107.342 Y-15.798
X-107.394 Y-15.939
X-107.402 Y-16.088
X-107.368 Y-16.234
X-107.293 Y-16.365
X-107.185 Y-16.468
X-107.052 Y-16.537
X-106.904 Y-16.566
X-106.755 Y-16.552
X-106.616 Y-16.497
X-106.497 Y-16.405
X-106.407 Y-16.286
X-106.337 Y-16.153
X-106.293 Y-16.009
X-106.284 Y-15.86
X-106.311 Y-15.712
X-106.368 Y-15.573
X-106.459 Y-15.454
X-106.574 Y-15.358
X-106.708 Y-15.291
X-106.854 Y-15.256
X-107.004 Y-15.251
X-107.152 Y-15.279
X-107.205 Y-15.301
X-107.269 Y-15.339
X-107.317 Y-15.395
X-107.346 Y-15.464
X-107.371 Y-15.572
X-107.394 Y-15.656
X-107.408 Y-15.696
X-107.429 Y-15.741
X-107.492 Y-15.853
X-107.541 Y-15.935
X-107.56 Y-15.968
X-107.575 Y-15.994
X-107.61 Y-16.061
X-107.618 Y-16.117
X-107.61 Y-16.212
X-107.566 Y-16.296
X-107.492 Y-16.355
X-107.457 Y-16.364
X-107.421 Y-16.36
X-107.388 Y-16.343
X-107.364 Y-16.316
X-107.351 Y-16.282
X-107.352 Y-16.246
X-107.393 Y-16.029
X-107.408 Y-15.993
X-107.436 Y-15.965
X-107.472 Y-15.95
X-107.512
X-107.548 Y-15.966
X-107.575 Y-15.994
X-107.625 Y-16.079
X-107.678 Y-16.163
X-107.682 Y-16.174
X-107.685 Y-16.184
X-107.687 Y-16.195
X-107.688 Y-16.205
X-107.687 Y-16.216
X-107.685 Y-16.226
X-107.683 Y-16.237
X-107.678 Y-16.248
X-107.671 Y-16.26
X-107.652 Y-16.285
X-107.641 Y-16.297
X-107.63 Y-16.305
X-107.619 Y-16.311
X-107.551 Y-16.332
X-107.492 Y-16.355
X-107.45 Y-16.376
X-107.408 Y-16.402
X-107.389 Y-16.416
X-107.323 Y-16.476
X-107.299 Y-16.501
X-107.239 Y-16.589
X-107.163 Y-16.718
X-107.035 Y-16.796
X-106.891 Y-16.837
X-106.741 Y-16.841
X-106.594 Y-16.81
X-106.455 Y-16.753
X-106.33 Y-16.67
X-106.319 Y-16.659
X-106.279 Y-16.609
X-106.254 Y-16.549
X-106.246 Y-16.485
X-106.256 Y-16.446
X-106.28 Y-16.415
X-106.314 Y-16.395
X-106.353 Y-16.39
X-106.563 Y-16.405
X-107.155 Y-16.448
X-107.191 Y-16.458
X-107.222 Y-16.481
X-107.241 Y-16.514
X-107.247 Y-16.551
X-107.239 Y-16.589
X-107.219 Y-16.629
X-107.202 Y-16.67
X-107.189 Y-16.712
X-107.179 Y-16.754
X-107.173 Y-16.801
X-107.159 Y-16.875
X-107.073 Y-16.997
X-106.945 Y-17.076
X-106.801 Y-17.115
X-106.651 Y-17.122
X-106.502 Y-17.1
X-106.359 Y-17.055
X-106.352 Y-17.052
X-106.283 Y-16.995
X-106.24 Y-16.916
X-106.231 Y-16.827
X-106.241 Y-16.794
X-106.261 Y-16.766
X-106.29 Y-16.747
X-106.324 Y-16.739
X-106.456 Y-16.73
X-107.067 Y-16.691
X-107.101 Y-16.695
X-107.132 Y-16.71
X-107.156 Y-16.735
X-107.17 Y-16.766
X-107.173 Y-16.801
X-107.168 Y-16.839
X-107.144 Y-17.054
X-107.14 Y-17.092
X-107.134 Y-17.134
X-107.12 Y-17.174
X-107.061 Y-17.232
X-107.053 Y-17.229
X-107.023 Y-17.213
X-107.001 Y-17.188
X-106.988 Y-17.157
X-106.834 Y-16.499
X-106.817 Y-16.423
X-106.815 Y-16.386
X-106.827 Y-16.351
X-106.85 Y-16.323
X-106.882 Y-16.305
X-106.919 Y-16.3
X-106.954 Y-16.309
X-106.985 Y-16.329
X-107.005 Y-16.36
G3 X-107.134 Y-17.134 I1.448 J-0.639
G1 X-107.133 Y-17.145
X-107.13 Y-17.156
X-107.126 Y-17.166
X-107.12 Y-17.177
X-107.111 Y-17.189
X-107.084 Y-17.216
X-107.069 Y-17.227
X-107.059 Y-17.233
X-107.048 Y-17.237
X-107.038 Y-17.24
X-107.027 Y-17.242
X-106.393
X-106.346
X-106.308
X-106.276 Y-17.239
X-106.249 Y-17.224
X-106.228 Y-17.201
X-106.216 Y-17.173
X-106.214 Y-17.142
X-106.225 Y-17.106
X-106.25 Y-17.078
X-106.284 Y-17.062
X-106.322 Y-17.061
X-106.357 Y-17.076
X-106.383 Y-17.103
X-106.395 Y-17.139
X-106.392 Y-17.177
X-106.375 Y-17.21
X-106.345 Y-17.233
X-106.308 Y-17.242
X-106.287 Y-17.241
X-106.276 Y-17.239
X-106.266 Y-17.236
X-106.255 Y-17.231
X-106.245 Y-17.225
X-106.234 Y-17.217
X-106.223 Y-17.206
X-106.213 Y-17.191
X-106.204 Y-17.177
X-106.199 Y-17.166
X-106.196 Y-17.156
X-106.194 Y-17.145
X-106.193 Y-17.134
Y-17.124
X-106.195 Y-17.113
X-106.199 Y-17.092
X-106.211 Y-17.008
X-106.23 Y-16.839
X-106.237 Y-16.754
X-106.246 Y-16.501
X-106.252 Y-16.163
X-106.255 Y-15.825
X-106.256 Y-15.525
X-106.263 Y-15.376
X-106.329 Y-15.241
X-106.428 Y-15.129
X-106.551 Y-15.042
X-106.688 Y-14.981
X-106.834 Y-14.946
X-106.983 Y-14.934
X-107.075 Y-14.943
X-107.171 Y-14.975
X-107.245 Y-15.045
X-107.282 Y-15.139
X-107.314 Y-15.318
X-107.323 Y-15.369
X-107.346 Y-15.464
X-107.347 Y-15.498
X-107.336 Y-15.531
X-107.315 Y-15.558
X-107.285 Y-15.576
X-107.252 Y-15.583
X-106.987 Y-15.595
X-106.36 Y-15.622
X-106.321 Y-15.616
X-106.288 Y-15.595
X-106.265 Y-15.564
X-106.256 Y-15.525
Y-15.188
X-106.263 Y-15.038
X-106.334 Y-14.906
X-106.439 Y-14.799
X-106.565 Y-14.717
X-106.703 Y-14.658
X-106.849 Y-14.624
X-106.999 Y-14.617
X-107.058 Y-14.627
X-107.153 Y-14.665
X-107.223 Y-14.741
X-107.253 Y-14.839
X-107.271 Y-15.065
X-107.282 Y-15.139
X-107.281 Y-15.172
X-107.269 Y-15.202
X-107.247 Y-15.227
X-107.219 Y-15.244
X-107.187 Y-15.251
X-106.987 Y-15.259
X-106.359 Y-15.284
X-106.321 Y-15.278
X-106.287 Y-15.257
X-106.265 Y-15.226
X-106.256 Y-15.188
Y-14.85
X-106.263 Y-14.7
X-106.341 Y-14.572
X-106.45 Y-14.469
X-106.578 Y-14.39
X-106.717 Y-14.335
X-106.864 Y-14.306
X-107.014
X-107.062 Y-14.317
X-107.155 Y-14.362
X-107.22 Y-14.443
X-107.243 Y-14.544
X-107.245 Y-14.727
X-107.253 Y-14.839
X-107.249 Y-14.871
X-107.236 Y-14.9
X-107.213 Y-14.923
X-107.185 Y-14.938
X-107.154 Y-14.943
X-106.987 Y-14.944
X-106.356 Y-14.946
X-106.318 Y-14.939
X-106.286 Y-14.918
X-106.264 Y-14.887
X-106.256 Y-14.85
Y-14.512
X-106.259 Y-14.437
X-106.315 Y-14.298
X-106.413 Y-14.184
X-106.535 Y-14.097
X-106.672 Y-14.036
X-106.817 Y-13.999
X-106.967 Y-13.992
X-107.046 Y-14.005
X-107.147 Y-14.047
X-107.218 Y-14.13
X-107.243 Y-14.235
Y-14.544
X-107.234 Y-14.582
X-107.211 Y-14.614
X-107.178 Y-14.635
X-107.139 Y-14.641
X-106.987 Y-14.634
X-106.351 Y-14.608
X-106.315 Y-14.6
X-106.285 Y-14.579
X-106.264 Y-14.548
X-106.256 Y-14.512
Y-14.22
X-106.263 Y-14.071
X-106.339 Y-13.941
X-106.448 Y-13.838
X-106.576 Y-13.76
X-106.717 Y-13.707
X-106.864 Y-13.681
X-107.014 Y-13.685
X-107.067 Y-13.698
X-107.16 Y-13.745
X-107.223 Y-13.827
X-107.244 Y-13.929
X-107.243 Y-13.967
Y-14.235
X-107.234 Y-14.273
X-107.212 Y-14.305
X-107.179 Y-14.325
X-107.141 Y-14.332
X-106.987 Y-14.329
X-106.354 Y-14.317
X-106.317 Y-14.309
X-106.285 Y-14.288
X-106.264 Y-14.257
X-106.256 Y-14.22
Y-13.921
X-106.263 Y-13.771
X-106.333 Y-13.638
X-106.439 Y-13.531
X-106.565 Y-13.451
X-106.706 Y-13.398
X-106.853 Y-13.37
X-107.003 Y-13.372
X-107.149 Y-13.405
X-107.184 Y-13.422
X-107.267 Y-13.497
X-107.302 Y-13.604
X-107.28 Y-13.714
X-107.267 Y-13.756
X-107.255 Y-13.798
X-107.245 Y-13.883
X-107.244 Y-13.929
X-107.235 Y-13.966
X-107.212 Y-13.996
X-107.18 Y-14.017
X-107.143 Y-14.024
X-106.987 Y-14.022
X-106.355 Y-14.017
X-106.317 Y-14.01
X-106.286 Y-13.989
X-106.264 Y-13.958
X-106.256 Y-13.921
Y-13.583
X-106.263 Y-13.433
X-106.343 Y-13.306
X-106.454 Y-13.205
X-106.583 Y-13.129
X-106.725 Y-13.079
X-106.873 Y-13.055
X-107.023 Y-13.054
X-107.17 Y-13.085
X-107.307 Y-13.144
X-107.368 Y-13.193
X-107.443 Y-13.299
X-107.449 Y-13.429
X-107.385 Y-13.543
X-107.359 Y-13.559
X-107.329 Y-13.568
X-106.983 Y-13.608
X-106.367 Y-13.679
X-106.334 Y-13.677
X-106.304 Y-13.665
X-106.279 Y-13.643
X-106.262 Y-13.615
X-106.256 Y-13.583
Y-13.291
X-106.263 Y-13.141
X-106.333 Y-13.009
X-106.44 Y-12.903
X-106.567 Y-12.824
X-106.707 Y-12.77
X-106.854 Y-12.74
X-107.004 Y-12.732
X-107.153 Y-12.747
X-107.298 Y-12.787
X-107.433 Y-12.853
X-107.536 Y-12.93
X-107.554 Y-12.947
X-107.56 Y-12.953
X-107.577 Y-12.97
X-107.662 Y-13.043
X-107.746 Y-13.107
X-107.768 Y-13.122
X-107.847 Y-13.168
X-107.863 Y-13.183
X-107.872 Y-13.195
X-107.878 Y-13.207
X-107.883 Y-13.217
X-107.885 Y-13.228
X-107.887 Y-13.238
X-107.888 Y-13.249
X-107.887 Y-13.26
X-107.885 Y-13.27
X-107.882 Y-13.281
X-107.878 Y-13.291
X-107.871 Y-13.304
X-107.86 Y-13.317
X-107.846 Y-13.331
X-107.831 Y-13.343
X-107.82 Y-13.349
X-107.81 Y-13.354
X-107.799 Y-13.357
X-107.789 Y-13.359
X-107.746 Y-13.362
X-107.662 Y-13.376
X-107.619 Y-13.39
X-107.577 Y-13.405
X-107.492 Y-13.45
X-107.477 Y-13.46
X-107.408 Y-13.52
X-107.385 Y-13.543
X-107.359 Y-13.559
X-107.33 Y-13.568
X-107.299 Y-13.567
X-106.976 Y-13.506
X-106.337 Y-13.386
X-106.306 Y-13.374
X-106.28 Y-13.353
X-106.262 Y-13.324
X-106.256 Y-13.291
Y-12.953
X-106.263 Y-12.804
X-106.344 Y-12.677
X-106.455 Y-12.576
X-106.584 Y-12.5
X-106.724 Y-12.446
X-106.871 Y-12.416
X-107.02 Y-12.406
X-107.117 Y-12.412
X-107.199 Y-12.432
X-107.269 Y-12.481
X-107.316 Y-12.551
X-107.344 Y-12.616
X-107.383 Y-12.7
X-107.425 Y-12.784
X-107.45 Y-12.827
X-107.481 Y-12.869
X-107.492 Y-12.883
X-107.554 Y-12.947
X-107.574 Y-12.981
X-107.58 Y-13.019
X-107.57 Y-13.057
X-107.547 Y-13.089
X-107.513 Y-13.108
X-107.474 Y-13.114
X-106.986 Y-13.086
X-106.35 Y-13.05
X-106.314 Y-13.041
X-106.284 Y-13.02
X-106.264 Y-12.989
X-106.256 Y-12.953
Y-12.654
X-106.263 Y-12.504
X-106.337 Y-12.373
X-106.444 Y-12.268
X-106.57 Y-12.187
X-106.709 Y-12.13
X-106.854 Y-12.093
X-107.004 Y-12.08
X-107.047 Y-12.085
X-107.141 Y-12.117
X-107.213 Y-12.185
X-107.249 Y-12.278
X-107.304 Y-12.521
X-107.307 Y-12.531
X-107.316 Y-12.551
X-107.323 Y-12.588
X-107.316 Y-12.625
X-107.296 Y-12.656
X-107.266 Y-12.678
X-107.23 Y-12.688
X-106.986 Y-12.705
X-106.363 Y-12.75
X-106.331 Y-12.747
X-106.301 Y-12.734
X-106.278 Y-12.713
X-106.262 Y-12.685
X-106.256 Y-12.654
Y-12.316
X-106.263 Y-12.166
X-106.344 Y-12.039
X-106.454 Y-11.937
X-106.581 Y-11.858
X-106.72 Y-11.802
X-106.867 Y-11.771
X-107.017 Y-11.769
X-107.067 Y-11.781
X-107.164 Y-11.83
X-107.229 Y-11.919
X-107.246 Y-12.027
X-107.239 Y-12.115
X-107.237 Y-12.193
X-107.239 Y-12.213
X-107.249 Y-12.278
X-107.248 Y-12.311
X-107.235 Y-12.342
X-107.214 Y-12.367
X-107.185 Y-12.383
X-107.153 Y-12.39
X-106.987 Y-12.394
X-106.358 Y-12.412
X-106.32 Y-12.406
X-106.287 Y-12.385
X-106.264 Y-12.354
X-106.256 Y-12.316
Y-12.278
X-106.267 Y-12.024
X-106.271 Y-11.978
X-106.291 Y-11.829
X-106.372 Y-11.703
X-106.484 Y-11.603
X-106.613 Y-11.528
X-106.755 Y-11.477
X-106.903 Y-11.455
X-107.053 Y-11.465
X-107.129 Y-11.489
X-107.229 Y-11.55
X-107.286 Y-11.653
X-107.285 Y-11.771
X-107.265 Y-11.855
X-107.255 Y-11.94
X-107.246 Y-12.027
X-107.235 Y-12.062
X-107.211 Y-12.091
X-107.179 Y-12.11
X-107.142 Y-12.115
X-106.994 Y-12.109
X-106.367 Y-12.083
X-106.329 Y-12.073
X-106.297 Y-12.05
X-106.277 Y-12.017
X-106.271 Y-11.978
X-106.274 Y-11.94
X-106.293 Y-11.771
X-106.304 Y-11.686
X-106.322 Y-11.602
X-106.361 Y-11.457
X-106.453 Y-11.338
X-106.573 Y-11.249
X-106.71 Y-11.189
X-106.856 Y-11.154
X-107.006 Y-11.149
X-107.154 Y-11.174
X-107.292 Y-11.232
X-107.3 Y-11.238
X-107.366 Y-11.317
X-107.391 Y-11.418
X-107.371 Y-11.519
X-107.334 Y-11.602
X-107.308 Y-11.686
X-107.285 Y-11.771
X-107.268 Y-11.802
X-107.242 Y-11.826
X-107.209 Y-11.839
X-107.174 Y-11.84
X-107.023 Y-11.816
X-106.405 Y-11.718
X-106.368 Y-11.705
X-106.339 Y-11.678
X-106.323 Y-11.641
X-106.322 Y-11.602
X-106.358 Y-11.433
X-106.381 Y-11.349
X-106.416 Y-11.232
X-106.42 Y-11.222
X-106.432 Y-11.201
X-106.447 Y-11.18
X-106.512 Y-11.095
X-106.613 Y-10.984
X-106.742 Y-10.908
X-106.886 Y-10.865
X-107.035 Y-10.851
X-107.184 Y-10.864
X-107.328 Y-10.909
X-107.457 Y-10.985
X-107.489 Y-11.017
X-107.545 Y-11.116
X-107.549 Y-11.229
X-107.499 Y-11.33
X-107.485 Y-11.349
X-107.408 Y-11.458
X-107.371 Y-11.519
X-107.348 Y-11.55
X-107.315 Y-11.569
X-107.276 Y-11.575
X-107.239 Y-11.565
X-107.104 Y-11.502
X-106.551 Y-11.244
X-106.523 Y-11.224
X-106.503 Y-11.195
X-106.494 Y-11.161
X-106.497 Y-11.127
X-106.512 Y-11.095
X-106.581 Y-11.011
X-106.646 Y-10.933
X-106.816 Y-10.779
X-106.874 Y-10.729
X-106.992 Y-10.638
X-107.138 Y-10.601
X-107.288 Y-10.602
X-107.434 Y-10.635
X-107.569 Y-10.701
X-107.685 Y-10.796
X-107.716 Y-10.84
X-107.756 Y-10.946
X-107.741 Y-11.058
X-107.676 Y-11.151
X-107.642 Y-11.18
X-107.577 Y-11.239
X-107.555 Y-11.264
X-107.499 Y-11.33
X-107.467 Y-11.354
X-107.429 Y-11.363
X-107.389 Y-11.357
X-107.356 Y-11.335
X-107.323 Y-11.304
X-106.872 Y-10.875
X-106.853 Y-10.849
X-106.843 Y-10.818
Y-10.786
X-106.854 Y-10.755
X-106.874 Y-10.729
X-106.94 Y-10.673
X-106.985 Y-10.635
X-107.006 Y-10.619
X-107.027 Y-10.609
X-107.077 Y-10.588
X-107.239 Y-10.527
X-107.323 Y-10.495
X-107.467 Y-10.452
X-107.617 Y-10.459
X-107.758 Y-10.511
X-107.877 Y-10.602
X-107.969 Y-10.721
X-107.97 Y-10.726
X-107.983 Y-10.837
X-107.94 Y-10.94
X-107.854 Y-11.011
X-107.818 Y-11.023
X-107.779 Y-11.02
X-107.744 Y-11.003
X-107.301 Y-10.667
X-107.277 Y-10.642
X-107.264 Y-10.61
X-107.262 Y-10.575
X-107.273 Y-10.542
X-107.294 Y-10.514
X-107.323 Y-10.495
X-107.662 Y-10.376
X-107.807 Y-10.337
X-107.953 Y-10.368
X-108.084 Y-10.443
X-108.181 Y-10.557
X-108.204 Y-10.611
X-108.22 Y-10.737
X-108.168 Y-10.852
X-108.064 Y-10.924
X-108 Y-10.947
X-107.915 Y-10.982
X-107.854 Y-11.011
X-107.831 Y-11.025
X-107.74 Y-11.095
X-107.676 Y-11.151
X-107.64 Y-11.169
X-107.601 Y-11.172
X-107.564 Y-11.159
X-107.534 Y-11.133
X-107.517 Y-11.098
X-107.514 Y-11.058
X-107.599 Y-10.455
X-107.61 Y-10.422
X-107.632 Y-10.394
X-107.662 Y-10.376
X-107.915 Y-10.296
X-108 Y-10.275
X-108.149 Y-10.26
X-108.287 Y-10.318
X-108.394 Y-10.424
X-108.44 Y-10.509
X-108.468 Y-10.607
X-108.451 Y-10.707
X-108.394 Y-10.791
X-108.306 Y-10.843
X-108.254 Y-10.859
X-108.064 Y-10.924
X-108.028 Y-10.928
X-107.992 Y-10.918
X-107.963 Y-10.897
X-107.943 Y-10.866
X-107.935 Y-10.83
X-107.928 Y-10.373
X-107.933 Y-10.34
X-107.947 Y-10.311
X-107.971 Y-10.289
X-108 Y-10.275
X-108.166 Y-10.25
X-108.254 Y-10.239
X-108.3 Y-10.234
X-108.375 Y-10.23
X-108.52 Y-10.269
X-108.634 Y-10.366
X-108.704 Y-10.499
X-108.709 Y-10.528
X-108.697 Y-10.645
X-108.629 Y-10.741
X-108.523 Y-10.792
X-108.492 Y-10.793
X-108.463 Y-10.783
X-108.438 Y-10.766
X-108.419 Y-10.741
X-108.226 Y-10.38
X-108.215 Y-10.344
X-108.218 Y-10.306
X-108.235 Y-10.271
X-108.264 Y-10.246
X-108.3 Y-10.234
X-108.554 Y-10.208
X-108.629 Y-10.204
X-108.774 Y-10.242
X-108.887 Y-10.342
X-108.951 Y-10.477
X-108.954 Y-10.513
X-108.932 Y-10.63
X-108.856 Y-10.721
X-108.745 Y-10.763
X-108.592 Y-10.779
X-108.508 Y-10.796
X-108.306 Y-10.843
X-108.272 Y-10.846
X-108.238 Y-10.838
X-108.21 Y-10.818
X-108.189 Y-10.791
X-108.18 Y-10.758
X-108.182 Y-10.723
X-108.195 Y-10.691
X-108.484 Y-10.252
X-108.503 Y-10.231
X-108.527 Y-10.216
X-108.554 Y-10.208
X-108.761 Y-10.188
X-108.846 Y-10.182
X-108.921 Y-10.183
X-109.059 Y-10.241
X-109.156 Y-10.356
X-109.204 Y-10.498
X-109.203 Y-10.527
X-109.169 Y-10.637
X-109.087 Y-10.718
X-108.976 Y-10.749
X-108.945 Y-10.744
X-108.917 Y-10.73
X-108.895 Y-10.708
X-108.881 Y-10.68
X-108.763 Y-10.312
X-108.758 Y-10.277
X-108.765 Y-10.242
X-108.784 Y-10.213
X-108.812 Y-10.192
X-108.846 Y-10.182
X-109.1 Y-10.173
X-109.175 Y-10.18
X-109.311 Y-10.242
X-109.407 Y-10.357
X-109.45 Y-10.501
X-109.448 Y-10.532
X-109.41 Y-10.645
X-109.321 Y-10.724
X-109.204 Y-10.75
X-109.175 Y-10.743
X-109.149 Y-10.727
X-109.129 Y-10.705
X-109.116 Y-10.677
X-109.01 Y-10.3
X-109.007 Y-10.265
X-109.016 Y-10.231
X-109.036 Y-10.202
X-109.066 Y-10.182
X-109.1 Y-10.173
X-109.184 Y-10.176
X-109.354 Y-10.186
X-109.428 Y-10.194
X-109.564 Y-10.257
X-109.657 Y-10.375
X-109.694 Y-10.52
X-109.691 Y-10.557
X-109.647 Y-10.671
X-109.551 Y-10.747
X-109.431 Y-10.764
X-109.394 Y-10.751
X-109.366 Y-10.725
X-109.349 Y-10.69
X-109.255 Y-10.31
X-109.252 Y-10.273
X-109.263 Y-10.239
X-109.286 Y-10.21
X-109.318 Y-10.192
X-109.354 Y-10.186
X-109.607 Y-10.2
X-109.682 Y-10.208
X-109.816 Y-10.276
X-109.905 Y-10.396
X-109.939 Y-10.543
X-109.933 Y-10.595
X-109.887 Y-10.71
X-109.788 Y-10.785
X-109.664 Y-10.799
X-109.628 Y-10.784
X-109.6 Y-10.756
X-109.585 Y-10.72
X-109.507 Y-10.319
Y-10.284
X-109.519 Y-10.25
X-109.542 Y-10.223
X-109.572 Y-10.206
X-109.607 Y-10.2
X-109.692 Y-10.205
X-109.908 Y-10.239
X-109.981 Y-10.255
X-110.101 Y-10.344
X-110.169 Y-10.478
X-110.186 Y-10.627
X-110.173 Y-10.679
X-110.108 Y-10.791
X-109.993 Y-10.851
X-109.864 Y-10.841
X-109.832 Y-10.82
X-109.811 Y-10.788
X-109.803 Y-10.75
X-109.796 Y-10.34
X-109.801 Y-10.307
X-109.817 Y-10.277
X-109.842 Y-10.254
X-109.874 Y-10.241
X-109.908 Y-10.239
X-109.979 Y-10.25
X-110.162 Y-10.288
X-110.234 Y-10.307
X-110.351 Y-10.401
X-110.418 Y-10.535
X-110.43 Y-10.685
X-110.396 Y-10.831
X-110.379 Y-10.857
X-110.298 Y-10.935
X-110.189 Y-10.965
X-110.079 Y-10.941
X-110.05 Y-10.917
X-110.032 Y-10.885
X-110.026 Y-10.849
X-110.045 Y-10.383
X-110.052 Y-10.35
X-110.07 Y-10.321
X-110.096 Y-10.3
X-110.128 Y-10.288
X-110.162
X-110.386 Y-10.335
X-110.42 Y-10.343
X-110.551 Y-10.417
X-110.641 Y-10.536
X-110.683 Y-10.68
X-110.678 Y-10.83
X-110.628 Y-10.972
X-110.599 Y-11.01
X-110.505 Y-11.083
X-110.388 Y-11.101
X-110.277 Y-11.059
X-110.254 Y-11.034
X-110.241 Y-11.002
X-110.239 Y-10.968
X-110.3 Y-10.43
X-110.309 Y-10.398
X-110.328 Y-10.371
X-110.355 Y-10.351
X-110.387 Y-10.342
X-110.42 Y-10.343
X-110.454 Y-10.36
X-110.707 Y-10.495
X-110.836 Y-10.572
X-110.91 Y-10.703
X-110.934 Y-10.851
X-110.913 Y-10.999
X-110.851 Y-11.136
X-110.811 Y-11.182
X-110.714 Y-11.25
X-110.596 Y-11.261
X-110.488 Y-11.212
X-110.466 Y-11.185
X-110.454 Y-11.152
X-110.455 Y-11.117
X-110.565 Y-10.565
X-110.579 Y-10.532
X-110.604 Y-10.505
X-110.636 Y-10.489
X-110.672 Y-10.485
X-110.707 Y-10.495
X-110.961 Y-10.63
X-111.077 Y-10.726
X-111.149 Y-10.857
X-111.169 Y-11.006
X-111.146 Y-11.154
X-111.082 Y-11.29
X-110.987 Y-11.405
X-110.956 Y-11.426
X-110.84 Y-11.464
X-110.721 Y-11.439
X-110.631 Y-11.357
X-110.62 Y-11.33
X-110.617 Y-11.302
X-110.622 Y-11.274
X-110.623 Y-11.27
X-110.823 Y-10.688
X-110.839 Y-10.658
X-110.864 Y-10.635
X-110.895 Y-10.622
X-110.929 Y-10.621
X-110.961 Y-10.63
X-111.018 Y-10.673
X-111.228 Y-10.842
X-111.34 Y-10.942
X-111.39 Y-11.083
X-111.391 Y-11.233
X-111.354 Y-11.378
X-111.282 Y-11.51
X-111.179 Y-11.619
X-111.051 Y-11.698
X-111.036 Y-11.703
X-110.931 Y-11.707
X-110.836 Y-11.666
X-110.767 Y-11.587
X-110.758 Y-11.558
Y-11.527
X-110.768 Y-11.498
X-110.806 Y-11.423
X-111.078 Y-10.877
X-111.099 Y-10.849
X-111.128 Y-10.83
X-111.162 Y-10.822
X-111.197 Y-10.826
X-111.228 Y-10.842
X-111.453 Y-11.024
X-111.48 Y-11.054
X-111.49 Y-11.068
X-111.506 Y-11.095
X-111.531 Y-11.142
X-111.595 Y-11.277
X-111.601 Y-11.427
X-111.563 Y-11.572
X-111.494 Y-11.706
X-111.453 Y-11.757
X-111.402 Y-11.804
X-111.34 Y-11.834
X-111.271 Y-11.844
X-111.236 Y-11.836
X-111.205 Y-11.816
X-111.184 Y-11.786
X-111.175 Y-11.751
X-111.179 Y-11.715
X-111.186 Y-11.692
X-111.349 Y-11.162
X-111.367 Y-11.129
X-111.396 Y-11.104
X-111.433 Y-11.092
X-111.471 Y-11.095
X-111.505 Y-11.113
X-111.531 Y-11.142
X-111.641 Y-11.349
X-111.684 Y-11.433
X-111.705 Y-11.475
X-111.723 Y-11.509
X-111.753 Y-11.577
X-111.752 Y-11.615
X-111.72 Y-11.73
X-111.634 Y-11.814
X-111.519 Y-11.844
X-111.485 Y-11.837
X-111.456 Y-11.819
X-111.435 Y-11.792
X-111.424 Y-11.759
Y-11.725
X-111.437 Y-11.693
X-111.549 Y-11.505
X-111.572 Y-11.479
X-111.602 Y-11.462
X-111.637 Y-11.457
X-111.671 Y-11.464
X-111.701 Y-11.482
X-111.723 Y-11.509
X-111.766 Y-11.602
X-111.785 Y-11.644
X-111.799 Y-11.686
X-111.804 Y-11.708
X-111.806 Y-11.718
Y-11.729
Y-11.739
X-111.804 Y-11.75
X-111.801 Y-11.76
X-111.797 Y-11.771
X-111.791 Y-11.782
X-111.782 Y-11.794
X-111.76 Y-11.817
X-111.741 Y-11.831
X-111.723 Y-11.839
X-111.712 Y-11.842
X-111.701 Y-11.844
X-110.961
X-110.951 Y-11.843
X-110.94 Y-11.841
X-110.929 Y-11.838
X-110.919 Y-11.833
X-110.908 Y-11.827
X-110.898 Y-11.818
X-110.885 Y-11.805
X-110.877 Y-11.792
X-110.864 Y-11.771
X-110.731 Y-11.517
X-110.707 Y-11.477
X-110.623 Y-11.345
X-110.55 Y-11.264
X-110.538 Y-11.253
X-110.447 Y-11.18
X-110.2 Y-11.003
X-110.115 Y-10.959
X-109.946 Y-10.875
X-109.861 Y-10.84
X-109.777 Y-10.819
X-109.692 Y-10.803
X-109.607 Y-10.789
X-109.438 Y-10.765
X-109.373 Y-10.757
X-109.184 Y-10.749
X-109.1 Y-10.746
X-108.846 Y-10.753
X-108.745 Y-10.763
X-108.717 Y-10.761
X-108.69 Y-10.751
X-108.67 Y-10.724 Z-0.983
X-108.653 Y-10.7 Z-0.966
X-108.64 Y-10.683 Z-0.939
X-108.639 Y-10.673 Z-0.915
Y-10.67 Z-0.89
G0 Z2
X-93.667 Y-16.629
Z0.5
G3 X-93.183 Y-16.754 Z0.29 I0.242 J-0.062 F333.3
X-93.667 Y-16.629 Z0.079 I-0.242 J0.062
X-93.183 Y-16.754 Z-0.131 I0.242 J-0.062
X-93.667 Y-16.629 Z-0.342 I-0.242 J0.062
X-93.183 Y-16.754 Z-0.552 I0.242 J-0.062
X-93.667 Y-16.629 Z-0.763 I-0.242 J0.062
X-93.457 Y-16.939 Z-0.876 I0.242 J-0.062
X-93.175 Y-16.691 Z-0.99 I0.031 J0.248
X-93.675 I-0.25
X-93.175 I0.25
G1 X-93.138 Y-16.546 F1000
X-93.135 Y-16.471
X-93.16 Y-16.4
X-93.247 Y-16.278
X-93.382 Y-16.213
X-93.532 Y-16.204
X-93.676 Y-16.247
X-93.799 Y-16.333
X-93.889 Y-16.452
X-93.941 Y-16.593
X-93.95 Y-16.743
X-93.915 Y-16.889
X-93.84 Y-17.019
X-93.732 Y-17.123
X-93.599 Y-17.192
X-93.452 Y-17.22
X-93.302 Y-17.207
X-93.163 Y-17.152
X-93.044 Y-17.06
X-92.954 Y-16.94
X-92.884 Y-16.807
X-92.841 Y-16.664
X-92.831 Y-16.514
X-92.859 Y-16.366
X-92.915 Y-16.228
X-93.007 Y-16.109
X-93.052 Y-16.07
X-93.123 Y-16.032
X-93.202 Y-16.023
X-93.28 Y-16.045
X-93.364 Y-16.074
X-93.389 Y-16.079
X-93.449 Y-16.087
X-93.533
X-93.598 Y-16.079
X-93.618 Y-16.074
X-93.691 Y-16.059
X-93.84 Y-16.078
X-93.975 Y-16.144
X-94.085 Y-16.245
X-94.169 Y-16.37
X-94.226 Y-16.508
X-94.252 Y-16.656
X-94.249 Y-16.806
X-94.219 Y-16.953
X-94.161 Y-17.091
X-94.08 Y-17.217
X-94.074 Y-17.223
X-94.025 Y-17.263
X-93.967 Y-17.288
X-93.904 Y-17.297
X-93.148
X-93.11
X-93.064
X-92.993 Y-17.293
X-92.955 Y-17.275
X-92.898 Y-17.235
X-92.855 Y-17.181
X-92.83 Y-17.116
Y-17.077
X-92.846 Y-17.04
X-92.875 Y-17.013
X-92.912 Y-16.999
X-92.952 Y-17.001
X-92.988 Y-17.018
X-93.12 Y-17.116
X-93.144 Y-17.142
X-93.158 Y-17.174
X-93.159 Y-17.209
X-93.149 Y-17.243
X-93.128 Y-17.27
X-93.098 Y-17.289
X-93.064 Y-17.297
X-92.941 Y-17.295
X-92.926 Y-17.291
X-92.911 Y-17.285
X-92.896 Y-17.275
X-92.881 Y-17.261
X-92.868 Y-17.242
X-92.857 Y-17.223
X-92.852 Y-17.212
X-92.672 Y-16.416
X-92.646 Y-16.269
X-92.674 Y-16.121
X-92.741 Y-15.987
X-92.776 Y-15.946
X-92.879 Y-15.878
X-93.002 Y-15.873
X-93.11 Y-15.934
X-93.185 Y-15.994
X-93.195 Y-16.001
X-93.28 Y-16.045
X-93.307 Y-16.067
X-93.324 Y-16.098
X-93.33 Y-16.132
X-93.324 Y-16.167
X-93.306 Y-16.197
X-93.279 Y-16.219
X-92.818 Y-16.478
X-92.783 Y-16.49
X-92.747 Y-16.489
X-92.714 Y-16.475
X-92.687 Y-16.449
X-92.672 Y-16.416
X-92.596 Y-16.079
X-92.57 Y-15.931
X-92.622 Y-15.79
X-92.651 Y-15.761
X-92.743 Y-15.706
X-92.85 Y-15.698
X-92.95 Y-15.739
X-93.02 Y-15.82
X-93.03 Y-15.852
X-93.028 Y-15.886
X-93.015 Y-15.917
X-92.993 Y-15.942
X-92.755 Y-16.131
X-92.72 Y-16.149
X-92.68 Y-16.153
X-92.643 Y-16.14
X-92.613 Y-16.114
X-92.596 Y-16.079
X-92.539 Y-15.825
X-92.526 Y-15.751
X-92.542 Y-15.678
X-92.62 Y-15.55
X-92.624 Y-15.547
X-92.723 Y-15.517
X-92.826 Y-15.532
X-92.911 Y-15.591
X-92.963 Y-15.68
X-92.982 Y-15.741
X-93.001 Y-15.783
X-93.02 Y-15.82
X-93.03 Y-15.856
X-93.026 Y-15.892
X-93.009 Y-15.925
X-92.981 Y-15.95
X-92.946 Y-15.962
X-92.909 Y-15.961
X-92.614 Y-15.898
X-92.581 Y-15.884
X-92.554 Y-15.858
X-92.539 Y-15.825
X-92.49 Y-15.61
X-92.484 Y-15.573
X-92.496 Y-15.499
X-92.533 Y-15.433
X-92.543 Y-15.424
X-92.649 Y-15.367
X-92.77 Y-15.372
X-92.873 Y-15.436
X-92.929 Y-15.543
X-92.956 Y-15.656
X-92.963 Y-15.68
X-92.966 Y-15.718
X-92.955 Y-15.753
X-92.932 Y-15.782
X-92.9 Y-15.801
X-92.863 Y-15.807
X-92.827 Y-15.798
X-92.547 Y-15.676
X-92.521 Y-15.66
X-92.502 Y-15.637
X-92.49 Y-15.61
X-92.452 Y-15.441
X-92.446 Y-15.404
X-92.463 Y-15.331
X-92.504 Y-15.268
X-92.514 Y-15.26
X-92.62 Y-15.209
X-92.739 Y-15.216
X-92.838 Y-15.28
X-92.893 Y-15.385
X-92.929 Y-15.543
Y-15.58
X-92.916 Y-15.614
X-92.891 Y-15.642
X-92.858 Y-15.658
X-92.821 Y-15.661
X-92.785 Y-15.65
X-92.503 Y-15.504
X-92.48 Y-15.488
X-92.463 Y-15.467
X-92.452 Y-15.441
X-92.414 Y-15.272
X-92.407 Y-15.235
X-92.429 Y-15.163
X-92.518 Y-15.042
X-92.528 Y-15.038
X-92.628 Y-15.018
X-92.727 Y-15.042
X-92.806 Y-15.107
X-92.85 Y-15.199
X-92.893 Y-15.385
Y-15.423
X-92.879 Y-15.458
X-92.854 Y-15.485
X-92.82 Y-15.501
X-92.782 Y-15.503
X-92.746 Y-15.492
X-92.462 Y-15.334
X-92.441 Y-15.318
X-92.424 Y-15.297
X-92.414 Y-15.272
X-92.376 Y-15.103
X-92.369 Y-15.066
X-92.383 Y-14.992
X-92.423 Y-14.929
X-92.431 Y-14.921
X-92.537 Y-14.867
X-92.657 Y-14.872
X-92.758 Y-14.936
X-92.814 Y-15.042
X-92.85 Y-15.199
Y-15.236
X-92.837 Y-15.27
X-92.812 Y-15.297
X-92.779 Y-15.314
X-92.743 Y-15.317
X-92.707 Y-15.307
X-92.428 Y-15.167
X-92.405 Y-15.151
X-92.387 Y-15.129
X-92.376 Y-15.103
X-92.338 Y-14.934
X-92.331 Y-14.897
X-92.351 Y-14.825
X-92.394 Y-14.763
X-92.402 Y-14.757
X-92.509 Y-14.707
X-92.626 Y-14.716
X-92.724 Y-14.78
X-92.778 Y-14.884
X-92.814 Y-15.042
Y-15.08
X-92.801 Y-15.115
X-92.775 Y-15.142
X-92.742 Y-15.158
X-92.704 Y-15.161
X-92.669 Y-15.149
X-92.387 Y-14.997
X-92.365 Y-14.981
X-92.348 Y-14.959
X-92.338 Y-14.934
X-92.3 Y-14.765
X-92.293 Y-14.728
X-92.317 Y-14.657
X-92.408 Y-14.538
X-92.417 Y-14.535
X-92.516 Y-14.516
X-92.614 Y-14.542
X-92.692 Y-14.606
X-92.735 Y-14.697
X-92.778 Y-14.884
Y-14.922
X-92.764 Y-14.957
X-92.738 Y-14.985
X-92.704 Y-15.001
X-92.666 Y-15.002
X-92.63 Y-14.99
X-92.346 Y-14.826
X-92.317 Y-14.8
X-92.3 Y-14.765
X-92.264 Y-14.609
X-92.258 Y-14.572
X-92.268 Y-14.498
X-92.306 Y-14.433
X-92.311 Y-14.428
X-92.418 Y-14.369
X-92.54 Y-14.373
X-92.643 Y-14.437
X-92.7 Y-14.544
X-92.735 Y-14.697
Y-14.734
X-92.722 Y-14.768
X-92.698 Y-14.796
X-92.665 Y-14.812
X-92.629 Y-14.816
X-92.594 Y-14.806
X-92.318 Y-14.674
X-92.294 Y-14.658
X-92.276 Y-14.635
X-92.264 Y-14.609
X-92.223 Y-14.427
X-92.217 Y-14.39
X-92.239 Y-14.319
X-92.331 Y-14.2
X-92.338 Y-14.197
X-92.438 Y-14.178
X-92.536 Y-14.204
X-92.614 Y-14.268
X-92.658 Y-14.359
X-92.7 Y-14.544
Y-14.582
X-92.686 Y-14.617
X-92.66 Y-14.644
X-92.626 Y-14.66
X-92.588 Y-14.662
X-92.552 Y-14.65
X-92.27 Y-14.489
X-92.241 Y-14.463
X-92.223 Y-14.427
X-92.187 Y-14.266
X-92.181 Y-14.229
X-92.193 Y-14.155
X-92.232 Y-14.091
X-92.237 Y-14.086
X-92.344 Y-14.03
X-92.464 Y-14.035
X-92.566 Y-14.099
X-92.622 Y-14.206
X-92.658 Y-14.359
Y-14.396
X-92.645 Y-14.431
X-92.62 Y-14.458
X-92.587 Y-14.475
X-92.55 Y-14.478
X-92.515 Y-14.468
X-92.239 Y-14.33
X-92.216 Y-14.314
X-92.198 Y-14.292
X-92.187 Y-14.266
X-92.147 Y-14.089
X-92.141 Y-14.053
X-92.163 Y-13.981
X-92.254 Y-13.862
X-92.261 Y-13.859
X-92.36 Y-13.84
X-92.458 Y-13.865
X-92.536 Y-13.93
X-92.58 Y-14.021
X-92.622 Y-14.206
Y-14.243
X-92.608 Y-14.278
X-92.582 Y-14.306
X-92.548 Y-14.322
X-92.51 Y-14.324
X-92.474 Y-14.311
X-92.194 Y-14.151
X-92.164 Y-14.125
X-92.147 Y-14.089
X-92.109 Y-13.921
X-92.103 Y-13.884
X-92.118 Y-13.81
X-92.159 Y-13.747
X-92.164 Y-13.742
X-92.271 Y-13.69
X-92.39 Y-13.697
X-92.489 Y-13.761
X-92.544 Y-13.866
X-92.58 Y-14.021
Y-14.058
X-92.567 Y-14.093
X-92.541 Y-14.12
X-92.508 Y-14.137
X-92.471 Y-14.139
X-92.435 Y-14.129
X-92.159 Y-13.984
X-92.137 Y-13.968
X-92.12 Y-13.946
X-92.109 Y-13.921
X-92.071 Y-13.752
X-92.065 Y-13.715
X-92.086 Y-13.643
X-92.176 Y-13.523
X-92.182 Y-13.52
X-92.282 Y-13.501
X-92.38 Y-13.526
X-92.459 Y-13.59
X-92.502 Y-13.682
X-92.544 Y-13.866
Y-13.904
X-92.53 Y-13.939
X-92.504 Y-13.967
X-92.47 Y-13.982
X-92.432 Y-13.984
X-92.397 Y-13.972
X-92.118 Y-13.813
X-92.088 Y-13.787
X-92.071 Y-13.752
X-92.033 Y-13.583
X-92.026 Y-13.546
X-92.041 Y-13.472
X-92.081 Y-13.409
X-92.086 Y-13.404
X-92.193 Y-13.352
X-92.312 Y-13.359
X-92.412 Y-13.423
X-92.467 Y-13.528
X-92.502 Y-13.682
Y-13.719
X-92.489 Y-13.754
X-92.464 Y-13.781
X-92.43 Y-13.797
X-92.393 Y-13.8
X-92.358 Y-13.79
X-92.083 Y-13.646
X-92.061 Y-13.63
X-92.043 Y-13.608
X-92.033 Y-13.583
X-91.995 Y-13.414
X-91.988 Y-13.377
X-92.01 Y-13.305
X-92.099 Y-13.185
X-92.105 Y-13.182
X-92.205 Y-13.163
X-92.303 Y-13.189
X-92.381 Y-13.253
X-92.425 Y-13.345
X-92.467 Y-13.528
Y-13.566
X-92.453 Y-13.601
X-92.427 Y-13.629
X-92.392 Y-13.644
X-92.355 Y-13.646
X-92.319 Y-13.634
X-92.042 Y-13.475
X-92.012 Y-13.449
X-91.995 Y-13.414
X-91.957 Y-13.245
X-91.95 Y-13.208
X-91.965 Y-13.134
X-92.005 Y-13.071
X-92.009 Y-13.067
X-92.116 Y-13.015
X-92.235 Y-13.022
X-92.334 Y-13.086
X-92.39 Y-13.191
X-92.425 Y-13.345
Y-13.382
X-92.411 Y-13.416
X-92.386 Y-13.444
X-92.353 Y-13.46
X-92.315 Y-13.463
X-92.28 Y-13.452
X-92.007 Y-13.308
X-91.984 Y-13.292
X-91.967 Y-13.27
X-91.957 Y-13.245
X-91.926 Y-13.109
X-91.913 Y-13.035
X-91.936 Y-12.963
X-92.029 Y-12.845
X-92.032 Y-12.844
X-92.131 Y-12.827
X-92.228 Y-12.853
X-92.305 Y-12.917
X-92.347 Y-13.008
X-92.39 Y-13.191
Y-13.228
X-92.377 Y-13.262
X-92.353 Y-13.289
X-92.32 Y-13.306
X-92.284 Y-13.31
X-92.249 Y-13.301
X-91.98 Y-13.174
X-91.956 Y-13.157
X-91.937 Y-13.135
X-91.926 Y-13.109
X-91.88 Y-12.907
X-91.874 Y-12.87
X-91.889 Y-12.796
X-91.93 Y-12.734
X-91.933 Y-12.731
X-92.04 Y-12.679
X-92.158 Y-12.686
X-92.257 Y-12.75
X-92.312 Y-12.855
X-92.347 Y-13.008
X-92.348 Y-13.045
X-92.334 Y-13.08
X-92.309 Y-13.108
X-92.275 Y-13.124
X-92.238 Y-13.126
X-92.202 Y-13.115
X-91.93 Y-12.97
X-91.908 Y-12.954
X-91.891 Y-12.932
X-91.88 Y-12.907
X-91.846 Y-12.756
X-91.84 Y-12.719
X-91.855 Y-12.646
X-91.896 Y-12.583
X-91.899 Y-12.58
X-92.005 Y-12.528
X-92.124 Y-12.536
X-92.223 Y-12.6
X-92.278 Y-12.705
X-92.312 Y-12.855
X-92.313 Y-12.893
X-92.299 Y-12.927
X-92.274 Y-12.955
X-92.24 Y-12.971
X-92.203 Y-12.974
X-92.168 Y-12.963
X-91.896 Y-12.819
X-91.874 Y-12.803
X-91.857 Y-12.782
X-91.846 Y-12.756
X-91.815 Y-12.616
X-91.802 Y-12.542
X-91.827 Y-12.471
X-91.923 Y-12.356
X-92.023 Y-12.34
X-92.118 Y-12.367
X-92.194 Y-12.431
X-92.236 Y-12.521
X-92.278 Y-12.705
Y-12.742
X-92.265 Y-12.776
X-92.24 Y-12.804
X-92.207 Y-12.82
X-92.171 Y-12.824
X-92.135 Y-12.813
X-91.867 Y-12.68
X-91.844 Y-12.664
X-91.826 Y-12.642
X-91.815 Y-12.616
X-91.777 Y-12.447
X-91.764 Y-12.373
X-91.783 Y-12.3
X-91.826 Y-12.239
X-91.828 Y-12.237
X-91.934 Y-12.19
X-92.05 Y-12.2
X-92.147 Y-12.264
X-92.201 Y-12.368
X-92.236 Y-12.521
Y-12.557
X-92.223 Y-12.591
X-92.2 Y-12.618
X-92.168 Y-12.635
X-92.132 Y-12.64
X-92.097 Y-12.631
X-91.832 Y-12.512
X-91.807 Y-12.496
X-91.788 Y-12.474
X-91.777 Y-12.447
X-91.739 Y-12.278
X-91.726 Y-12.204
X-91.751 Y-12.133
X-91.848 Y-12.017
X-91.946 Y-12.003
X-92.041 Y-12.03
X-92.116 Y-12.094
X-92.158 Y-12.183
X-92.201 Y-12.368
Y-12.405
X-92.187 Y-12.439
X-92.163 Y-12.466
X-92.13 Y-12.483
X-92.093 Y-12.486
X-92.057 Y-12.476
X-91.79 Y-12.342
X-91.767 Y-12.326
X-91.749 Y-12.304
X-91.739 Y-12.278
X-91.7 Y-12.109
X-91.688 Y-12.035
X-91.707 Y-11.962
X-91.75 Y-11.901
X-91.858 Y-11.853
X-91.973 Y-11.863
X-92.07 Y-11.928
X-92.123 Y-12.031
X-92.158 Y-12.183
X-92.159 Y-12.22
X-92.146 Y-12.254
X-92.122 Y-12.281
X-92.09 Y-12.298
X-92.054 Y-12.302
X-92.019 Y-12.293
X-91.756 Y-12.174
X-91.731 Y-12.158
X-91.712 Y-12.136
X-91.7 Y-12.109
X-91.662 Y-11.94
X-91.649 Y-11.866
X-91.675 Y-11.795
X-91.772 Y-11.68
X-91.902 Y-11.671
X-92.017 Y-11.733
X-92.081 Y-11.847
X-92.123 Y-12.031
Y-12.068
X-92.11 Y-12.102
X-92.085 Y-12.13
X-92.052 Y-12.146
X-92.015 Y-12.149
X-91.98 Y-12.139
X-91.714 Y-12.004
X-91.691 Y-11.987
X-91.673 Y-11.966
X-91.662 Y-11.94
X-91.624 Y-11.771
X-91.611 Y-11.697
X-91.631 Y-11.625
X-91.635 Y-11.618
X-91.74 Y-11.54
X-91.87 Y-11.531
X-91.985 Y-11.593
X-92.049 Y-11.707
X-92.081 Y-11.847
Y-11.883
X-92.069 Y-11.917
X-92.044 Y-11.944
X-92.012 Y-11.961
X-91.976 Y-11.965
X-91.941 Y-11.957
X-91.679 Y-11.836
X-91.655 Y-11.82
X-91.636 Y-11.798
X-91.624 Y-11.771
X-91.588 Y-11.608
X-91.581 Y-11.571
X-91.594 Y-11.497
X-91.597 Y-11.493
X-91.676 Y-11.42
X-91.779 Y-11.39
X-91.885 Y-11.41
X-91.97 Y-11.475
X-92.018 Y-11.571
X-92.049 Y-11.707
Y-11.744
X-92.035 Y-11.779
X-92.01 Y-11.806
X-91.976 Y-11.823
X-91.939 Y-11.825
X-91.903 Y-11.814
X-91.637 Y-11.671
X-91.615 Y-11.655
X-91.598 Y-11.633
X-91.588 Y-11.608
X-91.557 Y-11.471
X-91.55 Y-11.434
X-91.566 Y-11.361
X-91.606 Y-11.297
X-91.608 Y-11.295
X-91.714 Y-11.246
X-91.831 Y-11.254
X-91.929 Y-11.319
X-91.984 Y-11.423
X-92.018 Y-11.571
Y-11.609
X-92.004 Y-11.644
X-91.979 Y-11.671
X-91.945 Y-11.687
X-91.907 Y-11.69
X-91.872 Y-11.678
X-91.606 Y-11.533
X-91.584 Y-11.517
X-91.567 Y-11.496
X-91.557 Y-11.471
X-91.518 Y-11.302
X-91.512 Y-11.265
X-91.535 Y-11.194
X-91.629 Y-11.076
X-91.727 Y-11.06
X-91.823 Y-11.087
X-91.899 Y-11.151
X-91.942 Y-11.241
X-91.984 Y-11.423
Y-11.461
X-91.969 Y-11.497
X-91.943 Y-11.524
X-91.907 Y-11.54
X-91.869 Y-11.541
X-91.833 Y-11.527
X-91.563 Y-11.362
X-91.535 Y-11.336
X-91.518 Y-11.302
X-91.48 Y-11.133
X-91.474 Y-11.096
X-91.491 Y-11.023
X-91.534 Y-10.961
X-91.64 Y-10.913
X-91.756 Y-10.922
X-91.854 Y-10.987
X-91.907 Y-11.09
X-91.942 Y-11.241
Y-11.279
X-91.928 Y-11.314
X-91.902 Y-11.341
X-91.868 Y-11.357
X-91.83 Y-11.359
X-91.794 Y-11.347
X-91.528 Y-11.195
X-91.498 Y-11.169
X-91.48 Y-11.133
X-91.442 Y-10.964
X-91.436 Y-10.927
X-91.461 Y-10.856
X-91.467 Y-10.849
X-91.573 Y-10.776
X-91.701 Y-10.771
X-91.812 Y-10.833
X-91.874 Y-10.945
X-91.907 Y-11.09
Y-11.129
X-91.893 Y-11.165
X-91.866 Y-11.192
X-91.83 Y-11.207
X-91.792 Y-11.208
X-91.756 Y-11.194
X-91.486 Y-11.023
X-91.458 Y-10.998
X-91.442 Y-10.964
X-91.418 Y-10.858
X-91.405 Y-10.784
X-91.429 Y-10.713
X-91.434 Y-10.707
X-91.54 Y-10.634
X-91.668 Y-10.629
X-91.78 Y-10.691
X-91.842 Y-10.803
X-91.874 Y-10.945
Y-10.982
X-91.861 Y-11.017
X-91.836 Y-11.044
X-91.803 Y-11.061
X-91.766 Y-11.064
X-91.731 Y-11.054
X-91.47 Y-10.922
X-91.447 Y-10.906
X-91.429 Y-10.884
X-91.418 Y-10.858
X-91.385 Y-10.711
X-91.379 Y-10.674
X-91.388 Y-10.599
X-91.466 Y-10.524
X-91.57 Y-10.492
X-91.676 Y-10.511
X-91.763 Y-10.576
X-91.811 Y-10.673
X-91.842 Y-10.803
Y-10.841
X-91.828 Y-10.875
X-91.803 Y-10.903
X-91.77 Y-10.919
X-91.732 Y-10.922
X-91.697 Y-10.911
X-91.435 Y-10.774
X-91.413 Y-10.758
X-91.396 Y-10.736
X-91.385 Y-10.711
X-91.357 Y-10.588
X-91.345 Y-10.514
X-91.369 Y-10.444
X-91.414 Y-10.384
X-91.52 Y-10.342
X-91.632 Y-10.355
X-91.725 Y-10.42
X-91.777 Y-10.521
X-91.811 Y-10.673
X-91.812 Y-10.709
X-91.799 Y-10.744
X-91.774 Y-10.771
X-91.741 Y-10.788
X-91.704 Y-10.791
X-91.669 Y-10.781
X-91.41 Y-10.653
X-91.386 Y-10.636
X-91.369 Y-10.614
X-91.357 Y-10.588
X-91.319 Y-10.419
X-91.313 Y-10.382
X-91.329 Y-10.309
X-91.37 Y-10.246
X-91.475 Y-10.197
X-91.592 Y-10.206
X-91.689 Y-10.27
X-91.743 Y-10.373
X-91.777 Y-10.521
Y-10.558
X-91.763 Y-10.593
X-91.737 Y-10.62
X-91.703 Y-10.636
X-91.666 Y-10.639
X-91.63 Y-10.627
X-91.368 Y-10.481
X-91.346 Y-10.465
X-91.33 Y-10.444
X-91.319 Y-10.419
X-91.29 Y-10.289
X-91.277 Y-10.215
X-91.3 Y-10.143
X-91.302 Y-10.14
X-91.408 Y-10.067
X-91.536 Y-10.06
X-91.649 Y-10.123
X-91.711 Y-10.235
X-91.743 Y-10.373
Y-10.41
X-91.73 Y-10.445
X-91.705 Y-10.472
X-91.672 Y-10.488
X-91.635 Y-10.492
X-91.6 Y-10.482
X-91.342 Y-10.353
X-91.319 Y-10.336
X-91.301 Y-10.315
X-91.29 Y-10.289
X-91.255 Y-10.134
X-91.249 Y-10.097
X-91.262 Y-10.023
X-91.341 Y-9.952
X-91.444 Y-9.923
X-91.549 Y-9.943
X-91.634 Y-10.008
X-91.681 Y-10.104
X-91.711 Y-10.235
Y-10.273
X-91.697 Y-10.308
X-91.672 Y-10.335
X-91.637 Y-10.351
X-91.6 Y-10.353
X-91.564 Y-10.342
X-91.303 Y-10.196
X-91.282 Y-10.18
X-91.265 Y-10.159
X-91.255 Y-10.134
X-91.224 Y-9.997
X-91.218 Y-9.96
X-91.236 Y-9.887
X-91.277 Y-9.825
X-91.383 Y-9.778
X-91.498 Y-9.789
X-91.594 Y-9.853
X-91.647 Y-9.956
X-91.681 Y-10.104
Y-10.142
X-91.667 Y-10.177
X-91.641 Y-10.204
X-91.606 Y-10.22
X-91.569 Y-10.222
X-91.533 Y-10.209
X-91.271 Y-10.058
X-91.241 Y-10.032
X-91.224 Y-9.997
X-91.195 Y-9.866
X-91.182 Y-9.792
X-91.206 Y-9.721
X-91.209 Y-9.719
X-91.315 Y-9.647
X-91.442 Y-9.642
X-91.553 Y-9.705
X-91.615 Y-9.816
X-91.647 Y-9.956
Y-9.993
X-91.634 Y-10.027
X-91.609 Y-10.055
X-91.575 Y-10.071
X-91.538 Y-10.074
X-91.503 Y-10.063
X-91.245 Y-9.929
X-91.223 Y-9.913
X-91.205 Y-9.892
X-91.195 Y-9.866
X-91.164 Y-9.733
X-91.152 Y-9.659
X-91.173 Y-9.587
X-91.175 Y-9.585
X-91.28 Y-9.511
X-91.409 Y-9.505
X-91.521 Y-9.567
X-91.584 Y-9.68
X-91.615 Y-9.816
Y-9.853
X-91.602 Y-9.888
X-91.577 Y-9.915
X-91.544 Y-9.932
X-91.507 Y-9.935
X-91.472 Y-9.925
X-91.216 Y-9.797
X-91.193 Y-9.781
X-91.175 Y-9.759
X-91.164 Y-9.733
X-91.129 Y-9.575
X-91.122 Y-9.538
X-91.137 Y-9.464
X-91.217 Y-9.394
X-91.319 Y-9.367
X-91.423 Y-9.388
X-91.507 Y-9.452
X-91.553 Y-9.548
X-91.584 Y-9.68
Y-9.718
X-91.57 Y-9.753
X-91.544 Y-9.78
X-91.509 Y-9.796
X-91.471 Y-9.798
X-91.436 Y-9.785
X-91.176 Y-9.636
X-91.146 Y-9.61
X-91.129 Y-9.575
X-91.099 Y-9.444
X-91.093 Y-9.407
X-91.11 Y-9.334
X-91.15 Y-9.271
X-91.255 Y-9.224
X-91.37 Y-9.233
X-91.466 Y-9.298
X-91.519 Y-9.4
X-91.553 Y-9.548
Y-9.585
X-91.539 Y-9.62
X-91.513 Y-9.648
X-91.479 Y-9.664
X-91.441 Y-9.666
X-91.405 Y-9.653
X-91.146 Y-9.505
X-91.117 Y-9.479
X-91.099 Y-9.444
X-91.061 Y-9.275
X-91.055 Y-9.238
X-91.079 Y-9.167
X-91.081 Y-9.165
X-91.187 Y-9.093
X-91.315 Y-9.087
X-91.426 Y-9.15
X-91.488 Y-9.262
X-91.519 Y-9.4
Y-9.439
X-91.504 Y-9.474
X-91.477 Y-9.502
X-91.442 Y-9.517
X-91.403
X-91.367 Y-9.503
X-91.104 Y-9.334
X-91.077 Y-9.308
X-91.061 Y-9.275
X-91.034 Y-9.152
X-91.027 Y-9.115
X-91.044 Y-9.042
X-91.148 Y-8.964
X-91.278 Y-8.953
X-91.393 Y-9.015
X-91.457 Y-9.129
X-91.488 Y-9.262
Y-9.3
X-91.473 Y-9.336
X-91.447 Y-9.363
X-91.412 Y-9.379
X-91.374 Y-9.38
X-91.338 Y-9.367
X-91.079 Y-9.213
X-91.05 Y-9.187
X-91.034 Y-9.152
X-91.004 Y-9.022
X-90.998 Y-8.985
X-91.014 Y-8.911
X-91.117 Y-8.832
X-91.247 Y-8.821
X-91.363 Y-8.882
X-91.427 Y-8.996
X-91.457 Y-9.129
Y-9.167
X-91.443 Y-9.202
X-91.417 Y-9.23
X-91.382 Y-9.245
X-91.344 Y-9.247
X-91.308 Y-9.234
X-91.05 Y-9.082
X-91.021 Y-9.056
X-91.004 Y-9.022
X-90.976 Y-8.899
X-90.97 Y-8.862
X-90.981 Y-8.788
X-91.059 Y-8.716
X-91.161 Y-8.686
X-91.265 Y-8.706
X-91.35 Y-8.77
X-91.397 Y-8.865
X-91.427 Y-8.996
Y-9.033
X-91.413 Y-9.068
X-91.387 Y-9.096
X-91.353 Y-9.112
X-91.316 Y-9.114
X-91.28 Y-9.102
X-91.025 Y-8.961
X-91.003 Y-8.945
X-90.987 Y-8.924
X-90.976 Y-8.899
X-90.947 Y-8.768
X-90.94 Y-8.731
X-90.954 Y-8.658
X-90.993 Y-8.594
X-91.098 Y-8.545
X-91.213 Y-8.554
X-91.31 Y-8.617
X-91.363 Y-8.72
X-91.397 Y-8.865
Y-8.902
X-91.383 Y-8.937
X-91.357 Y-8.965
X-91.323 Y-8.981
X-91.286 Y-8.983
X-91.25 Y-8.971
X-90.995 Y-8.83
X-90.973 Y-8.814
X-90.957 Y-8.793
X-90.947 Y-8.768
X-90.919 Y-8.646
X-90.911 Y-8.621
X-90.899 Y-8.585
X-90.915 Y-8.512
X-90.955 Y-8.448
X-91.061 Y-8.398
X-91.178 Y-8.406
X-91.276 Y-8.47
X-91.33 Y-8.573
X-91.363 Y-8.72
Y-8.758
X-91.349 Y-8.793
X-91.322 Y-8.82
X-91.288 Y-8.836
X-91.25 Y-8.837
X-91.214 Y-8.824
X-90.951 Y-8.667
X-90.927 Y-8.647
X-90.911 Y-8.621
X-90.888 Y-8.561
X-90.874 Y-8.536
X-90.857 Y-8.502
X-90.843 Y-8.428
X-90.864 Y-8.356
X-90.907 Y-8.295
X-90.918 Y-8.286
X-91.025 Y-8.237
X-91.142 Y-8.246
X-91.239 Y-8.311
X-91.293 Y-8.415
X-91.33 Y-8.573
Y-8.609
X-91.318 Y-8.642
X-91.295 Y-8.67
X-91.264 Y-8.687
X-91.229 Y-8.692
X-91.194 Y-8.685
X-90.922 Y-8.577
X-90.894 Y-8.56
X-90.874 Y-8.536
X-90.84 Y-8.477
X-90.826 Y-8.456
X-90.796 Y-8.421
X-90.772 Y-8.391
X-90.754 Y-8.319
X-90.766 Y-8.245
X-90.798 Y-8.177
X-90.894 Y-8.062
X-90.924 Y-8.048
X-91.024 Y-8.029
X-91.123 Y-8.053
X-91.202 Y-8.118
X-91.246 Y-8.21
X-91.293 Y-8.415
X-91.294 Y-8.448
X-91.284 Y-8.479
X-91.264 Y-8.506
X-91.236 Y-8.525
X-91.204 Y-8.533
X-91.171 Y-8.531
X-90.845 Y-8.45
X-90.818 Y-8.439
X-90.796 Y-8.421
X-90.771 Y-8.392
X-90.756 Y-8.379
X-90.716 Y-8.358
X-90.683 Y-8.34
X-90.644 Y-8.276
X-90.614 Y-8.129
X-90.652 Y-7.984
X-90.749 Y-7.869
X-90.879 Y-7.795
X-90.918 Y-7.787
X-91.036 Y-7.795
X-91.135 Y-7.859
X-91.19 Y-7.964
X-91.246 Y-8.21
X-91.247 Y-8.243
X-91.237 Y-8.274
X-91.217 Y-8.301
X-91.19 Y-8.319
X-91.158 Y-8.328
X-90.768 Y-8.367
X-90.741 Y-8.366
X-90.716 Y-8.358
X-90.572 Y-8.285
X-90.507 Y-8.248
X-90.427 Y-8.122
X-90.414 Y-7.972
X-90.453 Y-7.827
X-90.534 Y-7.701
X-90.575 Y-7.662
X-90.622 Y-7.629
X-90.676 Y-7.608
X-90.733 Y-7.601
X-91.027
X-91.038 Y-7.602
X-91.048 Y-7.605
X-91.059 Y-7.608
X-91.069 Y-7.614
X-91.08 Y-7.62
X-91.093 Y-7.632
X-91.102 Y-7.643
X-91.121 Y-7.674
X-91.125 Y-7.685
X-91.152 Y-7.801
X-91.19 Y-7.964
X-91.191 Y-7.997
X-91.18 Y-8.029
X-91.16 Y-8.056
X-91.132 Y-8.074
X-90.655 Y-8.286
X-90.628 Y-8.294
X-90.599
X-90.572 Y-8.285
X-90.509 Y-8.253
X-90.441 Y-8.252
X-90.404 Y-8.25
X-90.337 Y-8.215
X-90.229 Y-8.111
X-90.18 Y-7.969
X-90.181 Y-7.819
X-90.193 Y-7.775
X-90.239 Y-7.685
X-90.319 Y-7.623
X-90.418 Y-7.601
X-90.733
X-90.767 Y-7.608
X-90.797 Y-7.627
X-90.818 Y-7.654
X-90.829 Y-7.688
X-90.827 Y-7.723
X-90.814 Y-7.755
X-90.522 Y-8.206
X-90.501 Y-8.23
X-90.473 Y-8.246
X-90.441 Y-8.252
X-90.276 Y-8.251
X-90.201
X-90.064 Y-8.191
X-89.97 Y-8.073
X-89.919 Y-7.932
X-89.913 Y-7.782
X-89.915 Y-7.775
X-89.962 Y-7.685
X-90.042 Y-7.623
X-90.141 Y-7.601
X-90.418
X-90.455 Y-7.609
X-90.486 Y-7.631
X-90.507 Y-7.662
X-90.515 Y-7.699
X-90.508 Y-7.736
X-90.333 Y-8.194
