%
(086-090)
(T1  D=1 CR=0 - ZMIN=-2 - flat end mill)
G90 G94
G17
G21
G28 G91 Z0
G90

(Clear 14)
M9
T1 M6
S5000 M3
G54
M8
G0 X-121.959 Y-12.863
Z12
Z2
Z0.5
G3 X-121.475 Y-12.988 Z0.29 I0.242 J-0.062 F333.3
X-121.959 Y-12.863 Z0.079 I-0.242 J0.062
X-121.475 Y-12.988 Z-0.131 I0.242 J-0.062
X-121.959 Y-12.863 Z-0.342 I-0.242 J0.062
X-121.475 Y-12.988 Z-0.552 I0.242 J-0.062
X-121.959 Y-12.863 Z-0.763 I-0.242 J0.062
X-121.748 Y-13.174 Z-0.876 I0.242 J-0.062
X-121.467 Y-12.925 Z-0.99 I0.031 J0.248
X-121.967 I-0.25
X-121.467 I0.25
G1 X-121.429 Y-12.78 F1000
X-121.442 Y-12.706
X-121.479 Y-12.641
X-121.586 Y-12.536
X-121.731 Y-12.496
X-121.879 Y-12.517
X-122.01 Y-12.591
X-122.107 Y-12.706
X-122.159 Y-12.847
X-122.161 Y-12.997
X-122.113 Y-13.139
X-122.021 Y-13.258
X-121.895 Y-13.339
X-121.75 Y-13.375
X-121.6 Y-13.361
X-121.464 Y-13.299
X-121.355 Y-13.195
X-121.277 Y-13.067
X-121.227 Y-12.926
X-121.216 Y-12.776
X-121.252 Y-12.631
X-121.322 Y-12.498
X-121.431 Y-12.395
X-121.562 Y-12.321
X-121.708 Y-12.288
X-121.858 Y-12.295
X-122.002 Y-12.336
X-122.131 Y-12.412
X-122.238 Y-12.518
X-122.32 Y-12.643
X-122.37 Y-12.785
X-122.384 Y-12.934
X-122.368 Y-13.083
X-122.317 Y-13.224
X-122.235 Y-13.35
X-122.128 Y-13.455
X-122.001 Y-13.534
X-121.858 Y-13.58
X-121.709 Y-13.597
X-121.56 Y-13.579
X-121.419 Y-13.526
X-121.293 Y-13.446
X-121.184 Y-13.343
X-121.096 Y-13.221
X-121.034 Y-13.085
X-120.995 Y-12.94
X-120.987 Y-12.79
X-121.01 Y-12.641
X-121.019 Y-12.615
X-121.043 Y-12.562
X-121.076 Y-12.516
X-121.118 Y-12.476
X-121.156 Y-12.447
X-121.198 Y-12.405
X-121.234 Y-12.362
X-121.26 Y-12.325
X-121.346 Y-12.202
X-121.475 Y-12.124
X-121.617 Y-12.079
X-121.767 Y-12.063
X-121.916 Y-12.073
X-122.061 Y-12.111
X-122.196 Y-12.177
X-122.317 Y-12.266
X-122.365 Y-12.314
X-122.412 Y-12.376
X-122.441 Y-12.448
X-122.451 Y-12.525
Y-13.169
X-122.444 Y-13.319
X-122.392 Y-13.459
X-122.303 Y-13.58
X-122.19 Y-13.679
X-122.06 Y-13.753
X-121.919 Y-13.804
X-121.771 Y-13.828
X-121.621 Y-13.825
X-121.542 Y-13.81
X-121.447 Y-13.776
X-121.368 Y-13.713
X-121.312 Y-13.629
X-121.282 Y-13.562
X-121.273 Y-13.545
X-121.246 Y-13.502
X-121.213 Y-13.46
X-121.198 Y-13.444
X-121.122 Y-13.376
X-121.113 Y-13.369
X-121.071 Y-13.342
X-121.029 Y-13.32
X-120.962 Y-13.284
X-120.865 Y-13.171
X-120.801 Y-13.035
X-120.768 Y-12.888
X-120.767 Y-12.847
X-120.79 Y-12.72
X-120.864 Y-12.614
X-120.975 Y-12.55
X-121.01 Y-12.546
X-121.044 Y-12.555
X-121.072 Y-12.574
X-121.092 Y-12.603
X-121.102 Y-12.636
X-121.16 Y-13.215
X-121.156 Y-13.254
X-121.137 Y-13.289
X-121.106 Y-13.314
X-121.068 Y-13.325
X-121.029 Y-13.32
X-120.952 Y-13.291
X-120.902 Y-13.279
X-120.859 Y-13.271
X-120.822 Y-13.265
X-120.695 Y-13.186
X-120.609 Y-13.063
X-120.567 Y-12.919
Y-12.882
X-120.587 Y-12.768
X-120.648 Y-12.671
X-120.741 Y-12.604
X-120.853 Y-12.577
X-120.891 Y-12.584
X-120.924 Y-12.605
X-120.946 Y-12.638
X-120.954 Y-12.676
X-120.96 Y-13.17
X-120.953 Y-13.209
X-120.931 Y-13.242
X-120.898 Y-13.264
X-120.859 Y-13.271
X-120.775 Y-13.268
X-120.728
X-120.653 Y-13.264
X-120.515 Y-13.205
X-120.42 Y-13.089
X-120.374 Y-12.946
X-120.373 Y-12.796
X-120.435 Y-12.683
X-120.537 Y-12.607
X-120.661 Y-12.581
X-120.775
X-120.853 Y-12.577
X-120.889 Y-12.583
X-120.921 Y-12.602
X-120.943 Y-12.631
X-120.954 Y-12.666
X-120.951 Y-12.702
X-120.822 Y-13.193
X-120.809 Y-13.222
X-120.787 Y-13.246
X-120.76 Y-13.262
X-120.728 Y-13.268
X-120.521
X-120.446 Y-13.264
X-120.311 Y-13.199
X-120.22 Y-13.08
X-120.171 Y-12.938
X-120.173 Y-12.787
X-120.236 Y-12.679
X-120.337 Y-12.606
X-120.459 Y-12.581
X-120.661
X-120.697 Y-12.588
X-120.727 Y-12.608
X-120.748 Y-12.637
X-120.757 Y-12.672
X-120.754 Y-12.708
X-120.614 Y-13.195
X-120.6 Y-13.224
X-120.579 Y-13.247
X-120.552 Y-13.262
X-120.521 Y-13.268
X-120.305
X-120.23 Y-13.264
X-120.101 Y-13.188
X-120.013 Y-13.066
X-119.967 Y-12.924
X-119.97 Y-12.868
X-119.996 Y-12.757
X-120.062 Y-12.664
X-120.157 Y-12.602
X-120.269 Y-12.581
X-120.459
X-120.494 Y-12.588
X-120.525 Y-12.609
X-120.546 Y-12.639
X-120.555 Y-12.674
X-120.55 Y-12.71
X-120.397 Y-13.198
X-120.384 Y-13.225
X-120.362 Y-13.247
X-120.335 Y-13.262
X-120.305 Y-13.268
X-120.136
X-120.061 Y-13.264
X-119.922 Y-13.209
X-119.824 Y-13.095
X-119.777 Y-12.952
X-119.774 Y-12.802
X-119.776 Y-12.795
X-119.837 Y-12.684
X-119.939 Y-12.608
X-120.064 Y-12.581
X-120.269
X-120.304 Y-12.588
X-120.334 Y-12.608
X-120.356 Y-12.637
X-120.365 Y-12.671
X-120.362 Y-12.707
X-120.229 Y-13.194
X-120.216 Y-13.223
X-120.195 Y-13.246
X-120.167 Y-13.262
X-120.136 Y-13.268
X-119.929
X-119.854 Y-13.264
X-119.716 Y-13.204
X-119.624 Y-13.086
X-119.573 Y-12.945
X-119.574 Y-12.795
X-119.575 Y-12.791
X-119.637 Y-12.682
X-119.739 Y-12.607
X-119.862 Y-12.581
X-120.064
X-120.099 Y-12.588
X-120.129 Y-12.608
X-120.15 Y-12.637
X-120.16 Y-12.671
X-120.157 Y-12.707
X-120.022 Y-13.194
X-120.009 Y-13.223
X-119.987 Y-13.246
X-119.96 Y-13.262
X-119.929 Y-13.268
X-119.713
X-119.638 Y-13.264
X-119.507 Y-13.191
X-119.418 Y-13.071
X-119.37 Y-12.928
X-119.372 Y-12.87
X-119.398 Y-12.759
X-119.464 Y-12.665
X-119.56 Y-12.602
X-119.672 Y-12.581
X-119.862
X-119.897 Y-12.588
X-119.928 Y-12.609
X-119.949 Y-12.638
X-119.958 Y-12.673
X-119.954 Y-12.71
X-119.805 Y-13.197
X-119.792 Y-13.225
X-119.77 Y-13.247
X-119.743 Y-13.262
X-119.713 Y-13.268
X-119.544
X-119.469 Y-13.264
X-119.328 Y-13.212
X-119.229 Y-13.099
X-119.181 Y-12.958
X-119.176 Y-12.808
X-119.179 Y-12.798
X-119.239 Y-12.685
X-119.342 Y-12.608
X-119.467 Y-12.581
X-119.672
X-119.707 Y-12.588
X-119.737 Y-12.607
X-119.758 Y-12.636
X-119.768 Y-12.67
X-119.765 Y-12.706
X-119.637 Y-13.193
X-119.624 Y-13.222
X-119.603 Y-13.246
X-119.575 Y-13.261
X-119.544 Y-13.268
X-119.337
X-119.262 Y-13.264
X-119.123 Y-13.208
X-119.029 Y-13.09
X-118.977 Y-12.95
Y-12.8
X-118.978 Y-12.794
X-119.04 Y-12.683
X-119.141 Y-12.607
X-119.265 Y-12.581
X-119.467
X-119.502 Y-12.588
X-119.532 Y-12.608
X-119.553 Y-12.636
X-119.563 Y-12.671
X-119.56 Y-12.706
X-119.43 Y-13.194
X-119.417 Y-13.223
X-119.395 Y-13.246
X-119.368 Y-13.262
X-119.337 Y-13.268
X-119.121
X-119.046 Y-13.264
X-118.913 Y-13.194
X-118.823 Y-13.075
X-118.774 Y-12.933
X-118.776 Y-12.873
X-118.801 Y-12.76
X-118.866 Y-12.666
X-118.963 Y-12.603
X-119.076 Y-12.581
X-119.265
X-119.301 Y-12.588
X-119.331 Y-12.608
X-119.352 Y-12.638
X-119.362 Y-12.673
X-119.358 Y-12.709
X-119.213 Y-13.196
X-119.2 Y-13.224
X-119.179 Y-13.247
X-119.151 Y-13.262
X-119.121 Y-13.268
X-118.914
X-118.839 Y-13.264
X-118.708 Y-13.19
X-118.619 Y-13.07
X-118.58 Y-12.925
X-118.583 Y-12.866
X-118.61 Y-12.756
X-118.675 Y-12.663
X-118.771 Y-12.602
X-118.882 Y-12.581
X-119.076
X-119.112 Y-12.589
X-119.142 Y-12.609
X-119.163 Y-12.64
X-119.172 Y-12.675
X-119.167 Y-12.712
X-119.005 Y-13.199
X-118.991 Y-13.226
X-118.97 Y-13.248
X-118.943 Y-13.262
X-118.914 Y-13.268
X-118.744
X-118.669 Y-13.264
X-118.599 Y-13.238
X-118.48 Y-13.147
X-118.407 Y-13.015
X-118.383 Y-12.867
X-118.389 Y-12.831
X-118.443 Y-12.703
X-118.55 Y-12.613
X-118.685 Y-12.581
X-118.882
X-118.917 Y-12.588
X-118.948 Y-12.608
X-118.969 Y-12.637
X-118.978 Y-12.672
X-118.975 Y-12.708
X-118.837 Y-13.195
X-118.824 Y-13.223
X-118.803 Y-13.246
X-118.775 Y-13.262
X-118.744 Y-13.268
X-118.529
X-118.454 Y-13.265
X-118.321 Y-13.195
X-118.232 Y-13.074
X-118.189 Y-12.93
X-118.194 Y-12.78
X-118.196 Y-12.775
X-118.26 Y-12.673
X-118.359 Y-12.605
X-118.477 Y-12.581
X-118.685
X-118.721 Y-12.589
X-118.752 Y-12.609
X-118.773 Y-12.639
X-118.781 Y-12.675
X-118.777 Y-12.711
X-118.62 Y-13.199
X-118.606 Y-13.226
X-118.585 Y-13.248
X-118.559 Y-13.262
X-118.529 Y-13.268
X-118.359 Y-13.27
X-118.284 Y-13.267
X-118.144 Y-13.216
X-118.046 Y-13.102
X-117.992 Y-12.962
X-117.984 Y-12.812
X-117.987 Y-12.803
X-118.047 Y-12.687
X-118.151 Y-12.607
X-118.279 Y-12.58
X-118.477 Y-12.581
X-118.511 Y-12.588
X-118.541 Y-12.607
X-118.562 Y-12.635
X-118.572 Y-12.669
X-118.57 Y-12.704
X-118.451 Y-13.193
X-118.439 Y-13.223
X-118.418 Y-13.247
X-118.391 Y-13.263
X-118.359 Y-13.27
X-118.152 Y-13.273
X-118.077 Y-13.275
X-117.94 Y-13.215
X-117.844 Y-13.1
X-117.788 Y-12.96
X-117.785 Y-12.81
X-117.788 Y-12.798
X-117.85 Y-12.681
X-117.956 Y-12.602
X-118.086 Y-12.577
X-118.152 Y-12.579
X-118.279 Y-12.58
X-118.314 Y-12.587
X-118.344 Y-12.607
X-118.365 Y-12.636
X-118.374 Y-12.67
X-118.371 Y-12.706
X-118.237 Y-13.2
X-118.219 Y-13.235
X-118.19 Y-13.261
X-118.152 Y-13.273
X-118.068 Y-13.28
X-117.983 Y-13.289
X-117.908 Y-13.293
X-117.765 Y-13.249
X-117.659 Y-13.143
X-117.596 Y-13.007
X-117.577 Y-12.858
X-117.583 Y-12.819
X-117.641 Y-12.687
X-117.755 Y-12.597
X-117.897 Y-12.57
X-118.086 Y-12.577
X-118.119 Y-12.585
X-118.148 Y-12.604
X-118.168 Y-12.631
X-118.179 Y-12.663
X-118.177 Y-12.698
X-118.067 Y-13.211
X-118.056 Y-13.239
X-118.037 Y-13.263
X-118.012 Y-13.28
X-117.983 Y-13.289
X-117.898 Y-13.298
X-117.814 Y-13.309
X-117.767 Y-13.316
X-117.693 Y-13.324
X-117.555 Y-13.265
X-117.454 Y-13.154
X-117.39 Y-13.018
X-117.373 Y-12.869
X-117.395 Y-12.721
X-117.396 Y-12.718
X-117.469 Y-12.625
X-117.573 Y-12.567
X-117.691 Y-12.554
X-117.814 Y-12.565
X-117.897 Y-12.57
X-117.93 Y-12.579
X-117.958 Y-12.599
X-117.978 Y-12.627
X-117.987 Y-12.66
X-117.984 Y-12.695
X-117.845 Y-13.243
X-117.829 Y-13.277
X-117.802 Y-13.302
X-117.767 Y-13.316
X-117.602 Y-13.343
X-117.528 Y-13.351
X-117.383 Y-13.312
X-117.272 Y-13.211
X-117.199 Y-13.08
X-117.163 Y-12.934
X-117.161 Y-12.784
X-117.174 Y-12.741
X-117.249 Y-12.615
X-117.375 Y-12.539
X-117.523 Y-12.533
X-117.56 Y-12.541
X-117.645 Y-12.55
X-117.691 Y-12.554
X-117.721 Y-12.563
X-117.748 Y-12.582
X-117.767 Y-12.607
X-117.777 Y-12.638
Y-12.67
X-117.682 Y-13.261
X-117.672 Y-13.289
X-117.655 Y-13.314
X-117.631 Y-13.333
X-117.602 Y-13.343
X-117.592 Y-13.345
X-117.475 Y-13.386
X-117.429 Y-13.402
X-117.393 Y-13.413
X-117.244 Y-13.397
X-117.12 Y-13.313
X-117.028 Y-13.194
X-116.968 Y-13.056
X-116.938 Y-12.909
X-116.949 Y-12.76
X-116.969 Y-12.695
X-117.045 Y-12.57
X-117.171 Y-12.496
X-117.317 Y-12.49
X-117.523 Y-12.533
X-117.556 Y-12.548
X-117.582 Y-12.574
X-117.596 Y-12.608
X-117.598 Y-12.645
X-117.597 Y-12.651
X-117.491 Y-13.325
X-117.48 Y-13.357
X-117.458 Y-13.384
X-117.429 Y-13.402
X-117.306 Y-13.446
X-117.271 Y-13.46
X-117.2 Y-13.484
X-117.052 Y-13.46
X-116.927 Y-13.376
X-116.83 Y-13.262
X-116.76 Y-13.129
X-116.722 Y-12.984
X-116.713 Y-12.834
X-116.739 Y-12.687
X-116.795 Y-12.548
X-116.801 Y-12.54
X-116.892 Y-12.463
X-117.006 Y-12.427
X-117.125 Y-12.438
X-117.222 Y-12.467
X-117.317 Y-12.49
X-117.349 Y-12.504
X-117.374 Y-12.529
X-117.389 Y-12.56
X-117.393 Y-12.595
X-117.384 Y-12.701
X-117.331 Y-13.376
X-117.322 Y-13.411
X-117.301 Y-13.44
X-117.271 Y-13.46
X-117.222 Y-13.48
X-117.137 Y-13.52
X-117.069 Y-13.552
X-116.919 Y-13.558
X-116.783 Y-13.495
X-116.671 Y-13.395
X-116.585 Y-13.273
X-116.525 Y-13.135
X-116.489 Y-12.989
X-116.479 Y-12.84
X-116.496 Y-12.691
X-116.54 Y-12.547
X-116.567 Y-12.502
X-116.661 Y-12.406
X-116.787 Y-12.36
X-116.92 Y-12.373
X-116.968 Y-12.389
X-117.125 Y-12.438
X-117.152 Y-12.453
X-117.174 Y-12.475
X-117.187 Y-12.503
X-117.192 Y-12.534
X-117.191 Y-12.752
X-117.186 Y-13.435
X-117.18 Y-13.468
X-117.163 Y-13.498
X-117.137 Y-13.52
X-117.052 Y-13.566
X-116.968 Y-13.615
X-116.901 Y-13.65
X-116.751 Y-13.656
X-116.612 Y-13.6
X-116.494 Y-13.507
X-116.398 Y-13.392
X-116.365 Y-13.333
X-116.334 Y-13.252
X-116.327 Y-13.167
X-116.345 Y-13.083
X-116.361 Y-13.038
X-116.376 Y-12.969
X-116.377 Y-12.953
X-116.379 Y-12.869
X-116.376 Y-12.829
X-116.369 Y-12.784
X-116.355 Y-12.738
X-116.339 Y-12.665
X-116.35 Y-12.515
X-116.373 Y-12.463
X-116.445 Y-12.36
X-116.553 Y-12.295
X-116.678 Y-12.279
X-116.799 Y-12.315
X-116.887 Y-12.362
X-116.92 Y-12.373
X-116.952 Y-12.393
X-116.975 Y-12.423
X-116.984 Y-12.459
X-116.98 Y-12.497
X-116.962 Y-12.53
X-116.933 Y-12.554
X-116.499 Y-12.795
X-116.466 Y-12.806
X-116.431 Y-12.805
X-116.398 Y-12.792
X-116.372 Y-12.769
X-116.355 Y-12.738
X-116.345 Y-12.7
X-116.327 Y-12.658
X-116.304 Y-12.616
X-116.291 Y-12.596
X-116.27 Y-12.564
X-116.253 Y-12.491
X-116.26 Y-12.342
X-116.269 Y-12.328
X-116.354 Y-12.239
X-116.468 Y-12.192
X-116.591 Y-12.194
X-116.703 Y-12.246
X-116.745 Y-12.278
X-116.799 Y-12.315
X-116.823 Y-12.341
X-116.836 Y-12.374
X-116.838 Y-12.409
X-116.826 Y-12.443
X-116.804 Y-12.471
X-116.773 Y-12.489
X-116.403 Y-12.626
X-116.373 Y-12.632
X-116.342 Y-12.628
X-116.314 Y-12.616
X-116.291 Y-12.596
X-116.241 Y-12.531
X-116.206 Y-12.494
X-116.181 Y-12.466
X-116.149 Y-12.399
X-116.148 Y-12.324
X-116.185 Y-12.178
X-116.301 Y-12.102
X-116.438 Y-12.09
X-116.566 Y-12.143
X-116.703 Y-12.246
X-116.727 Y-12.274
X-116.739 Y-12.309
X-116.738 Y-12.346
X-116.724 Y-12.38
X-116.698 Y-12.406
X-116.664 Y-12.421
X-116.292 Y-12.513
X-116.262 Y-12.515
X-116.233 Y-12.509
X-116.206 Y-12.494
X-116.178 Y-12.469
X-116.149 Y-12.447
X-116.122 Y-12.429
X-116.09 Y-12.409
X-116.052 Y-12.344
X-116.032 Y-12.272
X-116.035 Y-12.197
X-116.109 Y-12.087
X-116.224 Y-12.023
X-116.356 Y-12.018
X-116.475 Y-12.074
X-116.519 Y-12.109
X-116.566 Y-12.143
X-116.589 Y-12.17
X-116.601 Y-12.203
X-116.602 Y-12.239
X-116.59 Y-12.272
X-116.567 Y-12.299
X-116.536 Y-12.316
X-116.197 Y-12.433
X-116.159 Y-12.438
X-116.122 Y-12.429
X-116.037 Y-12.386
X-115.971 Y-12.35
X-115.929 Y-12.288
X-115.916 Y-12.214
X-115.925 Y-12.064
X-115.932 Y-12.053
X-116.028 Y-11.961
X-116.153 Y-11.919
X-116.284 Y-11.935
X-116.396 Y-12.006
X-116.417 Y-12.039
X-116.423 Y-12.078
X-116.413 Y-12.116
X-116.39 Y-12.148
X-116.144 Y-12.369
X-116.112 Y-12.388
X-116.074 Y-12.394
X-116.037 Y-12.386
X-115.895 Y-12.318
X-115.861 Y-12.3
X-115.816 Y-12.241
X-115.787 Y-12.172
X-115.774 Y-12.022
X-115.799 Y-11.97
X-115.892 Y-11.856
X-116.028 Y-11.8
X-116.175 Y-11.816
X-116.296 Y-11.899
X-116.332 Y-11.94
X-116.396 Y-12.006
X-116.416 Y-12.038
X-116.423 Y-12.077
X-116.414 Y-12.114
X-116.392 Y-12.146
X-116.359 Y-12.167
X-115.971 Y-12.319
X-115.932 Y-12.326
X-115.895 Y-12.318
X-115.811 Y-12.278
X-115.783 Y-12.263
X-115.719 Y-12.224
X-115.672 Y-12.166
X-115.645 Y-12.096
X-115.634 Y-11.946
X-115.686 Y-11.805
X-115.787 Y-11.695
X-115.811 Y-11.683
X-115.947 Y-11.648
X-116.084 Y-11.679
X-116.192 Y-11.769
X-116.206 Y-11.789
X-116.259 Y-11.855
X-116.296 Y-11.899
X-116.313 Y-11.93
X-116.319 Y-11.964
X-116.312 Y-11.999
X-116.294 Y-12.029
X-116.266 Y-12.05
X-115.875 Y-12.261
X-115.845 Y-12.271
X-115.813 Y-12.272
X-115.783 Y-12.263
X-115.614 Y-12.172
X-115.55 Y-12.133
X-115.474 Y-12.004
X-115.467 Y-11.854
X-115.514 Y-11.712
X-115.601 Y-11.589
X-115.722 Y-11.501
X-115.742 Y-11.494
X-115.874 Y-11.482
X-115.999 Y-11.528
X-116.091 Y-11.624
X-116.122 Y-11.674
X-116.192 Y-11.769
X-116.206 Y-11.799
X-116.21 Y-11.832
X-116.202 Y-11.864
X-116.185 Y-11.892
X-116.159 Y-11.913
X-115.708 Y-12.17
X-115.677 Y-12.181
X-115.645 Y-12.182
X-115.614 Y-12.172
X-115.53 Y-12.126
X-115.445 Y-12.072
X-115.341 Y-11.964
X-115.304 Y-11.819
X-115.324 Y-11.67
X-115.385 Y-11.533
X-115.477 Y-11.415
X-115.601 Y-11.33
X-115.653 Y-11.312
X-115.769 Y-11.296
X-115.881 Y-11.325
X-115.974 Y-11.394
X-116.034 Y-11.493
X-116.043 Y-11.517
X-116.078 Y-11.602
X-116.091 Y-11.624
X-116.103 Y-11.66
X-116.101 Y-11.698
X-116.084 Y-11.732
X-116.056 Y-11.758
X-115.548 Y-12.071
X-115.515 Y-12.085
X-115.479
X-115.445 Y-12.072
X-115.394 Y-12.024
X-115.36 Y-11.988
X-115.318 Y-11.94
X-115.248 Y-11.855
X-115.204 Y-11.795
X-115.166 Y-11.65
X-115.188 Y-11.501
X-115.25 Y-11.365
X-115.344 Y-11.248
X-115.465 Y-11.159
X-115.603 Y-11.101
X-115.65 Y-11.096
X-115.788 Y-11.112
X-115.905 Y-11.189
X-115.973 Y-11.31
X-115.984 Y-11.349
X-116.012 Y-11.433
X-116.034 Y-11.493
X-116.039 Y-11.53
X-116.03 Y-11.565
X-116.009 Y-11.596
X-115.979 Y-11.616
X-115.969 Y-11.62
X-115.363 Y-11.881
X-115.332 Y-11.889
X-115.301 Y-11.887
X-115.272 Y-11.875
X-115.248 Y-11.855
X-115.179 Y-11.771
X-115.113 Y-11.686
X-115.07 Y-11.625
X-115.032 Y-11.48
X-115.055 Y-11.332
X-115.118 Y-11.195
X-115.21 Y-11.077
X-115.326 Y-10.981
X-115.459 Y-10.913
X-115.606 Y-10.88
X-115.645 Y-10.882
X-115.773 Y-10.917
X-115.873 Y-11.003
X-115.927 Y-11.123
X-115.938 Y-11.18
X-115.96 Y-11.264
X-115.973 Y-11.31
X-115.976 Y-11.346
X-115.966 Y-11.38
X-115.945 Y-11.408
X-115.915 Y-11.427
X-115.836 Y-11.46
X-115.228 Y-11.714
X-115.198 Y-11.722
X-115.166 Y-11.719
X-115.137 Y-11.707
X-115.113 Y-11.686
X-115.049 Y-11.602
X-115.034 Y-11.579
X-115.022 Y-11.557
X-114.969 Y-11.433
X-114.921 Y-11.291
X-114.941 Y-11.142
X-115.004 Y-11.006
X-115.096 Y-10.888
X-115.209 Y-10.789
X-115.339 Y-10.715
X-115.483 Y-10.67
X-115.632 Y-10.661
X-115.664 Y-10.667
X-115.778 Y-10.717
X-115.862 Y-10.809
X-115.902 Y-10.926
X-115.921 Y-11.095
X-115.927 Y-11.123
X-115.926 Y-11.159
X-115.914 Y-11.191
X-115.89 Y-11.218
X-115.859 Y-11.234
X-115.699 Y-11.287
X-115.091 Y-11.486
X-115.055 Y-11.491
X-115.02 Y-11.483
X-114.99 Y-11.462
X-114.969 Y-11.433
X-114.87 Y-11.18
X-114.825 Y-11.036
X-114.858 Y-10.89
X-114.931 Y-10.759
X-115.031 Y-10.647
X-115.151 Y-10.557
X-115.284 Y-10.488
X-115.427 Y-10.444
X-115.577 Y-10.433
X-115.625 Y-10.44
X-115.748 Y-10.488
X-115.839 Y-10.585
X-115.879 Y-10.71
X-115.892 Y-10.842
X-115.902 Y-10.926
X-115.898 Y-10.961
X-115.883 Y-10.993
X-115.858 Y-11.017
X-115.826 Y-11.032
X-115.612 Y-11.084
X-114.985 Y-11.237
X-114.95 Y-11.24
X-114.917 Y-11.23
X-114.889 Y-11.209
X-114.87 Y-11.18
X-114.839 Y-11.095
X-114.811 Y-11.011
X-114.79 Y-10.926
X-114.782 Y-10.88
X-114.772 Y-10.805
X-114.797 Y-10.658
X-114.87 Y-10.527
X-114.972 Y-10.417
X-115.093 Y-10.328
X-115.227 Y-10.261
X-115.37 Y-10.216
X-115.52 Y-10.203
X-115.669 Y-10.219
X-115.694 Y-10.23
X-115.799 Y-10.3
X-115.865 Y-10.408
X-115.881 Y-10.533
X-115.876 Y-10.588
Y-10.673
X-115.879 Y-10.71
X-115.874 Y-10.747
X-115.857 Y-10.779
X-115.829 Y-10.802
X-115.795 Y-10.815
X-115.522 Y-10.858
X-114.895 Y-10.957
X-114.857 Y-10.955
X-114.823 Y-10.941
X-114.797 Y-10.914
X-114.782 Y-10.88
X-114.775 Y-10.842
X-114.745 Y-10.626
X-114.732 Y-10.477
X-114.79 Y-10.339
X-114.884 Y-10.221
X-114.999 Y-10.125
X-115.129 Y-10.05
X-115.269 Y-9.998
X-115.417 Y-9.971
X-115.567 Y-9.968
X-115.713 Y-10
X-115.733 Y-10.01
X-115.831 Y-10.086
X-115.89 Y-10.195
X-115.9 Y-10.318
X-115.897 Y-10.335
X-115.881 Y-10.533
X-115.871 Y-10.565
X-115.852 Y-10.592
X-115.824 Y-10.612
X-115.791 Y-10.62
X-115.486 Y-10.649
X-114.853 Y-10.709
X-114.816 Y-10.706
X-114.783 Y-10.689
X-114.758 Y-10.661
X-114.745 Y-10.626
X-114.729 Y-10.504
X-114.721 Y-10.419
X-114.715 Y-10.335
X-114.725 Y-10.185
X-114.794 Y-10.052
X-114.896 Y-9.942
X-115.018 Y-9.854
X-115.153 Y-9.789
X-115.297 Y-9.747
X-115.446 Y-9.728
X-115.596 Y-9.732
X-115.741 Y-9.77
X-115.769 Y-9.784
X-115.866 Y-9.861
X-115.923 Y-9.971
X-115.931 Y-10.094
X-115.903 Y-10.288
X-115.9 Y-10.318
X-115.888 Y-10.351
X-115.866 Y-10.377
X-115.837 Y-10.395
X-115.803 Y-10.402
X-115.453 Y-10.41
X-114.816 Y-10.424
X-114.78 Y-10.418
X-114.748 Y-10.4
X-114.725 Y-10.37
X-114.715 Y-10.335
X-114.716 Y-10.25
X-114.732 Y-10.035
X-114.751 Y-9.886
X-114.831 Y-9.759
X-114.942 Y-9.658
X-115.07 Y-9.581
X-115.21 Y-9.527
X-115.357 Y-9.494
X-115.506 Y-9.486
X-115.656 Y-9.501
X-115.798 Y-9.547
X-115.834 Y-9.568
X-115.93 Y-9.656
X-115.979 Y-9.777
X-115.972 Y-9.906
X-115.949 Y-9.997
X-115.933 Y-10.082
X-115.931 Y-10.094
X-115.918 Y-10.128
X-115.895 Y-10.155
X-115.864 Y-10.172
X-115.829 Y-10.177
X-115.456 Y-10.163
X-114.828 Y-10.139
X-114.79 Y-10.13
X-114.758 Y-10.107
X-114.738 Y-10.074
X-114.732 Y-10.035
X-114.735 Y-9.997
X-114.743 Y-9.913
X-114.757 Y-9.828
X-114.778 Y-9.744
X-114.79 Y-9.697
X-114.837 Y-9.555
X-114.936 Y-9.441
X-115.059 Y-9.356
X-115.197 Y-9.297
X-115.342 Y-9.261
X-115.492 Y-9.246
X-115.641 Y-9.255
X-115.787 Y-9.29
X-115.923 Y-9.354
X-115.945 Y-9.372
X-116.022 Y-9.47
X-116.053 Y-9.59
X-116.033 Y-9.712
X-116.02 Y-9.744
X-115.994 Y-9.828
X-115.972 Y-9.906
X-115.956 Y-9.938
X-115.93 Y-9.962
X-115.897 Y-9.975
X-115.861
X-115.485 Y-9.916
X-114.872 Y-9.819
X-114.841 Y-9.809
X-114.815 Y-9.789
X-114.797 Y-9.762
X-114.788 Y-9.73
X-114.79 Y-9.697
X-114.826 Y-9.575
X-114.853 Y-9.483
X-114.878 Y-9.406
X-114.946 Y-9.272
X-115.049 Y-9.163
X-115.179 Y-9.087
X-115.32 Y-9.038
X-115.468 Y-9.013
X-115.618 Y-9.012
X-115.766 Y-9.035
X-115.909 Y-9.082
X-116.037 Y-9.159
X-116.065 Y-9.187
X-116.137 Y-9.298
X-116.154 Y-9.429
X-116.113 Y-9.554
X-116.075 Y-9.621
X-116.053 Y-9.659
X-116.033 Y-9.712
X-116.013 Y-9.742
X-115.985 Y-9.762
X-115.952 Y-9.772
X-115.917 Y-9.77
X-115.556 Y-9.681
X-114.95 Y-9.531
X-114.92 Y-9.518
X-114.896 Y-9.497
X-114.88 Y-9.469
X-114.874 Y-9.438
X-114.878 Y-9.406
X-114.916 Y-9.321
X-114.937 Y-9.281
X-115.022 Y-9.137
X-115.064 Y-9.068
X-115.149 Y-8.944
X-115.271 Y-8.858
X-115.412 Y-8.806
X-115.561 Y-8.784
X-115.711 Y-8.787
X-115.858 Y-8.814
X-116 Y-8.863
X-116.128 Y-8.941
X-116.237 Y-9.043
X-116.243 Y-9.053
X-116.283 Y-9.164
X-116.277 Y-9.282
X-116.226 Y-9.388
X-116.206 Y-9.415
X-116.153 Y-9.49
X-116.113 Y-9.554
X-116.089 Y-9.58
X-116.057 Y-9.596
X-116.023 Y-9.6
X-115.988 Y-9.592
X-115.678 Y-9.456
X-115.111 Y-9.209
X-115.083 Y-9.19
X-115.063 Y-9.164
X-115.053 Y-9.133
Y-9.099
X-115.064 Y-9.068
X-115.22 Y-8.815
X-115.312 Y-8.696
X-115.439 Y-8.617
X-115.583 Y-8.576
X-115.733 Y-8.565
X-115.882 Y-8.579
X-116.027 Y-8.618
X-116.163 Y-8.681
X-116.288 Y-8.765
X-116.389 Y-8.876
X-116.4 Y-8.896
X-116.433 Y-9.014
X-116.414 Y-9.135
X-116.344 Y-9.237
X-116.276 Y-9.321
X-116.226 Y-9.388
X-116.2 Y-9.411
X-116.168 Y-9.423
X-116.133 Y-9.424
X-116.1 Y-9.413
X-115.808 Y-9.253
X-115.259 Y-8.952
X-115.228 Y-8.926
X-115.21 Y-8.891
X-115.207 Y-8.852
X-115.22 Y-8.815
X-115.279 Y-8.73
X-115.346 Y-8.646
X-115.445 Y-8.544
X-115.467 Y-8.524
X-115.582 Y-8.427
X-115.723 Y-8.376
X-115.872 Y-8.363
X-116.021 Y-8.38
X-116.165 Y-8.422
X-116.301 Y-8.486
X-116.425 Y-8.571
X-116.527 Y-8.68
X-116.552 Y-8.722
X-116.592 Y-8.851
X-116.572 Y-8.985
X-116.495 Y-9.096
X-116.376 Y-9.208
X-116.344 Y-9.237
X-116.315 Y-9.255
X-116.282 Y-9.262
X-116.248 Y-9.257
X-116.218 Y-9.241
X-115.965 Y-9.048
X-115.477 Y-8.674
X-115.454 Y-8.649
X-115.44 Y-8.618
X-115.438 Y-8.584
X-115.447 Y-8.551
X-115.467 Y-8.524
X-115.614 Y-8.388
X-115.699 Y-8.319
X-115.752 Y-8.28
X-115.783 Y-8.258
X-115.915 Y-8.186
X-116.065 Y-8.178
X-116.213 Y-8.202
X-116.355 Y-8.25
X-116.486 Y-8.323
X-116.604 Y-8.415
X-116.7 Y-8.531
X-116.729 Y-8.585
X-116.764 Y-8.717
X-116.737 Y-8.851
X-116.654 Y-8.959
X-116.624 Y-8.984
X-116.526 Y-9.068
X-116.495 Y-9.096
X-116.467 Y-9.113
X-116.435 Y-9.12
X-116.403 Y-9.116
X-116.373 Y-9.102
X-116.35 Y-9.079
X-116.19 Y-8.86
X-115.826 Y-8.36
X-115.811 Y-8.33
X-115.807 Y-8.297
X-115.813 Y-8.265
X-115.83 Y-8.236
X-115.855 Y-8.215
X-116.063 Y-8.101
X-116.095 Y-8.083
X-116.122 Y-8.069
X-116.176 Y-8.046
X-116.183 Y-8.043
X-116.191 Y-8.048
X-116.219 Y-8.07
X-116.238 Y-8.101
X-116.244 Y-8.137
X-116.237 Y-8.173
X-116.218 Y-8.204
X-115.817 Y-8.641
X-115.725 Y-8.742
X-115.696 Y-8.764
X-115.661 Y-8.774
X-115.624 Y-8.77
X-115.591 Y-8.754
X-115.567 Y-8.728
X-115.553 Y-8.694
Y-8.657
X-115.565 Y-8.623
G3 X-116.122 Y-8.069 I-1.36 J-0.809
G1 X-116.151 Y-8.054
X-116.206 Y-8.035
X-116.279 Y-8.018
X-116.427 Y-8.047
X-116.566 Y-8.103
X-116.692 Y-8.184
X-116.803 Y-8.284
X-116.891 Y-8.406
X-116.954 Y-8.543
X-116.948 Y-8.664
X-116.893 Y-8.771
X-116.799 Y-8.847
X-116.728 Y-8.899
X-116.654 Y-8.959
X-116.622 Y-8.975
X-116.587 Y-8.979
X-116.553 Y-8.971
X-116.523 Y-8.951
X-116.503 Y-8.922
X-116.415 Y-8.734
X-116.152 Y-8.17
X-116.143 Y-8.139
X-116.145 Y-8.107
X-116.157 Y-8.076
X-116.178 Y-8.052
X-116.206 Y-8.035
X-116.291 Y-8.011
X-116.443 Y-7.97
X-116.59 Y-7.94
X-116.735 Y-7.979
X-116.866 Y-8.051
X-116.981 Y-8.148
X-117.075 Y-8.264
X-117.139 Y-8.4
X-117.147 Y-8.439
X-117.142 Y-8.58
X-117.072 Y-8.703
X-116.954 Y-8.781
X-116.883 Y-8.806
X-116.863 Y-8.815
X-116.799 Y-8.847
X-116.768 Y-8.856
X-116.736 Y-8.854
X-116.706 Y-8.842
X-116.681 Y-8.822
X-116.664 Y-8.794
X-116.615 Y-8.675
X-116.379 Y-8.104
X-116.372 Y-8.071
X-116.376 Y-8.038
X-116.39 Y-8.008
X-116.413 Y-7.985
X-116.443 Y-7.97
X-116.629 Y-7.922
X-116.714 Y-7.902
X-116.863 Y-7.883
X-117.007 Y-7.925
X-117.133 Y-8.006
X-117.238 Y-8.113
X-117.315 Y-8.242
X-117.359 Y-8.385
X-117.36 Y-8.42
X-117.335 Y-8.548
X-117.257 Y-8.653
X-117.142 Y-8.716
X-116.954 Y-8.781
X-116.922 Y-8.785
X-116.891 Y-8.78
X-116.862 Y-8.764
X-116.84 Y-8.741
X-116.827 Y-8.711
X-116.806 Y-8.632
X-116.644 Y-8.024
X-116.642 Y-7.985
X-116.654 Y-7.949
X-116.679 Y-7.919
X-116.714 Y-7.902
X-116.968 Y-7.856
X-117.014 Y-7.851
X-117.164 Y-7.843
X-117.3 Y-7.906
X-117.414 Y-8.004
X-117.501 Y-8.126
X-117.557 Y-8.265
X-117.575 Y-8.414
X-117.574 Y-8.42
X-117.532 Y-8.531
X-117.449 Y-8.617
X-117.34 Y-8.664
X-117.306 Y-8.671
X-117.222 Y-8.693
X-117.142 Y-8.716
X-117.109 Y-8.718
X-117.077 Y-8.71
X-117.049 Y-8.691
X-117.029 Y-8.664
X-117.019 Y-8.632
X-117.013 Y-8.587
X-116.929 Y-7.964
X-116.931 Y-7.925
X-116.948 Y-7.89
X-116.978 Y-7.864
X-117.014 Y-7.851
X-117.052 Y-7.847
X-117.268 Y-7.83
X-117.418 Y-7.827
X-117.553 Y-7.893
X-117.659 Y-7.999
X-117.735 Y-8.128
X-117.782 Y-8.27
X-117.783 Y-8.32
X-117.755 Y-8.455
X-117.669 Y-8.563
X-117.545 Y-8.621
X-117.34 Y-8.664
X-117.307
X-117.275 Y-8.653
X-117.249 Y-8.633
X-117.231 Y-8.605
X-117.223 Y-8.572
Y-8.568
X-117.179 Y-7.937
X-117.184 Y-7.899
X-117.202 Y-7.866
X-117.232 Y-7.842
X-117.268 Y-7.83
X-117.522 Y-7.814
X-117.597 Y-7.813
X-117.741 Y-7.855
X-117.855 Y-7.952
X-117.94 Y-8.076
X-117.984 Y-8.219
X-117.992 Y-8.369
X-117.99 Y-8.377
X-117.936 Y-8.486
X-117.844 Y-8.564
X-117.728 Y-8.6
X-117.645 Y-8.608
X-117.56 Y-8.618
X-117.545 Y-8.621
X-117.51
X-117.477 Y-8.609
X-117.451 Y-8.586
X-117.433 Y-8.556
X-117.428 Y-8.522
X-117.432 Y-7.913
X-117.439 Y-7.877
X-117.458 Y-7.846
X-117.487 Y-7.824
X-117.522 Y-7.814
X-117.56 Y-7.811
X-117.776 Y-7.807
X-117.851 Y-7.809
X-117.99 Y-7.864
X-118.096 Y-7.97
X-118.166 Y-8.103
X-118.204 Y-8.248
X-118.201 Y-8.302
X-118.157 Y-8.443
X-118.052 Y-8.547
X-117.909 Y-8.586
X-117.814 Y-8.592
X-117.728 Y-8.6
X-117.694 Y-8.596
X-117.663 Y-8.581
X-117.639 Y-8.556
X-117.625 Y-8.524
X-117.623 Y-8.49
X-117.682 Y-7.896
X-117.691 Y-7.863
X-117.712 Y-7.834
X-117.741 Y-7.815
X-117.776 Y-7.807
X-117.898 Y-7.805
X-117.983
X-118.058 Y-7.809
X-118.199 Y-7.859
X-118.306 Y-7.964
X-118.379 Y-8.095
X-118.407 Y-8.242
X-118.398 Y-8.393
X-118.334 Y-8.491
X-118.239 Y-8.557
X-118.125 Y-8.581
X-117.909 Y-8.586
X-117.876 Y-8.58
X-117.847 Y-8.564
X-117.825 Y-8.538
X-117.812 Y-8.507
X-117.811 Y-8.473
X-117.887 Y-7.892
X-117.898 Y-7.859
X-117.919 Y-7.831
X-117.949 Y-7.812
X-117.983 Y-7.805
X-118.199
X-118.274 Y-7.809
X-118.415 Y-7.859
X-118.52 Y-7.966
X-118.588 Y-8.1
X-118.622 Y-8.246
X-118.617 Y-8.306
X-118.569 Y-8.445
X-118.461 Y-8.544
X-118.319 Y-8.58
X-118.125 Y-8.581
X-118.092 Y-8.575
X-118.063 Y-8.559
X-118.041 Y-8.533
X-118.029 Y-8.502
X-118.027 Y-8.468
X-118.103 Y-7.892
X-118.114 Y-7.859
X-118.135 Y-7.831
X-118.165 Y-7.812
X-118.199 Y-7.805
X-118.453
X-118.527 Y-7.809
X-118.659 Y-7.882
X-118.754 Y-7.998
X-118.812 Y-8.136
X-118.825 Y-8.285
X-118.818 Y-8.329
X-118.764 Y-8.457
X-118.658 Y-8.548
X-118.522 Y-8.58
X-118.319
X-118.284 Y-8.573
X-118.254 Y-8.554
X-118.233 Y-8.526
X-118.223 Y-8.493
X-118.224 Y-8.458
X-118.359 Y-7.882
X-118.371 Y-7.852
X-118.392 Y-7.828
X-118.421 Y-7.812
X-118.453 Y-7.805
X-118.622
X-118.697 Y-7.809
X-118.839 Y-7.856
X-118.944 Y-7.963
X-119.01 Y-8.098
X-119.034 Y-8.246
X-119.02 Y-8.395
X-119.018 Y-8.399
X-118.953 Y-8.494
X-118.856 Y-8.558
X-118.743 Y-8.58
X-118.522
X-118.489 Y-8.573
X-118.46 Y-8.556
X-118.439 Y-8.529
X-118.427 Y-8.497
Y-8.463
X-118.527 Y-7.888
X-118.538 Y-7.856
X-118.559 Y-7.83
X-118.588 Y-7.812
X-118.622 Y-7.805
X-118.876
X-118.95 Y-7.809
X-119.082 Y-7.881
X-119.174 Y-8
X-119.228 Y-8.14
X-119.249 Y-8.288
X-119.241 Y-8.332
X-119.187 Y-8.459
X-119.08 Y-8.548
X-118.946 Y-8.58
X-118.743
X-118.708 Y-8.573
X-118.679 Y-8.554
X-118.657 Y-8.526
X-118.647 Y-8.493
X-118.649 Y-8.458
X-118.782 Y-7.883
X-118.794 Y-7.852
X-118.815 Y-7.828
X-118.844 Y-7.812
X-118.876 Y-7.805
X-119.045
X-119.12 Y-7.809
X-119.261 Y-7.858
X-119.364 Y-7.968
X-119.431 Y-8.102
X-119.456 Y-8.25
X-119.441 Y-8.399
X-119.375 Y-8.495
X-119.279 Y-8.558
X-119.166 Y-8.58
X-118.946
X-118.912 Y-8.573
X-118.883 Y-8.556
X-118.862 Y-8.529
X-118.851 Y-8.497
Y-8.463
X-118.95 Y-7.888
X-118.961 Y-7.856
X-118.982 Y-7.83
X-119.011 Y-7.812
X-119.045 Y-7.805
X-119.252
X-119.327 Y-7.809
X-119.468 Y-7.859
X-119.572 Y-7.967
X-119.639 Y-8.101
X-119.67 Y-8.248
X-119.664 Y-8.309
X-119.615 Y-8.446
X-119.507 Y-8.545
X-119.365 Y-8.58
X-119.166
X-119.133 Y-8.573
X-119.104 Y-8.556
X-119.083 Y-8.53
X-119.071 Y-8.499
X-119.07 Y-8.465
X-119.157 Y-7.89
X-119.168 Y-7.857
X-119.189 Y-7.83
X-119.218 Y-7.812
X-119.252 Y-7.805
X-119.468
X-119.543 Y-7.809
X-119.682 Y-7.864
X-119.785 Y-7.973
X-119.851 Y-8.107
X-119.873 Y-8.256
X-119.867 Y-8.311
X-119.818 Y-8.447
X-119.71 Y-8.545
X-119.569 Y-8.58
X-119.365
X-119.332 Y-8.573
X-119.303 Y-8.555
X-119.281 Y-8.529
X-119.27 Y-8.497
Y-8.463
X-119.373 Y-7.888
X-119.384 Y-7.856
X-119.406 Y-7.83
X-119.435 Y-7.812
X-119.468 Y-7.805
X-119.675
X-119.75 Y-7.809
X-119.89 Y-7.862
X-119.993 Y-7.971
X-120.058 Y-8.107
X-120.078 Y-8.255
X-120.072 Y-8.312
X-120.023 Y-8.448
X-119.915 Y-8.545
X-119.774 Y-8.58
X-119.569
X-119.535 Y-8.573
X-119.506 Y-8.555
X-119.485 Y-8.529
X-119.474 Y-8.496
Y-8.462
X-119.58 Y-7.887
X-119.592 Y-7.855
X-119.613 Y-7.829
X-119.642 Y-7.812
X-119.675 Y-7.805
X-119.891
X-119.966 Y-7.809
X-120.104 Y-7.867
X-120.204 Y-7.979
X-120.266 Y-8.115
X-120.283 Y-8.264
X-120.277 Y-8.317
X-120.226 Y-8.451
X-120.118 Y-8.546
X-119.979 Y-8.58
X-119.774
X-119.74 Y-8.573
X-119.711 Y-8.555
X-119.689 Y-8.528
X-119.678 Y-8.495
X-119.679 Y-8.46
X-119.796 Y-7.885
X-119.808 Y-7.854
X-119.83 Y-7.829
X-119.858 Y-7.812
X-119.891 Y-7.805
X-120.098
X-120.173 Y-7.809
X-120.311 Y-7.867
X-120.411 Y-7.979
X-120.472 Y-8.116
X-120.489 Y-8.265
X-120.483 Y-8.318
X-120.431 Y-8.451
X-120.324 Y-8.546
X-120.185 Y-8.58
X-119.979
X-119.945 Y-8.573
X-119.916 Y-8.555
X-119.895 Y-8.527
X-119.884 Y-8.495
X-119.885 Y-8.46
X-120.004 Y-7.885
X-120.016 Y-7.854
X-120.037 Y-7.829
X-120.066 Y-7.812
X-120.098 Y-7.805
X-120.314
X-120.389 Y-7.809
X-120.524 Y-7.873
X-120.621 Y-7.987
X-120.68 Y-8.125
X-120.695 Y-8.275
X-120.688 Y-8.323
X-120.635 Y-8.454
X-120.529 Y-8.547
X-120.391 Y-8.58
X-120.185
X-120.151 Y-8.573
X-120.121 Y-8.554
X-120.1 Y-8.527
X-120.089 Y-8.493
X-120.091 Y-8.458
X-120.22 Y-7.883
X-120.232 Y-7.853
X-120.253 Y-7.828
X-120.282 Y-7.812
X-120.314 Y-7.805
X-120.521
X-120.596 Y-7.809
X-120.731 Y-7.873
X-120.828 Y-7.988
X-120.887 Y-8.126
X-120.902 Y-8.275
X-120.894 Y-8.324
X-120.842 Y-8.455
X-120.735 Y-8.547
X-120.598 Y-8.58
X-120.391
X-120.357 Y-8.573
X-120.327 Y-8.554
X-120.306 Y-8.526
X-120.295 Y-8.493
X-120.297 Y-8.458
X-120.427 Y-7.883
X-120.439 Y-7.853
X-120.461 Y-7.828
X-120.489 Y-7.812
X-120.521 Y-7.805
X-120.737
X-120.812 Y-7.809
X-120.944 Y-7.879
X-121.039 Y-7.995
X-121.095 Y-8.134
X-121.108 Y-8.284
X-121.1 Y-8.33
X-121.044 Y-8.462
X-120.932 Y-8.553
X-120.791 Y-8.581
X-120.775 Y-8.58
X-120.598
X-120.563 Y-8.573
X-120.533 Y-8.554
X-120.512 Y-8.526
X-120.502 Y-8.492
X-120.504 Y-8.457
X-120.643 Y-7.882
X-120.656 Y-7.852
X-120.677 Y-7.828
X-120.705 Y-7.811
X-120.737 Y-7.805
X-120.944
X-121.019 Y-7.809
X-121.152 Y-7.879
X-121.246 Y-7.996
X-121.302 Y-8.135
X-121.315 Y-8.284
X-121.303 Y-8.356
X-121.259 Y-8.47
X-121.174 Y-8.557
X-121.06 Y-8.603
X-120.938 Y-8.6
X-120.902 Y-8.591
X-120.859 Y-8.584
X-120.791 Y-8.581
X-120.757 Y-8.572
X-120.728 Y-8.552
X-120.708 Y-8.524
X-120.699 Y-8.491
X-120.702 Y-8.456
X-120.851 Y-7.88
X-120.864 Y-7.851
X-120.885 Y-7.827
X-120.913 Y-7.811
X-120.944 Y-7.805
X-121.16
X-121.235 Y-7.809
X-121.365 Y-7.883
X-121.456 Y-8.002
X-121.511 Y-8.142
X-121.525 Y-8.291
X-121.503 Y-8.44
X-121.475 Y-8.501
X-121.402 Y-8.601
X-121.296 Y-8.664
X-121.174 Y-8.68
X-121.055 Y-8.646
X-121.026 Y-8.621
X-121.009 Y-8.587
X-121.005 Y-8.55
X-121.006 Y-8.534
X-121.064 Y-7.896
X-121.073 Y-7.861
X-121.094 Y-7.832
X-121.125 Y-7.813
X-121.16 Y-7.805
X-121.329
X-121.404 Y-7.809
X-121.545 Y-7.86
X-121.647 Y-7.97
X-121.712 Y-8.105
X-121.741 Y-8.252
X-121.736 Y-8.402
X-121.696 Y-8.546
X-121.62 Y-8.676
X-121.582 Y-8.714
X-121.488 Y-8.779
X-121.377 Y-8.803
X-121.264 Y-8.785
X-121.167 Y-8.725
X-121.148 Y-8.7
X-121.138 Y-8.672
X-121.137 Y-8.641
X-121.151 Y-8.532
X-121.233 Y-7.892
X-121.244 Y-7.859
X-121.265 Y-7.831
X-121.295 Y-7.812
X-121.329 Y-7.805
X-121.536
X-121.611 Y-7.809
X-121.752 Y-7.86
X-121.855 Y-7.97
X-121.923 Y-8.103
X-121.959 Y-8.249
X-121.963 Y-8.399
X-121.936 Y-8.547
X-121.882 Y-8.686
X-121.797 Y-8.811
X-121.687 Y-8.912
X-121.648 Y-8.932
X-121.541 Y-8.965
X-121.429 Y-8.957
X-121.328 Y-8.908
X-121.253 Y-8.825
X-121.241 Y-8.79
X-121.242 Y-8.753
X-121.296 Y-8.52
X-121.442 Y-7.883
X-121.455 Y-7.852
X-121.476 Y-7.828
X-121.504 Y-7.812
X-121.536 Y-7.805
X-121.752
X-121.827 Y-7.809
X-121.966 Y-7.865
X-122.069 Y-7.974
X-122.139 Y-8.106
X-122.179 Y-8.251
X-122.191 Y-8.401
X-122.176 Y-8.55
X-122.135 Y-8.694
X-122.07 Y-8.83
X-121.985 Y-8.953
X-121.876 Y-9.056
X-121.747 Y-9.133
X-121.685 Y-9.151
X-121.537 Y-9.156
X-121.404 Y-9.089
X-121.32 Y-8.967
X-121.295 Y-8.899
X-121.282 Y-8.873
X-121.253 Y-8.825
X-121.241 Y-8.795
X-121.24 Y-8.763
X-121.249 Y-8.732
X-121.374 Y-8.472
X-121.665 Y-7.862
X-121.686 Y-7.833
X-121.717 Y-7.813
X-121.752 Y-7.805
X-121.959
X-122.034 Y-7.809
X-122.175 Y-7.861
X-122.281 Y-7.967
X-122.355 Y-8.098
X-122.401 Y-8.24
X-122.422 Y-8.389
X-122.417 Y-8.539
X-122.39 Y-8.686
X-122.342 Y-8.829
X-122.275 Y-8.963
X-122.19 Y-9.086
X-122.086 Y-9.194
X-121.965 Y-9.283
X-121.828 Y-9.345
X-121.682 Y-9.379
X-121.625 Y-9.376
X-121.486 Y-9.333
X-121.384 Y-9.23
X-121.342 Y-9.091
X-121.344 Y-9.069
X-121.351 Y-9.049
X-121.6 Y-8.481
X-121.871 Y-7.865
X-121.892 Y-7.834
X-121.923 Y-7.813
X-121.959 Y-7.805
X-122.175
X-122.213
X-122.26
X-122.291 Y-7.807
X-122.294 Y-7.808
X-122.378 Y-7.875
X-122.432 Y-7.967
X-122.451 Y-8.072
G3 X-122.136 Y-8.232 I0.202 J0.007
X-122.26 Y-7.805 I-0.132 J0.193
G1 X-122.361 Y-7.806
X-122.372 Y-7.807
X-122.382 Y-7.81
X-122.395 Y-7.815
X-122.407 Y-7.823
X-122.42 Y-7.833
X-122.433 Y-7.848
X-122.443 Y-7.867
X-122.449 Y-7.885
X-122.451 Y-7.907
Y-8.861
X-122.444 Y-9.011
X-122.393 Y-9.152
X-122.312 Y-9.279
X-122.21 Y-9.388
X-122.091 Y-9.479
X-121.958 Y-9.549
X-121.814 Y-9.593
X-121.665 Y-9.602
X-121.6 Y-9.592
X-121.471 Y-9.538
X-121.379 Y-9.432
X-121.347 Y-9.295
Y-9.237
X-121.345 Y-9.152
X-121.342 Y-9.091
X-121.347 Y-9.058
X-121.363 Y-9.028
X-121.388 Y-9.006
X-121.418 Y-8.992
X-121.737 Y-8.913
X-122.327 Y-8.767
X-122.363 Y-8.765
X-122.396 Y-8.775
X-122.425 Y-8.797
X-122.444 Y-8.826
X-122.451 Y-8.861
Y-9.199
X-122.444 Y-9.349
X-122.38 Y-9.485
X-122.284 Y-9.6
X-122.167 Y-9.694
X-122.036 Y-9.766
X-121.894 Y-9.814
X-121.745 Y-9.834
X-121.596 Y-9.822
X-121.554 Y-9.809
X-121.446 Y-9.746
X-121.373 Y-9.645
X-121.347 Y-9.523
Y-9.295
X-121.354 Y-9.26
X-121.373 Y-9.23
X-121.402 Y-9.209
X-121.436 Y-9.199
X-121.723 Y-9.169
X-122.341 Y-9.103
X-122.373 Y-9.105
X-122.404 Y-9.117
X-122.428 Y-9.139
X-122.445 Y-9.167
X-122.451 Y-9.199
Y-9.49
X-122.444 Y-9.64
X-122.371 Y-9.771
X-122.267 Y-9.879
X-122.143 Y-9.964
X-122.006 Y-10.024
X-121.86 Y-10.059
X-121.71 Y-10.069
X-121.562 Y-10.046
X-121.538 Y-10.037
X-121.438 Y-9.973
X-121.37 Y-9.874
X-121.347 Y-9.757
Y-9.523
X-121.355 Y-9.487
X-121.376 Y-9.456
X-121.407 Y-9.435
X-121.443 Y-9.427
X-121.72 Y-9.417
X-122.348 Y-9.394
X-122.386 Y-9.4
X-122.419 Y-9.421
X-122.442 Y-9.452
X-122.451 Y-9.49
Y-9.744
X-122.444 Y-9.894
X-122.372 Y-10.025
X-122.266 Y-10.131
X-122.138 Y-10.21
X-121.999 Y-10.265
X-121.852 Y-10.297
X-121.702 Y-10.305
X-121.554 Y-10.28
X-121.535 Y-10.272
X-121.436 Y-10.207
X-121.37 Y-10.109
X-121.347 Y-9.993
Y-9.757
X-121.355 Y-9.72
X-121.377 Y-9.689
X-121.408 Y-9.668
X-121.445 Y-9.661
X-121.72 Y-9.657
X-122.35 Y-9.647
X-122.388 Y-9.654
X-122.42 Y-9.675
X-122.442 Y-9.706
X-122.451 Y-9.744
Y-9.997
X-122.444 Y-10.147
X-122.369 Y-10.277
X-122.259 Y-10.379
X-122.13 Y-10.455
X-121.989 Y-10.507
X-121.842 Y-10.536
X-121.692 Y-10.541
X-121.544 Y-10.513
X-121.529 Y-10.507
X-121.433 Y-10.442
X-121.369 Y-10.345
X-121.347 Y-10.231
Y-9.993
X-121.355 Y-9.956
X-121.377 Y-9.925
X-121.409 Y-9.904
X-121.447 Y-9.897
X-121.719 Y-9.898
X-122.352 Y-9.901
X-122.389 Y-9.908
X-122.421 Y-9.929
X-122.443 Y-9.96
X-122.451 Y-9.997
Y-10.25
X-122.444 Y-10.4
X-122.364 Y-10.527
X-122.251 Y-10.626
X-122.12 Y-10.699
X-121.978 Y-10.749
X-121.831 Y-10.775
X-121.681 Y-10.778
X-121.534 Y-10.748
X-121.524 Y-10.743
X-121.43 Y-10.678
X-121.368 Y-10.582
X-121.347 Y-10.47
Y-10.231
X-121.355 Y-10.193
X-121.378 Y-10.162
X-121.411 Y-10.141
X-121.449 Y-10.134
X-121.72 Y-10.14
X-122.353 Y-10.154
X-122.39 Y-10.162
X-122.422 Y-10.183
X-122.443 Y-10.214
X-122.451 Y-10.25
Y-10.504
X-122.447 Y-10.579
X-122.393 Y-10.718
X-122.291 Y-10.829
X-122.166 Y-10.912
X-122.028 Y-10.971
X-121.883 Y-11.007
X-121.733 Y-11.018
X-121.584 Y-11.001
X-121.548 Y-10.989
X-121.443 Y-10.925
X-121.372 Y-10.825
X-121.347 Y-10.705
Y-10.47
X-121.356 Y-10.432
X-121.378 Y-10.4
X-121.412 Y-10.38
X-121.45 Y-10.373
X-121.72 Y-10.384
X-122.355 Y-10.407
X-122.391 Y-10.416
X-122.422 Y-10.437
X-122.443 Y-10.468
X-122.451 Y-10.504
Y-10.719
X-122.444 Y-10.869
X-122.366 Y-10.997
X-122.255 Y-11.098
X-122.125 Y-11.173
X-121.984 Y-11.224
X-121.836 Y-11.251
X-121.686 Y-11.254
X-121.539 Y-11.225
X-121.524 Y-11.218
X-121.431 Y-11.152
X-121.368 Y-11.056
X-121.347 Y-10.944
Y-10.705
X-121.355 Y-10.668
X-121.378 Y-10.636
X-121.41 Y-10.615
X-121.448 Y-10.609
X-121.72 Y-10.613
X-122.353 Y-10.623
X-122.39 Y-10.63
X-122.421 Y-10.651
X-122.443 Y-10.682
X-122.451 Y-10.719
Y-10.973
X-122.447 Y-11.048
X-122.396 Y-11.188
X-122.347 Y-11.267
X-122.324 Y-11.358
X-122.33 Y-11.544
X-122.435 Y-11.845
X-122.444 Y-11.877
X-122.449 Y-11.91
X-122.451 Y-11.943
X-122.442 Y-11.981
X-122.42 Y-12.012
X-122.388 Y-12.033
X-122.35 Y-12.04
X-122.312 Y-12.031
X-122.28 Y-12.01
X-122.259 Y-11.977
X-122.251 Y-11.94
Y-11.465
Y-11.451
Y-10.976
X-122.259 Y-10.938
X-122.28 Y-10.906
X-122.312 Y-10.884
X-122.35 Y-10.876
X-122.388 Y-10.883
X-122.42 Y-10.904
X-122.442 Y-10.935
X-122.451 Y-10.973
Y-12.525
X-122.444 Y-12.558
X-122.427 Y-12.586
X-122.402 Y-12.608
X-122.37 Y-12.62
X-122.337
X-121.919 Y-12.559
X-121.333 Y-12.472
X-121.297 Y-12.46
X-121.268 Y-12.434
X-121.251 Y-12.4
X-121.248 Y-12.361
X-121.26 Y-12.325
X-121.282 Y-12.288
X-121.287 Y-12.278
X-121.321 Y-12.193
X-121.332 Y-12.151
X-121.339 Y-12.109
X-121.345 Y-12.024
X-121.347 Y-11.94
Y-10.944
X-121.355 Y-10.907
X-121.378 Y-10.875
X-121.41 Y-10.855
X-121.448 Y-10.848
X-121.486 Y-10.856
X-121.518 Y-10.878
X-121.539 Y-10.91
X-121.733 Y-11.386
X-122.161 Y-12.44
X-122.444 Y-13.135
X-122.451 Y-13.169
Y-13.507
X-122.444 Y-13.656
X-122.364 Y-13.784
X-122.256 Y-13.887
X-122.129 Y-13.967
X-121.99 Y-14.025
X-121.844 Y-14.059
X-121.695 Y-14.069
X-121.612 Y-14.061
X-121.485 Y-14.017
X-121.389 Y-13.922
X-121.345 Y-13.795
X-121.336 Y-13.714
X-121.326 Y-13.671
X-121.312 Y-13.629
X-121.309 Y-13.595
X-121.317 Y-13.561
X-121.337 Y-13.532
X-121.365 Y-13.512
X-121.399 Y-13.503
X-121.722 Y-13.471
X-122.342 Y-13.411
X-122.374 Y-13.413
X-122.404 Y-13.425
X-122.429 Y-13.447
X-122.445 Y-13.475
X-122.451 Y-13.507
Y-13.76
X-122.444 Y-13.91
X-122.364 Y-14.037
X-122.254 Y-14.139
X-122.125 Y-14.215
X-121.985 Y-14.269
X-121.838 Y-14.3
X-121.688 Y-14.304
X-121.54 Y-14.281
X-121.526 Y-14.275
X-121.432 Y-14.209
X-121.369 Y-14.113
X-121.347 Y-14
X-121.346 Y-13.836
X-121.345 Y-13.795
X-121.348 Y-13.763
X-121.361 Y-13.733
X-121.382 Y-13.709
X-121.41 Y-13.693
X-121.442 Y-13.687
X-121.72 Y-13.68
X-122.349 Y-13.664
X-122.387 Y-13.67
X-122.42 Y-13.691
X-122.442 Y-13.722
X-122.451 Y-13.76
Y-14.013
X-122.447 Y-14.088
X-122.396 Y-14.229
X-122.297 Y-14.342
X-122.174 Y-14.428
X-122.038 Y-14.49
X-121.893 Y-14.529
X-121.743 Y-14.544
X-121.594 Y-14.531
X-121.554 Y-14.518
X-121.446 Y-14.456
X-121.373 Y-14.355
X-121.347 Y-14.233
Y-14
X-121.355 Y-13.962
X-121.378 Y-13.931
X-121.41 Y-13.91
X-121.448 Y-13.904
X-121.72 Y-13.908
X-122.353 Y-13.917
X-122.39 Y-13.925
X-122.421 Y-13.946
X-122.443 Y-13.977
X-122.451 Y-14.013
Y-14.267
X-122.447 Y-14.342
X-122.39 Y-14.48
X-122.288 Y-14.591
X-122.164 Y-14.675
X-122.026 Y-14.734
X-121.88 Y-14.769
X-121.731 Y-14.782
X-121.582 Y-14.762
X-121.548 Y-14.75
X-121.443 Y-14.687
X-121.372 Y-14.587
X-121.347 Y-14.467
X-121.353 Y-14.435
X-121.37 Y-14.406
X-121.395 Y-14.385
X-121.425 Y-14.373
X-121.734 Y-14.304
X-122.33 Y-14.173
X-122.365 Y-14.171
X-122.398 Y-14.182
X-122.425 Y-14.203
X-122.444 Y-14.233
X-122.451 Y-14.267
Y-14.52
X-122.447 Y-14.595
X-122.384 Y-14.731
X-122.279 Y-14.839
X-122.153 Y-14.919
X-122.014 Y-14.976
X-121.868 Y-15.008
X-121.718 Y-15.017
X-121.57 Y-14.995
X-121.541 Y-14.984
X-121.439 Y-14.92
X-121.371 Y-14.821
X-121.347 Y-14.703
X-121.353 Y-14.67
X-121.37 Y-14.642
X-121.396 Y-14.62
X-121.427 Y-14.609
X-121.732 Y-14.547
X-122.331 Y-14.426
X-122.366 Y-14.425
X-122.399 Y-14.436
X-122.426 Y-14.457
X-122.444 Y-14.486
X-122.451 Y-14.52
Y-14.727
X-122.444 Y-14.877
X-122.363 Y-15.004
X-122.251 Y-15.103
X-122.12 Y-15.176
X-121.978 Y-15.226
X-121.831 Y-15.251
X-121.681 Y-15.252
X-121.534 Y-15.222
X-121.522 Y-15.216
X-121.429 Y-15.15
X-121.368 Y-15.055
X-121.347 Y-14.943
X-121.353 Y-14.912
X-121.369 Y-14.883
X-121.393 Y-14.862
X-121.423 Y-14.85
X-121.736 Y-14.775
X-122.328 Y-14.633
X-122.363 Y-14.631
X-122.397 Y-14.642
X-122.425 Y-14.663
X-122.444 Y-14.693
X-122.451 Y-14.727
Y-14.981
X-122.447 Y-15.055
X-122.393 Y-15.195
X-122.291 Y-15.305
X-122.166 Y-15.389
X-122.028 Y-15.447
X-121.882 Y-15.482
X-121.733 Y-15.492
X-121.584 Y-15.475
X-121.548 Y-15.463
X-121.443 Y-15.399
X-121.372 Y-15.299
X-121.347 Y-15.179
X-121.353 Y-15.147
X-121.37 Y-15.119
X-121.395 Y-15.097
X-121.425 Y-15.085
X-121.734 Y-15.017
X-122.33 Y-14.886
X-122.365 Y-14.885
X-122.398 Y-14.896
X-122.425 Y-14.917
X-122.444 Y-14.946
X-122.451 Y-14.981
Y-15.196
X-122.444 Y-15.346
X-122.366 Y-15.474
X-122.255 Y-15.574
X-122.125 Y-15.649
X-121.983 Y-15.7
X-121.836 Y-15.726
X-121.686 Y-15.729
X-121.539 Y-15.699
X-121.524 Y-15.693
X-121.43 Y-15.627
X-121.368 Y-15.531
X-121.347 Y-15.419
X-121.353 Y-15.387
X-121.369 Y-15.359
X-121.393 Y-15.338
X-121.423 Y-15.325
X-121.737 Y-15.248
X-122.327 Y-15.102
X-122.363 Y-15.1
X-122.396 Y-15.11
X-122.425 Y-15.132
X-122.444 Y-15.161
X-122.451 Y-15.196
Y-15.449
X-122.447 Y-15.524
X-122.396 Y-15.665
X-122.295 Y-15.777
X-122.171 Y-15.861
X-122.034 Y-15.92
X-121.888 Y-15.957
X-121.739 Y-15.968
X-121.615 Y-15.955
X-121.479 Y-15.905
X-121.382 Y-15.797
X-121.347 Y-15.657
X-121.353 Y-15.625
X-121.369 Y-15.597
X-121.394 Y-15.575
X-121.424 Y-15.563
X-121.735 Y-15.491
X-122.329 Y-15.355
X-122.364 Y-15.354
X-122.397 Y-15.364
X-122.425 Y-15.385
X-122.444 Y-15.415
X-122.451 Y-15.449
Y-15.703
X-122.447 Y-15.778
X-122.387 Y-15.915
X-122.284 Y-16.024
X-122.159 Y-16.106
X-122.02 Y-16.163
X-121.873 Y-16.195
X-121.724 Y-16.203
X-121.575 Y-16.185
X-121.537 Y-16.171
X-121.437 Y-16.106
X-121.37 Y-16.008
X-121.347 Y-15.891
X-121.353 Y-15.859
X-121.37 Y-15.83
X-121.395 Y-15.809
X-121.426 Y-15.797
X-121.732 Y-15.733
X-122.331 Y-15.608
X-122.366 Y-15.607
X-122.398 Y-15.618
X-122.426 Y-15.639
X-122.444 Y-15.669
X-122.451 Y-15.703
Y-15.91
X-122.444 Y-16.06
X-122.366 Y-16.188
X-122.255 Y-16.288
X-122.124 Y-16.362
X-121.983 Y-16.412
X-121.835 Y-16.438
X-121.685 Y-16.44
X-121.538 Y-16.411
X-121.525 Y-16.405
X-121.431 Y-16.339
X-121.368 Y-16.243
X-121.347 Y-16.131
X-121.353 Y-16.099
X-121.369 Y-16.071
X-121.393 Y-16.05
X-121.423 Y-16.037
X-121.737 Y-15.96
X-122.328 Y-15.816
X-122.363 Y-15.814
X-122.397 Y-15.824
X-122.425 Y-15.845
X-122.444 Y-15.875
X-122.451 Y-15.91
Y-16.163
X-122.447 Y-16.238
X-122.396 Y-16.379
X-122.295 Y-16.49
X-122.17 Y-16.574
X-122.033 Y-16.633
X-121.887 Y-16.669
X-121.737 Y-16.68
X-121.588 Y-16.664
X-121.55 Y-16.651
X-121.444 Y-16.588
X-121.372 Y-16.487
X-121.347 Y-16.367
X-121.353 Y-16.335
X-121.37 Y-16.306
X-121.394 Y-16.285
X-121.425 Y-16.273
X-121.734 Y-16.203
X-122.329 Y-16.069
X-122.364 Y-16.067
X-122.398 Y-16.078
X-122.425 Y-16.099
X-122.444 Y-16.129
X-122.451 Y-16.163
Y-16.416
X-122.447 Y-16.491
X-122.387 Y-16.629
X-122.283 Y-16.737
X-122.157 Y-16.819
X-122.018 Y-16.875
X-121.872 Y-16.908
X-121.722 Y-16.917
X-121.574 Y-16.895
X-121.543 Y-16.884
X-121.44 Y-16.82
X-121.371 Y-16.721
X-121.347 Y-16.602
X-121.353 Y-16.57
X-121.37 Y-16.541
X-121.395 Y-16.52
X-121.426 Y-16.508
X-121.732 Y-16.445
X-122.331 Y-16.322
X-122.366 Y-16.321
X-122.399 Y-16.332
X-122.426 Y-16.353
X-122.444 Y-16.383
X-122.451 Y-16.416
Y-16.632
X-122.447 Y-16.707
X-122.396 Y-16.848
X-122.297 Y-16.96
X-122.173 Y-17.045
X-122.036 Y-17.105
X-121.89 Y-17.141
X-121.741 Y-17.154
X-121.592 Y-17.136
X-121.552 Y-17.123
X-121.445 Y-17.06
X-121.372 Y-16.96
X-121.347 Y-16.838
X-121.353 Y-16.806
X-121.369 Y-16.778
X-121.394 Y-16.757
X-121.424 Y-16.744
X-121.735 Y-16.673
X-122.329 Y-16.538
X-122.364 Y-16.536
X-122.397 Y-16.547
X-122.425 Y-16.568
X-122.444 Y-16.598
X-122.451 Y-16.632
Y-16.885
X-122.447 Y-16.96
X-122.389 Y-17.098
X-122.286 Y-17.208
X-122.161 Y-17.29
X-122.022 Y-17.347
X-121.876 Y-17.38
X-121.726 Y-17.39
X-121.578 Y-17.369
X-121.545 Y-17.357
X-121.441 Y-17.293
X-121.371 Y-17.194
X-121.347 Y-17.074
X-121.353 Y-17.042
X-121.37 Y-17.014
X-121.395 Y-16.992
X-121.426 Y-16.98
X-121.733 Y-16.916
X-122.331 Y-16.791
X-122.365 Y-16.79
X-122.398 Y-16.801
X-122.426 Y-16.822
X-122.444 Y-16.851
X-122.451 Y-16.885
Y-17.092
Y-17.139
Y-17.177
X-122.447 Y-17.252
X-122.366 Y-17.378
X-122.31 Y-17.427
X-122.251 Y-17.467
X-122.184 Y-17.492
X-122.112 Y-17.501
X-122.075 Y-17.492
X-122.043 Y-17.469
X-122.022 Y-17.436
X-122.016 Y-17.398
X-122.025 Y-17.36
X-122.048 Y-17.328
X-122.283 Y-17.107
X-122.315 Y-17.087
X-122.352 Y-17.08
X-122.389 Y-17.088
X-122.421 Y-17.109
X-122.443 Y-17.14
X-122.451 Y-17.177
Y-17.346
Y-17.388
X-122.45 Y-17.409
X-122.444 Y-17.435
X-122.44 Y-17.447
X-122.419 Y-17.466
X-122.393 Y-17.476
X-122.364 Y-17.474
X-122.338 Y-17.459
X-122.321 Y-17.435
X-122.315 Y-17.406
X-122.323 Y-17.377
X-122.342 Y-17.355
X-122.369 Y-17.342
X-122.399 Y-17.343
X-122.426 Y-17.356
X-122.444 Y-17.38
X-122.45 Y-17.409
X-122.449 Y-17.42
X-122.446 Y-17.43
X-122.44 Y-17.447
X-122.429 Y-17.463
X-122.417 Y-17.476
X-122.406 Y-17.485
X-122.394 Y-17.491
X-122.382 Y-17.496
X-122.372 Y-17.499
X-122.361 Y-17.501
X-122.128
X-121.574
X-121.536
X-121.49
X-121.474 Y-17.5
X-121.439 Y-17.494
X-121.407 Y-17.481
X-121.378 Y-17.461
X-121.359 Y-17.426
X-121.355 Y-17.386
X-121.367 Y-17.348
X-121.393 Y-17.318
X-121.428 Y-17.3
X-121.993 Y-17.148
X-122.168 Y-17.101
X-122.203 Y-17.098
X-122.238 Y-17.108
X-122.267 Y-17.129
X-122.286 Y-17.159
X-122.294 Y-17.194
X-122.289 Y-17.229
X-122.272 Y-17.26
X-122.245 Y-17.284
G3 X-121.49 Y-17.501 I0.801 J1.365
G1 X-121.452
X-121.441 Y-17.499
X-121.43 Y-17.496
X-121.42 Y-17.492
X-121.409 Y-17.486
X-121.388 Y-17.47
X-121.378 Y-17.461
X-121.367 Y-17.449
X-121.356 Y-17.43
X-121.352 Y-17.42
X-121.349 Y-17.409
X-121.347 Y-17.398
Y-14.233
X-121.356 Y-14.195
X-121.378 Y-14.163
X-121.412 Y-14.143
X-121.45 Y-14.136
X-121.488 Y-14.138 Z-0.982
X-121.521 Y-14.139 Z-0.961
X-121.542 Y-14.14 Z-0.928
X-121.55 Z-0.89
G0 Z2
X-117.556 Y-12.958
Z-0.79
G1 Z-0.89 F1000
X-117.553 Y-12.964 Z-0.928
X-117.542 Y-12.983 Z-0.961
X-117.526 Y-13.012 Z-0.982
X-117.508 Y-13.045 Z-0.99
G3 X-116.968 Y-13.615 I1.383 J0.769
G1 X-116.799 Y-13.714
X-116.733 Y-13.748
X-116.583 Y-13.76
X-116.441 Y-13.71
X-116.318 Y-13.625
X-116.293 Y-13.597
X-116.226 Y-13.475
X-116.222 Y-13.336
X-116.281 Y-13.21
X-116.305 Y-13.189
X-116.335 Y-13.177
X-116.366 Y-13.175
X-116.397 Y-13.184
X-116.424 Y-13.201
X-116.813 Y-13.555
X-116.835 Y-13.584
X-116.845 Y-13.619
X-116.842 Y-13.656
X-116.826 Y-13.689
X-116.799 Y-13.714
X-116.756 Y-13.744
X-116.714 Y-13.785
X-116.702 Y-13.798
X-116.651 Y-13.853
X-116.508 Y-13.898
X-116.36 Y-13.877
X-116.226 Y-13.809
X-116.116 Y-13.707
X-116.106 Y-13.688
X-116.071 Y-13.554
X-116.099 Y-13.418
X-116.186 Y-13.31
X-116.217 Y-13.295
X-116.251 Y-13.291
X-116.284 Y-13.299
X-116.312 Y-13.317
X-116.69 Y-13.664
X-116.712 Y-13.693
X-116.722 Y-13.729
X-116.719 Y-13.765
X-116.702 Y-13.798
X-116.668 Y-13.84
X-116.639 Y-13.883
X-116.607 Y-13.936
X-116.586 Y-13.967
X-116.457 Y-14.043
X-116.307 Y-14.048
X-116.163 Y-14.004
X-116.036 Y-13.925
X-115.941 Y-13.808
X-115.927 Y-13.775
X-115.905 Y-13.629
X-115.955 Y-13.49
X-116.066 Y-13.392
X-116.095 Y-13.383
X-116.126
X-116.154 Y-13.393
X-116.179 Y-13.411
X-116.589 Y-13.817
X-116.608 Y-13.843
X-116.618 Y-13.873
Y-13.906
X-116.607 Y-13.936
X-116.538 Y-14.051
X-116.498 Y-14.115
X-116.376 Y-14.202
X-116.227 Y-14.219
X-116.08 Y-14.19
X-115.946 Y-14.121
X-115.833 Y-14.023
X-115.752 Y-13.897
X-115.735 Y-13.849
X-115.723 Y-13.709
X-115.776 Y-13.578
X-115.882 Y-13.486
X-116.066 Y-13.392
X-116.1 Y-13.382
X-116.136 Y-13.386
X-116.168 Y-13.401
X-116.193 Y-13.428
X-116.532 Y-13.951
X-116.546 Y-13.983
X-116.548 Y-14.018
X-116.538 Y-14.051
X-116.46 Y-14.192
X-116.445 Y-14.22
X-116.407 Y-14.285
X-116.284 Y-14.372
X-116.136 Y-14.395
X-115.988 Y-14.373
X-115.849 Y-14.317
X-115.727 Y-14.229
X-115.625 Y-14.119
X-115.553 Y-13.987
X-115.54 Y-13.941
X-115.532 Y-13.811
X-115.58 Y-13.69
X-115.675 Y-13.601
X-115.699 Y-13.586
X-115.783 Y-13.539
X-115.882 Y-13.486
X-115.915 Y-13.477
X-115.95 Y-13.48
X-115.981 Y-13.494
X-116.006 Y-13.519
X-116.041 Y-13.567
X-116.436 Y-14.119
X-116.451 Y-14.151
X-116.454 Y-14.186
X-116.445 Y-14.22
X-116.401 Y-14.305
X-116.376 Y-14.369
X-116.345 Y-14.437
X-116.235 Y-14.539
X-116.09 Y-14.578
X-115.94 Y-14.574
X-115.796 Y-14.533
X-115.662 Y-14.464
X-115.543 Y-14.373
X-115.442 Y-14.262
X-115.368 Y-14.132
X-115.363 Y-14.119
X-115.349 Y-14.017
X-115.369 Y-13.916
X-115.423 Y-13.828
X-115.523 Y-13.714
X-115.572 Y-13.667
X-115.593 Y-13.651
X-115.675 Y-13.601
X-115.707 Y-13.59
X-115.74
X-115.772 Y-13.602
X-115.798 Y-13.623
X-115.912 Y-13.755
X-116.357 Y-14.27
X-116.375 Y-14.3
X-116.381 Y-14.334
X-116.376 Y-14.369
X-116.301 Y-14.558
X-116.272 Y-14.627
X-116.158 Y-14.725
X-116.014 Y-14.767
X-115.864 Y-14.769
X-115.717 Y-14.739
X-115.578 Y-14.683
X-115.451 Y-14.603
X-115.338 Y-14.504
X-115.242 Y-14.389
X-115.236 Y-14.377
X-115.208 Y-14.303
X-115.202 Y-14.224
X-115.216 Y-14.146
X-115.251 Y-14.051
X-115.261 Y-14.027
X-115.276 Y-14.003
X-115.303 Y-13.967
X-115.375 Y-13.883
X-115.423 Y-13.828
X-115.454 Y-13.806
X-115.491 Y-13.797
X-115.529 Y-13.802
X-115.562 Y-13.822
X-115.772 Y-14.008
X-116.273 Y-14.452
X-116.296 Y-14.483
X-116.306 Y-14.52
X-116.301 Y-14.558
X-116.271 Y-14.643
X-116.251 Y-14.727
X-116.243 Y-14.764
X-116.155 Y-14.885
X-116.021 Y-14.952
X-115.873 Y-14.977
X-115.723 Y-14.969
X-115.577 Y-14.934
X-115.439 Y-14.876
X-115.31 Y-14.799
X-115.193 Y-14.705
X-115.188 Y-14.699
X-115.136 Y-14.612
X-115.116 Y-14.513
X-115.13 Y-14.413
X-115.149 Y-14.38
X-115.179 Y-14.357
X-115.215 Y-14.347
X-115.252 Y-14.35
X-115.56 Y-14.44
X-116.18 Y-14.62
X-116.211 Y-14.635
X-116.235 Y-14.66
X-116.249 Y-14.692
X-116.251 Y-14.727
X-116.232 Y-14.858
X-116.218 Y-14.932
X-116.145 Y-15.063
X-116.018 Y-15.143
X-115.874 Y-15.184
X-115.724 Y-15.193
X-115.575 Y-15.175
X-115.431 Y-15.134
X-115.293 Y-15.075
X-115.164 Y-14.998
X-115.155 Y-14.989
X-115.093 Y-14.909
X-115.06 Y-14.813
X-115.062 Y-14.712
X-115.076 Y-14.678
X-115.101 Y-14.652
X-115.135 Y-14.637
X-115.171 Y-14.634
X-115.519 Y-14.675
X-116.144 Y-14.748
X-116.181 Y-14.76
X-116.211 Y-14.785
X-116.229 Y-14.819
X-116.232 Y-14.858
X-116.202 Y-15.065
X-116.192 Y-15.139
X-116.112 Y-15.267
X-115.988 Y-15.35
X-115.845 Y-15.397
X-115.696 Y-15.414
X-115.546 Y-15.407
X-115.399 Y-15.378
X-115.257 Y-15.331
X-115.19 Y-15.295
X-115.101 Y-15.223
X-115.045 Y-15.124
X-115.031 Y-15.01
X-115.042 Y-14.974
X-115.065 Y-14.945
X-115.097 Y-14.926
X-115.134 Y-14.92
X-115.48 Y-14.934
X-116.107 Y-14.96
X-116.145 Y-14.969
X-116.176 Y-14.992
X-116.197 Y-15.026
X-116.202 Y-15.065
X-116.195 Y-15.15
X-116.192 Y-15.234
X-116.185 Y-15.309
X-116.125 Y-15.446
X-116.01 Y-15.542
X-115.874 Y-15.604
X-115.727 Y-15.638
X-115.578 Y-15.647
X-115.428 Y-15.634
X-115.282 Y-15.6
X-115.201 Y-15.567
X-115.101 Y-15.499
X-115.036 Y-15.396
X-115.017 Y-15.276
X-115.026 Y-15.242
X-115.047 Y-15.213
X-115.077 Y-15.193
X-115.112 Y-15.185
X-115.465 Y-15.166
X-116.087 Y-15.134
X-116.119 Y-15.137
X-116.148 Y-15.151
X-116.171 Y-15.173
X-116.187 Y-15.202
X-116.192 Y-15.234
X-116.185 Y-15.449
X-116.179 Y-15.524
X-116.114 Y-15.659
X-116.001 Y-15.758
X-115.867 Y-15.825
X-115.722 Y-15.865
X-115.573 Y-15.882
X-115.423 Y-15.878
X-115.276 Y-15.85
X-115.208 Y-15.825
X-115.105 Y-15.761
X-115.036 Y-15.661
X-115.012 Y-15.542
X-115.02 Y-15.507
X-115.039 Y-15.478
X-115.068 Y-15.456
X-115.102 Y-15.447
X-115.458 Y-15.412
X-116.075 Y-15.351
X-116.108 Y-15.353
X-116.138 Y-15.366
X-116.163 Y-15.388
X-116.179 Y-15.417
X-116.185 Y-15.449
X-116.18 Y-15.656
X-116.175 Y-15.731
X-116.114 Y-15.868
X-116.005 Y-15.972
X-115.875 Y-16.045
X-115.732 Y-16.093
X-115.584 Y-16.118
X-115.435 Y-16.121
X-115.286 Y-16.1
X-115.218 Y-16.078
X-115.11 Y-16.016
X-115.037 Y-15.915
X-115.011 Y-15.793
X-115.018 Y-15.759
X-115.037 Y-15.73
X-115.064 Y-15.708
X-115.097 Y-15.697
X-115.456 Y-15.646
X-116.066 Y-15.559
X-116.1 Y-15.56
X-116.131 Y-15.572
X-116.157 Y-15.594
X-116.174 Y-15.623
X-116.18 Y-15.656
X-116.177 Y-15.872
X-116.172 Y-15.947
X-116.114 Y-16.085
X-116.009 Y-16.192
X-115.881 Y-16.27
X-115.741 Y-16.323
X-115.594 Y-16.354
X-115.444 Y-16.363
X-115.295 Y-16.346
X-115.226 Y-16.325
X-115.114 Y-16.264
X-115.038 Y-16.162
X-115.011 Y-16.038
X-115.018 Y-16.004
X-115.036 Y-15.975
X-115.062 Y-15.954
X-115.094 Y-15.943
X-115.456 Y-15.88
X-116.06 Y-15.775
X-116.094
X-116.126 Y-15.787
X-116.153 Y-15.809
X-116.17 Y-15.838
X-116.177 Y-15.872
X-116.173 Y-16.125
X-116.168 Y-16.2
X-116.1 Y-16.334
X-115.992 Y-16.437
X-115.862 Y-16.513
X-115.722 Y-16.566
X-115.575 Y-16.595
X-115.425 Y-16.602
X-115.276 Y-16.583
X-115.22 Y-16.565
X-115.11 Y-16.502
X-115.036 Y-16.4
X-115.011 Y-16.277
X-115.018 Y-16.243
X-115.036 Y-16.214
X-115.063 Y-16.193
X-115.095 Y-16.182
X-115.45 Y-16.125
X-116.057 Y-16.028
X-116.091 Y-16.029
X-116.123 Y-16.041
X-116.149 Y-16.062
X-116.167 Y-16.092
X-116.173 Y-16.125
X-116.17 Y-16.332
X-116.165 Y-16.407
X-116.109 Y-16.546
X-116.007 Y-16.656
X-115.881 Y-16.737
X-115.742 Y-16.795
X-115.597 Y-16.83
X-115.447 Y-16.843
X-115.298 Y-16.829
X-115.226 Y-16.809
X-115.11 Y-16.745
X-115.032 Y-16.637
X-115.009 Y-16.507
X-115.016 Y-16.475
X-115.034 Y-16.448
X-115.059 Y-16.428
X-115.09 Y-16.416
X-115.45 Y-16.349
X-116.052 Y-16.236
X-116.086 Y-16.235
X-116.119 Y-16.247
X-116.146 Y-16.269
X-116.163 Y-16.298
X-116.17 Y-16.332
X-116.168 Y-16.501
X-116.162 Y-16.585
X-116.154 Y-16.66
X-116.092 Y-16.797
X-115.987 Y-16.904
X-115.86 Y-16.984
X-115.721 Y-17.039
X-115.575 Y-17.071
X-115.425 Y-17.081
X-115.276 Y-17.063
X-115.21 Y-17.043
X-115.096 Y-16.978
X-115.021 Y-16.872
X-114.998 Y-16.743
X-115.006 Y-16.711
X-115.024 Y-16.684
X-115.05 Y-16.663
X-115.081 Y-16.652
X-115.446 Y-16.589
X-116.045 Y-16.484
X-116.081 Y-16.485
X-116.113 Y-16.497
X-116.14 Y-16.52
X-116.157 Y-16.551
X-116.162 Y-16.585
X-116.151 Y-16.754
X-116.144 Y-16.839
X-116.122 Y-16.987
X-116.028 Y-17.104
X-115.908 Y-17.194
X-115.772 Y-17.259
X-115.628 Y-17.301
X-115.48 Y-17.32
X-115.33 Y-17.315
X-115.183 Y-17.281
X-115.147 Y-17.263
X-115.051 Y-17.19
X-114.992 Y-17.085
X-114.979 Y-16.965
X-114.988 Y-16.934
X-115.007 Y-16.908
X-115.033 Y-16.889
X-115.063 Y-16.879
X-115.428 Y-16.825
X-116.03 Y-16.735
X-116.065 Y-16.736
X-116.097 Y-16.749
X-116.123 Y-16.773
X-116.14 Y-16.804
X-116.144 Y-16.839
X-116.118 Y-17.092
X-116.112 Y-17.139
X-116.107 Y-17.177
X-116.1 Y-17.214
X-116.014 Y-17.336
X-115.896 Y-17.43
X-115.815 Y-17.47
X-115.772 Y-17.487
X-115.727 Y-17.498
X-115.682 Y-17.501
X-115.647 Y-17.494
X-115.618 Y-17.475
X-115.596 Y-17.447
X-115.586 Y-17.413
X-115.588 Y-17.378
X-115.602 Y-17.346
X-115.626 Y-17.32
X-115.948 Y-17.086
X-115.983 Y-17.07
X-116.021 Y-17.068
X-116.057 Y-17.08
X-116.086 Y-17.105
X-116.103 Y-17.139
X-116.107 Y-17.177
X-116.084 Y-17.346
X-116.077 Y-17.388
X-116.072 Y-17.409
X-116.066 Y-17.428
X-116.047 Y-17.455
X-116.018 Y-17.47
X-115.985 Y-17.472
X-115.955 Y-17.459
X-115.933 Y-17.435
X-115.923 Y-17.403
X-115.929 Y-17.371
X-115.93 Y-17.367
X-115.947 Y-17.341
X-115.974 Y-17.325
X-116.005 Y-17.321
X-116.034 Y-17.33
X-116.058 Y-17.35
X-116.072 Y-17.378
Y-17.409
X-116.07 Y-17.42
X-116.065 Y-17.43
X-116.055 Y-17.448
X-116.037 Y-17.466
X-116.005 Y-17.488
X-115.995 Y-17.493
X-115.984 Y-17.497
X-115.974 Y-17.499
X-115.963 Y-17.501
X-115.36
X-115.314
X-115.164 Y-17.494
X-115.139 Y-17.483
X-115.03 Y-17.408
X-114.964 Y-17.293
X-114.955 Y-17.161
X-114.967 Y-17.128
X-114.99 Y-17.102
X-115.02 Y-17.085
X-115.054 Y-17.079
X-115.088 Y-17.086
X-115.118 Y-17.103
X-115.376 Y-17.325
X-115.4 Y-17.357
X-115.41 Y-17.395
X-115.405 Y-17.434
X-115.384 Y-17.468
X-115.352 Y-17.492
X-115.314 Y-17.501
X-115.06
X-115.022
X-115.011 Y-17.499
X-114.992 Y-17.494
X-114.967 Y-17.475
X-114.953 Y-17.447
Y-17.416
X-114.968 Y-17.388
X-114.994 Y-17.371
X-115.025 Y-17.367
X-115.055 Y-17.378
X-115.076 Y-17.402
Y-17.403
X-115.083 Y-17.43
X-115.079 Y-17.458
X-115.063 Y-17.481
X-115.039 Y-17.496
X-115.011 Y-17.499
X-115.001 Y-17.497
X-114.99 Y-17.493
X-114.98 Y-17.488
X-114.948 Y-17.464
X-114.937 Y-17.453
X-114.929 Y-17.442
X-114.923 Y-17.43
X-114.919 Y-17.42
X-114.916 Y-17.409
X-114.914 Y-17.398
Y-17.388
Y-17.377
X-114.916 Y-17.367
X-114.922 Y-17.346
X-114.937 Y-17.277
X-114.965 Y-17.092
X-114.975 Y-17.008
X-114.991 Y-16.839
X-114.998 Y-16.754
X-115.009 Y-16.501
X-115.011 Y-16.163
X-115.012 Y-15.572
X-115.013 Y-15.403
X-115.015 Y-15.318
X-115.027 Y-15.065
X-115.044 Y-14.812
X-115.059 Y-14.727
X-115.09 Y-14.558
X-115.107 Y-14.487
X-115.216 Y-14.146
X-115.229 Y-14.121
X-115.249 Y-14.1
X-115.282 Y-14.089 Z-0.984
X-115.31 Y-14.08 Z-0.966
X-115.328 Y-14.083 Z-0.944
X-115.34 Y-14.085 Z-0.918
X-115.344 Y-14.086 Z-0.89
G0 Z2
X-111.432 Y-12.025
Z0.5
G3 X-110.948 Y-12.149 Z0.29 I0.242 J-0.062 F333.3
X-111.432 Y-12.025 Z0.079 I-0.242 J0.062
X-110.948 Y-12.149 Z-0.131 I0.242 J-0.062
X-111.432 Y-12.025 Z-0.342 I-0.242 J0.062
X-110.948 Y-12.149 Z-0.552 I0.242 J-0.062
X-111.432 Y-12.025 Z-0.763 I-0.242 J0.062
X-111.221 Y-12.335 Z-0.876 I0.242 J-0.062
X-110.94 Y-12.087 Z-0.99 I0.031 J0.248
X-111.44 I-0.25
X-110.94 I0.25
G1 X-110.903 Y-11.942 F1000
X-110.916 Y-11.868
X-110.953 Y-11.803
X-111.06 Y-11.697
X-111.204 Y-11.658
X-111.353 Y-11.679
X-111.483 Y-11.753
X-111.58 Y-11.868
X-111.632 Y-12.008
X-111.634 Y-12.158
X-111.586 Y-12.3
X-111.494 Y-12.419
X-111.369 Y-12.501
X-111.223 Y-12.537
X-111.074 Y-12.523
X-110.937 Y-12.46
X-110.829 Y-12.357
X-110.751 Y-12.229
X-110.7 Y-12.087
X-110.69 Y-11.938
X-110.725 Y-11.792
X-110.796 Y-11.66
X-110.904 Y-11.556
X-111.035 Y-11.483
X-111.181 Y-11.449
X-111.331 Y-11.457
X-111.475 Y-11.498
X-111.605 Y-11.573
X-111.711 Y-11.679
X-111.793 Y-11.805
X-111.807 Y-11.843
X-111.816 Y-11.876
X-111.822 Y-11.909
X-111.824 Y-11.943
Y-12.109
X-111.816 Y-12.259
X-111.77 Y-12.401
X-111.686 Y-12.526
X-111.577 Y-12.629
X-111.448 Y-12.705
X-111.304 Y-12.746
X-111.154 Y-12.755
X-111.006 Y-12.733
X-110.867 Y-12.675
X-110.744 Y-12.589
X-110.712 Y-12.555
X-110.682 Y-12.52
X-110.658 Y-12.481
X-110.641 Y-12.438
X-110.616 Y-12.362
X-110.584 Y-12.278
X-110.57 Y-12.253
X-110.553 Y-12.223
X-110.538 Y-12.197
X-110.466 Y-12.066
X-110.465 Y-11.984
X-110.483 Y-11.881
X-110.538 Y-11.791
X-110.623 Y-11.729
X-110.658 Y-11.716
X-110.696 Y-11.717
X-110.73 Y-11.732
X-110.757 Y-11.759
X-110.772 Y-11.793
X-110.773 Y-11.831
X-110.72 Y-12.158
X-110.706 Y-12.195
X-110.679 Y-12.224
X-110.643 Y-12.24
X-110.603
X-110.566 Y-12.225
X-110.538 Y-12.197
X-110.407 Y-12.001
X-110.394 Y-11.982
X-110.38 Y-11.961
X-110.372 Y-11.946
X-110.364 Y-11.923
X-110.369 Y-11.892
X-110.386 Y-11.865
X-110.412 Y-11.848
X-110.445 Y-11.842
X-110.477 Y-11.852
X-110.501 Y-11.874
X-110.514 Y-11.905
X-110.512 Y-11.938
X-110.496 Y-11.967
X-110.469 Y-11.986
X-110.436 Y-11.992
X-110.404 Y-11.983
X-110.38 Y-11.961
X-110.373 Y-11.95
X-110.369 Y-11.94
X-110.364 Y-11.923
X-110.363 Y-11.906
X-110.364 Y-11.888
X-110.369 Y-11.871
X-110.376 Y-11.855
X-110.403 Y-11.82
X-110.415 Y-11.808
X-110.434 Y-11.796
X-110.454 Y-11.789
X-110.523 Y-11.771
X-110.538 Y-11.766
X-110.58 Y-11.749
X-110.623 Y-11.729
X-110.688 Y-11.686
X-110.707 Y-11.671
X-110.778 Y-11.602
X-110.792 Y-11.586
X-110.816 Y-11.552
X-110.838 Y-11.517
X-110.849 Y-11.492
X-110.884 Y-11.425
X-110.991 Y-11.32
X-111.129 Y-11.261
X-111.277 Y-11.241
X-111.427 Y-11.253
X-111.571 Y-11.295
X-111.704 Y-11.364
X-111.711 Y-11.37
X-111.772 Y-11.435
X-111.81 Y-11.516
X-111.824 Y-11.604
X-111.817 Y-11.636
X-111.801 Y-11.664
X-111.777 Y-11.686
X-111.747 Y-11.698
X-111.715 Y-11.701
X-111.529 Y-11.684
X-110.933 Y-11.629
X-110.897 Y-11.619
X-110.868 Y-11.597
X-110.848 Y-11.565
X-110.842 Y-11.528
X-110.849 Y-11.492
X-110.877 Y-11.432
X-110.9 Y-11.349
X-110.905 Y-11.306
X-110.91 Y-11.269
X-110.995 Y-11.145
X-111.124 Y-11.069
X-111.269 Y-11.032
X-111.419 Y-11.027
X-111.567 Y-11.052
X-111.625 Y-11.072
X-111.729 Y-11.136
X-111.799 Y-11.236
X-111.824 Y-11.355
X-111.815 Y-11.393
X-111.791 Y-11.425
X-111.757 Y-11.446
X-111.718 Y-11.451
X-111.629 Y-11.446
X-111 Y-11.41
X-110.962 Y-11.4
X-110.931 Y-11.377
X-110.912 Y-11.344
X-110.905 Y-11.306
X-110.908 Y-11.264
X-110.909 Y-11.18
X-110.913 Y-11.105
X-110.98 Y-10.97
X-111.099 Y-10.88
X-111.239 Y-10.826
X-111.388 Y-10.804
X-111.538 Y-10.812
X-111.602 Y-10.829
X-111.717 Y-10.89
X-111.796 Y-10.992
X-111.824 Y-11.119
X-111.816 Y-11.154
X-111.796 Y-11.185
X-111.767 Y-11.206
X-111.732 Y-11.215
X-111.638 Y-11.223
X-111.018 Y-11.276
X-110.985 Y-11.274
X-110.956 Y-11.261
X-110.932 Y-11.239
X-110.915 Y-11.211
X-110.909 Y-11.18
X-110.91 Y-10.964
Y-10.926
Y-10.88
X-110.911 Y-10.842
X-111.008 Y-10.727
X-111.084 Y-10.679
X-111.134 Y-10.653
X-111.189 Y-10.638
X-111.245 Y-10.632
X-111.28 Y-10.64
X-111.31 Y-10.66
X-111.331 Y-10.689
X-111.341 Y-10.724
X-111.337 Y-10.76
X-111.321 Y-10.793
X-111.294 Y-10.817
X-111.062 Y-10.961
X-111.03 Y-10.974
X-110.995 Y-10.975
X-110.962 Y-10.965
X-110.935 Y-10.943
X-110.917 Y-10.914
X-110.91 Y-10.88
Y-10.757
Y-10.736
X-110.912 Y-10.726
X-110.927 Y-10.695
X-110.976 Y-10.648
X-111.016 Y-10.634
X-111.059 Y-10.636
X-111.098 Y-10.653
X-111.129 Y-10.684
X-111.146 Y-10.723
X-111.148 Y-10.766
X-111.134 Y-10.806
X-111.107 Y-10.839
X-111.069 Y-10.86
X-111.026 Y-10.866
X-110.987 Y-10.857
X-110.953 Y-10.835
X-110.927 Y-10.804
X-110.913 Y-10.766
X-110.912 Y-10.726
X-110.916 Y-10.715
X-110.92 Y-10.704
X-110.926 Y-10.694
X-110.934 Y-10.683
X-110.945 Y-10.673
X-110.972 Y-10.65
X-110.982 Y-10.644
X-110.993 Y-10.639
X-111.003 Y-10.636
X-111.014 Y-10.633
X-111.025 Y-10.632
X-111.469
X-111.515
X-111.553
X-111.703 Y-10.64
X-111.767 Y-10.694
X-111.809 Y-10.767
X-111.824 Y-10.85
X-111.816 Y-10.884
X-111.797 Y-10.914
X-111.769 Y-10.936
X-111.735 Y-10.946
X-111.7 Y-10.943
X-111.667 Y-10.929
X-111.5 Y-10.815
X-111.475 Y-10.79
X-111.46 Y-10.757
X-111.457 Y-10.722
X-111.467 Y-10.688
X-111.489 Y-10.659
X-111.518 Y-10.64
X-111.553 Y-10.632
X-111.638
X-111.723 Y-10.634
X-111.739 Y-10.638
X-111.755 Y-10.646
X-111.772 Y-10.658
X-111.799 Y-10.683
X-111.807 Y-10.694
X-111.816 Y-10.71
X-111.821 Y-10.726
X-111.823 Y-10.741
X-111.824 Y-11.943
X-111.816 Y-11.982
X-111.794 Y-12.014
X-111.761 Y-12.036
X-111.722 Y-12.043
X-111.684 Y-12.035
X-111.652 Y-12.012
X-111.63 Y-11.979
X-111.447 Y-11.505
X-111.423 Y-11.442
X-111.416 Y-11.406
X-111.423 Y-11.37
X-111.443 Y-11.338
X-111.473 Y-11.316
X-111.508 Y-11.307
X-111.545 Y-11.31
X-111.578 Y-11.327
X-111.602 Y-11.355
G3 X-111.824 Y-12.109 I1.36 J-0.809
G1 Y-12.447
X-111.816 Y-12.596
X-111.744 Y-12.728
X-111.638 Y-12.834
X-111.51 Y-12.912
X-111.369 Y-12.963
X-111.22 Y-12.985
X-111.071 Y-12.98
X-110.924 Y-12.95
X-110.914 Y-12.947
X-110.83 Y-12.898
X-110.766 Y-12.825
X-110.729 Y-12.736
X-110.707 Y-12.645
X-110.641 Y-12.438
X-110.638 Y-12.401
X-110.648 Y-12.365
X-110.671 Y-12.335
X-110.704 Y-12.316
X-110.741 Y-12.311
X-111.093 Y-12.325
X-111.728 Y-12.35
X-111.764 Y-12.359
X-111.795 Y-12.38
X-111.816 Y-12.41
X-111.824 Y-12.447
Y-12.7
X-111.816 Y-12.85
X-111.741 Y-12.979
X-111.629 Y-13.08
X-111.498 Y-13.152
X-111.355 Y-13.198
X-111.206 Y-13.219
X-111.056
X-111.013 Y-13.21
X-110.904 Y-13.164
X-110.821 Y-13.079
X-110.778 Y-12.968
X-110.76 Y-12.869
X-110.729 Y-12.736
Y-12.701
X-110.74 Y-12.668
X-110.762 Y-12.641
X-110.792 Y-12.623
X-110.826 Y-12.616
X-111.092 Y-12.612
X-111.722 Y-12.604
X-111.76 Y-12.61
X-111.793 Y-12.631
X-111.815 Y-12.662
X-111.824 Y-12.7
Y-12.953
X-111.82 Y-13.028
X-111.769 Y-13.169
X-111.668 Y-13.28
X-111.542 Y-13.362
X-111.403 Y-13.418
X-111.257 Y-13.452
X-111.107 Y-13.456
X-111.06 Y-13.448
X-110.941 Y-13.4
X-110.852 Y-13.306
X-110.812 Y-13.185
X-110.805 Y-13.122
X-110.778 Y-12.968
X-110.779 Y-12.934
X-110.791 Y-12.903
X-110.814 Y-12.877
X-110.844 Y-12.86
X-110.877 Y-12.854
X-111.092 Y-12.855
X-111.724 Y-12.857
X-111.761 Y-12.864
X-111.793 Y-12.885
X-111.815 Y-12.916
X-111.824 Y-12.953
Y-13.207
X-111.82 Y-13.282
X-111.758 Y-13.418
X-111.653 Y-13.526
X-111.526 Y-13.605
X-111.386 Y-13.658
X-111.239 Y-13.686
X-111.089 Y-13.682
X-111.056 Y-13.673
X-110.944 Y-13.618
X-110.865 Y-13.521
X-110.831 Y-13.401
X-110.83 Y-13.376
X-110.812 Y-13.185
X-110.815 Y-13.151
X-110.829 Y-13.121
X-110.852 Y-13.097
X-110.882 Y-13.082
X-110.915 Y-13.077
X-111.093 Y-13.085
X-111.728 Y-13.11
X-111.764 Y-13.119
X-111.795 Y-13.14
X-111.816 Y-13.171
X-111.824 Y-13.207
Y-13.422
X-111.82 Y-13.497
X-111.766 Y-13.637
X-111.665 Y-13.748
X-111.54 Y-13.83
X-111.4 Y-13.885
X-111.253 Y-13.915
X-111.103 Y-13.91
X-111.065 Y-13.9
X-110.951 Y-13.843
X-110.872 Y-13.743
X-110.84 Y-13.619
X-110.835 Y-13.46
X-110.831 Y-13.401
X-110.836 Y-13.368
X-110.851 Y-13.339
X-110.874 Y-13.317
X-110.903 Y-13.302
X-110.935 Y-13.298
X-111.092 Y-13.304
X-111.727 Y-13.326
X-111.764 Y-13.334
X-111.795 Y-13.355
X-111.816 Y-13.386
X-111.824 Y-13.422
Y-13.676
X-111.82 Y-13.75
X-111.757 Y-13.887
X-111.652 Y-13.993
X-111.524 Y-14.071
X-111.382 Y-14.121
X-111.234 Y-14.144
X-111.085 Y-14.132
X-111.053 Y-14.122
X-110.944 Y-14.061
X-110.87 Y-13.96
X-110.843 Y-13.837
Y-13.714
X-110.84 Y-13.619
X-110.846 Y-13.587
X-110.861 Y-13.558
X-110.885 Y-13.536
X-110.915 Y-13.523
X-110.948 Y-13.52
X-111.094 Y-13.531
X-111.731 Y-13.579
X-111.766 Y-13.589
X-111.796 Y-13.61
X-111.816 Y-13.64
X-111.824 Y-13.676
Y-13.883
X-111.82 Y-13.957
X-111.769 Y-14.099
X-111.668 Y-14.209
X-111.542 Y-14.291
X-111.402 Y-14.345
X-111.254 Y-14.371
X-111.105 Y-14.363
X-111.063 Y-14.351
X-110.949 Y-14.291
X-110.871 Y-14.188
X-110.844 Y-14.062
X-110.843 Y-13.837
X-110.852 Y-13.799
X-110.876 Y-13.767
X-110.91 Y-13.746
X-110.949 Y-13.74
X-111.093 Y-13.749
X-111.73 Y-13.786
X-111.765 Y-13.795
X-111.795 Y-13.816
X-111.816 Y-13.847
X-111.824 Y-13.883
Y-14.136
X-111.82 Y-14.211
X-111.758 Y-14.347
X-111.652 Y-14.454
X-111.523 Y-14.53
X-111.381 Y-14.578
X-111.233 Y-14.599
X-111.083 Y-14.585
X-111.051 Y-14.575
X-110.943 Y-14.512
X-110.87 Y-14.411
X-110.844 Y-14.289
Y-14.062
X-110.85 Y-14.03
X-110.866 Y-14.002
X-110.891 Y-13.981
X-110.921 Y-13.968
X-110.953 Y-13.966
X-111.095 Y-13.98
X-111.733 Y-14.04
X-111.768 Y-14.05
X-111.797 Y-14.071
X-111.816 Y-14.101
X-111.824 Y-14.136
Y-14.351
X-111.82 Y-14.426
X-111.765 Y-14.566
X-111.661 Y-14.674
X-111.533 Y-14.752
X-111.392 Y-14.803
X-111.244 Y-14.826
X-111.094 Y-14.815
X-111.057 Y-14.804
X-110.946 Y-14.742
X-110.87 Y-14.64
X-110.844 Y-14.516
X-110.85 Y-14.484
X-110.867 Y-14.456
X-110.892 Y-14.434
X-110.923 Y-14.422
X-111.105 Y-14.383
X-111.703 Y-14.257
X-111.738 Y-14.256
X-111.771 Y-14.267
X-111.798 Y-14.288
X-111.817 Y-14.317
X-111.824 Y-14.351
Y-14.605
X-111.82 Y-14.68
X-111.753 Y-14.814
X-111.644 Y-14.917
X-111.514 Y-14.991
X-111.371 Y-15.036
X-111.222 Y-15.054
X-111.073 Y-15.038
X-111.045 Y-15.028
X-110.94 Y-14.965
X-110.869 Y-14.865
X-110.844 Y-14.745
X-110.851 Y-14.712
X-110.868 Y-14.683
X-110.894 Y-14.661
X-110.926 Y-14.65
X-111.102 Y-14.618
X-111.706 Y-14.51
X-111.74
X-111.772 Y-14.521
X-111.799 Y-14.542
X-111.817 Y-14.571
X-111.824 Y-14.605
Y-14.812
X-111.82 Y-14.887
X-111.763 Y-15.025
X-111.658 Y-15.132
X-111.529 Y-15.21
X-111.388 Y-15.26
X-111.24 Y-15.282
X-111.09 Y-15.27
X-111.055 Y-15.259
X-110.945 Y-15.197
X-110.87 Y-15.096
X-110.844 Y-14.972
X-110.85 Y-14.94
X-110.867 Y-14.911
X-110.893 Y-14.89
X-110.923 Y-14.878
X-111.105 Y-14.841
X-111.704 Y-14.717
X-111.738 Y-14.716
X-111.771 Y-14.727
X-111.798 Y-14.748
X-111.817 Y-14.778
X-111.824 Y-14.812
Y-15.027
X-111.82 Y-15.102
X-111.768 Y-15.243
X-111.666 Y-15.352
X-111.539 Y-15.432
X-111.398 Y-15.484
X-111.25 Y-15.509
X-111.101 Y-15.499
X-111.06 Y-15.487
X-110.948 Y-15.426
X-110.871 Y-15.324
X-110.844 Y-15.199
X-110.85 Y-15.167
X-110.867 Y-15.139
X-110.892 Y-15.117
X-110.922 Y-15.105
X-111.106 Y-15.064
X-111.702 Y-14.933
X-111.737 Y-14.931
X-111.77 Y-14.942
X-111.798 Y-14.963
X-111.816 Y-14.993
X-111.824 Y-15.027
Y-15.28
X-111.82 Y-15.355
X-111.756 Y-15.491
X-111.649 Y-15.596
X-111.519 Y-15.671
X-111.377 Y-15.718
X-111.228 Y-15.737
X-111.079 Y-15.722
X-111.048 Y-15.712
X-110.942 Y-15.649
X-110.869 Y-15.548
X-110.844 Y-15.427
X-110.85 Y-15.394
X-110.868 Y-15.365
X-110.894 Y-15.344
X-110.925 Y-15.332
X-111.103 Y-15.299
X-111.705 Y-15.186
X-111.74 Y-15.185
X-111.772 Y-15.196
X-111.799 Y-15.218
X-111.817 Y-15.247
X-111.824 Y-15.28
Y-15.487
X-111.82 Y-15.562
X-111.766 Y-15.702
X-111.663 Y-15.811
X-111.535 Y-15.89
X-111.394 Y-15.941
X-111.246 Y-15.964
X-111.096 Y-15.953
X-111.058 Y-15.942
X-110.947 Y-15.881
X-110.871 Y-15.779
X-110.844 Y-15.655
X-110.85 Y-15.622
X-110.867 Y-15.594
X-110.892 Y-15.572
X-110.923 Y-15.56
X-111.106 Y-15.521
X-111.703 Y-15.393
X-111.738 Y-15.392
X-111.771 Y-15.403
X-111.798 Y-15.424
X-111.817 Y-15.453
X-111.824 Y-15.487
Y-15.703
X-111.816 Y-15.853
X-111.736 Y-15.979
X-111.621 Y-16.075
X-111.487 Y-16.143
X-111.342 Y-16.182
X-111.192 Y-16.194
X-111.044 Y-16.17
X-111.028 Y-16.163
X-110.931 Y-16.098
X-110.866 Y-16.001
X-110.844 Y-15.887
X-110.85 Y-15.855
X-110.866 Y-15.827
X-110.891 Y-15.805
X-110.921 Y-15.793
X-111.108 Y-15.749
X-111.701 Y-15.609
X-111.736 Y-15.607
X-111.77 Y-15.617
X-111.798 Y-15.639
X-111.816 Y-15.668
X-111.824 Y-15.703
Y-15.956
X-111.82 Y-16.031
X-111.762 Y-16.169
X-111.656 Y-16.276
X-111.527 Y-16.352
X-111.386 Y-16.402
X-111.237 Y-16.423
X-111.088 Y-16.412
X-111.053 Y-16.401
X-110.944 Y-16.339
X-110.87 Y-16.238
X-110.844 Y-16.115
X-110.85 Y-16.082
X-110.867 Y-16.054
X-110.893 Y-16.032
X-110.924 Y-16.021
X-111.104 Y-15.984
X-111.704 Y-15.862
X-111.738 Y-15.861
X-111.771 Y-15.872
X-111.798 Y-15.893
X-111.817 Y-15.922
X-111.824 Y-15.956
Y-16.163
X-111.816 Y-16.313
X-111.735 Y-16.439
X-111.62 Y-16.535
X-111.486 Y-16.602
X-111.341 Y-16.641
X-111.191 Y-16.653
X-111.043 Y-16.63
X-111.028 Y-16.623
X-110.931 Y-16.558
X-110.866 Y-16.461
X-110.844 Y-16.347
X-110.85 Y-16.315
X-110.866 Y-16.287
X-110.891 Y-16.265
X-110.921 Y-16.253
X-111.108 Y-16.209
X-111.701 Y-16.069
X-111.736 Y-16.067
X-111.77 Y-16.078
X-111.798 Y-16.099
X-111.816 Y-16.129
X-111.824 Y-16.163
Y-16.416
X-111.82 Y-16.491
X-111.761 Y-16.63
X-111.655 Y-16.736
X-111.526 Y-16.812
X-111.385 Y-16.861
X-111.236 Y-16.882
X-111.086 Y-16.871
X-111.053 Y-16.861
X-110.944 Y-16.798
X-110.87 Y-16.697
X-110.844 Y-16.575
X-110.85 Y-16.542
X-110.867 Y-16.513
X-110.893 Y-16.492
X-110.924 Y-16.48
X-111.104 Y-16.443
X-111.704 Y-16.322
X-111.738 Y-16.321
X-111.771 Y-16.332
X-111.798 Y-16.353
X-111.817 Y-16.383
X-111.824 Y-16.416
Y-16.632
X-111.82 Y-16.707
X-111.766 Y-16.847
X-111.663 Y-16.956
X-111.535 Y-17.035
X-111.394 Y-17.086
X-111.246 Y-17.11
X-111.097 Y-17.1
X-111.059 Y-17.089
X-110.947 Y-17.027
X-110.871 Y-16.925
X-110.844 Y-16.801
X-110.85 Y-16.769
X-110.867 Y-16.74
X-110.892 Y-16.719
X-110.922 Y-16.707
X-111.106 Y-16.667
X-111.703 Y-16.538
X-111.737 Y-16.536
X-111.771 Y-16.547
X-111.798 Y-16.568
X-111.816 Y-16.598
X-111.824 Y-16.632
Y-16.885
X-111.82 Y-16.96
X-111.754 Y-17.095
X-111.646 Y-17.199
X-111.516 Y-17.274
X-111.373 Y-17.319
X-111.224 Y-17.339
X-111.075 Y-17.322
X-111.047 Y-17.313
X-110.941 Y-17.25
X-110.869 Y-17.15
X-110.844 Y-17.029
X-110.85 Y-16.996
X-110.868 Y-16.967
X-110.894 Y-16.946
X-110.926 Y-16.934
X-111.102 Y-16.901
X-111.706 Y-16.79
X-111.74
X-111.772 Y-16.801
X-111.799 Y-16.823
X-111.817 Y-16.852
X-111.824 Y-16.885
Y-17.092
Y-17.139
Y-17.177
X-111.822 Y-17.214
X-111.745 Y-17.343
X-111.632 Y-17.441
X-111.583 Y-17.467
X-111.538 Y-17.486
X-111.492 Y-17.497
X-111.444 Y-17.501
X-111.41 Y-17.494
X-111.381 Y-17.476
X-111.359 Y-17.448
X-111.348 Y-17.416
X-111.349 Y-17.381
X-111.362 Y-17.349
X-111.385 Y-17.323
X-111.661 Y-17.102
X-111.694 Y-17.085
X-111.73 Y-17.08
X-111.766 Y-17.089
X-111.795 Y-17.11
X-111.816 Y-17.141
X-111.824 Y-17.177
Y-17.308
Y-17.346
Y-17.388
X-111.821 Y-17.412
X-111.819 Y-17.42
X-111.799 Y-17.446
X-111.77 Y-17.462
X-111.737 Y-17.465
X-111.706 Y-17.452
X-111.683 Y-17.427
X-111.674 Y-17.395
X-111.679 Y-17.362
X-111.699 Y-17.334
X-111.729 Y-17.318
X-111.762 Y-17.317
X-111.793 Y-17.33
X-111.815 Y-17.355
X-111.824 Y-17.388
X-111.823 Y-17.398
X-111.822 Y-17.409
X-111.819 Y-17.42
X-111.815 Y-17.43
X-111.807 Y-17.444
X-111.798 Y-17.455
X-111.786 Y-17.467
X-111.754 Y-17.488
X-111.744 Y-17.493
X-111.733 Y-17.497
X-111.723 Y-17.5
X-111.638 Y-17.501
X-111.168
X-111.13
X-110.98 Y-17.494
X-110.908 Y-17.439
X-110.86 Y-17.361
X-110.844 Y-17.272
X-110.851 Y-17.237
X-110.87 Y-17.207
X-110.899 Y-17.186
X-110.933 Y-17.176
X-110.968 Y-17.178
X-111 Y-17.193
X-111.183 Y-17.319
X-111.209 Y-17.344
X-111.224 Y-17.376
X-111.226 Y-17.412
X-111.216 Y-17.446
X-111.195 Y-17.474
X-111.165 Y-17.493
X-111.13 Y-17.501
X-110.961
X-110.951 Y-17.5
X-110.94 Y-17.499
X-110.929 Y-17.496
X-110.919 Y-17.491
X-110.898 Y-17.478
X-110.877 Y-17.463
X-110.862 Y-17.446
X-110.853 Y-17.43
X-110.849 Y-17.42
X-110.846 Y-17.409
X-110.844 Y-17.398
Y-14.289
X-110.849 Y-14.261
X-110.861 Y-14.236
X-110.89 Y-14.219 Z-0.983
X-110.916 Y-14.204 Z-0.966
X-110.934 Y-14.193 Z-0.939
X-110.944 Z-0.916
X-110.947 Z-0.89
G0 Z2
X-106.623 Y-11.827
Z0.5
G3 X-106.139 Y-11.951 Z0.29 I0.242 J-0.062 F333.3
X-106.623 Y-11.827 Z0.079 I-0.242 J0.062
X-106.139 Y-11.951 Z-0.131 I0.242 J-0.062
X-106.623 Y-11.827 Z-0.342 I-0.242 J0.062
X-106.139 Y-11.951 Z-0.552 I0.242 J-0.062
X-106.623 Y-11.827 Z-0.763 I-0.242 J0.062
X-106.412 Y-12.137 Z-0.876 I0.242 J-0.062
X-106.131 Y-11.889 Z-0.99 I0.031 J0.248
X-106.631 I-0.25
X-106.131 I0.25
G1 X-106.094 Y-11.744 F1000
X-106.107 Y-11.67
X-106.144 Y-11.604
X-106.251 Y-11.499
X-106.395 Y-11.459
X-106.544 Y-11.481
X-106.674 Y-11.555
X-106.771 Y-11.669
X-106.823 Y-11.81
X-106.825 Y-11.96
X-106.777 Y-12.102
X-106.685 Y-12.221
X-106.56 Y-12.303
X-106.414 Y-12.338
X-106.265 Y-12.325
X-106.128 Y-12.262
X-106.02 Y-12.159
X-105.941 Y-12.031
X-105.891 Y-11.889
X-105.881 Y-11.74
X-105.916 Y-11.594
X-105.986 Y-11.462
X-106.095 Y-11.358
X-106.226 Y-11.285
X-106.372 Y-11.251
X-106.522 Y-11.259
X-106.666 Y-11.299
X-106.795 Y-11.375
X-106.902 Y-11.481
X-106.984 Y-11.607
X-107.034 Y-11.748
Y-11.755
X-107.033 Y-11.822
X-107.017 Y-11.888
X-106.987 Y-11.948
X-106.966 Y-11.987
X-106.949 Y-12.024
X-106.9 Y-12.164
X-106.845 Y-12.303
X-106.748 Y-12.418
X-106.622 Y-12.499
X-106.478 Y-12.543
X-106.329 Y-12.551
X-106.181 Y-12.527
X-106.043 Y-12.467
X-105.922 Y-12.378
X-105.82 Y-12.268
X-105.813 Y-12.257
X-105.781 Y-12.194
X-105.766 Y-12.125
X-105.767 Y-12.054
X-105.783 Y-11.94
X-105.8 Y-11.827
X-105.825 Y-11.708
X-105.833 Y-11.686
X-105.885 Y-11.584
X-106.028 Y-11.312
X-106.054 Y-11.274
X-106.083 Y-11.239
X-106.182 Y-11.126
X-106.319 Y-11.065
X-106.467 Y-11.044
X-106.617 Y-11.056
X-106.761 Y-11.097
X-106.894 Y-11.166
X-107.012 Y-11.259
X-107.111 Y-11.371
X-107.143 Y-11.422
X-107.186 Y-11.537
X-107.178 Y-11.66
X-107.122 Y-11.77
X-107.098 Y-11.791
X-107.068 Y-11.802
X-107.036 Y-11.804
X-107.005 Y-11.795
X-106.674 Y-11.643
X-106.121 Y-11.389
X-106.092 Y-11.368
X-106.072 Y-11.34
X-106.063 Y-11.305
X-106.067 Y-11.27
X-106.083 Y-11.239
X-106.245 Y-11.033
X-106.263 Y-11.011
X-106.288 Y-10.981
X-106.301 Y-10.967
X-106.32 Y-10.948
X-106.341 Y-10.93
X-106.363 Y-10.915
X-106.398 Y-10.903
X-106.435 Y-10.904
X-106.468 Y-10.918
X-106.495 Y-10.944
X-106.51 Y-10.977
X-106.512 Y-11.014
X-106.502 Y-11.049
X-106.479 Y-11.077
X-106.433 Y-11.118
X-106.401 Y-11.136
X-106.365 Y-11.142
X-106.329 Y-11.135
X-106.298 Y-11.115
X-106.277 Y-11.085
X-106.267 Y-11.05
X-106.271 Y-11.014
X-106.288 Y-10.981
X-106.308 Y-10.957
X-106.327 Y-10.939
X-106.371 Y-10.91
X-106.503 Y-10.838
X-106.653
X-106.8 Y-10.867
X-106.939 Y-10.922
X-107.068 Y-10.999
X-107.185 Y-11.093
X-107.283 Y-11.207
X-107.306 Y-11.247
X-107.344 Y-11.368
X-107.33 Y-11.494
X-107.264 Y-11.603
X-107.235 Y-11.623
X-107.202 Y-11.631
X-107.167 Y-11.628
X-107.136 Y-11.614
X-106.854 Y-11.415
X-106.37 Y-11.075
X-106.343 Y-11.047
X-106.329 Y-11.011
Y-10.973
X-106.344 Y-10.937
X-106.371 Y-10.91
X-106.393 Y-10.897
X-106.489 Y-10.842
X-106.562 Y-10.801
X-106.644 Y-10.757
X-106.78 Y-10.693
X-106.93 Y-10.704
X-107.073 Y-10.747
X-107.207 Y-10.815
X-107.328 Y-10.904
X-107.43 Y-11.014
X-107.508 Y-11.143
X-107.519 Y-11.259
X-107.485 Y-11.369
X-107.412 Y-11.459
X-107.382 Y-11.475
X-107.349 Y-11.48
X-107.317 Y-11.474
X-107.288 Y-11.457
X-107.09 Y-11.296
X-106.631 Y-10.921
X-106.607 Y-10.892
X-106.595 Y-10.855
X-106.598 Y-10.817
X-106.615 Y-10.783
X-106.644 Y-10.757
X-106.816 Y-10.666
X-106.9 Y-10.625
X-107.039 Y-10.566
X-107.187 Y-10.584
X-107.328 Y-10.636
X-107.456 Y-10.715
X-107.567 Y-10.815
X-107.657 Y-10.936
X-107.674 Y-10.975
X-107.697 Y-11.106
X-107.661 Y-11.233
X-107.574 Y-11.333
X-107.544 Y-11.347
X-107.51 Y-11.35
X-107.477 Y-11.342
X-107.449 Y-11.323
X-107.312 Y-11.194
X-106.879 Y-10.786
X-106.857 Y-10.755
X-106.847 Y-10.718
X-106.852 Y-10.681
X-106.871 Y-10.648
X-106.9 Y-10.625
X-106.985 Y-10.584
X-107.059 Y-10.552
X-107.069 Y-10.549
X-107.154 Y-10.533
X-107.239 Y-10.519
X-107.388 Y-10.502
X-107.533 Y-10.54
X-107.662 Y-10.616
X-107.772 Y-10.718
X-107.852 Y-10.845
X-107.866 Y-10.887
X-107.877 Y-11.024
X-107.826 Y-11.151
X-107.724 Y-11.243
X-107.691 Y-11.253
X-107.657 Y-11.251
X-107.626 Y-11.238
X-107.6 Y-11.215
X-107.538 Y-11.136
X-107.18 Y-10.679
X-107.163 Y-10.649
X-107.158 Y-10.615
X-107.164 Y-10.582
X-107.181 Y-10.553
X-107.207 Y-10.531
X-107.239 Y-10.519
X-107.408 Y-10.491
X-107.539 Y-10.473
X-107.688 Y-10.46
X-107.828 Y-10.515
X-107.945 Y-10.609
X-108.029 Y-10.733
X-108.079 Y-10.874
X-108.08 Y-10.895
X-108.057 Y-11.021
X-107.984 Y-11.126
X-107.874 Y-11.191
X-107.841 Y-11.195
X-107.808 Y-11.187
X-107.78 Y-11.169
X-107.759 Y-11.143
X-107.757 Y-11.14
X-107.469 Y-10.62
X-107.457 Y-10.584
X-107.459 Y-10.546
X-107.476 Y-10.512
X-107.504 Y-10.487
X-107.539 Y-10.473
X-107.662 Y-10.456
X-107.746 Y-10.447
X-107.831 Y-10.439
X-107.906 Y-10.438
X-108.048 Y-10.486
X-108.161 Y-10.585
X-108.243 Y-10.71
X-108.28 Y-10.856
Y-10.86
X-108.247 Y-10.981
X-108.168 Y-11.079
X-108.056 Y-11.135
X-108.02 Y-11.136
X-107.987 Y-11.125
X-107.959 Y-11.103
X-107.941 Y-11.073
X-107.75 Y-10.574
X-107.744 Y-10.538
X-107.75 Y-10.503
X-107.769 Y-10.472
X-107.797 Y-10.45
X-107.831 Y-10.439
X-107.915 Y-10.434
X-108 Y-10.431
X-108.131 Y-10.444
X-108.205 Y-10.455
X-108.335 Y-10.53
X-108.427 Y-10.649
X-108.471 Y-10.792
Y-10.808
X-108.436 Y-10.946
X-108.342 Y-11.053
X-108.21 Y-11.104
X-108.172 Y-11.1
X-108.139 Y-11.083
X-108.114 Y-11.055
X-108.101 Y-11.02
X-108.026 Y-10.56
X-108.027 Y-10.524
X-108.04 Y-10.491
X-108.064 Y-10.464
X-108.096 Y-10.448
X-108.131 Y-10.444
X-108.254 Y-10.456
X-108.338 Y-10.466
X-108.412 Y-10.479
X-108.544 Y-10.55
X-108.63 Y-10.673
X-108.66 Y-10.82
X-108.658 Y-10.831
X-108.61 Y-10.953
X-108.515 Y-11.043
X-108.391 Y-11.084
X-108.354 Y-11.079
X-108.321 Y-11.061
X-108.297 Y-11.032
X-108.285 Y-10.997
X-108.231 Y-10.578
X-108.233 Y-10.543
X-108.247 Y-10.51
X-108.271 Y-10.485
X-108.303 Y-10.469
X-108.338 Y-10.466
X-108.508 Y-10.487
X-108.554 Y-10.495
X-108.623 Y-10.51
X-108.753 Y-10.587
X-108.828 Y-10.716
X-108.83 Y-10.743
X-108.818 Y-10.86
X-108.761 Y-10.962
X-108.67 Y-11.036
X-108.557 Y-11.068
X-108.518 Y-11.062
X-108.484 Y-11.042
X-108.461 Y-11.01
X-108.452 Y-10.971
X-108.441 Y-10.597
X-108.446 Y-10.563
X-108.462 Y-10.533
X-108.488 Y-10.509
X-108.52 Y-10.496
X-108.554 Y-10.495
X-108.659 Y-10.514
X-108.677 Y-10.519
X-108.761 Y-10.555
X-108.836 Y-10.588
X-108.87 Y-10.605
X-108.92 Y-10.661
X-108.949 Y-10.799
X-108.907 Y-10.933
X-108.804 Y-11.03
X-108.668 Y-11.065
X-108.63 Y-11.057
X-108.599 Y-11.034
X-108.578 Y-11.001
X-108.572 Y-10.963
X-108.58 Y-10.925
X-108.707 Y-10.64
X-108.729 Y-10.609
X-108.761 Y-10.588
X-108.799 Y-10.581
X-108.836 Y-10.588
X-108.931 Y-10.633
X-108.996 Y-10.669
X-109.043 Y-10.728
X-109.052 Y-10.86
X-108.997 Y-10.98
X-108.89 Y-11.059
X-108.759 Y-11.076
X-108.724 Y-11.063
X-108.696 Y-11.039
X-108.679 Y-11.007
X-108.675 Y-10.971
X-108.684 Y-10.935
X-108.8 Y-10.683
X-108.823 Y-10.652
X-108.855 Y-10.631
X-108.893 Y-10.625
X-108.931 Y-10.633
X-109.073 Y-10.703
X-109.106 Y-10.721
X-109.151 Y-10.781
Y-10.902
X-109.095 Y-11.01
X-108.994 Y-11.078
X-108.874 Y-11.091
X-108.842 Y-11.08
X-108.816 Y-11.059
X-108.798 Y-11.031
X-108.791 Y-10.998
X-108.795 Y-10.965
X-108.809 Y-10.934
X-108.951 Y-10.736
X-108.975 Y-10.712
X-109.006 Y-10.697
X-109.04 Y-10.694
X-109.073 Y-10.703
X-109.182 Y-10.757
X-109.21 Y-10.775
X-109.251 Y-10.837
X-109.246 Y-10.945
X-109.192 Y-11.038
X-109.102 Y-11.097
X-108.994 Y-11.108
X-108.959 Y-11.094
X-108.931 Y-11.069
G3 X-109.182 Y-10.757 I-0.164 J0.125
G1 X-109.269 Y-10.808
X-109.288 Y-10.823
X-109.314 Y-10.85
X-109.345 Y-10.919
X-109.318 Y-11.03
X-109.234 Y-11.107
X-109.121 Y-11.125
X-109.081 Y-11.111
X-109.049 Y-11.085
G3 X-109.288 Y-10.823 I-0.133 J0.118
G1 X-109.354 Y-10.888
X-109.373 Y-10.909
X-109.388 Y-10.926
X-109.416 Y-10.957
X-109.434 Y-10.981
X-109.397 Y-11.076
X-109.315 Y-11.136
X-109.213 Y-11.141
X-109.187 Y-11.128
X-109.169 Y-11.106
X-109.16 Y-11.079
G3 X-109.416 Y-10.957 I-0.148 J0.019
G1 X-109.438 Y-10.983
X-109.463 Y-11.011
X-109.481 Y-11.032
X-109.492 Y-11.056
X-109.495 Y-11.063
X-109.49 Y-11.071
X-109.464 Y-11.095
X-109.431 Y-11.109
X-109.396 Y-11.111
X-109.362 Y-11.101
X-108.801 Y-10.805
X-108.748 Y-10.777
X-108.719 Y-10.754
X-108.701 Y-10.722
X-108.695 Y-10.685
X-108.703 Y-10.649
X-108.724 Y-10.618
X-108.755 Y-10.597
X-108.791 Y-10.589
X-108.828 Y-10.595
G3 X-109.481 Y-11.032 I0.527 J-1.492
G1 X-109.487 Y-11.042
X-109.492 Y-11.053
X-109.495 Y-11.063
X-109.497 Y-11.074
X-109.498 Y-11.085
Y-11.095
X-109.496 Y-11.106
X-109.494 Y-11.116
X-109.49 Y-11.127
X-109.485 Y-11.137
X-109.476 Y-11.151
X-109.463 Y-11.165
X-109.452 Y-11.173
X-109.438 Y-11.181
X-109.428 Y-11.185
X-109.417 Y-11.187
X-109.407 Y-11.189
X-109.396
X-109.385 Y-11.188
X-109.375 Y-11.186
X-109.269 Y-11.154
X-109.184 Y-11.134
X-108.761 Y-11.076
X-108.677 Y-11.065
X-108.592
X-108.508 Y-11.072
X-108.276 Y-11.095
X-108.169 Y-11.109
X-108.085 Y-11.127
X-108 Y-11.149
X-107.746 Y-11.233
X-107.731 Y-11.239
X-107.662 Y-11.278
X-107.577 Y-11.331
X-107.492 Y-11.393
X-107.408 Y-11.462
X-107.345 Y-11.517
X-107.239 Y-11.63
X-107.19 Y-11.686
X-107.054 Y-11.855
X-106.987 Y-11.948
X-106.963 Y-11.973
X-106.932 Y-11.989
X-106.898 Y-11.993
X-106.864 Y-11.985
X-106.835 Y-11.967
X-106.814 Y-11.939
X-106.804 Y-11.906
X-106.738 Y-11.413
X-106.741 Y-11.375
X-106.757 Y-11.34
X-106.785 Y-11.315
X-106.821 Y-11.301
X-106.859 Y-11.302
X-106.894 Y-11.317
X-106.921 Y-11.344
X-106.935 Y-11.379
G3 X-106.9 Y-12.164 I1.549 J-0.324
G1 X-106.861 Y-12.278
X-106.838 Y-12.362
X-106.817 Y-12.447
X-106.796 Y-12.518
X-106.705 Y-12.638
X-106.577 Y-12.716
X-106.433 Y-12.758
X-106.284 Y-12.768
X-106.135 Y-12.748
X-105.993 Y-12.7
X-105.862 Y-12.627
X-105.845 Y-12.614
X-105.777 Y-12.54
X-105.737 Y-12.448
X-105.73 Y-12.347
X-105.737 Y-12.278
X-105.767 Y-12.054
X-105.779 Y-12.02
X-105.802 Y-11.993
X-105.833 Y-11.976
X-105.869 Y-11.971
X-105.904 Y-11.978
X-106.16 Y-12.085
X-106.758 Y-12.334
X-106.787 Y-12.352
X-106.808 Y-12.38
X-106.818 Y-12.412
X-106.817 Y-12.447
X-106.797 Y-12.531
X-106.781 Y-12.616
X-106.776 Y-12.662
X-106.763 Y-12.736
X-106.67 Y-12.854
X-106.542 Y-12.932
X-106.399 Y-12.975
X-106.249 Y-12.989
X-106.1 Y-12.977
X-105.955 Y-12.94
X-105.882 Y-12.906
X-105.788 Y-12.838
X-105.727 Y-12.739
X-105.708 Y-12.625
X-105.712 Y-12.531
X-105.73 Y-12.347
X-105.741 Y-12.314
X-105.763 Y-12.286
X-105.793 Y-12.268
X-105.827 Y-12.261
X-105.862 Y-12.266
X-106.091 Y-12.346
X-106.709 Y-12.559
X-106.738 Y-12.575
X-106.76 Y-12.599
X-106.773 Y-12.629
X-106.776 Y-12.662
X-106.762 Y-12.784
X-106.757 Y-12.831
X-106.746 Y-12.905
X-106.675 Y-13.038
X-106.556 Y-13.128
X-106.417 Y-13.185
X-106.27 Y-13.213
X-106.12 Y-13.215
X-105.972 Y-13.192
X-105.901 Y-13.167
X-105.797 Y-13.103
X-105.727 Y-13.003
X-105.702 Y-12.884
X-105.704 Y-12.784
X-105.708 Y-12.625
X-105.716 Y-12.592
X-105.735 Y-12.563
X-105.763 Y-12.542
X-105.796 Y-12.532
X-105.83 Y-12.534
X-106.051 Y-12.584
X-106.679 Y-12.727
X-106.712 Y-12.741
X-106.737 Y-12.765
X-106.753 Y-12.796
X-106.757 Y-12.831
X-106.753 Y-12.869
X-106.746 Y-13.038
X-106.739 Y-13.113
X-106.668 Y-13.245
X-106.552 Y-13.34
X-106.416 Y-13.403
X-106.27 Y-13.438
X-106.121 Y-13.449
X-105.972 Y-13.432
X-105.912 Y-13.413
X-105.803 Y-13.351
X-105.728 Y-13.25
X-105.702 Y-13.127
Y-12.884
X-105.709 Y-12.851
X-105.727 Y-12.822
X-105.753 Y-12.8
X-105.785 Y-12.789
X-105.819
X-106.028 Y-12.826
X-106.664 Y-12.939
X-106.696 Y-12.951
X-106.723 Y-12.973
X-106.74 Y-13.003
X-106.746 Y-13.038
X-106.742 Y-13.122
Y-13.253
X-106.737 Y-13.328
X-106.665 Y-13.46
X-106.551 Y-13.557
X-106.417 Y-13.625
X-106.273 Y-13.666
X-106.124 Y-13.682
X-105.975 Y-13.668
X-105.918 Y-13.651
X-105.806 Y-13.59
X-105.729 Y-13.488
X-105.702 Y-13.363
Y-13.127
X-105.709 Y-13.094
X-105.726 Y-13.065
X-105.752 Y-13.044
X-105.783 Y-13.032
X-105.817 Y-13.031
X-106.018 Y-13.061
X-106.656 Y-13.157
X-106.689 Y-13.168
X-106.716 Y-13.19
X-106.735 Y-13.219
X-106.742 Y-13.253
X-106.741 Y-13.46
X-106.737 Y-13.535
X-106.671 Y-13.67
X-106.561 Y-13.772
X-106.43 Y-13.845
X-106.288 Y-13.892
X-106.139 Y-13.913
X-105.99 Y-13.904
X-105.927 Y-13.888
X-105.81 Y-13.828
X-105.73 Y-13.725
X-105.702 Y-13.598
Y-13.363
X-105.709 Y-13.331
X-105.725 Y-13.303
X-105.75 Y-13.281
X-105.781 Y-13.269
X-105.813 Y-13.268
X-106.013 Y-13.291
X-106.652 Y-13.364
X-106.686 Y-13.375
X-106.714 Y-13.396
X-106.733 Y-13.426
X-106.741 Y-13.46
Y-13.676
X-106.737 Y-13.75
X-106.675 Y-13.887
X-106.569 Y-13.993
X-106.44 Y-14.069
X-106.298 Y-14.119
X-106.15 Y-14.144
X-106 Y-14.138
X-105.933 Y-14.122
X-105.814 Y-14.064
X-105.731 Y-13.959
X-105.702 Y-13.83
Y-13.598
X-105.708 Y-13.566
X-105.725 Y-13.538
X-105.749 Y-13.516
X-105.779 Y-13.504
X-105.811 Y-13.502
X-106.012 Y-13.52
X-106.65 Y-13.58
X-106.685 Y-13.589
X-106.714 Y-13.61
X-106.733 Y-13.641
X-106.741 Y-13.676
Y-13.883
X-106.737 Y-13.957
X-106.685 Y-14.098
X-106.584 Y-14.208
X-106.457 Y-14.29
X-106.318 Y-14.344
X-106.171 Y-14.373
X-106.021 Y-14.372
X-105.874 Y-14.342
X-105.867 Y-14.339
X-105.78 Y-14.272
X-105.722 Y-14.179
X-105.702 Y-14.071
Y-13.83
X-105.711 Y-13.791
X-105.735 Y-13.76
X-105.769 Y-13.739
X-105.808 Y-13.734
X-106.01 Y-13.746
X-106.647 Y-13.786
X-106.683 Y-13.795
X-106.712 Y-13.816
X-106.733 Y-13.847
X-106.741 Y-13.883
Y-14.136
X-106.737 Y-14.211
X-106.674 Y-14.347
X-106.568 Y-14.453
X-106.44 Y-14.531
X-106.299 Y-14.581
X-106.151 Y-14.606
X-106.001 Y-14.607
X-105.932 Y-14.59
X-105.813 Y-14.532
X-105.731 Y-14.428
X-105.702 Y-14.298
Y-14.071
X-105.708 Y-14.039
X-105.724 Y-14.012
X-105.748 Y-13.99
X-105.778 Y-13.977
X-105.81 Y-13.975
X-106.011 Y-13.99
X-106.649 Y-14.04
X-106.684 Y-14.049
X-106.713 Y-14.07
X-106.733 Y-14.101
X-106.741 Y-14.136
Y-14.351
X-106.737 Y-14.426
X-106.681 Y-14.566
X-106.578 Y-14.674
X-106.451 Y-14.755
X-106.311 Y-14.809
X-106.165 Y-14.839
X-106.015 Y-14.838
X-105.868 Y-14.807
X-105.865 Y-14.806
X-105.779 Y-14.739
X-105.722 Y-14.646
X-105.702 Y-14.539
X-105.709 Y-14.507
X-105.725 Y-14.479
X-105.75 Y-14.457
X-105.78 Y-14.445
X-106.024 Y-14.39
X-106.619 Y-14.257
X-106.654 Y-14.256
X-106.687 Y-14.266
X-106.715 Y-14.288
X-106.733 Y-14.317
X-106.741 Y-14.351
Y-14.605
X-106.737 Y-14.68
X-106.671 Y-14.814
X-106.564 Y-14.919
X-106.435 Y-14.997
X-106.294 Y-15.047
X-106.146 Y-15.071
X-105.996 Y-15.072
X-105.931 Y-15.057
X-105.813 Y-14.998
X-105.731 Y-14.894
X-105.702 Y-14.765
X-105.709 Y-14.732
X-105.726 Y-14.704
X-105.752 Y-14.682
X-105.783 Y-14.67
X-106.02 Y-14.625
X-106.622 Y-14.51
X-106.656 Y-14.509
X-106.689 Y-14.52
X-106.716 Y-14.542
X-106.734 Y-14.571
X-106.741 Y-14.605
Y-14.812
X-106.737 Y-14.887
X-106.683 Y-15.026
X-106.581 Y-15.136
X-106.454 Y-15.217
X-106.315 Y-15.272
X-106.168 Y-15.304
X-106.018
X-105.871 Y-15.275
X-105.867 Y-15.272
X-105.779 Y-15.206
X-105.722 Y-15.113
X-105.702 Y-15.005
X-105.708 Y-14.973
X-105.725 Y-14.945
X-105.749 Y-14.923
X-105.78 Y-14.911
X-106.025 Y-14.854
X-106.618 Y-14.718
X-106.653 Y-14.716
X-106.687 Y-14.726
X-106.715 Y-14.748
X-106.733 Y-14.777
X-106.741 Y-14.812
Y-15.027
X-106.733 Y-15.177
X-106.654 Y-15.304
X-106.541 Y-15.403
X-106.41 Y-15.475
X-106.267 Y-15.521
X-106.118 Y-15.54
X-105.968 Y-15.535
X-105.919 Y-15.521
X-105.806 Y-15.46
X-105.729 Y-15.358
X-105.702 Y-15.233
X-105.708 Y-15.201
X-105.724 Y-15.173
X-105.749 Y-15.152
X-105.778 Y-15.139
X-106.027 Y-15.078
X-106.617 Y-14.933
X-106.652 Y-14.931
X-106.686 Y-14.941
X-106.714 Y-14.963
X-106.733 Y-14.992
X-106.741 Y-15.027
Y-15.28
X-106.737 Y-15.355
X-106.683 Y-15.495
X-106.58 Y-15.605
X-106.454 Y-15.686
X-106.314 Y-15.741
X-106.168 Y-15.772
X-106.018 Y-15.773
X-105.871 Y-15.743
X-105.866 Y-15.74
X-105.779 Y-15.674
X-105.722 Y-15.581
X-105.702 Y-15.473
X-105.708 Y-15.441
X-105.725 Y-15.413
X-105.749 Y-15.391
X-105.78 Y-15.379
X-106.025 Y-15.323
X-106.618 Y-15.186
X-106.653 Y-15.185
X-106.687 Y-15.195
X-106.715 Y-15.217
X-106.733 Y-15.246
X-106.741 Y-15.28
Y-15.534
X-106.737 Y-15.609
X-106.673 Y-15.744
X-106.566 Y-15.85
X-106.438 Y-15.928
X-106.297 Y-15.979
X-106.149 Y-16.005
X-105.999 Y-16.007
X-105.933 Y-15.991
X-105.814 Y-15.932
X-105.731 Y-15.828
X-105.702 Y-15.699
X-105.709 Y-15.666
X-105.726 Y-15.638
X-105.751 Y-15.616
X-105.783 Y-15.604
X-106.021 Y-15.558
X-106.621 Y-15.439
X-106.656 Y-15.438
X-106.689 Y-15.449
X-106.716 Y-15.471
X-106.734 Y-15.5
X-106.741 Y-15.534
Y-15.741
X-106.737 Y-15.816
X-106.685 Y-15.956
X-106.583 Y-16.067
X-106.458 Y-16.149
X-106.319 Y-16.205
X-106.172 Y-16.237
X-106.022 Y-16.239
X-105.875 Y-16.21
X-105.868 Y-16.207
X-105.78 Y-16.14
X-105.722 Y-16.046
X-105.702 Y-15.938
X-105.708 Y-15.906
X-105.725 Y-15.878
X-105.749 Y-15.857
X-105.779 Y-15.844
X-106.025 Y-15.786
X-106.618 Y-15.647
X-106.653 Y-15.645
X-106.687 Y-15.655
X-106.715 Y-15.677
X-106.733 Y-15.706
X-106.741 Y-15.741
Y-15.994
X-106.737 Y-16.069
X-106.675 Y-16.206
X-106.57 Y-16.312
X-106.442 Y-16.392
X-106.301 Y-16.444
X-106.154 Y-16.47
X-106.004 Y-16.473
X-105.934 Y-16.457
X-105.815 Y-16.399
X-105.732 Y-16.294
X-105.702 Y-16.164
X-105.709 Y-16.132
X-105.726 Y-16.103
X-105.751 Y-16.082
X-105.782 Y-16.07
X-106.021 Y-16.021
X-106.621 Y-15.9
X-106.655 Y-15.899
X-106.688 Y-15.91
X-106.715 Y-15.931
X-106.734 Y-15.96
X-106.741 Y-15.994
Y-16.21
X-106.737 Y-16.284
X-106.683 Y-16.424
X-106.581 Y-16.534
X-106.455 Y-16.616
X-106.316 Y-16.671
X-106.169 Y-16.703
X-106.019
X-105.872 Y-16.674
X-105.867 Y-16.672
X-105.78 Y-16.605
X-105.722 Y-16.512
X-105.702 Y-16.404
X-105.708 Y-16.372
X-105.725 Y-16.344
X-105.749 Y-16.322
X-105.779 Y-16.31
X-106.025 Y-16.253
X-106.618 Y-16.116
X-106.653 Y-16.114
X-106.687 Y-16.124
X-106.715 Y-16.146
X-106.733 Y-16.175
X-106.741 Y-16.21
Y-16.463
X-106.737 Y-16.538
X-106.673 Y-16.674
X-106.567 Y-16.78
X-106.44 Y-16.858
X-106.299 Y-16.91
X-106.151 Y-16.936
X-106.001 Y-16.938
X-105.933 Y-16.922
X-105.814 Y-16.864
X-105.731 Y-16.759
X-105.702 Y-16.63
X-105.709 Y-16.597
X-105.726 Y-16.569
X-105.751 Y-16.547
X-105.782 Y-16.535
X-106.021 Y-16.488
X-106.621 Y-16.368
X-106.656
X-106.688 Y-16.379
X-106.715 Y-16.4
X-106.734 Y-16.429
X-106.741 Y-16.463
Y-16.67
X-106.737 Y-16.745
X-106.685 Y-16.886
X-106.585 Y-16.997
X-106.459 Y-17.079
X-106.32 Y-17.135
X-106.174 Y-17.168
X-106.024 Y-17.17
X-105.876 Y-17.141
X-105.869 Y-17.138
X-105.781 Y-17.071
X-105.722 Y-16.977
X-105.702 Y-16.869
X-105.708 Y-16.837
X-105.725 Y-16.809
X-105.749 Y-16.787
X-105.779 Y-16.775
X-106.026 Y-16.716
X-106.618 Y-16.576
X-106.653 Y-16.574
X-106.687 Y-16.584
X-106.714 Y-16.606
X-106.733 Y-16.635
X-106.741 Y-16.67
Y-16.923
X-106.737 Y-16.998
X-106.676 Y-17.135
X-106.571 Y-17.242
X-106.443 Y-17.322
X-106.303 Y-17.374
X-106.155 Y-17.401
X-106.005 Y-17.404
X-105.935 Y-17.388
X-105.815 Y-17.33
X-105.732 Y-17.225
X-105.702 Y-17.095
X-105.709 Y-17.063
X-105.726 Y-17.034
X-105.751 Y-17.013
X-105.782 Y-17.001
X-106.022 Y-16.952
X-106.621 Y-16.829
X-106.655 Y-16.828
X-106.688 Y-16.839
X-106.715 Y-16.86
X-106.734 Y-16.889
X-106.741 Y-16.923
Y-17.139
Y-17.177
Y-17.223
X-106.739 Y-17.261
X-106.665 Y-17.391
X-106.631 Y-17.422
X-106.571 Y-17.465
X-106.502 Y-17.492
X-106.429 Y-17.501
X-106.395 Y-17.494
X-106.366 Y-17.476
X-106.344 Y-17.449
X-106.333 Y-17.417
X-106.334 Y-17.383
X-106.346 Y-17.351
X-106.368 Y-17.324
X-106.577 Y-17.15
X-106.609 Y-17.132
X-106.646 Y-17.127
X-106.682 Y-17.135
X-106.712 Y-17.156
X-106.733 Y-17.187
X-106.741 Y-17.223
Y-17.388
X-106.74 Y-17.398
X-106.739 Y-17.409
X-106.736 Y-17.42
X-106.731 Y-17.431
X-106.724 Y-17.443
X-106.715 Y-17.455
X-106.689 Y-17.479
X-106.678 Y-17.486
X-106.668 Y-17.492
X-106.657 Y-17.496
X-106.646 Y-17.499
X-106.636 Y-17.501
X-105.923
X-105.778 Y-17.494
X-105.749 Y-17.471
X-105.729 Y-17.439
X-105.723 Y-17.402
X-105.731 Y-17.365
X-105.752 Y-17.334
X-105.783 Y-17.313
X-105.82 Y-17.304
X-105.916 Y-17.301
X-105.955 Y-17.307
X-105.988 Y-17.328
X-106.011 Y-17.36
X-106.02 Y-17.398
X-106.013 Y-17.436
X-105.993 Y-17.469
X-105.961 Y-17.492
X-105.923 Y-17.501
X-105.8 Y-17.5
X-105.79 Y-17.498
X-105.779 Y-17.494
X-105.769 Y-17.489
X-105.758 Y-17.483
X-105.733 Y-17.461
X-105.723 Y-17.45
X-105.716 Y-17.439
X-105.711 Y-17.43
X-105.707 Y-17.42
X-105.704 Y-17.409
X-105.703 Y-17.398
X-105.702 Y-14.298
X-105.707 Y-14.27
X-105.72 Y-14.245
X-105.749 Y-14.228 Z-0.983
X-105.774 Y-14.213 Z-0.966
X-105.793 Y-14.202 Z-0.939
X-105.802 Z-0.916
X-105.805 Z-0.89
G0 Z2
X-94.723 Y-12.53
Z0.5
G3 X-94.239 Y-12.655 Z0.29 I0.242 J-0.062 F333.3
X-94.723 Y-12.53 Z0.079 I-0.242 J0.062
X-94.239 Y-12.655 Z-0.131 I0.242 J-0.062
X-94.723 Y-12.53 Z-0.342 I-0.242 J0.062
X-94.239 Y-12.655 Z-0.552 I0.242 J-0.062
X-94.723 Y-12.53 Z-0.763 I-0.242 J0.062
X-94.513 Y-12.84 Z-0.876 I0.242 J-0.062
X-94.231 Y-12.592 Z-0.99 I0.031 J0.248
X-94.731 I-0.25
X-94.231 I0.25
G1 X-94.194 Y-12.447 F1000
X-94.207 Y-12.373
X-94.244 Y-12.308
X-94.351 Y-12.203
X-94.496 Y-12.163
X-94.644 Y-12.184
X-94.774 Y-12.258
X-94.871 Y-12.373
X-94.923 Y-12.514
X-94.925 Y-12.664
X-94.878 Y-12.806
X-94.786 Y-12.925
X-94.66 Y-13.006
X-94.514 Y-13.042
X-94.365 Y-13.028
X-94.229 Y-12.966
X-94.12 Y-12.862
X-94.042 Y-12.734
X-93.992 Y-12.593
X-93.981 Y-12.443
X-94.016 Y-12.298
X-94.087 Y-12.165
X-94.195 Y-12.062
X-94.326 Y-11.988
X-94.472 Y-11.955
X-94.622 Y-11.962
X-94.766 Y-12.003
X-94.896 Y-12.079
X-95.002 Y-12.185
X-95.084 Y-12.31
X-95.134 Y-12.452
X-95.149 Y-12.601
X-95.132 Y-12.75
X-95.082 Y-12.891
X-94.999 Y-13.017
X-94.893 Y-13.122
X-94.765 Y-13.201
X-94.622 Y-13.247
X-94.473 Y-13.264
X-94.324 Y-13.246
X-94.184 Y-13.193
X-94.057 Y-13.113
X-93.948 Y-13.01
X-93.861 Y-12.888
X-93.798 Y-12.752
X-93.76 Y-12.607
X-93.752 Y-12.457
X-93.774 Y-12.308
X-93.823 Y-12.167
X-93.845 Y-12.134
X-93.866 Y-12.108
X-93.891 Y-12.085
X-93.956 Y-12.03
X-93.962 Y-12.024
X-93.981 Y-11.999
X-94.079 Y-11.885
X-94.205 Y-11.803
X-94.346 Y-11.752
X-94.494 Y-11.729
X-94.644 Y-11.733
X-94.79 Y-11.766
X-94.928 Y-11.826
X-95.053 Y-11.909
X-95.163 Y-12.011
