%
(081-085)
(T1  D=1 CR=0 - ZMIN=-2 - flat end mill)
G90 G94
G17
G21
G28 G91 Z0
G90

(Clear 13)
M9
T1 M6
S5000 M3
G54
M8
G0 X-116.227 Y-8.487
Z12
Z2
Z0.5
G3 X-115.743 Y-8.611 Z0.29 I0.242 J-0.062 F333.3
X-116.227 Y-8.487 Z0.079 I-0.242 J0.062
X-115.743 Y-8.611 Z-0.131 I0.242 J-0.062
X-116.227 Y-8.487 Z-0.342 I-0.242 J0.062
X-115.743 Y-8.611 Z-0.552 I0.242 J-0.062
X-116.227 Y-8.487 Z-0.763 I-0.242 J0.062
X-116.016 Y-8.797 Z-0.876 I0.242 J-0.062
X-115.735 Y-8.549 Z-0.99 I0.031 J0.248
X-116.235 I-0.25
X-115.735 I0.25
G1 X-115.698 Y-8.404 F1000
X-115.71 Y-8.33
X-115.748 Y-8.265
X-115.854 Y-8.16
X-115.999 Y-8.12
X-116.148 Y-8.141
X-116.278 Y-8.215
X-116.375 Y-8.33
X-116.427 Y-8.47
X-116.429 Y-8.62
X-116.381 Y-8.763
X-116.289 Y-8.881
X-116.164 Y-8.963
X-116.018 Y-8.999
X-115.869 Y-8.985
X-115.732 Y-8.923
X-115.624 Y-8.819
X-115.545 Y-8.691
X-115.495 Y-8.55
X-115.485 Y-8.4
X-115.52 Y-8.254
X-115.59 Y-8.122
X-115.699 Y-8.018
X-115.83 Y-7.945
X-115.976 Y-7.912
X-116.126 Y-7.919
X-116.27 Y-7.96
X-116.399 Y-8.036
X-116.506 Y-8.141
X-116.588 Y-8.267
X-116.638 Y-8.408
X-116.652 Y-8.558
X-116.636 Y-8.707
X-116.585 Y-8.848
X-116.503 Y-8.973
X-116.396 Y-9.079
X-116.269 Y-9.158
X-116.126 Y-9.204
X-115.977 Y-9.22
X-115.828 Y-9.203
X-115.688 Y-9.15
X-115.561 Y-9.07
X-115.452 Y-8.966
X-115.364 Y-8.845
X-115.302 Y-8.708
X-115.264 Y-8.563
X-115.255 Y-8.413
X-115.278 Y-8.265
X-115.327 Y-8.123
X-115.403 Y-7.994
X-115.504 Y-7.883
X-115.53 Y-7.864
X-115.585 Y-7.832
X-115.645 Y-7.812
X-115.709 Y-7.805
X-116.206
X-116.356 Y-7.813
X-116.497 Y-7.865
X-116.62 Y-7.951
X-116.721 Y-8.061
X-116.801 Y-8.188
X-116.855 Y-8.328
X-116.882 Y-8.476
Y-8.507
X-116.87 Y-8.594
X-116.834 Y-8.674
X-116.775 Y-8.74
X-116.747 Y-8.756
X-116.714 Y-8.761
X-116.682 Y-8.756
X-116.653 Y-8.74
X-116.63 Y-8.717
X-116.444 Y-8.437
X-116.127 Y-7.961
X-116.113 Y-7.928
X-116.111 Y-7.893
X-116.121 Y-7.859
X-116.142 Y-7.831
X-116.172 Y-7.813
X-116.206 Y-7.805
X-116.545
X-116.695 Y-7.813
X-116.824 Y-7.888
X-116.931 Y-7.993
X-117.014 Y-8.118
X-117.074 Y-8.256
X-117.088 Y-8.321
X-117.085 Y-8.46
X-117.02 Y-8.582
X-116.906 Y-8.662
X-116.87 Y-8.668
X-116.835 Y-8.661
X-116.804 Y-8.641
X-116.782 Y-8.612
X-116.716 Y-8.476
X-116.458 Y-7.949
X-116.448 Y-7.911
X-116.454 Y-7.872
X-116.474 Y-7.838
X-116.506 Y-7.814
X-116.545 Y-7.805
X-116.799
X-116.948 Y-7.813
X-117.079 Y-7.887
X-117.183 Y-7.995
X-117.259 Y-8.124
X-117.302 Y-8.268
X-117.303 Y-8.319
X-117.273 Y-8.457
X-117.182 Y-8.566
X-117.052 Y-8.621
X-117.019 Y-8.62
X-116.988 Y-8.608
X-116.963 Y-8.586
X-116.946 Y-8.558
X-116.922 Y-8.496
X-116.709 Y-7.941
X-116.702 Y-7.904
X-116.71 Y-7.867
X-116.731 Y-7.835
X-116.762 Y-7.814
X-116.799 Y-7.805
X-117.052
X-117.202 Y-7.813
X-117.33 Y-7.891
X-117.426 Y-8.006
X-117.491 Y-8.142
X-117.515 Y-8.29
X-117.509 Y-8.348
X-117.459 Y-8.484
X-117.351 Y-8.581
X-117.211 Y-8.617
X-117.137
X-117.052 Y-8.621
X-117.01 Y-8.628
X-116.968 Y-8.639
X-116.947 Y-8.646
X-116.883 Y-8.671
X-116.841 Y-8.694
X-116.799 Y-8.721
X-116.787 Y-8.73
X-116.75 Y-8.761
X-116.714 Y-8.799
X-116.7 Y-8.815
X-116.668 Y-8.857
X-116.642 Y-8.899
X-116.629 Y-8.922
X-116.603 Y-8.984
X-116.591 Y-9.026
X-116.547 Y-9.169
X-116.447 Y-9.281
X-116.322 Y-9.364
X-116.183 Y-9.42
X-116.035 Y-9.447
X-115.885 Y-9.445
X-115.738 Y-9.418
X-115.597 Y-9.368
X-115.548 Y-9.341
X-115.473 Y-9.281
X-115.42 Y-9.201
X-115.395 Y-9.109
X-115.391 Y-9.068
X-115.381 Y-9.026
X-115.369 Y-8.984
X-115.354 Y-8.945
X-115.236 Y-8.775
X-115.225 Y-8.764
X-115.119 Y-8.657
X-115.065 Y-8.517
X-115.046 Y-8.368
X-115.058 Y-8.219
X-115.096 Y-8.074
X-115.16 Y-7.938
X-115.228 Y-7.866
X-115.314 Y-7.821
X-115.409 Y-7.805
X-115.442 Y-7.812
X-115.471 Y-7.829
X-115.492 Y-7.855
X-115.504 Y-7.886
Y-7.92
X-115.472 Y-8.134
X-115.388 Y-8.702
X-115.376 Y-8.735
X-115.354 Y-8.762
X-115.324 Y-8.78
X-115.29 Y-8.787
X-115.255 Y-8.781
X-115.225 Y-8.764
X-115.191 Y-8.735
X-115.107 Y-8.682
X-115.062 Y-8.662
X-114.996 Y-8.628
X-114.899 Y-8.513
X-114.851 Y-8.371
X-114.84 Y-8.221
X-114.859 Y-8.072
X-114.88 Y-8.01
X-114.943 Y-7.903
X-115.043 Y-7.831
X-115.165 Y-7.805
X-115.196 Y-7.811
X-115.224 Y-7.828
X-115.246 Y-7.852
X-115.258 Y-7.882
X-115.261 Y-7.914
X-115.254 Y-7.982
X-115.2 Y-8.578
X-115.19 Y-8.614
X-115.167 Y-8.644
X-115.135 Y-8.663
X-115.099 Y-8.669
X-115.062 Y-8.662
X-115.022 Y-8.644
X-114.98 Y-8.632
X-114.937 Y-8.624
X-114.864 Y-8.61
X-114.74 Y-8.525
X-114.666 Y-8.394
X-114.631 Y-8.249
Y-8.099
X-114.645 Y-8.037
X-114.703 Y-7.918
X-114.808 Y-7.835
X-114.938 Y-7.805
X-114.974 Y-7.814
X-115.006 Y-7.835
X-115.026 Y-7.867
X-115.034 Y-7.904
X-115.041 Y-8.523
X-115.037 Y-8.555
X-115.022 Y-8.584
X-114.999 Y-8.606
X-114.969 Y-8.62
X-114.937 Y-8.624
X-114.853 Y-8.618
X-114.768 Y-8.617
X-114.693 Y-8.613
X-114.562 Y-8.54
X-114.475 Y-8.418
X-114.425 Y-8.277
X-114.412 Y-8.127
X-114.435 Y-7.979
X-114.437 Y-7.976
X-114.503 Y-7.886
X-114.597 Y-7.826
X-114.708 Y-7.805
X-115.709
X-115.744 Y-7.813
X-115.774 Y-7.832
X-115.795 Y-7.861
X-115.805 Y-7.896
X-115.801 Y-7.932
X-115.786 Y-7.964
X-115.76 Y-7.989
X-115.432 Y-8.202
X-114.819 Y-8.601
X-114.795 Y-8.612
X-114.768 Y-8.617
X-114.599
X-114.524 Y-8.613
X-114.384 Y-8.559
X-114.284 Y-8.447
X-114.222 Y-8.311
X-114.195 Y-8.163
X-114.205 Y-8.013
X-114.207 Y-8.006
X-114.271 Y-7.901
X-114.37 Y-7.83
X-114.49 Y-7.805
X-114.708
X-114.741 Y-7.812
X-114.77 Y-7.83
X-114.791 Y-7.856
X-114.803 Y-7.888
Y-7.923
X-114.694 Y-8.534
X-114.682 Y-8.566
X-114.661 Y-8.592
X-114.632 Y-8.61
X-114.599 Y-8.617
X-114.383
X-114.308 Y-8.613
X-114.171 Y-8.552
X-114.073 Y-8.439
X-114.009 Y-8.303
X-113.978 Y-8.156
X-113.991 Y-8.007
X-113.993 Y-8.001
X-114.057 Y-7.899
X-114.156 Y-7.83
X-114.274 Y-7.805
X-114.49
X-114.524 Y-7.812
X-114.553 Y-7.83
X-114.574 Y-7.856
X-114.585 Y-7.888
Y-7.922
X-114.478 Y-8.534
X-114.467 Y-8.566
X-114.445 Y-8.592
X-114.416 Y-8.61
X-114.383 Y-8.617
X-114.176
X-114.101 Y-8.613
X-113.964 Y-8.552
X-113.863 Y-8.441
X-113.796 Y-8.307
X-113.764 Y-8.161
X-113.775 Y-8.011
X-113.777 Y-8.005
X-113.84 Y-7.901
X-113.94 Y-7.83
X-114.06 Y-7.805
X-114.274
X-114.308 Y-7.812
X-114.336 Y-7.829
X-114.358 Y-7.856
X-114.369 Y-7.887
X-114.37 Y-7.921
X-114.271 Y-8.533
X-114.26 Y-8.565
X-114.239 Y-8.592
X-114.209 Y-8.61
X-114.176 Y-8.617
X-113.96
X-113.885 Y-8.613
X-113.749 Y-8.551
X-113.648 Y-8.44
X-113.581 Y-8.305
X-113.549 Y-8.159
X-113.561 Y-8.009
X-113.563 Y-8.004
X-113.626 Y-7.9
X-113.726 Y-7.83
X-113.845 Y-7.805
X-114.06
X-114.093 Y-7.812
X-114.122 Y-7.829
X-114.143 Y-7.856
X-114.155 Y-7.887
Y-7.921
X-114.055 Y-8.533
X-114.044 Y-8.565
X-114.023 Y-8.592
X-113.994 Y-8.61
X-113.96 Y-8.617
X-113.753
X-113.678 Y-8.613
X-113.54 Y-8.554
X-113.437 Y-8.445
X-113.369 Y-8.311
X-113.335 Y-8.165
X-113.345 Y-8.016
X-113.348 Y-8.008
X-113.411 Y-7.902
X-113.511 Y-7.83
X-113.631 Y-7.805
X-113.845
X-113.878 Y-7.812
X-113.907 Y-7.829
X-113.928 Y-7.855
X-113.94 Y-7.886
X-113.941 Y-7.92
X-113.848 Y-8.532
X-113.837 Y-8.564
X-113.816 Y-8.591
X-113.787 Y-8.61
X-113.753 Y-8.617
X-113.537
X-113.462 Y-8.613
X-113.325 Y-8.553
X-113.222 Y-8.444
X-113.154 Y-8.31
X-113.121 Y-8.164
X-113.131 Y-8.014
X-113.134 Y-8.006
X-113.197 Y-7.901
X-113.297 Y-7.83
X-113.417 Y-7.805
X-113.631
X-113.664 Y-7.812
X-113.693 Y-7.829
X-113.714 Y-7.855
X-113.726 Y-7.887
X-113.727 Y-7.92
X-113.633 Y-8.532
X-113.622 Y-8.565
X-113.6 Y-8.592
X-113.571 Y-8.61
X-113.537 Y-8.617
X-113.33
X-113.255 Y-8.613
X-113.116 Y-8.557
X-113.012 Y-8.449
X-112.942 Y-8.316
X-112.907 Y-8.171
X-112.916 Y-8.021
X-112.919 Y-8.011
X-112.982 Y-7.903
X-113.082 Y-7.831
X-113.204 Y-7.805
X-113.417
X-113.45 Y-7.812
X-113.479 Y-7.829
X-113.5 Y-7.855
X-113.512 Y-7.886
X-113.513 Y-7.919
X-113.425 Y-8.531
X-113.415 Y-8.564
X-113.393 Y-8.591
X-113.364 Y-8.61
X-113.33 Y-8.617
X-113.114
X-113.039 Y-8.613
X-112.9 Y-8.556
X-112.797 Y-8.448
X-112.728 Y-8.315
X-112.693 Y-8.169
X-112.702 Y-8.019
X-112.706 Y-8.009
X-112.769 Y-7.903
X-112.869 Y-7.831
X-112.99 Y-7.805
X-113.204
X-113.237 Y-7.812
X-113.265 Y-7.829
X-113.287 Y-7.855
X-113.298 Y-7.886
X-113.299 Y-7.92
X-113.21 Y-8.531
X-113.199 Y-8.564
X-113.177 Y-8.591
X-113.148 Y-8.61
X-113.114 Y-8.617
X-112.907
X-112.832 Y-8.613
X-112.692 Y-8.56
X-112.586 Y-8.453
X-112.516 Y-8.321
X-112.48 Y-8.176
X-112.487 Y-8.026
X-112.491 Y-8.013
X-112.553 Y-7.905
X-112.654 Y-7.831
X-112.777 Y-7.805
X-112.99
X-113.023 Y-7.812
X-113.051 Y-7.829
X-113.073 Y-7.854
X-113.084 Y-7.885
X-113.086 Y-7.919
X-113.003 Y-8.53
X-112.992 Y-8.563
X-112.971 Y-8.591
X-112.941 Y-8.609
X-112.907 Y-8.617
X-112.691
X-112.616 Y-8.613
X-112.476 Y-8.559
X-112.371 Y-8.452
X-112.301 Y-8.319
X-112.266 Y-8.174
X-112.274 Y-8.024
X-112.278 Y-8.012
X-112.341 Y-7.904
X-112.441 Y-7.831
X-112.563 Y-7.805
X-112.777
X-112.809 Y-7.812
X-112.838 Y-7.829
X-112.859 Y-7.854
X-112.871 Y-7.886
X-112.872 Y-7.919
X-112.787 Y-8.531
X-112.776 Y-8.564
X-112.755 Y-8.591
X-112.725 Y-8.61
X-112.691 Y-8.617
X-112.484
X-112.437
X-112.399
X-112.362 Y-8.615
X-112.323 Y-8.593
X-112.242 Y-8.526
X-112.189 Y-8.435
X-112.171 Y-8.332
X-112.178 Y-8.297
X-112.197 Y-8.267
X-112.226 Y-8.246
X-112.26 Y-8.236
X-112.296 Y-8.238
X-112.328 Y-8.253
X-112.353 Y-8.278
X-112.478 Y-8.46
X-112.493 Y-8.492
X-112.495 Y-8.528
X-112.485 Y-8.562
X-112.464 Y-8.59
X-112.434 Y-8.609
X-112.399 Y-8.617
X-112.315
X-112.272 Y-8.616
X-112.262 Y-8.614
X-112.251 Y-8.611
X-112.241 Y-8.607
X-112.23 Y-8.601
X-112.209 Y-8.584
X-112.197 Y-8.573
X-112.188 Y-8.561
X-112.182 Y-8.551
X-112.177 Y-8.54
X-112.174 Y-8.53
X-112.172 Y-8.519
X-112.171 Y-8.477
Y-8.008
Y-7.97
X-112.172 Y-7.94
X-112.178 Y-7.903
X-112.191 Y-7.868
X-112.211 Y-7.837
X-112.245 Y-7.82
X-112.283 Y-7.816
X-112.319 Y-7.827
X-112.349 Y-7.85
X-112.368 Y-7.883
X-112.373 Y-7.921
X-112.371 Y-7.971
X-112.362 Y-8.008
X-112.339 Y-8.039
X-112.307 Y-8.059
X-112.27 Y-8.066
X-112.233 Y-8.059
X-112.201 Y-8.038
X-112.179 Y-8.007
X-112.171 Y-7.97
Y-7.928
X-112.172 Y-7.907
X-112.174 Y-7.896
X-112.178 Y-7.885
X-112.186 Y-7.869
X-112.211 Y-7.837
X-112.23 Y-7.821
X-112.241 Y-7.815
X-112.251 Y-7.811
X-112.262 Y-7.808
X-112.272 Y-7.806
X-112.315 Y-7.805
X-112.563
X-113.32 Y-8.016
X-115.907 Y-8.739
X-116.519 Y-8.91
X-116.553 Y-8.927
X-116.578 Y-8.954
X-116.591 Y-8.989
Y-9.026
X-116.581 Y-9.068
X-116.572 Y-9.152
X-116.571 Y-9.237
X-116.567 Y-9.312
X-116.502 Y-9.447
X-116.392 Y-9.549
X-116.26 Y-9.621
X-116.117 Y-9.664
X-115.968 Y-9.682
X-115.818 Y-9.676
X-115.67 Y-9.65
X-115.598 Y-9.623
X-115.495 Y-9.56
X-115.425 Y-9.46
X-115.401 Y-9.342
X-115.4 Y-9.19
Y-9.152
X-115.395 Y-9.109
X-115.399 Y-9.074
X-115.415 Y-9.042
X-115.441 Y-9.018
X-115.474 Y-9.004
X-115.509 Y-9.003
X-115.846 Y-9.051
X-116.485 Y-9.141
X-116.518 Y-9.152
X-116.546 Y-9.174
X-116.564 Y-9.203
X-116.571 Y-9.237
Y-9.452
X-116.567 Y-9.527
X-116.505 Y-9.664
X-116.398 Y-9.768
X-116.268 Y-9.843
X-116.126 Y-9.891
X-115.978 Y-9.916
X-115.828 Y-9.92
X-115.679 Y-9.9
X-115.609 Y-9.877
X-115.5 Y-9.815
X-115.427 Y-9.714
X-115.401 Y-9.591
Y-9.342
X-115.407 Y-9.309
X-115.424 Y-9.281
X-115.449 Y-9.26
X-115.479 Y-9.247
X-115.512 Y-9.246
X-115.844 Y-9.284
X-116.483 Y-9.356
X-116.516 Y-9.367
X-116.545 Y-9.388
X-116.564 Y-9.418
X-116.571 Y-9.452
Y-9.659
X-116.567 Y-9.734
X-116.514 Y-9.874
X-116.411 Y-9.983
X-116.284 Y-10.064
X-116.145 Y-10.118
X-115.998 Y-10.151
X-115.849 Y-10.162
X-115.699 Y-10.148
X-115.555 Y-10.108
X-115.472 Y-10.04
X-115.419 Y-9.949
X-115.401 Y-9.846
Y-9.591
X-115.407 Y-9.56
X-115.423 Y-9.532
X-115.446 Y-9.511
X-115.476 Y-9.498
X-115.508 Y-9.495
X-115.841 Y-9.518
X-116.478 Y-9.563
X-116.514 Y-9.572
X-116.543 Y-9.593
X-116.563 Y-9.624
X-116.571 Y-9.659
Y-9.875
X-116.564 Y-10.024
X-116.484 Y-10.152
X-116.371 Y-10.25
X-116.239 Y-10.322
X-116.098 Y-10.371
X-115.95 Y-10.398
X-115.8 Y-10.402
X-115.651 Y-10.386
X-115.602 Y-10.369
X-115.497 Y-10.306
X-115.426 Y-10.205
X-115.401 Y-10.085
Y-9.846
X-115.41 Y-9.808
X-115.432 Y-9.776
X-115.465 Y-9.755
X-115.504 Y-9.749
X-115.84 Y-9.759
X-116.474 Y-9.778
X-116.511 Y-9.786
X-116.542 Y-9.807
X-116.563 Y-9.838
X-116.571 Y-9.875
Y-10.128
X-116.567 Y-10.203
X-116.512 Y-10.342
X-116.41 Y-10.452
X-116.285 Y-10.535
X-116.147 Y-10.594
X-116.002 Y-10.63
X-115.853 Y-10.647
X-115.703 Y-10.637
X-115.556 Y-10.598
X-115.474 Y-10.531
X-115.42 Y-10.44
X-115.401 Y-10.335
Y-10.085
X-115.41 Y-10.047
X-115.433 Y-10.015
X-115.466 Y-9.995
X-115.505 Y-9.989
X-115.84 Y-10.004
X-116.476 Y-10.032
X-116.512 Y-10.04
X-116.542 Y-10.061
X-116.563 Y-10.092
X-116.571 Y-10.128
Y-10.381
X-116.567 Y-10.456
X-116.504 Y-10.592
X-116.399 Y-10.7
X-116.273 Y-10.781
X-116.135 Y-10.838
X-115.989 Y-10.874
X-115.839 Y-10.887
X-115.69 Y-10.879
X-115.62 Y-10.86
X-115.506 Y-10.799
X-115.428 Y-10.697
X-115.401 Y-10.571
Y-10.335
X-115.41 Y-10.297
X-115.433 Y-10.265
X-115.466 Y-10.245
X-115.505 Y-10.239
X-115.84 Y-10.255
X-116.476 Y-10.285
X-116.512 Y-10.294
X-116.542 Y-10.315
X-116.563 Y-10.345
X-116.571 Y-10.381
Y-10.588
X-116.564 Y-10.738
X-116.484 Y-10.865
X-116.371 Y-10.964
X-116.241 Y-11.039
X-116.101 Y-11.091
X-115.954 Y-11.122
X-115.804 Y-11.13
X-115.655 Y-11.111
X-115.607 Y-11.095
X-115.499 Y-11.032
X-115.427 Y-10.932
X-115.401 Y-10.81
Y-10.571
X-115.409 Y-10.533
X-115.432 Y-10.502
X-115.464 Y-10.481
X-115.502 Y-10.474
X-115.84 Y-10.481
X-116.473 Y-10.492
X-116.51 Y-10.5
X-116.541 Y-10.521
X-116.563 Y-10.552
X-116.571 Y-10.588
Y-10.842
X-116.567 Y-10.917
X-116.513 Y-11.057
X-116.413 Y-11.168
X-116.289 Y-11.253
X-116.152 Y-11.314
X-116.008 Y-11.354
X-115.858 Y-11.371
X-115.709 Y-11.362
X-115.563 Y-11.326
X-115.559 Y-11.323
X-115.475 Y-11.256
X-115.42 Y-11.164
X-115.401 Y-11.059
Y-10.81
X-115.41 Y-10.772
X-115.432 Y-10.74
X-115.465 Y-10.72
X-115.504 Y-10.713
X-115.84 Y-10.724
X-116.475 Y-10.745
X-116.511 Y-10.753
X-116.542 Y-10.774
X-116.563 Y-10.805
X-116.571 Y-10.842
Y-11.095
X-116.567 Y-11.17
X-116.507 Y-11.307
X-116.404 Y-11.416
X-116.279 Y-11.5
X-116.141 Y-11.559
X-115.996 Y-11.596
X-115.847 Y-11.611
X-115.697 Y-11.604
X-115.623 Y-11.584
X-115.508 Y-11.524
X-115.429 Y-11.421
X-115.401 Y-11.295
Y-11.059
X-115.41 Y-11.021
X-115.433 Y-10.989
X-115.466 Y-10.969
X-115.504 Y-10.962
X-115.84 Y-10.975
X-116.475 Y-10.999
X-116.511 Y-11.007
X-116.542 Y-11.028
X-116.563 Y-11.059
X-116.571 Y-11.095
Y-11.311
X-116.564 Y-11.46
X-116.483 Y-11.587
X-116.371 Y-11.687
X-116.242 Y-11.762
X-116.101 Y-11.814
X-115.954 Y-11.845
X-115.805 Y-11.854
X-115.656 Y-11.835
X-115.607 Y-11.819
X-115.5 Y-11.756
X-115.427 Y-11.655
X-115.401 Y-11.534
Y-11.295
X-115.409 Y-11.257
X-115.432 Y-11.226
X-115.464 Y-11.205
X-115.502 Y-11.198
X-115.84 Y-11.204
X-116.473 Y-11.214
X-116.51 Y-11.222
X-116.541 Y-11.243
X-116.563 Y-11.274
X-116.571 Y-11.311
Y-11.564
X-116.567 Y-11.639
X-116.514 Y-11.779
X-116.413 Y-11.89
X-116.29 Y-11.976
X-116.153 Y-12.037
X-116.009 Y-12.077
X-115.859 Y-12.094
X-115.71 Y-12.086
X-115.564 Y-12.05
X-115.559 Y-12.047
X-115.475 Y-11.98
X-115.42 Y-11.888
X-115.401 Y-11.782
Y-11.534
X-115.41 Y-11.496
X-115.432 Y-11.464
X-115.465 Y-11.443
X-115.504 Y-11.437
X-115.84 Y-11.448
X-116.474 Y-11.467
X-116.511 Y-11.476
X-116.542 Y-11.497
X-116.563 Y-11.527
X-116.571 Y-11.564
Y-11.817
X-116.567 Y-11.892
X-116.507 Y-12.03
X-116.405 Y-12.139
X-116.28 Y-12.223
X-116.143 Y-12.282
X-115.997 Y-12.319
X-115.848 Y-12.334
X-115.698 Y-12.328
X-115.623 Y-12.308
X-115.508 Y-12.248
X-115.429 Y-12.145
X-115.401 Y-12.018
Y-11.782
X-115.41 Y-11.744
X-115.432 Y-11.713
X-115.466 Y-11.692
X-115.504 Y-11.686
X-115.84 Y-11.698
X-116.475 Y-11.721
X-116.511 Y-11.729
X-116.542 Y-11.75
X-116.563 Y-11.781
X-116.571 Y-11.817
Y-12.024
X-116.564 Y-12.174
X-116.487 Y-12.303
X-116.377 Y-12.405
X-116.248 Y-12.482
X-116.108 Y-12.536
X-115.962 Y-12.568
X-115.812 Y-12.578
X-115.663 Y-12.56
X-115.611 Y-12.543
X-115.501 Y-12.481
X-115.427 Y-12.38
X-115.401 Y-12.257
Y-12.018
X-115.409 Y-11.981
X-115.431 Y-11.95
X-115.464 Y-11.929
X-115.501 Y-11.922
X-115.839 Y-11.924
X-116.472 Y-11.928
X-116.509 Y-11.935
X-116.541 Y-11.956
X-116.563 Y-11.987
X-116.571 Y-12.024
Y-12.278
X-116.564 Y-12.427
X-116.483 Y-12.554
X-116.371 Y-12.654
X-116.241 Y-12.728
X-116.1 Y-12.78
X-115.953 Y-12.81
X-115.803 Y-12.818
X-115.655 Y-12.798
X-115.606 Y-12.782
X-115.499 Y-12.719
X-115.426 Y-12.618
X-115.401 Y-12.497
Y-12.257
X-115.41 Y-12.219
X-115.432 Y-12.188
X-115.465 Y-12.167
X-115.503 Y-12.16
X-115.84 Y-12.168
X-116.473 Y-12.181
X-116.51 Y-12.189
X-116.542 Y-12.21
X-116.563 Y-12.241
X-116.571 Y-12.278
Y-12.531
X-116.567 Y-12.606
X-116.513 Y-12.746
X-116.412 Y-12.857
X-116.288 Y-12.942
X-116.151 Y-13.002
X-116.007 Y-13.042
X-115.858 Y-13.058
X-115.708 Y-13.05
X-115.563 Y-13.013
X-115.558 Y-13.01
X-115.475 Y-12.943
X-115.42 Y-12.852
X-115.401 Y-12.746
Y-12.497
X-115.41 Y-12.459
X-115.432 Y-12.427
X-115.466 Y-12.407
X-115.504 Y-12.4
X-115.84 Y-12.412
X-116.475 Y-12.435
X-116.511 Y-12.443
X-116.542 Y-12.464
X-116.563 Y-12.495
X-116.571 Y-12.531
Y-12.784
X-116.567 Y-12.859
X-116.506 Y-12.996
X-116.403 Y-13.105
X-116.278 Y-13.189
X-116.141 Y-13.248
X-115.995 Y-13.284
X-115.846 Y-13.299
X-115.696 Y-13.292
X-115.622 Y-13.272
X-115.507 Y-13.212
X-115.429 Y-13.109
X-115.401 Y-12.982
Y-12.746
X-115.41 Y-12.708
X-115.433 Y-12.676
X-115.466 Y-12.656
X-115.505 Y-12.65
X-115.84 Y-12.663
X-116.475 Y-12.688
X-116.511 Y-12.696
X-116.542 Y-12.717
X-116.563 Y-12.748
X-116.571 Y-12.784
Y-13
X-116.564 Y-13.15
X-116.483 Y-13.276
X-116.371 Y-13.376
X-116.241 Y-13.451
X-116.1 Y-13.503
X-115.953 Y-13.533
X-115.804 Y-13.542
X-115.655 Y-13.522
X-115.607 Y-13.506
X-115.499 Y-13.444
X-115.426 Y-13.343
X-115.401 Y-13.221
Y-12.982
X-115.409 Y-12.945
X-115.432 Y-12.913
X-115.464 Y-12.893
X-115.502 Y-12.886
X-115.84 Y-12.892
X-116.473 Y-12.903
X-116.51 Y-12.911
X-116.541 Y-12.932
X-116.563 Y-12.963
X-116.571 Y-13
Y-13.253
X-116.567 Y-13.328
X-116.513 Y-13.468
X-116.412 Y-13.579
X-116.289 Y-13.664
X-116.152 Y-13.725
X-116.007 Y-13.765
X-115.858 Y-13.782
X-115.708 Y-13.774
X-115.563 Y-13.737
X-115.559 Y-13.734
X-115.475 Y-13.668
X-115.42 Y-13.576
X-115.401 Y-13.47
Y-13.221
X-115.41 Y-13.183
X-115.432 Y-13.152
X-115.465 Y-13.131
X-115.504 Y-13.125
X-115.84 Y-13.136
X-116.475 Y-13.157
X-116.511 Y-13.165
X-116.542 Y-13.186
X-116.563 Y-13.217
X-116.571 Y-13.253
Y-13.507
X-116.567 Y-13.582
X-116.506 Y-13.719
X-116.404 Y-13.828
X-116.279 Y-13.911
X-116.141 Y-13.971
X-115.996 Y-14.007
X-115.847 Y-14.022
X-115.697 Y-14.016
X-115.623 Y-13.996
X-115.508 Y-13.936
X-115.429 Y-13.833
X-115.401 Y-13.706
Y-13.47
X-115.41 Y-13.432
X-115.433 Y-13.401
X-115.466 Y-13.38
X-115.504 Y-13.374
X-115.84 Y-13.386
X-116.475 Y-13.41
X-116.511 Y-13.419
X-116.542 Y-13.44
X-116.563 Y-13.47
X-116.571 Y-13.507
Y-13.714
X-116.564 Y-13.863
X-116.487 Y-13.992
X-116.376 Y-14.094
X-116.247 Y-14.17
X-116.107 Y-14.224
X-115.961 Y-14.256
X-115.811 Y-14.265
X-115.662 Y-14.247
X-115.61 Y-14.231
X-115.501 Y-14.169
X-115.427 Y-14.067
X-115.401 Y-13.945
Y-13.706
X-115.409 Y-13.669
X-115.431 Y-13.637
X-115.464 Y-13.617
X-115.501 Y-13.61
X-115.839 Y-13.612
X-116.472 Y-13.617
X-116.509 Y-13.625
X-116.541 Y-13.645
X-116.563 Y-13.677
X-116.571 Y-13.714
Y-13.967
X-116.564 Y-14.117
X-116.483 Y-14.243
X-116.37 Y-14.342
X-116.24 Y-14.417
X-116.099 Y-14.468
X-115.952 Y-14.498
X-115.802 Y-14.506
X-115.654 Y-14.485
X-115.606 Y-14.469
X-115.499 Y-14.407
X-115.426 Y-14.306
X-115.401 Y-14.185
Y-13.945
X-115.41 Y-13.907
X-115.432 Y-13.875
X-115.465 Y-13.855
X-115.503 Y-13.848
X-115.84 Y-13.856
X-116.474 Y-13.871
X-116.51 Y-13.878
X-116.542 Y-13.899
X-116.563 Y-13.93
X-116.571 Y-13.967
Y-14.22
X-116.567 Y-14.295
X-116.512 Y-14.435
X-116.411 Y-14.546
X-116.287 Y-14.63
X-116.15 Y-14.691
X-116.005 Y-14.73
X-115.856 Y-14.746
X-115.707 Y-14.737
X-115.561 Y-14.7
X-115.558 Y-14.698
X-115.474 Y-14.631
X-115.42 Y-14.539
X-115.401 Y-14.434
Y-14.185
X-115.41 Y-14.147
X-115.433 Y-14.115
X-115.466 Y-14.094
X-115.504 Y-14.088
X-115.84 Y-14.101
X-116.475 Y-14.124
X-116.511 Y-14.132
X-116.542 Y-14.153
X-116.563 Y-14.184
X-116.571 Y-14.22
Y-14.436
X-116.564 Y-14.586
X-116.487 Y-14.715
X-116.377 Y-14.816
X-116.248 Y-14.893
X-116.108 Y-14.947
X-115.962 Y-14.978
X-115.812 Y-14.987
X-115.662 Y-14.974
X-115.608 Y-14.957
X-115.5 Y-14.895
X-115.427 Y-14.794
X-115.401 Y-14.671
Y-14.434
X-115.409 Y-14.397
X-115.431 Y-14.366
X-115.463 Y-14.345
X-115.501 Y-14.338
X-115.839
X-116.471 Y-14.339
X-116.509 Y-14.347
X-116.541 Y-14.367
X-116.563 Y-14.399
X-116.571 Y-14.436
Y-14.689
X-116.564 Y-14.839
X-116.483 Y-14.966
X-116.371 Y-15.065
X-116.241 Y-15.14
X-116.1 Y-15.191
X-115.953 Y-15.221
X-115.803 Y-15.231
X-115.654 Y-15.211
X-115.607 Y-15.196
X-115.499 Y-15.133
X-115.426 Y-15.032
X-115.401 Y-14.911
Y-14.671
X-115.409 Y-14.634
X-115.432 Y-14.602
X-115.464 Y-14.582
X-115.502 Y-14.575
X-115.84 Y-14.581
X-116.473 Y-14.593
X-116.51 Y-14.6
X-116.541 Y-14.621
X-116.563 Y-14.652
X-116.571 Y-14.689
Y-14.943
X-116.567 Y-15.017
X-116.513 Y-15.157
X-116.412 Y-15.268
X-116.288 Y-15.353
X-116.151 Y-15.414
X-116.007 Y-15.454
X-115.858 Y-15.471
X-115.708 Y-15.463
X-115.563 Y-15.426
X-115.558 Y-15.424
X-115.475 Y-15.357
X-115.42 Y-15.265
X-115.401 Y-15.16
Y-14.911
X-115.41 Y-14.873
X-115.432 Y-14.841
X-115.465 Y-14.82
X-115.504 Y-14.814
X-115.84 Y-14.825
X-116.475 Y-14.846
X-116.511 Y-14.854
X-116.542 Y-14.875
X-116.563 Y-14.906
X-116.571 Y-14.943
Y-15.196
X-116.567 Y-15.271
X-116.506 Y-15.408
X-116.403 Y-15.517
X-116.278 Y-15.6
X-116.141 Y-15.659
X-115.995 Y-15.696
X-115.846 Y-15.711
X-115.696 Y-15.705
X-115.623 Y-15.685
X-115.508 Y-15.625
X-115.429 Y-15.522
X-115.401 Y-15.395
Y-15.16
X-115.41 Y-15.121
X-115.433 Y-15.09
X-115.466 Y-15.069
X-115.504 Y-15.063
X-115.84 Y-15.076
X-116.475 Y-15.1
X-116.511 Y-15.108
X-116.542 Y-15.129
X-116.563 Y-15.16
X-116.571 Y-15.196
Y-15.403
X-116.564 Y-15.553
X-116.487 Y-15.681
X-116.376 Y-15.783
X-116.247 Y-15.859
X-116.107 Y-15.913
X-115.96 Y-15.944
X-115.81 Y-15.954
X-115.662 Y-15.936
X-115.61 Y-15.92
X-115.501 Y-15.858
X-115.427 Y-15.756
X-115.401 Y-15.634
Y-15.395
X-115.409 Y-15.358
X-115.431 Y-15.326
X-115.464 Y-15.306
X-115.501 Y-15.299
X-115.839 Y-15.301
X-116.472 Y-15.306
X-116.509 Y-15.314
X-116.541 Y-15.335
X-116.563 Y-15.366
X-116.571 Y-15.403
Y-15.656
X-116.564 Y-15.806
X-116.482 Y-15.932
X-116.37 Y-16.031
X-116.239 Y-16.106
X-116.099 Y-16.157
X-115.952 Y-16.186
X-115.802 Y-16.194
X-115.653 Y-16.174
X-115.606 Y-16.158
X-115.499 Y-16.095
X-115.426 Y-15.995
X-115.401 Y-15.874
Y-15.634
X-115.41 Y-15.596
X-115.432 Y-15.564
X-115.465 Y-15.544
X-115.503 Y-15.537
X-115.84 Y-15.545
X-116.474 Y-15.56
X-116.51 Y-15.568
X-116.542 Y-15.589
X-116.563 Y-15.62
X-116.571 Y-15.656
Y-15.91
X-116.567 Y-15.985
X-116.512 Y-16.124
X-116.411 Y-16.235
X-116.287 Y-16.319
X-116.15 Y-16.38
X-116.005 Y-16.419
X-115.856 Y-16.435
X-115.706 Y-16.426
X-115.561 Y-16.389
X-115.557 Y-16.387
X-115.474 Y-16.32
X-115.42 Y-16.228
X-115.401 Y-16.123
Y-15.874
X-115.41 Y-15.836
X-115.433 Y-15.804
X-115.466 Y-15.783
X-115.504 Y-15.777
X-115.84 Y-15.79
X-116.475 Y-15.813
X-116.511 Y-15.822
X-116.542 Y-15.843
X-116.563 Y-15.873
X-116.571 Y-15.91
Y-16.125
X-116.564 Y-16.275
X-116.487 Y-16.404
X-116.377 Y-16.505
X-116.248 Y-16.582
X-116.108 Y-16.636
X-115.961 Y-16.667
X-115.811 Y-16.676
X-115.662 Y-16.663
X-115.608 Y-16.646
X-115.5 Y-16.584
X-115.427 Y-16.483
X-115.401 Y-16.36
Y-16.123
X-115.409 Y-16.086
X-115.431 Y-16.055
X-115.463 Y-16.034
X-115.501 Y-16.027
X-115.839
X-116.471 Y-16.029
X-116.509 Y-16.036
X-116.541 Y-16.057
X-116.563 Y-16.088
X-116.571 Y-16.125
Y-16.378
X-116.564 Y-16.528
X-116.483 Y-16.655
X-116.371 Y-16.754
X-116.24 Y-16.829
X-116.099 Y-16.88
X-115.953 Y-16.91
X-115.803 Y-16.919
X-115.654 Y-16.9
X-115.607 Y-16.884
X-115.499 Y-16.822
X-115.426 Y-16.721
X-115.401 Y-16.599
Y-16.36
X-115.409 Y-16.323
X-115.432 Y-16.291
X-115.464 Y-16.271
X-115.502 Y-16.264
X-115.84 Y-16.27
X-116.473 Y-16.282
X-116.51 Y-16.29
X-116.541 Y-16.311
X-116.563 Y-16.342
X-116.571 Y-16.378
Y-16.632
X-116.567 Y-16.707
X-116.513 Y-16.847
X-116.412 Y-16.957
X-116.288 Y-17.042
X-116.151 Y-17.103
X-116.006 Y-17.143
X-115.857 Y-17.16
X-115.708 Y-17.152
X-115.562 Y-17.115
X-115.558 Y-17.113
X-115.475 Y-17.046
X-115.42 Y-16.954
X-115.401 Y-16.849
Y-16.599
X-115.41 Y-16.562
X-115.432 Y-16.53
X-115.466 Y-16.509
X-115.504 Y-16.503
X-115.84 Y-16.514
X-116.475 Y-16.535
X-116.511 Y-16.544
X-116.542 Y-16.565
X-116.563 Y-16.595
X-116.571 Y-16.632
Y-16.885
X-116.567 Y-16.96
X-116.506 Y-17.097
X-116.403 Y-17.206
X-116.278 Y-17.289
X-116.14 Y-17.349
X-115.995 Y-17.385
X-115.846 Y-17.4
X-115.696 Y-17.394
X-115.623 Y-17.374
X-115.508 Y-17.314
X-115.429 Y-17.211
X-115.401 Y-17.084
Y-16.849
X-115.41 Y-16.81
X-115.433 Y-16.779
X-115.466 Y-16.758
X-115.504 Y-16.752
X-115.84 Y-16.765
X-116.475 Y-16.789
X-116.511 Y-16.797
X-116.542 Y-16.818
X-116.563 Y-16.849
X-116.571 Y-16.885
Y-17.092
Y-17.139
Y-17.177
X-116.569 Y-17.214
X-116.502 Y-17.348
X-116.439 Y-17.412
X-116.376 Y-17.46
X-116.304 Y-17.491
X-116.226 Y-17.501
X-116.187 Y-17.492
X-116.156 Y-17.469
X-116.135 Y-17.436
X-116.129 Y-17.397
X-116.138 Y-17.359
X-116.162 Y-17.327
X-116.404 Y-17.106
X-116.436 Y-17.087
X-116.473 Y-17.08
X-116.51 Y-17.088
X-116.541 Y-17.109
X-116.563 Y-17.14
X-116.571 Y-17.177
Y-17.346
Y-17.388
Y-17.398
X-116.566 Y-17.417
X-116.561 Y-17.43
X-116.555 Y-17.443
X-116.532 Y-17.461
X-116.504 Y-17.469
X-116.476 Y-17.465
X-116.449 Y-17.449
X-116.432 Y-17.422
X-116.428 Y-17.392
X-116.437 Y-17.362
X-116.458 Y-17.339
X-116.487 Y-17.327
X-116.518 Y-17.329
X-116.546 Y-17.343
X-116.564 Y-17.368
X-116.571 Y-17.398
X-116.569 Y-17.409
X-116.566 Y-17.42
X-116.562 Y-17.43
X-116.555 Y-17.443
X-116.545 Y-17.456
X-116.534 Y-17.466
X-116.502 Y-17.489
X-116.492 Y-17.494
X-116.481 Y-17.497
X-116.471 Y-17.5
X-116.46 Y-17.501
X-115.614
X-115.568
X-115.53
X-115.489 Y-17.494
X-115.454 Y-17.477
X-115.424 Y-17.453
X-115.406 Y-17.413
X-115.403 Y-17.369
X-115.414 Y-17.327
X-115.438 Y-17.292
X-115.474 Y-17.267
X-115.516 Y-17.256
X-115.559 Y-17.26
X-115.597 Y-17.279
X-115.627 Y-17.31
X-115.645 Y-17.35
X-115.647 Y-17.393
X-115.634 Y-17.434
X-115.608 Y-17.469
X-115.572 Y-17.492
X-115.53 Y-17.501
X-115.508
X-115.498 Y-17.5
X-115.487 Y-17.498
X-115.477 Y-17.495
X-115.466 Y-17.49
X-115.456 Y-17.483
X-115.445 Y-17.475
X-115.424 Y-17.453
X-115.416 Y-17.441
X-115.41 Y-17.43
X-115.406 Y-17.42
X-115.403 Y-17.409
X-115.401 Y-17.398
Y-17.084
X-115.41 Y-17.046
X-115.432 Y-17.014
X-115.466 Y-16.994
X-115.504 Y-16.988
X-115.542 Y-16.989 Z-0.982
X-115.575 Y-16.99 Z-0.961
X-115.596 Y-16.991 Z-0.928
X-115.604 Z-0.89
G0 Z2
X-116.213 Y-8.078
Z-0.79
G1 Z-0.89 F1000
X-116.219 Y-8.074 Z-0.928
X-116.238 Y-8.063 Z-0.961
X-116.266 Y-8.046 Z-0.982
X-116.299 Y-8.026 Z-0.99
G3 X-117.052 Y-7.805 I-0.809 J-1.36
G1 X-117.306
X-117.381 Y-7.809
X-117.52 Y-7.866
X-117.625 Y-7.973
X-117.694 Y-8.106
X-117.723 Y-8.253
X-117.716 Y-8.403
X-117.709 Y-8.422
X-117.645 Y-8.524
X-117.546 Y-8.593
X-117.428 Y-8.617
X-117.211
X-117.178 Y-8.61
X-117.149 Y-8.593
X-117.127 Y-8.567
X-117.116 Y-8.535
X-117.115 Y-8.501
X-117.211 Y-7.89
X-117.222 Y-7.857
X-117.243 Y-7.83
X-117.273 Y-7.812
X-117.306 Y-7.805
X-117.522
X-117.597 Y-7.809
X-117.736 Y-7.866
X-117.838 Y-7.975
X-117.905 Y-8.109
X-117.939 Y-8.255
X-117.929 Y-8.405
X-117.926 Y-8.414
X-117.863 Y-8.52
X-117.763 Y-8.591
X-117.642 Y-8.617
X-117.428
X-117.395 Y-8.61
X-117.366 Y-8.593
X-117.344 Y-8.567
X-117.333 Y-8.535
X-117.332 Y-8.502
X-117.427 Y-7.89
X-117.438 Y-7.857
X-117.459 Y-7.83
X-117.488 Y-7.812
X-117.522 Y-7.805
X-117.729
X-117.804 Y-7.809
X-117.944 Y-7.863
X-118.048 Y-7.971
X-118.118 Y-8.104
X-118.153 Y-8.249
X-118.145 Y-8.399
X-118.141 Y-8.411
X-118.078 Y-8.518
X-117.978 Y-8.591
X-117.856 Y-8.617
X-117.642
X-117.61 Y-8.61
X-117.581 Y-8.593
X-117.56 Y-8.567
X-117.548 Y-8.536
X-117.547 Y-8.503
X-117.634 Y-7.891
X-117.644 Y-7.858
X-117.666 Y-7.831
X-117.695 Y-7.812
X-117.729 Y-7.805
X-117.945
X-118.02 Y-7.809
X-118.159 Y-7.865
X-118.263 Y-7.973
X-118.332 Y-8.106
X-118.367 Y-8.252
X-118.358 Y-8.401
X-118.354 Y-8.412
X-118.291 Y-8.519
X-118.191 Y-8.591
X-118.07 Y-8.617
X-117.856
X-117.823 Y-8.61
X-117.794 Y-8.593
X-117.773 Y-8.567
X-117.761 Y-8.536
X-117.76 Y-8.502
X-117.849 Y-7.891
X-117.86 Y-7.858
X-117.882 Y-7.831
X-117.911 Y-7.812
X-117.945 Y-7.805
X-118.152
X-118.227 Y-7.809
X-118.368 Y-7.861
X-118.473 Y-7.967
X-118.544 Y-8.1
X-118.58 Y-8.245
X-118.573 Y-8.395
X-118.569 Y-8.408
X-118.507 Y-8.517
X-118.406 Y-8.591
X-118.283 Y-8.617
X-118.07
X-118.037 Y-8.61
X-118.009 Y-8.593
X-117.987 Y-8.568
X-117.975 Y-8.537
X-117.974 Y-8.503
X-118.057 Y-7.892
X-118.067 Y-7.859
X-118.089 Y-7.831
X-118.118 Y-7.812
X-118.152 Y-7.805
X-118.368
X-118.443 Y-7.809
X-118.583 Y-7.862
X-118.688 Y-7.969
X-118.758 Y-8.102
X-118.794 Y-8.247
X-118.786 Y-8.397
X-118.782 Y-8.41
X-118.719 Y-8.518
X-118.619 Y-8.591
X-118.497 Y-8.617
X-118.283
X-118.25 Y-8.61
X-118.222 Y-8.593
X-118.2 Y-8.568
X-118.189 Y-8.536
X-118.188 Y-8.503
X-118.272 Y-7.891
X-118.283 Y-7.858
X-118.304 Y-7.831
X-118.334 Y-7.812
X-118.368 Y-7.805
X-118.575
X-118.65 Y-7.809
X-118.792 Y-7.858
X-118.898 Y-7.964
X-118.97 Y-8.095
X-119.007 Y-8.241
X-119.001 Y-8.39
X-118.996 Y-8.406
X-118.934 Y-8.516
X-118.833 Y-8.59
X-118.71 Y-8.617
X-118.497
X-118.464 Y-8.61
X-118.436 Y-8.593
X-118.414 Y-8.568
X-118.402 Y-8.537
X-118.401 Y-8.504
X-118.479 Y-7.892
X-118.49 Y-7.859
X-118.511 Y-7.831
X-118.541 Y-7.812
X-118.575 Y-7.805
X-118.791
X-118.866 Y-7.809
X-119.007 Y-7.859
X-119.113 Y-7.965
X-119.184 Y-8.097
X-119.221 Y-8.243
X-119.214 Y-8.393
X-119.209 Y-8.407
X-119.147 Y-8.516
X-119.046 Y-8.591
X-118.923 Y-8.617
X-118.71
X-118.677 Y-8.61
X-118.649 Y-8.593
X-118.627 Y-8.568
X-118.615 Y-8.537
X-118.614 Y-8.504
X-118.695 Y-7.892
X-118.706 Y-7.859
X-118.727 Y-7.831
X-118.757 Y-7.812
X-118.791 Y-7.805
X-119.045
X-119.12 Y-7.809
X-119.252 Y-7.88
X-119.349 Y-7.994
X-119.41 Y-8.131
X-119.437 Y-8.279
X-119.421 Y-8.428
X-119.419 Y-8.431
X-119.355 Y-8.528
X-119.257 Y-8.594
X-119.142 Y-8.617
X-118.923
X-118.889 Y-8.61
X-118.86 Y-8.591
X-118.839 Y-8.564
X-118.828 Y-8.532
Y-8.497
X-118.95 Y-7.886
X-118.962 Y-7.854
X-118.983 Y-7.829
X-119.012 Y-7.812
X-119.045 Y-7.805
X-119.252
X-119.327 Y-7.809
X-119.461 Y-7.877
X-119.559 Y-7.99
X-119.623 Y-8.126
X-119.652 Y-8.273
X-119.638 Y-8.423
X-119.574 Y-8.524
X-119.475 Y-8.593
X-119.358 Y-8.617
X-119.142
X-119.109 Y-8.61
X-119.079 Y-8.592
X-119.058 Y-8.565
X-119.047 Y-8.533
Y-8.499
X-119.157 Y-7.887
X-119.169 Y-7.856
X-119.19 Y-7.829
X-119.219 Y-7.812
X-119.252 Y-7.805
X-119.468
X-119.506
X-119.552
X-119.59 Y-7.807
X-119.711 Y-7.896
X-119.761 Y-7.967
X-119.791 Y-8.021
X-119.81 Y-8.079
X-119.816 Y-8.14
X-119.808 Y-8.175
X-119.789 Y-8.205
X-119.761 Y-8.226
X-119.726 Y-8.236
X-119.691 Y-8.234
X-119.659 Y-8.219
X-119.634 Y-8.194
X-119.474 Y-7.962
X-119.459 Y-7.93
X-119.456 Y-7.894
X-119.466 Y-7.86
X-119.488 Y-7.832
X-119.518 Y-7.813
X-119.552 Y-7.805
X-119.675
X-119.717 Y-7.806
X-119.728 Y-7.808
X-119.747 Y-7.815
X-119.771 Y-7.834
X-119.784 Y-7.862
X-119.783 Y-7.892
X-119.768 Y-7.919
X-119.743 Y-7.937
X-119.712 Y-7.942
X-119.683 Y-7.932
X-119.661 Y-7.91
X-119.652 Y-7.881
Y-7.88
X-119.656 Y-7.85
X-119.672 Y-7.825
X-119.698 Y-7.81
X-119.728 Y-7.808
X-119.738 Y-7.811
X-119.749 Y-7.816
X-119.76 Y-7.822
X-119.778 Y-7.838
X-119.79 Y-7.854
X-119.8 Y-7.87
X-119.808 Y-7.885
X-119.812 Y-7.896
X-119.814 Y-7.907
X-119.816 Y-7.928
Y-8.308
Y-8.354
Y-8.392
X-119.812 Y-8.467
X-119.758 Y-8.546
X-119.678 Y-8.598
X-119.584 Y-8.617
G3 X-119.383 Y-8.337 I-0.008 J0.218
X-119.816 Y-8.392 I-0.212 J-0.063
G1 Y-8.477
X-119.815 Y-8.519
X-119.813 Y-8.53
X-119.81 Y-8.54
X-119.805 Y-8.551
X-119.799 Y-8.561
X-119.79 Y-8.572
X-119.779 Y-8.583
X-119.76 Y-8.6
X-119.749 Y-8.606
X-119.738 Y-8.611
X-119.728 Y-8.614
X-119.717 Y-8.616
X-119.675 Y-8.617
X-119.358
X-119.33 Y-8.612
X-119.304 Y-8.599
X-119.287 Y-8.57 Z-0.983
X-119.272 Y-8.545 Z-0.966
X-119.261 Y-8.526 Z-0.939
Y-8.517 Z-0.916
Y-8.513 Z-0.89
G0 Z2
X-109.625 Y-16.861
Z0.5
G3 X-109.141 Y-16.986 Z0.29 I0.242 J-0.062 F333.3
X-109.625 Y-16.861 Z0.079 I-0.242 J0.062
X-109.141 Y-16.986 Z-0.131 I0.242 J-0.062
X-109.625 Y-16.861 Z-0.342 I-0.242 J0.062
X-109.141 Y-16.986 Z-0.552 I0.242 J-0.062
X-109.625 Y-16.861 Z-0.763 I-0.242 J0.062
X-109.415 Y-17.171 Z-0.876 I0.242 J-0.062
X-109.133 Y-16.923 Z-0.99 I0.031 J0.248
X-109.633 I-0.25
X-109.133 I0.25
G1 X-109.096 Y-16.778 F1000
X-109.109 Y-16.704
X-109.146 Y-16.639
X-109.253 Y-16.534
X-109.398 Y-16.494
X-109.546 Y-16.515
X-109.676 Y-16.589
X-109.773 Y-16.704
X-109.825 Y-16.845
X-109.827 Y-16.995
X-109.78 Y-17.137
X-109.688 Y-17.255
X-109.562 Y-17.337
X-109.416 Y-17.373
X-109.267 Y-17.359
X-109.131 Y-17.297
X-109.022 Y-17.193
X-108.944 Y-17.065
X-108.894 Y-16.924
X-108.89 Y-16.862
X-108.889 Y-16.855
Y-16.839
X-108.897 Y-16.689
X-108.955 Y-16.551
X-109.047 Y-16.432
X-109.169 Y-16.345
X-109.311 Y-16.297
X-109.46 Y-16.284
X-109.608 Y-16.311
X-109.744 Y-16.375
X-109.761 Y-16.388
X-109.823 Y-16.454
X-109.863 Y-16.535
X-109.877 Y-16.625
Y-17.139
Y-17.177
Y-17.223
X-109.875 Y-17.261
X-109.803 Y-17.392
X-109.764 Y-17.426
X-109.705 Y-17.467
X-109.638 Y-17.492
X-109.566 Y-17.501
X-109.533 Y-17.494
X-109.504 Y-17.476
X-109.482 Y-17.449
X-109.471 Y-17.417
Y-17.383
X-109.483 Y-17.351
X-109.505 Y-17.325
X-109.713 Y-17.15
X-109.745 Y-17.132
X-109.781 Y-17.127
X-109.818 Y-17.135
X-109.848 Y-17.156
X-109.869 Y-17.187
X-109.877 Y-17.223
Y-17.388
X-109.876 Y-17.398
X-109.875 Y-17.409
X-109.872 Y-17.42
X-109.868 Y-17.43
X-109.861 Y-17.442
X-109.853 Y-17.453
X-109.831 Y-17.476
X-109.819 Y-17.485
X-109.808 Y-17.491
X-109.798 Y-17.495
X-109.787 Y-17.498
X-109.777 Y-17.5
X-109.523 Y-17.501
X-109.269
X-109.119 Y-17.494
X-109.067 Y-17.47
X-108.974 Y-17.405
X-108.911 Y-17.309
X-108.889 Y-17.196
X-108.897 Y-17.161
X-108.917 Y-17.131
X-108.946 Y-17.11
X-108.98 Y-17.1
X-109.016 Y-17.103
X-109.048 Y-17.119
X-109.324 Y-17.32
X-109.349 Y-17.346
X-109.363 Y-17.378
X-109.365 Y-17.413
X-109.355 Y-17.447
X-109.333 Y-17.475
X-109.304 Y-17.494
X-109.269 Y-17.501
X-109.015
X-108.994 Y-17.5
X-108.984 Y-17.499
X-108.973 Y-17.496
X-108.962 Y-17.491
X-108.952 Y-17.486
X-108.921 Y-17.461
X-108.91 Y-17.45
X-108.899 Y-17.43
X-108.894 Y-17.42
X-108.892 Y-17.409
X-108.89 Y-17.398
X-108.889 Y-16.855
X-108.896 Y-16.82
X-108.914 Y-16.789
X-108.941 Y-16.767
X-108.975 Y-16.756
X-109.01 Y-16.757
X-109.043 Y-16.77
X-109.069 Y-16.794
X-109.085 Y-16.825
X-109.231 Y-17.304
X-109.237 Y-17.324
X-109.241 Y-17.36
X-109.232 Y-17.395
X-109.212 Y-17.424
X-109.182 Y-17.444
X-109.147 Y-17.453
X-109.111 Y-17.448
X-109.079 Y-17.431
X-109.055 Y-17.404
G3 X-108.889 Y-16.839 I-1.02 J0.607
G1 Y-16.539
X-108.897 Y-16.389
X-108.973 Y-16.26
X-109.087 Y-16.163
X-109.223 Y-16.099
X-109.369 Y-16.067
X-109.519 Y-16.065
X-109.667 Y-16.091
X-109.696 Y-16.104
X-109.791 Y-16.169
X-109.855 Y-16.266
X-109.877 Y-16.379
Y-16.625
X-109.87 Y-16.657
X-109.854 Y-16.685
X-109.829 Y-16.707
X-109.799 Y-16.719
X-109.766 Y-16.721
X-109.617 Y-16.705
X-108.979 Y-16.635
X-108.945 Y-16.625
X-108.916 Y-16.604
X-108.897 Y-16.574
X-108.889 Y-16.539
Y-16.286
X-108.893 Y-16.211
X-108.948 Y-16.071
X-109.054 Y-15.965
X-109.185 Y-15.892
X-109.329 Y-15.848
X-109.478 Y-15.832
X-109.627 Y-15.846
X-109.669 Y-15.86
X-109.777 Y-15.922
X-109.851 Y-16.023
X-109.877 Y-16.145
Y-16.379
X-109.87 Y-16.411
X-109.854 Y-16.44
X-109.829 Y-16.461
X-109.798 Y-16.473
X-109.765 Y-16.475
X-109.617 Y-16.457
X-108.978 Y-16.381
X-108.944 Y-16.371
X-108.916 Y-16.35
X-108.897 Y-16.32
X-108.889 Y-16.286
Y-16.079
X-108.893 Y-16.004
X-108.942 Y-15.862
X-109.045 Y-15.753
X-109.173 Y-15.675
X-109.315 Y-15.626
X-109.463 Y-15.603
X-109.613 Y-15.613
X-109.659 Y-15.627
X-109.772 Y-15.688
X-109.849 Y-15.79
X-109.877 Y-15.915
Y-16.145
X-109.871 Y-16.177
X-109.855 Y-16.205
X-109.83 Y-16.226
X-109.801 Y-16.239
X-109.769 Y-16.241
X-109.619 Y-16.229
X-108.981 Y-16.175
X-108.946 Y-16.165
X-108.917 Y-16.144
X-108.897 Y-16.114
X-108.889 Y-16.079
Y-15.825
X-108.893 Y-15.75
X-108.958 Y-15.615
X-109.066 Y-15.511
X-109.197 Y-15.438
X-109.34 Y-15.393
X-109.489 Y-15.375
X-109.638 Y-15.39
X-109.671 Y-15.401
X-109.778 Y-15.464
X-109.851 Y-15.565
X-109.877 Y-15.686
Y-15.915
X-109.87 Y-15.947
X-109.854 Y-15.976
X-109.829 Y-15.997
X-109.798 Y-16.009
X-109.766 Y-16.011
X-109.617 Y-15.994
X-108.978 Y-15.921
X-108.944 Y-15.911
X-108.916 Y-15.89
X-108.897 Y-15.86
X-108.889 Y-15.825
Y-15.61
X-108.893 Y-15.535
X-108.953 Y-15.397
X-109.06 Y-15.292
X-109.189 Y-15.216
X-109.331 Y-15.168
X-109.479 Y-15.146
X-109.629 Y-15.159
X-109.666 Y-15.171
X-109.776 Y-15.233
X-109.85 Y-15.334
X-109.877 Y-15.457
Y-15.686
X-109.87 Y-15.718
X-109.854 Y-15.746
X-109.83 Y-15.767
X-109.8 Y-15.78
X-109.767 Y-15.782
X-109.618 Y-15.768
X-108.98 Y-15.706
X-108.945 Y-15.696
X-108.917 Y-15.675
X-108.897 Y-15.645
X-108.889 Y-15.61
Y-15.403
X-108.893 Y-15.328
X-108.944 Y-15.187
X-109.046 Y-15.077
X-109.173 Y-14.997
X-109.313 Y-14.944
X-109.461 Y-14.919
X-109.611 Y-14.928
X-109.657 Y-14.94
X-109.771 Y-15.001
X-109.849 Y-15.104
X-109.877 Y-15.23
Y-15.457
X-109.871 Y-15.489
X-109.855 Y-15.516
X-109.831 Y-15.538
X-109.802 Y-15.551
X-109.77 Y-15.554
X-109.62 Y-15.543
X-108.983 Y-15.499
X-108.947 Y-15.49
X-108.917 Y-15.469
X-108.897 Y-15.439
X-108.889 Y-15.403
Y-15.15
X-108.893 Y-15.075
X-108.956 Y-14.939
X-109.063 Y-14.833
X-109.193 Y-14.758
X-109.335 Y-14.711
X-109.484 Y-14.69
X-109.633 Y-14.705
X-109.668 Y-14.716
X-109.777 Y-14.778
X-109.851 Y-14.879
X-109.877 Y-15.002
Y-15.23
X-109.87 Y-15.261
X-109.854 Y-15.29
X-109.829 Y-15.311
X-109.799 Y-15.323
X-109.767 Y-15.326
X-109.618 Y-15.31
X-108.979 Y-15.246
X-108.945 Y-15.236
X-108.916 Y-15.214
X-108.897 Y-15.184
X-108.889 Y-15.15
Y-14.934
X-108.893 Y-14.859
X-108.95 Y-14.721
X-109.055 Y-14.613
X-109.183 Y-14.536
X-109.325 Y-14.486
X-109.473 Y-14.463
X-109.623 Y-14.474
X-109.663 Y-14.486
X-109.774 Y-14.547
X-109.85 Y-14.649
X-109.877 Y-14.773
Y-15.002
X-109.871 Y-15.033
X-109.854 Y-15.061
X-109.83 Y-15.083
X-109.801 Y-15.095
X-109.768 Y-15.098
X-109.619 Y-15.085
X-108.981 Y-15.03
X-108.946 Y-15.021
X-108.917 Y-15
X-108.897 Y-14.969
X-108.889 Y-14.934
Y-14.727
X-108.897 Y-14.577
X-108.977 Y-14.45
X-109.091 Y-14.354
X-109.225 Y-14.285
X-109.37 Y-14.246
X-109.519 Y-14.233
X-109.667 Y-14.255
X-109.688 Y-14.263
X-109.787 Y-14.328
X-109.853 Y-14.426
X-109.877 Y-14.542
Y-14.773
X-109.868 Y-14.812
X-109.844 Y-14.844
X-109.81 Y-14.864
X-109.771 Y-14.87
X-109.62 Y-14.861
X-108.984 Y-14.824
X-108.948 Y-14.815
X-108.918 Y-14.794
X-108.897 Y-14.763
X-108.889 Y-14.727
Y-14.474
X-108.893 Y-14.399
X-108.95 Y-14.26
X-109.055 Y-14.153
X-109.184 Y-14.076
X-109.325 Y-14.026
X-109.474 Y-14.004
X-109.623 Y-14.014
X-109.664 Y-14.026
X-109.774 Y-14.087
X-109.85 Y-14.189
X-109.877 Y-14.313
Y-14.542
X-109.871 Y-14.573
X-109.854 Y-14.601
X-109.83 Y-14.623
X-109.801 Y-14.636
X-109.768 Y-14.638
X-109.619 Y-14.625
X-108.981 Y-14.57
X-108.946 Y-14.56
X-108.917 Y-14.539
X-108.897 Y-14.509
X-108.889 Y-14.474
Y-14.258
X-108.893 Y-14.183
X-108.945 Y-14.043
X-109.048 Y-13.933
X-109.175 Y-13.853
X-109.315 Y-13.801
X-109.463 Y-13.776
X-109.613 Y-13.785
X-109.657 Y-13.797
X-109.771 Y-13.857
X-109.849 Y-13.96
X-109.877 Y-14.086
Y-14.313
X-109.871 Y-14.344
X-109.855 Y-14.372
X-109.831 Y-14.394
X-109.802 Y-14.406
X-109.77 Y-14.409
X-109.62 Y-14.399
X-108.982 Y-14.355
X-108.947 Y-14.346
X-108.917 Y-14.324
X-108.897 Y-14.294
X-108.889 Y-14.258
Y-14.005
X-108.893 Y-13.93
X-108.957 Y-13.794
X-109.065 Y-13.69
X-109.194 Y-13.614
X-109.337 Y-13.567
X-109.485 Y-13.547
X-109.635 Y-13.561
X-109.669 Y-13.572
X-109.777 Y-13.635
X-109.851 Y-13.736
X-109.877 Y-13.858
Y-14.086
X-109.87 Y-14.118
X-109.854 Y-14.146
X-109.829 Y-14.168
X-109.799 Y-14.18
X-109.767 Y-14.182
X-109.618 Y-14.167
X-108.979 Y-14.101
X-108.945 Y-14.091
X-108.916 Y-14.07
X-108.897 Y-14.04
X-108.889 Y-14.005
Y-13.798
X-108.893 Y-13.723
X-108.947 Y-13.583
X-109.05 Y-13.474
X-109.178 Y-13.395
X-109.319 Y-13.344
X-109.467 Y-13.32
X-109.616 Y-13.329
X-109.66 Y-13.342
X-109.772 Y-13.403
X-109.849 Y-13.505
X-109.877 Y-13.63
Y-13.858
X-109.871 Y-13.89
X-109.855 Y-13.917
X-109.831 Y-13.939
X-109.801 Y-13.952
X-109.769 Y-13.954
X-109.619 Y-13.943
X-108.982 Y-13.894
X-108.947 Y-13.885
X-108.917 Y-13.864
X-108.897 Y-13.834
X-108.889 Y-13.798
Y-13.583
X-108.897 Y-13.433
X-108.977 Y-13.306
X-109.092 Y-13.21
X-109.226 Y-13.141
X-109.37 Y-13.102
X-109.52 Y-13.09
X-109.668 Y-13.112
X-109.689 Y-13.12
X-109.788 Y-13.185
X-109.854 Y-13.282
X-109.877 Y-13.398
Y-13.63
X-109.868 Y-13.669
X-109.844 Y-13.701
X-109.81 Y-13.721
X-109.771 Y-13.726
X-109.62 Y-13.717
X-108.983 Y-13.679
X-108.948 Y-13.67
X-108.918 Y-13.649
X-108.897 Y-13.618
X-108.889 Y-13.583
Y-13.329
X-108.893 Y-13.254
X-108.951 Y-13.116
X-109.056 Y-13.009
X-109.185 Y-12.932
X-109.326 Y-12.882
X-109.475 Y-12.861
X-109.624 Y-12.87
X-109.664 Y-12.882
X-109.775 Y-12.944
X-109.85 Y-13.046
X-109.877 Y-13.169
Y-13.398
X-109.871 Y-13.43
X-109.854 Y-13.458
X-109.83 Y-13.479
X-109.8 Y-13.492
X-109.768 Y-13.494
X-109.619 Y-13.481
X-108.981 Y-13.425
X-108.946 Y-13.416
X-108.917 Y-13.395
X-108.897 Y-13.364
X-108.889 Y-13.329
Y-13.122
X-108.897 Y-12.973
X-108.978 Y-12.846
X-109.092 Y-12.75
X-109.226 Y-12.682
X-109.371 Y-12.643
X-109.521 Y-12.63
X-109.669 Y-12.652
X-109.688 Y-12.659
X-109.787 Y-12.724
X-109.854 Y-12.822
X-109.877 Y-12.938
Y-13.169
X-109.868 Y-13.208
X-109.844 Y-13.24
X-109.81 Y-13.26
X-109.771 Y-13.266
X-109.62 Y-13.257
X-108.983 Y-13.219
X-108.948 Y-13.21
X-108.918 Y-13.189
X-108.897 Y-13.158
X-108.889 Y-13.122
Y-12.869
X-108.893 Y-12.794
X-108.951 Y-12.656
X-109.057 Y-12.549
X-109.186 Y-12.472
X-109.327 Y-12.422
X-109.475 Y-12.401
X-109.625 Y-12.41
X-109.664 Y-12.422
X-109.775 Y-12.484
X-109.85 Y-12.586
X-109.877 Y-12.709
Y-12.938
X-109.871 Y-12.97
X-109.854 Y-12.998
X-109.83 Y-13.019
X-109.8 Y-13.032
X-109.768 Y-13.034
X-109.619 Y-13.021
X-108.981 Y-12.965
X-108.946 Y-12.956
X-108.917 Y-12.934
X-108.897 Y-12.904
X-108.889 Y-12.869
Y-12.654
X-108.893 Y-12.579
X-108.946 Y-12.438
X-109.049 Y-12.329
X-109.176 Y-12.249
X-109.317 Y-12.198
X-109.465 Y-12.172
X-109.614 Y-12.181
X-109.658 Y-12.193
X-109.772 Y-12.254
X-109.849 Y-12.357
X-109.877 Y-12.482
Y-12.709
X-109.871 Y-12.741
X-109.855 Y-12.768
X-109.831 Y-12.79
X-109.802 Y-12.803
X-109.77 Y-12.806
X-109.62 Y-12.795
X-108.982 Y-12.75
X-108.947 Y-12.741
X-108.917 Y-12.719
X-108.897 Y-12.689
X-108.889 Y-12.654
Y-12.4
X-108.893 Y-12.325
X-108.958 Y-12.19
X-109.066 Y-12.085
X-109.195 Y-12.01
X-109.338 Y-11.964
X-109.487 Y-11.944
X-109.636 Y-11.958
X-109.669 Y-11.969
X-109.777 Y-12.031
X-109.851 Y-12.132
X-109.877 Y-12.254
Y-12.482
X-109.87 Y-12.514
X-109.854 Y-12.543
X-109.829 Y-12.564
X-109.799 Y-12.576
X-109.767 Y-12.578
X-109.618 Y-12.563
X-108.979 Y-12.496
X-108.945 Y-12.486
X-108.916 Y-12.465
X-108.897 Y-12.435
X-108.889 Y-12.4
Y-12.193
X-108.893 Y-12.118
X-108.948 Y-11.979
X-109.051 Y-11.87
X-109.179 Y-11.791
X-109.32 Y-11.74
X-109.468 Y-11.716
X-109.618 Y-11.726
X-109.66 Y-11.738
X-109.773 Y-11.799
X-109.85 Y-11.901
X-109.877 Y-12.026
Y-12.254
X-109.871 Y-12.286
X-109.855 Y-12.314
X-109.831 Y-12.335
X-109.801 Y-12.348
X-109.769 Y-12.351
X-109.619 Y-12.339
X-108.982 Y-12.289
X-108.947 Y-12.28
X-108.917 Y-12.259
X-108.897 Y-12.229
X-108.889 Y-12.193
Y-11.978
X-108.897 Y-11.828
X-108.978 Y-11.702
X-109.093 Y-11.606
X-109.227 Y-11.537
X-109.371 Y-11.498
X-109.521 Y-11.486
X-109.669 Y-11.508
X-109.689 Y-11.516
X-109.788 Y-11.581
X-109.854 Y-11.679
X-109.877 Y-11.794
Y-12.026
X-109.868 Y-12.065
X-109.844 Y-12.097
X-109.81 Y-12.117
X-109.771 Y-12.123
X-109.62 Y-12.113
X-108.983 Y-12.074
X-108.948 Y-12.065
X-108.918 Y-12.044
X-108.897 Y-12.014
X-108.889 Y-11.978
Y-11.724
X-108.893 Y-11.65
X-108.951 Y-11.511
X-109.057 Y-11.405
X-109.186 Y-11.328
X-109.327 Y-11.278
X-109.476 Y-11.257
X-109.626 Y-11.267
X-109.665 Y-11.279
X-109.775 Y-11.34
X-109.85 Y-11.442
X-109.877 Y-11.566
Y-11.794
X-109.871 Y-11.826
X-109.854 Y-11.854
X-109.83 Y-11.876
X-109.8 Y-11.888
X-109.768 Y-11.891
X-109.619 Y-11.877
X-108.981 Y-11.821
X-108.946 Y-11.811
X-108.917 Y-11.79
X-108.897 Y-11.76
X-108.889 Y-11.724
Y-11.517
X-108.897 Y-11.368
X-108.978 Y-11.241
X-109.093 Y-11.145
X-109.227 Y-11.078
X-109.372 Y-11.039
X-109.521 Y-11.026
X-109.67 Y-11.048
X-109.689 Y-11.056
X-109.787 Y-11.12
X-109.854 Y-11.218
X-109.877 Y-11.334
Y-11.566
X-109.868 Y-11.604
X-109.844 Y-11.636
X-109.81 Y-11.656
X-109.771 Y-11.662
X-109.62 Y-11.653
X-108.983 Y-11.614
X-108.948 Y-11.605
X-108.918 Y-11.584
X-108.897 Y-11.553
X-108.889 Y-11.517
Y-11.264
X-108.893 Y-11.189
X-108.952 Y-11.051
X-109.058 Y-10.945
X-109.186 Y-10.868
X-109.328 Y-10.818
X-109.476 Y-10.797
X-109.626 Y-10.807
X-109.665 Y-10.819
X-109.775 Y-10.88
X-109.85 Y-10.982
X-109.877 Y-11.105
Y-11.334
X-109.871 Y-11.366
X-109.854 Y-11.394
X-109.83 Y-11.415
X-109.8 Y-11.428
X-109.768 Y-11.43
X-109.619 Y-11.417
X-108.981 Y-11.36
X-108.946 Y-11.351
X-108.917 Y-11.329
X-108.897 Y-11.299
X-108.889 Y-11.264
Y-11.049
X-108.893 Y-10.974
X-108.947 Y-10.834
X-109.05 Y-10.725
X-109.177 Y-10.645
X-109.318 Y-10.594
X-109.466 Y-10.568
X-109.615 Y-10.578
X-109.658 Y-10.59
X-109.772 Y-10.65
X-109.849 Y-10.753
X-109.877 Y-10.878
Y-11.105
X-109.871 Y-11.137
X-109.855 Y-11.165
X-109.831 Y-11.186
X-109.802 Y-11.199
X-109.77 Y-11.202
X-109.62 Y-11.191
X-108.982 Y-11.145
X-108.947 Y-11.136
X-108.917 Y-11.115
X-108.897 Y-11.084
X-108.889 Y-11.049
Y-10.795
X-108.893 Y-10.72
X-108.959 Y-10.585
X-109.066 Y-10.481
X-109.196 Y-10.406
X-109.339 Y-10.36
X-109.488 Y-10.34
X-109.637 Y-10.354
X-109.67 Y-10.365
X-109.778 Y-10.428
X-109.851 Y-10.529
X-109.877 Y-10.65
Y-10.878
X-109.87 Y-10.91
X-109.854 Y-10.939
X-109.829 Y-10.96
X-109.799 Y-10.972
X-109.766 Y-10.974
X-109.618 Y-10.959
X-108.979 Y-10.891
X-108.945 Y-10.881
X-108.916 Y-10.86
X-108.897 Y-10.83
X-108.889 Y-10.795
Y-10.588
X-108.893 Y-10.513
X-108.948 Y-10.374
X-109.052 Y-10.266
X-109.18 Y-10.187
X-109.321 Y-10.136
X-109.469 Y-10.112
X-109.619 Y-10.122
X-109.661 Y-10.134
X-109.773 Y-10.195
X-109.85 Y-10.298
X-109.877 Y-10.423
Y-10.65
X-109.871 Y-10.682
X-109.855 Y-10.71
X-109.831 Y-10.731
X-109.801 Y-10.744
X-109.769 Y-10.747
X-109.619 Y-10.735
X-108.982 Y-10.685
X-108.947 Y-10.675
X-108.917 Y-10.654
X-108.897 Y-10.624
X-108.889 Y-10.588
Y-10.373
X-108.893 Y-10.298
X-108.943 Y-10.156
X-109.044 Y-10.046
X-109.17 Y-9.964
X-109.31 Y-9.911
X-109.458 Y-9.885
X-109.608 Y-9.893
X-109.655 Y-9.906
X-109.77 Y-9.966
X-109.849 Y-10.069
X-109.877 Y-10.195
Y-10.423
X-109.868 Y-10.461
X-109.844 Y-10.493
X-109.81 Y-10.513
X-109.771 Y-10.519
X-109.62 Y-10.509
X-108.983 Y-10.469
X-108.948 Y-10.46
X-108.918 Y-10.439
X-108.897 Y-10.409
X-108.889 Y-10.373
Y-10.12
X-108.893 Y-10.045
X-108.955 Y-9.908
X-109.061 Y-9.802
X-109.19 Y-9.725
X-109.332 Y-9.677
X-109.48 Y-9.656
X-109.63 Y-9.67
X-109.666 Y-9.681
X-109.776 Y-9.743
X-109.85 Y-9.845
X-109.877 Y-9.968
Y-10.195
X-109.87 Y-10.227
X-109.854 Y-10.255
X-109.83 Y-10.277
X-109.8 Y-10.289
X-109.767 Y-10.291
X-109.618 Y-10.277
X-108.98 Y-10.216
X-108.945 Y-10.206
X-108.917 Y-10.185
X-108.897 Y-10.155
X-108.889 Y-10.12
Y-9.913
X-108.893 Y-9.838
X-108.944 Y-9.697
X-109.046 Y-9.587
X-109.173 Y-9.507
X-109.314 Y-9.454
X-109.461 Y-9.429
X-109.611 Y-9.438
X-109.657 Y-9.451
X-109.771 Y-9.511
X-109.849 Y-9.614
X-109.877 Y-9.74
Y-9.968
X-109.871 Y-9.999
X-109.855 Y-10.027
X-109.831 Y-10.048
X-109.802 Y-10.061
X-109.77 Y-10.064
X-109.62 Y-10.053
X-108.982 Y-10.009
X-108.947 Y-10
X-108.917 Y-9.979
X-108.897 Y-9.948
X-108.889 Y-9.913
Y-9.659
X-108.893 Y-9.584
X-108.956 Y-9.448
X-109.063 Y-9.343
X-109.193 Y-9.268
X-109.335 Y-9.221
X-109.484 Y-9.201
X-109.633 Y-9.215
X-109.668 Y-9.226
X-109.777 Y-9.288
X-109.851 Y-9.389
X-109.877 Y-9.512
Y-9.74
X-109.87 Y-9.772
X-109.854 Y-9.8
X-109.829 Y-9.821
X-109.799 Y-9.834
X-109.767 Y-9.836
X-109.618 Y-9.821
X-108.979 Y-9.755
X-108.945 Y-9.745
X-108.916 Y-9.724
X-108.897 Y-9.694
X-108.889 Y-9.659
Y-9.444
X-108.893 Y-9.369
X-108.951 Y-9.23
X-109.055 Y-9.123
X-109.184 Y-9.045
X-109.325 Y-8.996
X-109.474 Y-8.973
X-109.623 Y-8.984
X-109.663 Y-8.996
X-109.774 Y-9.058
X-109.85 Y-9.159
X-109.877 Y-9.284
Y-9.512
X-109.871 Y-9.543
X-109.854 Y-9.571
X-109.83 Y-9.593
X-109.801 Y-9.605
X-109.768 Y-9.608
X-109.619 Y-9.595
X-108.981 Y-9.54
X-108.946 Y-9.53
X-108.917 Y-9.509
X-108.897 Y-9.479
X-108.889 Y-9.444
Y-9.237
X-108.897 Y-9.087
X-108.977 Y-8.96
X-109.092 Y-8.864
X-109.225 Y-8.795
X-109.37 Y-8.756
X-109.519 Y-8.743
X-109.668 Y-8.765
X-109.688 Y-8.773
X-109.787 Y-8.838
X-109.854 Y-8.936
X-109.877 Y-9.052
Y-9.284
X-109.868 Y-9.322
X-109.844 Y-9.354
X-109.81 Y-9.374
X-109.771 Y-9.38
X-109.62 Y-9.371
X-108.983 Y-9.333
X-108.948 Y-9.324
X-108.918 Y-9.303
X-108.897 Y-9.273
X-108.889 Y-9.237
Y-8.984
X-108.893 Y-8.909
X-108.95 Y-8.77
X-109.056 Y-8.663
X-109.184 Y-8.586
X-109.326 Y-8.536
X-109.474 Y-8.514
X-109.624 Y-8.524
X-109.664 Y-8.536
X-109.775 Y-8.597
X-109.85 Y-8.699
X-109.877 Y-8.823
Y-9.052
X-109.871 Y-9.084
X-109.854 Y-9.112
X-109.83 Y-9.133
X-109.8 Y-9.146
X-109.768 Y-9.148
X-109.619 Y-9.135
X-108.981 Y-9.08
X-108.946 Y-9.07
X-108.917 Y-9.049
X-108.897 Y-9.019
X-108.889 Y-8.984
Y-8.768
X-108.893 Y-8.693
X-108.946 Y-8.553
X-109.048 Y-8.443
X-109.175 Y-8.363
X-109.316 Y-8.311
X-109.464 Y-8.286
X-109.613 Y-8.295
X-109.658 Y-8.307
X-109.771 Y-8.368
X-109.849 Y-8.47
X-109.877 Y-8.596
Y-8.823
X-109.871 Y-8.854
X-109.855 Y-8.882
X-109.831 Y-8.904
X-109.802 Y-8.916
X-109.77 Y-8.919
X-109.62 Y-8.909
X-108.982 Y-8.864
X-108.947 Y-8.855
X-108.917 Y-8.834
X-108.897 Y-8.804
X-108.889 Y-8.768
Y-8.515
X-108.893 Y-8.44
X-108.957 Y-8.304
X-109.065 Y-8.2
X-109.195 Y-8.124
X-109.337 Y-8.077
X-109.486 Y-8.057
X-109.635 Y-8.072
X-109.669 Y-8.083
X-109.777 Y-8.145
X-109.851 Y-8.246
X-109.877 Y-8.368
Y-8.596
X-109.87 Y-8.628
X-109.854 Y-8.656
X-109.829 Y-8.678
X-109.799 Y-8.69
X-109.767 Y-8.692
X-109.618 Y-8.677
X-108.979 Y-8.611
X-108.945 Y-8.601
X-108.916 Y-8.58
X-108.897 Y-8.55
X-108.889 Y-8.515
Y-8.308
X-108.893 Y-8.233
X-108.947 Y-8.093
X-109.051 Y-7.984
X-109.178 Y-7.905
X-109.319 Y-7.854
X-109.467 Y-7.83
X-109.617 Y-7.84
X-109.66 Y-7.852
X-109.772 Y-7.913
X-109.85 Y-8.015
X-109.877 Y-8.14
Y-8.368
X-109.871 Y-8.4
X-109.855 Y-8.428
X-109.831 Y-8.449
X-109.801 Y-8.462
X-109.769 Y-8.464
X-109.619 Y-8.453
X-108.982 Y-8.404
X-108.947 Y-8.395
X-108.917 Y-8.374
X-108.897 Y-8.343
X-108.889 Y-8.308
Y-8.092
Y-8.054
Y-8.008
X-108.892 Y-7.949
X-108.96 Y-7.871
X-109.049 Y-7.822
X-109.148 Y-7.805
G3 X-109.321 Y-8.113 I0.007 J-0.207
X-108.889 Y-8.008 I0.201 J0.114
G1 Y-7.928
X-108.891 Y-7.907
X-108.893 Y-7.896
X-108.897 Y-7.885
X-108.903 Y-7.874
X-108.91 Y-7.862
X-108.931 Y-7.839
X-108.941 Y-7.828
X-108.952 Y-7.821
X-108.962 Y-7.815
X-108.973 Y-7.811
X-108.984 Y-7.808
X-108.994 Y-7.806
X-109.015 Y-7.805
X-109.739 Y-7.806
X-109.777
X-109.787 Y-7.808
X-109.805 Y-7.815
X-109.819 Y-7.822
X-109.832 Y-7.831
X-109.846 Y-7.856
X-109.849 Y-7.885
X-109.841 Y-7.912
X-109.821 Y-7.936
X-109.793 Y-7.949
X-109.762
X-109.733 Y-7.935
X-109.714 Y-7.912
X-109.706 Y-7.881
X-109.711 Y-7.851
X-109.729 Y-7.826
X-109.756 Y-7.81
X-109.787 Y-7.808
X-109.798 Y-7.811
X-109.808 Y-7.815
X-109.819 Y-7.821
X-109.832 Y-7.831
X-109.845 Y-7.845
X-109.861 Y-7.87
X-109.869 Y-7.885
X-109.873 Y-7.896
X-109.875 Y-7.907
X-109.877 Y-7.928
Y-8.14
X-109.872 Y-8.168
X-109.859 Y-8.194
X-109.83 Y-8.211 Z-0.983
X-109.805 Y-8.225 Z-0.966
X-109.786 Y-8.236 Z-0.939
X-109.777 Y-8.237 Z-0.916
X-109.773 Z-0.89
G0 Z2
X-96.409 Y-12.964
Z0.5
G3 X-95.925 Y-13.089 Z0.29 I0.242 J-0.062 F333.3
X-96.409 Y-12.964 Z0.079 I-0.242 J0.062
X-95.925 Y-13.089 Z-0.131 I0.242 J-0.062
X-96.409 Y-12.964 Z-0.342 I-0.242 J0.062
X-95.925 Y-13.089 Z-0.552 I0.242 J-0.062
X-96.409 Y-12.964 Z-0.763 I-0.242 J0.062
X-96.199 Y-13.275 Z-0.876 I0.242 J-0.062
X-95.917 Y-13.027 Z-0.99 I0.031 J0.248
X-96.417 I-0.25
X-95.917 I0.25
G1 X-95.88 Y-12.881 F1000
X-95.893 Y-12.807
X-95.93 Y-12.742
X-96.037 Y-12.637
X-96.182 Y-12.597
X-96.33 Y-12.619
X-96.461 Y-12.693
X-96.557 Y-12.807
X-96.609 Y-12.948
X-96.612 Y-13.098
X-96.564 Y-13.24
X-96.472 Y-13.359
X-96.346 Y-13.44
X-96.201 Y-13.476
X-96.051 Y-13.462
X-95.915 Y-13.4
X-95.806 Y-13.297
X-95.728 Y-13.169
X-95.678 Y-13.027
X-95.667 Y-12.878
X-95.702 Y-12.732
X-95.773 Y-12.599
X-95.881 Y-12.496
X-96.012 Y-12.422
X-96.158 Y-12.389
X-96.308 Y-12.396
X-96.453 Y-12.437
X-96.582 Y-12.513
X-96.689 Y-12.619
X-96.771 Y-12.744
X-96.82 Y-12.886
X-96.835 Y-13.035
X-96.818 Y-13.184
X-96.768 Y-13.325
X-96.685 Y-13.451
X-96.579 Y-13.556
X-96.451 Y-13.635
X-96.309 Y-13.682
X-96.159 Y-13.698
X-96.011 Y-13.68
X-95.87 Y-13.627
X-95.743 Y-13.547
X-95.635 Y-13.444
X-95.547 Y-13.322
X-95.484 Y-13.186
X-95.446 Y-13.041
X-95.438 Y-12.891
X-95.46 Y-12.743
X-95.489 Y-12.661
X-95.51 Y-12.612
X-95.54 Y-12.568
X-95.578 Y-12.53
X-95.613 Y-12.501
X-95.648 Y-12.463
X-95.663 Y-12.447
X-95.68 Y-12.423
X-95.777 Y-12.308
X-95.905 Y-12.23
X-96.047 Y-12.182
X-96.195 Y-12.162
X-96.345 Y-12.169
X-96.491 Y-12.205
X-96.627 Y-12.267
X-96.751 Y-12.352
X-96.859 Y-12.456
X-96.875 Y-12.479
X-96.906 Y-12.533
X-96.925 Y-12.592
X-96.932 Y-12.654
Y-13.253
X-96.924 Y-13.403
X-96.869 Y-13.542
X-96.781 Y-13.664
X-96.67 Y-13.765
X-96.542 Y-13.844
X-96.402 Y-13.898
X-96.255 Y-13.927
X-96.105 Y-13.929
X-95.957 Y-13.908
X-95.924 Y-13.898
X-95.848 Y-13.86
X-95.784 Y-13.803
X-95.74 Y-13.73
X-95.733 Y-13.714
X-95.681 Y-13.629
X-95.648 Y-13.591
X-95.604 Y-13.545
X-95.564 Y-13.514
X-95.517 Y-13.485
X-95.393 Y-13.4
X-95.304 Y-13.28
X-95.245 Y-13.142
X-95.214 Y-12.995
X-95.212 Y-12.905
X-95.235 Y-12.78
X-95.31 Y-12.677
X-95.421 Y-12.616
X-95.479 Y-12.591
X-95.521 Y-12.568
X-95.564 Y-12.541
X-95.578 Y-12.53
X-95.612 Y-12.513
X-95.65 Y-12.509
X-95.687 Y-12.521
X-95.717 Y-12.545
X-95.735 Y-12.58
X-95.739 Y-12.618
X-95.72 Y-12.824
X-95.666 Y-13.407
X-95.655 Y-13.445
X-95.629 Y-13.476
X-95.594 Y-13.494
X-95.555 Y-13.497
X-95.517 Y-13.485
X-95.476 Y-13.46
X-95.435 Y-13.443
X-95.395 Y-13.43
X-95.348 Y-13.42
X-95.276 Y-13.4
X-95.148 Y-13.321
X-95.061 Y-13.199
X-95.01 Y-13.058
X-94.993 Y-12.909
X-94.997 Y-12.889
X-95.05 Y-12.764
X-95.154 Y-12.676
X-95.286 Y-12.642
X-95.321 Y-12.649
X-95.351 Y-12.667
X-95.373 Y-12.695
X-95.384 Y-12.728
X-95.465 Y-13.307
X-95.463 Y-13.345
X-95.447 Y-13.379
X-95.42 Y-13.405
X-95.386 Y-13.419
X-95.348 Y-13.42
X-95.31 Y-13.411
X-95.179 Y-13.409
X-95.104 Y-13.404
X-94.967 Y-13.344
X-94.868 Y-13.231
X-94.805 Y-13.095
X-94.786 Y-12.946
X-94.791 Y-12.905
X-94.843 Y-12.774
X-94.948 Y-12.681
X-95.084 Y-12.646
X-95.286 Y-12.642
X-95.32 Y-12.649
X-95.35 Y-12.667
X-95.372 Y-12.693
X-95.383 Y-12.726
Y-12.761
X-95.275 Y-13.328
X-95.263 Y-13.36
X-95.241 Y-13.386
X-95.212 Y-13.403
X-95.179 Y-13.409
X-95.01 Y-13.407
X-94.972
X-94.897 Y-13.403
X-94.759 Y-13.343
X-94.66 Y-13.231
X-94.598 Y-13.094
X-94.582 Y-12.945
X-94.588 Y-12.902
X-94.641 Y-12.772
X-94.748 Y-12.68
X-94.885 Y-12.646
X-95.084
X-95.118 Y-12.652
X-95.148 Y-12.67
X-95.17 Y-12.698
X-95.181 Y-12.731
X-95.18 Y-12.766
X-95.066 Y-13.327
X-95.054 Y-13.358
X-95.033 Y-13.383
X-95.004 Y-13.4
X-94.972 Y-13.407
X-94.756
X-94.681 Y-13.403
X-94.546 Y-13.338
X-94.449 Y-13.224
X-94.39 Y-13.086
X-94.378 Y-12.936
X-94.385 Y-12.896
X-94.439 Y-12.768
X-94.545 Y-12.679
X-94.68 Y-12.646
X-94.885
X-94.919 Y-12.654
X-94.949 Y-12.673
X-94.97 Y-12.7
X-94.981 Y-12.734
X-94.979 Y-12.769
X-94.85 Y-13.329
X-94.837 Y-13.359
X-94.816 Y-13.384
X-94.788 Y-13.4
X-94.756 Y-13.407
X-94.549
X-94.474 Y-13.403
X-94.338 Y-13.338
X-94.242 Y-13.223
X-94.185 Y-13.084
X-94.173 Y-12.935
X-94.18 Y-12.895
X-94.234 Y-12.768
X-94.34 Y-12.678
X-94.475 Y-12.646
X-94.68
X-94.715 Y-12.654
X-94.745 Y-12.673
X-94.766 Y-12.701
X-94.776 Y-12.734
X-94.774 Y-12.769
X-94.642 Y-13.33
X-94.63 Y-13.36
X-94.608 Y-13.384
X-94.58 Y-13.4
X-94.549 Y-13.407
X-94.333
X-94.258 Y-13.403
X-94.126 Y-13.332
X-94.032 Y-13.215
X-93.977 Y-13.075
X-93.968 Y-12.926
X-93.975 Y-12.889
X-94.031 Y-12.765
X-94.136 Y-12.678
X-94.269 Y-12.646
X-94.475
X-94.51 Y-12.654
X-94.54 Y-12.673
X-94.561 Y-12.702
X-94.571 Y-12.736
X-94.569 Y-12.771
X-94.426 Y-13.331
X-94.413 Y-13.361
X-94.392 Y-13.385
X-94.364 Y-13.401
X-94.333 Y-13.407
X-94.126
X-94.051 Y-13.403
X-93.919 Y-13.332
X-93.826 Y-13.214
X-93.771 Y-13.074
X-93.762 Y-12.925
X-93.769 Y-12.889
X-93.825 Y-12.764
X-93.93 Y-12.678
X-94.063 Y-12.646
X-94.269
X-94.304 Y-12.654
X-94.334 Y-12.673
X-94.355 Y-12.702
X-94.365 Y-12.736
X-94.363 Y-12.771
X-94.219 Y-13.332
X-94.206 Y-13.361
X-94.185 Y-13.385
X-94.157 Y-13.401
X-94.126 Y-13.407
X-93.956
X-93.881 Y-13.403
X-93.739 Y-13.355
X-93.636 Y-13.247
X-93.573 Y-13.111
X-93.553 Y-12.962
X-93.559 Y-12.909
X-93.611 Y-12.775
X-93.718 Y-12.681
X-93.857 Y-12.646
X-94.063
X-94.097 Y-12.654
X-94.126 Y-12.672
X-94.148 Y-12.698
X-94.159 Y-12.731
X-94.158 Y-12.765
X-94.051 Y-13.326
X-94.039 Y-13.357
X-94.018 Y-13.383
X-93.989 Y-13.4
X-93.956 Y-13.407
X-93.741
X-93.666 Y-13.403
X-93.526 Y-13.348
X-93.426 Y-13.236
X-93.365 Y-13.099
X-93.349 Y-12.95
X-93.356 Y-12.904
X-93.408 Y-12.773
X-93.515 Y-12.68
X-93.653 Y-12.646
X-93.857
X-93.891 Y-12.654
X-93.92 Y-12.672
X-93.942 Y-12.699
X-93.953 Y-12.732
X-93.952 Y-12.767
X-93.835 Y-13.327
X-93.823 Y-13.358
X-93.802 Y-13.383
X-93.773 Y-13.4
X-93.741 Y-13.407
X-93.533
X-93.458 Y-13.403
X-93.32 Y-13.346
X-93.22 Y-13.234
X-93.16 Y-13.097
X-93.144 Y-12.948
X-93.151 Y-12.902
X-93.204 Y-12.772
X-93.311 Y-12.68
X-93.448 Y-12.646
X-93.653
X-93.687 Y-12.654
X-93.716 Y-12.672
X-93.738 Y-12.699
X-93.748 Y-12.733
X-93.747 Y-12.767
X-93.628 Y-13.328
X-93.616 Y-13.358
X-93.594 Y-13.383
X-93.566 Y-13.4
X-93.533 Y-13.407
X-93.318
X-93.243 Y-13.403
X-93.107 Y-13.34
X-93.01 Y-13.225
X-92.953 Y-13.086
X-92.94 Y-12.937
X-92.947 Y-12.895
X-93.002 Y-12.766
X-93.11 Y-12.676
X-93.247 Y-12.645
X-93.448 Y-12.646
X-93.482 Y-12.654
X-93.512 Y-12.673
X-93.533 Y-12.7
X-93.544 Y-12.734
X-93.542 Y-12.769
X-93.411 Y-13.33
X-93.399 Y-13.36
X-93.378 Y-13.384
X-93.349 Y-13.4
X-93.318 Y-13.407
X-93.11
X-93.035 Y-13.402
X-92.9 Y-13.337
X-92.804 Y-13.222
X-92.747 Y-13.084
X-92.735 Y-12.934
X-92.743 Y-12.89
X-92.8 Y-12.76
X-92.91 Y-12.67
X-93.049 Y-12.641
X-93.11 Y-12.644
X-93.247 Y-12.645
X-93.281 Y-12.653
X-93.31 Y-12.672
X-93.331 Y-12.7
X-93.341 Y-12.734
X-93.339 Y-12.769
X-93.204 Y-13.33
X-93.192 Y-13.36
X-93.17 Y-13.384
X-93.142 Y-13.4
X-93.11 Y-13.407
X-93.026 Y-13.406
X-92.895 Y-13.401
X-92.82 Y-13.395
X-92.687 Y-13.326
X-92.594 Y-13.208
X-92.539 Y-13.069
X-92.531 Y-12.919
X-92.54 Y-12.875
X-92.6 Y-12.744
X-92.714 Y-12.656
X-92.857 Y-12.63
X-93.049 Y-12.641
X-93.083 Y-12.65
X-93.112 Y-12.67
X-93.132 Y-12.698
X-93.142 Y-12.732
X-93.139 Y-12.767
X-92.991 Y-13.327
X-92.978 Y-13.356
X-92.955 Y-13.38
X-92.927 Y-13.396
X-92.895 Y-13.401
X-92.772 Y-13.397
X-92.687 Y-13.39
X-92.613 Y-13.381
X-92.479 Y-13.313
X-92.386 Y-13.195
X-92.334 Y-13.055
X-92.327 Y-12.905
X-92.357 Y-12.758
X-92.359 Y-12.755
X-92.438 Y-12.664
X-92.547 Y-12.612
X-92.667 Y-12.606
X-92.772 Y-12.623
X-92.857 Y-12.63
X-92.889 Y-12.64
X-92.917 Y-12.66
X-92.936 Y-12.689
X-92.944 Y-12.722
X-92.941 Y-12.756
X-92.788 Y-13.317
X-92.774 Y-13.347
X-92.751 Y-13.371
X-92.721 Y-13.386
X-92.687 Y-13.39
X-92.5 Y-13.376
X-92.463 Y-13.372
X-92.389 Y-13.36
X-92.26 Y-13.285
X-92.173 Y-13.162
X-92.126 Y-13.02
X-92.114 Y-12.87
X-92.148 Y-12.724
X-92.231 Y-12.628
X-92.343 Y-12.576
X-92.467 Y-12.573
X-92.518 Y-12.582
X-92.667 Y-12.606
X-92.699 Y-12.618
X-92.724 Y-12.639
X-92.741 Y-12.668
X-92.748 Y-12.701
X-92.743 Y-12.734
X-92.566 Y-13.302
X-92.551 Y-13.332
X-92.527 Y-13.355
X-92.496 Y-13.369
X-92.463 Y-13.372
X-92.264 Y-13.35
X-92.19 Y-13.338
X-92.058 Y-13.268
X-91.969 Y-13.147
X-91.916 Y-13.006
X-91.902 Y-12.857
X-91.931 Y-12.71
X-91.942 Y-12.686
X-92.032 Y-12.579
X-92.16 Y-12.525
X-92.299 Y-12.534
X-92.349 Y-12.549
X-92.434 Y-12.567
X-92.467 Y-12.573
X-92.497 Y-12.585
X-92.522 Y-12.606
X-92.538 Y-12.635
X-92.545 Y-12.667
X-92.541 Y-12.699
X-92.368 Y-13.279
X-92.353 Y-13.309
X-92.328 Y-13.333
X-92.298 Y-13.347
X-92.264 Y-13.35
X-92.049 Y-13.326
X-91.975 Y-13.314
X-91.844 Y-13.24
X-91.756 Y-13.119
X-91.705 Y-12.978
X-91.69 Y-12.829
X-91.718 Y-12.681
X-91.781 Y-12.545
X-91.791 Y-12.535
X-91.891 Y-12.463
X-92.011 Y-12.438
X-92.132 Y-12.463
X-92.264 Y-12.521
X-92.299 Y-12.534
X-92.333 Y-12.553
X-92.357 Y-12.585
X-92.366 Y-12.622
X-92.361 Y-12.661
X-92.15 Y-13.26
X-92.135 Y-13.288
X-92.111 Y-13.31
X-92.081 Y-13.323
X-92.049 Y-13.326
X-91.926 Y-13.313
X-91.841 Y-13.299
X-91.695 Y-13.267
X-91.584 Y-13.166
X-91.513 Y-13.033
X-91.481 Y-12.887
X-91.482 Y-12.737
X-91.512 Y-12.59
X-91.583 Y-12.458
X-91.596 Y-12.443
X-91.704 Y-12.369
X-91.833 Y-12.347
X-91.96 Y-12.383
X-92.011 Y-12.41
X-92.132 Y-12.463
X-92.161 Y-12.485
X-92.181 Y-12.516
X-92.188 Y-12.552
X-92.182 Y-12.588
X-92.17 Y-12.622
X-91.948 Y-13.234
X-91.932 Y-13.263
X-91.906 Y-13.285
X-91.875 Y-13.297
X-91.841 Y-13.299
X-91.672 Y-13.27
X-91.63 Y-13.26
X-91.529 Y-13.22
X-91.461 Y-13.189
X-91.355 Y-13.083
X-91.292 Y-12.947
X-91.266 Y-12.8
X-91.271 Y-12.65
X-91.306 Y-12.504
X-91.378 Y-12.372
X-91.408 Y-12.338
X-91.519 Y-12.261
X-91.653 Y-12.24
X-91.783 Y-12.28
X-91.926 Y-12.364
X-91.96 Y-12.383
X-91.988 Y-12.408
X-92.005 Y-12.442
X-92.009 Y-12.479
X-91.998 Y-12.516
X-91.951 Y-12.604
X-91.652 Y-13.173
X-91.63 Y-13.201
X-91.599 Y-13.22
X-91.565 Y-13.226
X-91.529 Y-13.22
X-91.334 Y-13.142
X-91.198 Y-13.079
X-91.109 Y-12.958
X-91.062 Y-12.815
X-91.049 Y-12.666
X-91.068 Y-12.517
X-91.115 Y-12.375
X-91.195 Y-12.248
X-91.231 Y-12.212
X-91.349 Y-12.138
X-91.488 Y-12.126
X-91.617 Y-12.177
X-91.639 Y-12.193
X-91.757 Y-12.265
X-91.783 Y-12.28
X-91.81 Y-12.306
X-91.826 Y-12.339
X-91.828 Y-12.376
X-91.817 Y-12.412
X-91.756 Y-12.527
X-91.456 Y-13.095
X-91.434 Y-13.123
X-91.404 Y-13.141
X-91.369 Y-13.148
X-91.334 Y-13.142
X-91.118 Y-13.054
X-91.08 Y-13.039
X-91.078 Y-13.038
X-91.013 Y-13
X-90.913 Y-12.888
X-90.859 Y-12.748
X-90.842 Y-12.599
X-90.855 Y-12.45
X-90.897 Y-12.306
X-90.968 Y-12.174
X-91.066 Y-12.06
X-91.107 Y-12.032
X-91.243 Y-11.983
X-91.386 Y-12.002
X-91.503 Y-12.087
X-91.526 Y-12.109
X-91.588 Y-12.157
X-91.617 Y-12.177
X-91.642 Y-12.205
X-91.655 Y-12.24
X-91.654 Y-12.277
X-91.64 Y-12.312
X-91.549 Y-12.452
X-91.196 Y-12.998
X-91.174 Y-13.023
X-91.144 Y-13.039
X-91.111 Y-13.044
X-91.078 Y-13.038
X-90.995 Y-12.995
X-90.864 Y-12.92
X-90.738 Y-12.839
X-90.668 Y-12.706
X-90.637 Y-12.56
X-90.638 Y-12.41
X-90.669 Y-12.263
X-90.727 Y-12.124
X-90.808 Y-11.998
X-90.917 Y-11.895
X-91.045 Y-11.816
X-91.055 Y-11.814
X-91.172 Y-11.806
X-91.283 Y-11.844
X-91.371 Y-11.921
X-91.45 Y-12.024
X-91.503 Y-12.087
X-91.519 Y-12.116
X-91.524 Y-12.148
X-91.519 Y-12.18
X-91.504 Y-12.209
X-91.378 Y-12.377
X-90.991 Y-12.892
X-90.965 Y-12.915
X-90.933 Y-12.929
X-90.898 Y-12.931
X-90.864 Y-12.92
X-90.657 Y-12.801
X-90.628 Y-12.784
X-90.597 Y-12.767
X-90.567 Y-12.745
X-90.541 Y-12.722
X-90.519 Y-12.696
X-90.503 Y-12.663
X-90.501 Y-12.626
X-90.511 Y-12.591
X-90.534 Y-12.563
X-90.565 Y-12.544
X-90.602 Y-12.538
X-90.637 Y-12.545
X-90.668 Y-12.565
X-90.712 Y-12.605
X-90.733 Y-12.634
X-90.743 Y-12.668
X-90.741 Y-12.704
X-90.725 Y-12.736
X-90.7 Y-12.761
X-90.667 Y-12.776
X-90.631 Y-12.778
X-90.597 Y-12.767
X-90.572 Y-12.753
X-90.557 Y-12.742
X-90.542 Y-12.726
X-90.503 Y-12.676
X-90.46 Y-12.614
X-90.429 Y-12.467
X-90.431 Y-12.317
X-90.46 Y-12.17
X-90.512 Y-12.029
X-90.588 Y-11.9
X-90.685 Y-11.786
X-90.799 Y-11.689
X-90.934 Y-11.623
X-91.055
X-91.166 Y-11.671
X-91.249 Y-11.759
X-91.354 Y-11.899
X-91.371 Y-11.921
X-91.386 Y-11.954
X-91.389 Y-11.99
X-91.378 Y-12.025
X-91.356 Y-12.054
X-91.113 Y-12.27
X-90.647 Y-12.686
X-90.62 Y-12.704
X-90.589 Y-12.711
X-90.557 Y-12.709
X-90.527 Y-12.697
X-90.503 Y-12.676
X-90.371 Y-12.506
X-90.286 Y-12.382
X-90.256 Y-12.235
X-90.266 Y-12.086
X-90.306 Y-11.941
X-90.371 Y-11.806
X-90.456 Y-11.682
X-90.56 Y-11.575
X-90.68 Y-11.485
X-90.819 Y-11.427
X-90.837 Y-11.424
X-90.961 Y-11.431
X-91.071 Y-11.487
X-91.149 Y-11.583
X-91.204 Y-11.686
X-91.249 Y-11.759
X-91.26 Y-11.791
X-91.261 Y-11.825
X-91.249 Y-11.857
X-91.228 Y-11.883
X-90.982 Y-12.102
X-90.515 Y-12.516
X-90.488 Y-12.534
X-90.457 Y-12.541
X-90.425 Y-12.539
X-90.396 Y-12.527
X-90.371 Y-12.506
X-90.234 Y-12.328
X-90.196 Y-12.278
X-90.134 Y-12.141
X-90.107 Y-11.994
X-90.125 Y-11.845
X-90.174 Y-11.703
X-90.247 Y-11.572
X-90.34 Y-11.455
X-90.451 Y-11.354
X-90.577 Y-11.272
X-90.718 Y-11.221
X-90.743 Y-11.218
X-90.868 Y-11.229
X-90.976 Y-11.289
X-91.051 Y-11.389
X-91.072 Y-11.433
X-91.149 Y-11.583
X-91.158 Y-11.615
X-91.156 Y-11.649
X-91.142 Y-11.681
X-91.119 Y-11.705
X-90.839 Y-11.915
X-90.334 Y-12.295
X-90.3 Y-12.311
X-90.262 Y-12.314
X-90.225 Y-12.302
X-90.196 Y-12.278
X-90.109 Y-12.109
X-90.042 Y-11.977
X-89.98 Y-11.84
Y-11.69
X-90.02 Y-11.545
X-90.087 Y-11.411
X-90.176 Y-11.29
X-90.281 Y-11.184
X-90.403 Y-11.096
X-90.538 Y-11.032
X-90.685 Y-10.998
X-90.717 Y-10.999
X-90.844 Y-11.033
X-90.945 Y-11.118
X-91 Y-11.238
X-91.006 Y-11.264
X-91.018 Y-11.306
X-91.033 Y-11.349
X-91.051 Y-11.389
X-91.059 Y-11.424
X-91.054 Y-11.459
X-91.038 Y-11.49
X-91.011 Y-11.514
X-90.716 Y-11.692
X-90.18 Y-12.014
X-90.151 Y-12.026
X-90.119 Y-12.028
X-90.088 Y-12.02
X-90.061 Y-12.002
X-90.042 Y-11.977
X-89.936 Y-11.771
X-89.928 Y-11.75
X-89.922 Y-11.729
X-89.904 Y-11.64
X-89.882 Y-11.492
X-89.908 Y-11.344
X-89.97 Y-11.207
X-90.057 Y-11.085
X-90.163 Y-10.979
X-90.284 Y-10.891
X-90.418 Y-10.823
X-90.562 Y-10.783
X-90.712 Y-10.775
X-90.728 Y-10.779
X-90.833 Y-10.826
X-90.914 Y-10.909
X-90.956 Y-11.016
X-90.971 Y-11.095
X-91 Y-11.238
Y-11.272
X-90.989 Y-11.304
X-90.968 Y-11.33
X-90.939 Y-11.348
X-90.608 Y-11.481
X-90.039 Y-11.71
X-90.005 Y-11.717
X-89.971 Y-11.712
X-89.941 Y-11.697
X-89.918 Y-11.671
X-89.904 Y-11.64
X-89.837 Y-11.302
X-89.815 Y-11.154
X-89.865 Y-11.012
X-89.947 Y-10.886
X-90.049 Y-10.777
X-90.168 Y-10.686
X-90.3 Y-10.614
X-90.442 Y-10.565
X-90.59 Y-10.543
X-90.65 Y-10.548
X-90.784 Y-10.592
X-90.883 Y-10.693
X-90.925 Y-10.828
X-90.926 Y-10.842
X-90.94 Y-10.926
X-90.956 Y-11.016
X-90.955 Y-11.053
X-90.941 Y-11.086
X-90.916 Y-11.112
X-90.884 Y-11.128
X-90.564 Y-11.214
X-89.96 Y-11.376
X-89.928 Y-11.379
X-89.897 Y-11.372
X-89.87 Y-11.356
X-89.849 Y-11.332
X-89.837 Y-11.302
X-89.811 Y-11.17
X-89.805 Y-11.095
X-89.798 Y-10.964
X-89.796 Y-10.814
X-89.865 Y-10.681
X-89.963 Y-10.567
X-90.079 Y-10.472
X-90.209 Y-10.397
X-90.348 Y-10.342
X-90.496 Y-10.314
X-90.646 Y-10.317
X-90.688 Y-10.328
X-90.799 Y-10.384
X-90.877 Y-10.48
X-90.91 Y-10.6
X-90.925 Y-10.828
X-90.919 Y-10.864
X-90.901 Y-10.896
X-90.873 Y-10.919
X-90.838 Y-10.93
X-90.529 Y-10.971
X-89.91 Y-11.054
X-89.878 Y-11.053
X-89.848 Y-11.042
X-89.823 Y-11.022
X-89.806 Y-10.995
X-89.798 Y-10.964
X-89.784 Y-10.711
X-89.783 Y-10.561
X-89.846 Y-10.425
X-89.944 Y-10.311
X-90.062 Y-10.218
X-90.195 Y-10.149
X-90.337 Y-10.102
X-90.485 Y-10.077
X-90.635 Y-10.085
X-90.689 Y-10.1
X-90.805 Y-10.16
X-90.885 Y-10.265
X-90.912 Y-10.393
X-90.91 Y-10.588
Y-10.6
X-90.905 Y-10.636
X-90.886 Y-10.668
X-90.857 Y-10.691
X-90.821 Y-10.702
X-90.517 Y-10.735
X-89.894 Y-10.802
X-89.855 Y-10.798
X-89.82 Y-10.779
X-89.795 Y-10.749
X-89.784 Y-10.711
X-89.777 Y-10.588
X-89.78 Y-10.419
X-89.791 Y-10.27
X-89.863 Y-10.138
X-89.969 Y-10.032
X-90.093 Y-9.949
X-90.231 Y-9.888
X-90.376 Y-9.852
X-90.526 Y-9.84
X-90.674 Y-9.86
X-90.722 Y-9.876
X-90.833 Y-9.945
X-90.904 Y-10.054
X-90.923 Y-10.183
X-90.917 Y-10.25
X-90.913 Y-10.335
X-90.912 Y-10.393
X-90.903 Y-10.43
X-90.882 Y-10.46
X-90.851 Y-10.481
X-90.815 Y-10.489
X-90.51 Y-10.498
X-89.883 Y-10.518
X-89.845 Y-10.511
X-89.811 Y-10.49
X-89.789 Y-10.458
X-89.78 Y-10.419
X-89.782 Y-10.335
X-89.786 Y-10.25
X-89.795 Y-10.12
X-89.812 Y-9.971
X-89.899 Y-9.848
X-90.014 Y-9.752
X-90.145 Y-9.679
X-90.287 Y-9.63
X-90.435 Y-9.606
X-90.585
X-90.732 Y-9.638
X-90.773 Y-9.656
X-90.88 Y-9.737
X-90.941 Y-9.857
X-90.943 Y-9.991
X-90.93 Y-10.082
X-90.923 Y-10.183
X-90.911 Y-10.218
X-90.888 Y-10.248
X-90.855 Y-10.266
X-90.818 Y-10.271
X-90.519 Y-10.256
X-89.889 Y-10.223
X-89.852 Y-10.213
X-89.821 Y-10.191
X-89.801 Y-10.158
X-89.795 Y-10.12
X-89.804 Y-9.997
X-89.823 Y-9.828
X-89.836 Y-9.754
X-89.907 Y-9.622
X-90.017 Y-9.52
X-90.147 Y-9.446
X-90.289 Y-9.396
X-90.437 Y-9.371
X-90.587 Y-9.369
X-90.734 Y-9.396
X-90.873 Y-9.453
X-90.882 Y-9.46
X-90.956 Y-9.544
X-90.995 Y-9.649
X-90.992 Y-9.761
X-90.943 Y-9.991
X-90.928 Y-10.024
X-90.902 Y-10.05
X-90.869 Y-10.064
X-90.832 Y-10.066
X-90.537 Y-10.024
X-89.909 Y-9.935
X-89.874 Y-9.923
X-89.845 Y-9.899
X-89.828 Y-9.865
X-89.823 Y-9.828
X-89.833 Y-9.744
X-89.85 Y-9.659
X-89.868 Y-9.575
X-89.907 Y-9.43
X-90.003 Y-9.315
X-90.128 Y-9.231
X-90.266 Y-9.173
X-90.412 Y-9.139
X-90.562 Y-9.13
X-90.711 Y-9.146
X-90.855 Y-9.188
X-90.912 Y-9.22
X-90.998 Y-9.292
X-91.051 Y-9.391
X-91.064 Y-9.502
X-91.035 Y-9.61
X-91.027 Y-9.628
X-91.023 Y-9.638
X-90.995 Y-9.745
X-90.992 Y-9.761
X-90.976 Y-9.795
X-90.95 Y-9.82
X-90.916 Y-9.834
X-90.879 Y-9.836
X-90.569 Y-9.787
X-89.951 Y-9.691
X-89.914 Y-9.678
X-89.885 Y-9.651
X-89.869 Y-9.614
X-89.868 Y-9.575
X-89.923 Y-9.321
X-89.932 Y-9.279
X-89.937 Y-9.258
X-89.948 Y-9.232
X-89.954 Y-9.22
X-89.977 Y-9.192
X-90.009 Y-9.175
X-90.045 Y-9.17
X-90.081 Y-9.178
X-90.111 Y-9.199
X-90.132 Y-9.229
X-90.14 Y-9.265
X-90.135 Y-9.301
X-90.118 Y-9.333
X-90.113 Y-9.339
X-90.084 Y-9.363
X-90.049 Y-9.375
X-90.011 Y-9.373
X-89.977 Y-9.358
X-89.951 Y-9.33
X-89.937 Y-9.296
Y-9.258
X-89.94 Y-9.247
X-89.945 Y-9.237
X-89.964 Y-9.2
X-90.041 Y-9.071
X-90.165 Y-8.987
X-90.305 Y-8.932
X-90.452 Y-8.902
X-90.601 Y-8.895
X-90.751 Y-8.909
X-90.894 Y-8.952
X-91.027 Y-9.021
X-91.066 Y-9.055
X-91.142 Y-9.163
X-91.166 Y-9.293
X-91.131 Y-9.42
X-91.08 Y-9.517
X-91.035 Y-9.61
X-91.013 Y-9.638
X-90.983 Y-9.657
X-90.948 Y-9.664
X-90.913 Y-9.658
X-90.602 Y-9.546
X-90.02 Y-9.337
X-89.991 Y-9.321
X-89.969 Y-9.296
X-89.957 Y-9.265
X-89.955 Y-9.232
X-89.964 Y-9.2
X-90.093 Y-8.958
X-90.17 Y-8.829
X-90.292 Y-8.743
X-90.433 Y-8.691
X-90.581 Y-8.667
X-90.731 Y-8.669
X-90.879 Y-8.697
X-91.02 Y-8.747
X-91.147 Y-8.827
X-91.177 Y-8.857
X-91.252 Y-8.971
X-91.272 Y-9.106
X-91.232 Y-9.237
X-91.183 Y-9.321
X-91.131 Y-9.42
X-91.107 Y-9.448
X-91.076 Y-9.465
X-91.04 Y-9.47
X-91.005 Y-9.462
X-90.716 Y-9.339
X-90.143 Y-9.094
X-90.116 Y-9.076
X-90.096 Y-9.051
X-90.084 Y-9.021
X-90.083 Y-8.989
X-90.093 Y-8.958
X-90.191 Y-8.772
X-90.203 Y-8.751
X-90.217 Y-8.73
X-90.261 Y-8.674
X-90.36 Y-8.561
X-90.492 Y-8.49
X-90.638 Y-8.456
X-90.788 Y-8.451
X-90.936 Y-8.471
X-91.08 Y-8.516
X-91.212 Y-8.587
X-91.326 Y-8.684
X-91.358 Y-8.729
X-91.408 Y-8.847
X-91.404 Y-8.974
X-91.348 Y-9.088
X-91.249 Y-9.214
X-91.232 Y-9.237
X-91.206 Y-9.26
X-91.174 Y-9.272
X-91.139 Y-9.273
X-91.106 Y-9.262
X-90.835 Y-9.115
X-90.294 Y-8.821
X-90.268 Y-8.8
X-90.25 Y-8.771
X-90.242 Y-8.738
X-90.246 Y-8.705
X-90.261 Y-8.674
X-90.462 Y-8.419
X-90.56 Y-8.305
X-90.701 Y-8.256
X-90.851 Y-8.24
X-91 Y-8.253
X-91.145 Y-8.291
X-91.282 Y-8.353
X-91.405 Y-8.438
X-91.507 Y-8.549
X-91.521 Y-8.573
X-91.558 Y-8.688
X-91.547 Y-8.809
X-91.489 Y-8.916
X-91.431 Y-8.984
X-91.348 Y-9.088
X-91.319 Y-9.112
X-91.283 Y-9.123
X-91.246 Y-9.12
X-91.212 Y-9.104
X-90.987 Y-8.935
X-90.482 Y-8.558
X-90.457 Y-8.529
X-90.443 Y-8.493
X-90.445 Y-8.454
X-90.462 Y-8.419
X-90.549 Y-8.308
X-90.56 Y-8.295
X-90.572 Y-8.286
X-90.741 Y-8.178
X-90.775 Y-8.156
X-90.906 Y-8.083
X-91.055 Y-8.065
X-91.204 Y-8.083
X-91.347 Y-8.13
X-91.478 Y-8.202
X-91.595 Y-8.297
X-91.667 Y-8.39
X-91.722 Y-8.502
X-91.725 Y-8.626
X-91.678 Y-8.741
X-91.588 Y-8.826
X-91.545 Y-8.859
X-91.503 Y-8.899
X-91.489 Y-8.916
X-91.463 Y-8.936
X-91.432 Y-8.947
X-91.4
X-91.369 Y-8.937
X-91.343 Y-8.918
X-91.182 Y-8.75
X-90.759 Y-8.308
X-90.74 Y-8.279
X-90.732 Y-8.246
X-90.735 Y-8.211
X-90.751 Y-8.18
X-90.775 Y-8.156
X-90.995 Y-8.018
X-91.042 Y-7.992
X-91.08 Y-7.971
X-91.22 Y-7.917
X-91.369 Y-7.927
X-91.512 Y-7.972
X-91.644 Y-8.044
X-91.759 Y-8.14
X-91.854 Y-8.257
X-91.915 Y-8.393
X-91.918 Y-8.406
X-91.913 Y-8.528
X-91.861 Y-8.638
X-91.768 Y-8.718
X-91.636 Y-8.797
X-91.588 Y-8.826
X-91.557 Y-8.837
X-91.525 Y-8.838
X-91.495 Y-8.829
X-91.468 Y-8.81
X-91.449 Y-8.784
X-91.376 Y-8.639
X-91.091 Y-8.081
X-91.081 Y-8.043
X-91.085 Y-8.004
X-91.105 Y-7.97
X-91.136 Y-7.946
X-91.334 Y-7.857
X-91.473 Y-7.803
X-91.623 Y-7.817
X-91.763 Y-7.872
X-91.888 Y-7.955
X-91.992 Y-8.062
X-92.075 Y-8.187
X-92.124 Y-8.33
X-92.108 Y-8.445
X-92.05 Y-8.545
X-91.958 Y-8.616
X-91.926 Y-8.632
X-91.801 Y-8.7
X-91.768 Y-8.718
X-91.731 Y-8.729
X-91.692 Y-8.724
X-91.658 Y-8.705
X-91.633 Y-8.674
X-91.571 Y-8.552
X-91.288 Y-7.992
X-91.278 Y-7.954
X-91.283 Y-7.915
X-91.302 Y-7.881
X-91.334 Y-7.857
X-91.545 Y-7.763
X-91.566 Y-7.754
X-91.588 Y-7.748
X-91.634 Y-7.739
X-91.783 Y-7.719
X-91.928 Y-7.756
X-92.058 Y-7.83
X-92.17 Y-7.93
X-92.259 Y-8.051
X-92.316 Y-8.19
X-92.32 Y-8.219
X-92.31 Y-8.35
X-92.244 Y-8.464
X-92.136 Y-8.539
X-92.011 Y-8.59
X-91.958 Y-8.616
X-91.926 Y-8.624
X-91.894 Y-8.622
X-91.864 Y-8.61
X-91.839 Y-8.588
X-91.823 Y-8.56
X-91.78 Y-8.447
X-91.562 Y-7.872
X-91.556 Y-7.839
X-91.561 Y-7.805
X-91.577 Y-7.775
X-91.603 Y-7.752
X-91.634 Y-7.739
X-91.926 Y-7.688
X-92.075 Y-7.676
X-92.217 Y-7.724
X-92.339 Y-7.812
X-92.437 Y-7.925
X-92.504 Y-8.06
X-92.517 Y-8.12
X-92.512 Y-8.267
X-92.438 Y-8.393
X-92.313 Y-8.47
X-92.292 Y-8.477
X-92.264 Y-8.487
X-92.136 Y-8.539
X-92.103 Y-8.545
X-92.069 Y-8.54
X-92.04 Y-8.524
X-92.017 Y-8.499
X-92.004 Y-8.468
X-91.992 Y-8.418
X-91.849 Y-7.809
X-91.848 Y-7.769
X-91.862 Y-7.732
X-91.89 Y-7.704
X-91.926 Y-7.688
X-92.226 Y-7.648
X-92.301 Y-7.642
X-92.445 Y-7.684
X-92.565 Y-7.774
X-92.658 Y-7.892
X-92.713 Y-8.031
X-92.733 Y-8.18
Y-8.184
X-92.689 Y-8.299
X-92.602 Y-8.387
X-92.488 Y-8.432
X-92.434 Y-8.442
X-92.349 Y-8.459
X-92.313 Y-8.47
X-92.278 Y-8.473
X-92.244 Y-8.464
X-92.215 Y-8.444
X-92.195 Y-8.415
X-92.187 Y-8.381
X-92.143 Y-7.754
X-92.147 Y-7.718
X-92.164 Y-7.685
X-92.192 Y-7.661
X-92.226 Y-7.648
X-92.434 Y-7.622
X-92.583 Y-7.612
X-92.719 Y-7.677
X-92.824 Y-7.784
X-92.898 Y-7.914
X-92.941 Y-8.058
Y-8.107
X-92.907 Y-8.243
X-92.815 Y-8.349
X-92.685 Y-8.402
X-92.518 Y-8.427
X-92.488 Y-8.432
X-92.455 Y-8.431
X-92.424 Y-8.42
X-92.398 Y-8.398
X-92.381 Y-8.37
X-92.374 Y-8.337
X-92.35 Y-7.724
X-92.355 Y-7.689
X-92.372 Y-7.657
X-92.4 Y-7.634
X-92.434 Y-7.622
X-92.518 Y-7.612
X-92.687 Y-7.6
X-92.762 Y-7.599
X-92.906 Y-7.641
X-93.02 Y-7.739
X-93.102 Y-7.865
X-93.143 Y-8.009
X-93.148 Y-8.159
X-93.146 Y-8.165
X-93.089 Y-8.274
X-92.993 Y-8.35
X-92.874 Y-8.381
X-92.772 Y-8.389
X-92.685 Y-8.402
X-92.651 Y-8.4
X-92.619 Y-8.387
X-92.594 Y-8.363
X-92.578 Y-8.333
X-92.574 Y-8.299
X-92.598 Y-7.696
X-92.605 Y-7.661
X-92.625 Y-7.632
X-92.653 Y-7.61
X-92.687 Y-7.6
X-92.772 Y-7.595
X-92.941 Y-7.593
X-93.016 Y-7.597
X-93.155 Y-7.653
X-93.259 Y-7.761
X-93.327 Y-7.895
X-93.363 Y-8.041
X-93.359 Y-8.094
X-93.313 Y-8.232
X-93.209 Y-8.332
X-93.069 Y-8.372
X-93.026 Y-8.373
X-92.874 Y-8.381
X-92.84 Y-8.376
X-92.81 Y-8.36
X-92.788 Y-8.335
X-92.775 Y-8.303
X-92.773 Y-8.269
X-92.846 Y-7.681
X-92.856 Y-7.647
X-92.877 Y-7.62
X-92.907 Y-7.601
X-92.941 Y-7.593
X-93.157
X-93.232 Y-7.596
X-93.37 Y-7.654
X-93.473 Y-7.763
X-93.542 Y-7.896
X-93.566 Y-8.044
X-93.561 Y-8.096
X-93.513 Y-8.234
X-93.406 Y-8.332
X-93.265 Y-8.369
X-93.11 Y-8.37
X-93.069 Y-8.372
X-93.035 Y-8.366
X-93.006 Y-8.349
X-92.983 Y-8.323
X-92.971 Y-8.29
Y-8.256
X-93.062 Y-7.677
X-93.073 Y-7.645
X-93.094 Y-7.618
X-93.123 Y-7.6
X-93.157 Y-7.593
X-93.364
X-93.439 Y-7.596
X-93.579 Y-7.65
X-93.683 Y-7.759
X-93.749 Y-7.893
X-93.77 Y-8.042
X-93.765 Y-8.097
X-93.716 Y-8.235
X-93.608 Y-8.332
X-93.466 Y-8.368
X-93.265 Y-8.369
X-93.232 Y-8.362
X-93.202 Y-8.344
X-93.181 Y-8.318
X-93.169 Y-8.286
Y-8.252
X-93.269 Y-7.676
X-93.28 Y-7.644
X-93.302 Y-7.617
X-93.331 Y-7.6
X-93.364 Y-7.593
X-93.58
X-93.655 Y-7.596
X-93.793 Y-7.654
X-93.894 Y-7.765
X-93.957 Y-7.901
X-93.975 Y-8.05
X-93.969 Y-8.103
X-93.918 Y-8.238
X-93.811 Y-8.333
X-93.671 Y-8.368
X-93.466
X-93.433 Y-8.361
X-93.403 Y-8.343
X-93.382 Y-8.316
X-93.371 Y-8.283
X-93.372 Y-8.248
X-93.485 Y-7.673
X-93.497 Y-7.642
X-93.519 Y-7.617
X-93.547 Y-7.599
X-93.58 Y-7.593
X-93.787
X-93.862 Y-7.596
X-94.001 Y-7.653
X-94.101 Y-7.765
X-94.163 Y-7.902
X-94.181 Y-8.05
X-94.175 Y-8.104
X-94.124 Y-8.238
X-94.016 Y-8.333
X-93.877 Y-8.368
X-93.671
X-93.637 Y-8.361
X-93.608 Y-8.342
X-93.587 Y-8.315
X-93.576 Y-8.283
X-93.577 Y-8.248
X-93.693 Y-7.673
X-93.704 Y-7.642
X-93.726 Y-7.616
X-93.755 Y-7.599
X-93.787 Y-7.593
X-94.003
X-94.078 Y-7.596
X-94.214 Y-7.659
X-94.312 Y-7.773
X-94.371 Y-7.911
X-94.387 Y-8.06
X-94.38 Y-8.109
X-94.328 Y-8.241
X-94.221 Y-8.334
X-94.083 Y-8.368
X-93.877
X-93.843 Y-8.36
X-93.813 Y-8.342
X-93.792 Y-8.314
X-93.781 Y-8.281
X-93.783 Y-8.246
X-93.909 Y-7.671
X-93.921 Y-7.641
X-93.942 Y-7.616
X-93.971 Y-7.599
X-94.003 Y-7.593
X-94.21
X-94.285 Y-7.596
X-94.421 Y-7.66
X-94.518 Y-7.774
X-94.578 Y-7.911
X-94.593 Y-8.061
X-94.586 Y-8.11
X-94.534 Y-8.242
X-94.427 Y-8.334
X-94.289 Y-8.368
X-94.083
X-94.049 Y-8.36
X-94.019 Y-8.342
X-93.998 Y-8.314
X-93.987 Y-8.281
X-93.989 Y-8.246
X-94.116 Y-7.671
X-94.128 Y-7.641
X-94.15 Y-7.616
X-94.178 Y-7.599
X-94.21 Y-7.593
X-94.426
X-94.501 Y-7.596
X-94.634 Y-7.665
X-94.729 Y-7.781
X-94.786 Y-7.92
X-94.799 Y-8.069
X-94.792 Y-8.115
X-94.738 Y-8.244
X-94.632 Y-8.335
X-94.496 Y-8.368
X-94.289
X-94.255 Y-8.36
X-94.225 Y-8.341
X-94.204 Y-8.313
X-94.193 Y-8.28
X-94.195 Y-8.245
X-94.332 Y-7.67
X-94.345 Y-7.64
X-94.366 Y-7.615
X-94.394 Y-7.599
X-94.426 Y-7.593
X-94.633
X-94.708 Y-7.596
X-94.841 Y-7.665
X-94.936 Y-7.782
X-94.993 Y-7.92
X-95.006 Y-8.07
X-94.999 Y-8.115
X-94.945 Y-8.244
X-94.839 Y-8.335
X-94.703 Y-8.368
X-94.496
X-94.461 Y-8.36
X-94.431 Y-8.341
X-94.41 Y-8.313
X-94.4 Y-8.28
X-94.402 Y-8.245
X-94.539 Y-7.669
X-94.552 Y-7.64
X-94.573 Y-7.615
X-94.601 Y-7.599
X-94.633 Y-7.593
X-94.849
X-94.924 Y-7.596
X-95.055 Y-7.67
X-95.147 Y-7.788
X-95.202 Y-7.928
X-95.213 Y-8.077
X-95.205 Y-8.12
X-95.15 Y-8.247
X-95.044 Y-8.336
X-94.91 Y-8.368
X-94.703
X-94.668 Y-8.36
X-94.638 Y-8.341
X-94.617 Y-8.313
X-94.607 Y-8.279
X-94.609 Y-8.243
X-94.755 Y-7.668
X-94.768 Y-7.639
X-94.79 Y-7.615
X-94.817 Y-7.599
X-94.849 Y-7.593
X-95.018
X-95.093 Y-7.596
X-95.234 Y-7.646
X-95.337 Y-7.755
X-95.401 Y-7.891
X-95.423 Y-8.04
X-95.405 Y-8.19
X-95.34 Y-8.284
X-95.244 Y-8.346
X-95.132 Y-8.368
X-94.91
X-94.876 Y-8.361
X-94.847 Y-8.343
X-94.825 Y-8.316
X-94.814 Y-8.284
X-94.815 Y-8.249
X-94.923 Y-7.674
X-94.935 Y-7.643
X-94.956 Y-7.617
X-94.985 Y-7.6
X-95.018 Y-7.593
X-95.225
X-95.3 Y-7.596
X-95.442 Y-7.647
X-95.543 Y-7.757
X-95.608 Y-7.892
X-95.637 Y-8.04
X-95.63 Y-8.102
X-95.595 Y-8.214
X-95.52 Y-8.305
X-95.416 Y-8.36
X-95.299 Y-8.371
X-95.268 Y-8.369
X-95.225 Y-8.368
X-95.132
X-95.098 Y-8.361
X-95.07 Y-8.343
X-95.048 Y-8.317
X-95.037 Y-8.285
X-95.036 Y-8.252
X-95.13 Y-7.677
X-95.141 Y-7.644
X-95.163 Y-7.618
X-95.192 Y-7.6
X-95.225 Y-7.593
X-95.441
X-95.516 Y-7.596
X-95.655 Y-7.654
X-95.755 Y-7.765
X-95.82 Y-7.9
X-95.842 Y-8.048
X-95.824 Y-8.197
X-95.805 Y-8.242
X-95.719 Y-8.357
X-95.589 Y-8.419
X-95.445 Y-8.413
X-95.299 Y-8.371
X-95.268 Y-8.354
X-95.244 Y-8.327
X-95.232 Y-8.293
Y-8.257
X-95.346 Y-7.673
X-95.358 Y-7.642
X-95.38 Y-7.617
X-95.408 Y-7.599
X-95.441 Y-7.593
X-95.648
X-95.723 Y-7.596
X-95.862 Y-7.653
X-95.964 Y-7.764
X-96.028 Y-7.899
X-96.056 Y-8.046
X-96.045 Y-8.196
X-96.02 Y-8.271
X-95.944 Y-8.396
X-95.822 Y-8.477
X-95.677 Y-8.498
X-95.537 Y-8.455
X-95.51 Y-8.431
X-95.493 Y-8.398
X-95.49 Y-8.361
X-95.493 Y-8.322
X-95.552 Y-7.683
X-95.562 Y-7.649
X-95.583 Y-7.62
X-95.613 Y-7.6
X-95.648 Y-7.593
X-95.864
X-95.939 Y-7.596
X-96.076 Y-7.657
X-96.176 Y-7.769
X-96.24 Y-7.905
X-96.272 Y-8.051
X-96.266 Y-8.201
X-96.229 Y-8.346
X-96.154 Y-8.476
X-96.052 Y-8.586
X-96.004 Y-8.614
X-95.875 Y-8.655
X-95.741 Y-8.635
X-95.63 Y-8.557
X-95.537 Y-8.455
X-95.52 Y-8.425
X-95.513 Y-8.391
X-95.519 Y-8.357
X-95.546 Y-8.285
X-95.774 Y-7.658
X-95.794 Y-7.625
X-95.826 Y-7.602
X-95.864 Y-7.593
X-96.071
X-96.146 Y-7.596
X-96.284 Y-7.656
X-96.386 Y-7.766
X-96.453 Y-7.9
X-96.489 Y-8.046
X-96.495 Y-8.195
X-96.469 Y-8.343
X-96.417 Y-8.484
X-96.341 Y-8.614
X-96.239 Y-8.723
X-96.115 Y-8.807
X-96.053 Y-8.827
X-95.92 Y-8.835
X-95.801 Y-8.776
X-95.727 Y-8.665
X-95.63 Y-8.557
X-95.611 Y-8.525
X-95.606 Y-8.488
X-95.615 Y-8.451
X-95.701 Y-8.264
X-95.984 Y-7.651
X-96.005 Y-7.621
X-96.036 Y-7.601
X-96.071 Y-7.593
X-96.287
X-96.362 Y-7.596
X-96.499 Y-7.657
X-96.601 Y-7.767
X-96.671 Y-7.9
X-96.711 Y-8.045
X-96.723 Y-8.194
X-96.71 Y-8.344
X-96.672 Y-8.489
X-96.613 Y-8.627
X-96.534 Y-8.754
X-96.435 Y-8.867
X-96.317 Y-8.959
X-96.18 Y-9.022
X-96.126 Y-9.033
X-95.98 Y-9.028
X-95.854 Y-8.952
X-95.781 Y-8.825
X-95.727 Y-8.665
X-95.723 Y-8.627
X-95.733 Y-8.591
X-95.9 Y-8.255
X-96.201 Y-7.648
X-96.222 Y-7.62
X-96.252 Y-7.6
X-96.287 Y-7.593
X-96.494
X-96.569 Y-7.596
X-96.708 Y-7.653
X-96.814 Y-7.76
X-96.888 Y-7.89
X-96.917 Y-7.981
X-96.925 Y-8.012
X-96.93 Y-8.042
X-96.932 Y-8.074
X-96.923 Y-8.112
X-96.899 Y-8.144
X-96.866 Y-8.164
X-96.827 Y-8.17
X-96.788 Y-8.16
X-96.757 Y-8.136
X-96.423 Y-7.759
X-96.404 Y-7.727
X-96.398 Y-7.69
X-96.406 Y-7.653
X-96.427 Y-7.622
X-96.458 Y-7.601
X-96.494 Y-7.593
X-96.71
X-96.748
X-96.795
X-96.8 Y-7.594
X-96.845 Y-7.603
X-96.886 Y-7.626
X-96.917 Y-7.66
X-96.929 Y-7.702
X-96.928 Y-7.746
X-96.913 Y-7.787
G3 X-96.682 Y-7.662 I0.115 J0.062
X-96.795 Y-7.593 I-0.115 J-0.062
G1 X-96.833 Y-7.594
X-96.849 Y-7.597
X-96.865 Y-7.604
X-96.882 Y-7.615
X-96.898 Y-7.632
X-96.917 Y-7.66
X-96.925 Y-7.674
X-96.929 Y-7.688
X-96.931 Y-7.702
X-96.932 Y-8.27
X-96.924 Y-8.42
X-96.894 Y-8.566
X-96.842 Y-8.707
X-96.771 Y-8.84
X-96.682 Y-8.96
X-96.576 Y-9.066
X-96.455 Y-9.155
X-96.32 Y-9.22
X-96.174 Y-9.256
X-96.024 Y-9.254
X-96.015 Y-9.252
X-95.899 Y-9.193
X-95.819 Y-9.09
X-95.791 Y-8.963
X-95.79 Y-8.899
X-95.784 Y-8.836
X-95.781 Y-8.825
X-95.778 Y-8.793
X-95.786 Y-8.761
X-95.804 Y-8.734
X-95.83 Y-8.714
X-96.275 Y-8.467
X-96.783 Y-8.186
X-96.815 Y-8.175
X-96.849
X-96.881 Y-8.186
X-96.907 Y-8.208
X-96.925 Y-8.237
X-96.932 Y-8.27
Y-8.777
X-96.924 Y-8.926
X-96.864 Y-9.064
X-96.776 Y-9.185
X-96.668 Y-9.29
X-96.545 Y-9.375
X-96.41 Y-9.44
X-96.265 Y-9.48
X-96.116 Y-9.491
X-95.967 Y-9.467
X-95.963 Y-9.465
X-95.872 Y-9.399
X-95.812 Y-9.304
X-95.791 Y-9.193
Y-8.963
X-95.797 Y-8.931
X-95.814 Y-8.902
X-95.84 Y-8.88
X-95.871 Y-8.868
X-96.212 Y-8.801
X-96.812 Y-8.682
X-96.847 Y-8.681
X-96.88 Y-8.692
X-96.907 Y-8.714
X-96.925 Y-8.743
X-96.932 Y-8.777
Y-9.114
X-96.924 Y-9.264
X-96.849 Y-9.394
X-96.746 Y-9.503
X-96.625 Y-9.592
X-96.491 Y-9.66
X-96.348 Y-9.706
X-96.2 Y-9.726
X-96.05 Y-9.721
X-96.007 Y-9.708
X-95.894 Y-9.647
X-95.818 Y-9.545
X-95.791 Y-9.42
Y-9.193
X-95.798 Y-9.158
X-95.818 Y-9.128
X-95.847 Y-9.107
X-95.882 Y-9.097
X-96.202 Y-9.07
X-96.824 Y-9.018
X-96.856 Y-9.021
X-96.885 Y-9.033
X-96.909 Y-9.055
X-96.926 Y-9.083
X-96.932 Y-9.114
Y-9.368
X-96.924 Y-9.518
X-96.855 Y-9.65
X-96.752 Y-9.759
X-96.628 Y-9.845
X-96.492 Y-9.908
X-96.348 Y-9.948
X-96.199 Y-9.966
X-96.049 Y-9.953
X-96.004 Y-9.939
X-95.893 Y-9.878
X-95.817 Y-9.776
X-95.791 Y-9.652
Y-9.42
X-95.799 Y-9.384
X-95.819 Y-9.354
X-95.849 Y-9.333
X-95.885 Y-9.324
X-96.201 Y-9.306
X-96.826 Y-9.271
X-96.865 Y-9.277
X-96.899 Y-9.297
X-96.923 Y-9.329
X-96.932 Y-9.368
Y-9.659
X-96.928 Y-9.734
X-96.873 Y-9.874
X-96.775 Y-9.987
X-96.653 Y-10.075
X-96.518 Y-10.14
X-96.375 Y-10.183
X-96.226 Y-10.203
X-96.076 Y-10.193
X-96.014 Y-10.177
X-95.898 Y-10.117
X-95.819 Y-10.014
X-95.791 Y-9.887
Y-9.652
X-95.799 Y-9.615
X-95.821 Y-9.583
X-95.854 Y-9.562
X-95.891 Y-9.555
X-96.2 Y-9.558
X-96.833 Y-9.563
X-96.87 Y-9.57
X-96.902 Y-9.591
X-96.923 Y-9.622
X-96.932 Y-9.659
Y-9.913
X-96.928 Y-9.988
X-96.87 Y-10.126
X-96.77 Y-10.238
X-96.647 Y-10.324
X-96.511 Y-10.386
X-96.366 Y-10.425
X-96.217 Y-10.441
X-96.067 Y-10.427
X-96.009 Y-10.411
X-95.896 Y-10.351
X-95.818 Y-10.248
X-95.791 Y-10.122
Y-9.887
X-95.799 Y-9.849
X-95.822 Y-9.817
X-95.855 Y-9.797
X-95.893 Y-9.79
X-96.2 Y-9.799
X-96.835 Y-9.816
X-96.871 Y-9.824
X-96.902 Y-9.845
X-96.924 Y-9.876
X-96.932 Y-9.913
Y-10.128
X-96.924 Y-10.278
X-96.848 Y-10.407
X-96.739 Y-10.51
X-96.61 Y-10.587
X-96.47 Y-10.641
X-96.323 Y-10.671
X-96.174 Y-10.678
X-96.025 Y-10.656
X-95.988 Y-10.642
X-95.885 Y-10.579
X-95.815 Y-10.479
X-95.791 Y-10.36
Y-10.122
X-95.799 Y-10.085
X-95.821 Y-10.054
X-95.854 Y-10.033
X-95.891 Y-10.026
X-96.2 Y-10.028
X-96.832 Y-10.032
X-96.87 Y-10.039
X-96.902 Y-10.06
X-96.923 Y-10.091
X-96.932 Y-10.128
Y-10.381
X-96.924 Y-10.531
X-96.845 Y-10.658
X-96.733 Y-10.758
X-96.603 Y-10.833
X-96.461 Y-10.883
X-96.314 Y-10.911
X-96.164 Y-10.917
X-96.016 Y-10.893
X-95.984 Y-10.881
X-95.883 Y-10.816
X-95.815 Y-10.718
X-95.791 Y-10.6
Y-10.36
X-95.799 Y-10.323
X-95.822 Y-10.291
X-95.855 Y-10.271
X-95.893 Y-10.264
X-96.2 Y-10.271
X-96.834 Y-10.285
X-96.871 Y-10.293
X-96.902 Y-10.314
X-96.923 Y-10.345
X-96.932 Y-10.381
Y-10.635
X-96.928 Y-10.71
X-96.875 Y-10.85
X-96.774 Y-10.961
X-96.65 Y-11.045
X-96.512 Y-11.105
X-96.367 Y-11.143
X-96.218 Y-11.157
X-96.068 Y-11.145
X-96.006 Y-11.127
X-95.894 Y-11.066
X-95.818 Y-10.964
X-95.791 Y-10.839
Y-10.6
X-95.8 Y-10.562
X-95.822 Y-10.53
X-95.856 Y-10.51
X-95.894 Y-10.504
X-96.201 Y-10.515
X-96.836 Y-10.538
X-96.872 Y-10.547
X-96.903 Y-10.568
X-96.924 Y-10.598
X-96.932 Y-10.635
Y-10.888
X-96.928 Y-10.963
X-96.867 Y-11.1
X-96.764 Y-11.209
X-96.638 Y-11.291
X-96.5 Y-11.349
X-96.354 Y-11.384
X-96.204 Y-11.396
X-96.055 Y-11.379
X-96.003 Y-11.363
X-95.892 Y-11.302
X-95.817 Y-11.2
X-95.791 Y-11.077
Y-10.839
X-95.8 Y-10.801
X-95.823 Y-10.769
X-95.857 Y-10.748
X-95.896 Y-10.743
X-96.201 Y-10.759
X-96.837 Y-10.792
X-96.873 Y-10.801
X-96.903 Y-10.822
X-96.924 Y-10.852
X-96.932 Y-10.888
Y-11.095
X-96.924 Y-11.245
X-96.847 Y-11.373
X-96.824 Y-11.463
X-96.819 Y-11.649
X-96.92 Y-11.992
X-96.926 Y-12.019
X-96.93 Y-12.048
X-96.932 Y-12.076
X-96.923 Y-12.114
X-96.901 Y-12.145
X-96.868 Y-12.166
X-96.83 Y-12.173
X-96.792 Y-12.164
X-96.761 Y-12.143
X-96.739 Y-12.11
X-96.732 Y-12.073
Y-11.598
Y-11.573
Y-11.099
X-96.739 Y-11.061
X-96.761 Y-11.029
X-96.792 Y-11.007
X-96.83 Y-10.999
X-96.868 Y-11.005
X-96.901 Y-11.026
X-96.923 Y-11.058
X-96.932 Y-11.095
Y-12.654
X-96.925 Y-12.687
X-96.908 Y-12.716
X-96.882 Y-12.737
X-96.85 Y-12.749
X-96.816
X-96.322 Y-12.671
X-95.747 Y-12.58
X-95.715 Y-12.569
X-95.688 Y-12.548
X-95.67 Y-12.52
X-95.662 Y-12.487
X-95.666 Y-12.454
X-95.68 Y-12.423
X-95.695 Y-12.404
X-95.722 Y-12.362
X-95.733 Y-12.339
X-95.759 Y-12.278
X-95.781 Y-12.193
X-95.783 Y-12.172
X-95.789 Y-12.024
X-95.791 Y-11.94
Y-11.077
X-95.799 Y-11.039
X-95.821 Y-11.008
X-95.854 Y-10.987
X-95.891 Y-10.98
X-95.929 Y-10.988
X-95.961 Y-11.009
X-95.982 Y-11.04
X-96.187 Y-11.513
X-96.627 Y-12.53
X-96.924 Y-13.217
X-96.932 Y-13.253
Y-13.591
X-96.924 Y-13.741
X-96.847 Y-13.869
X-96.74 Y-13.975
X-96.615 Y-14.058
X-96.478 Y-14.118
X-96.333 Y-14.157
X-96.184 Y-14.173
X-96.034 Y-14.166
X-96.015 Y-14.162
X-95.902 Y-14.108
X-95.82 Y-14.013
X-95.785 Y-13.892
X-95.789 Y-13.86
X-95.803 Y-13.83
X-95.826 Y-13.807
X-95.855 Y-13.793
X-96.228 Y-13.677
X-96.802 Y-13.499
X-96.839 Y-13.495
X-96.874 Y-13.504
X-96.904 Y-13.525
X-96.924 Y-13.555
X-96.932 Y-13.591
Y-13.845
X-96.924 Y-13.994
X-96.848 Y-14.124
X-96.74 Y-14.228
X-96.613 Y-14.307
X-96.475 Y-14.365
X-96.329 Y-14.401
X-96.18 Y-14.416
X-96.031 Y-14.401
X-95.996 Y-14.389
X-95.889 Y-14.326
X-95.816 Y-14.226
X-95.791 Y-14.104
X-95.79 Y-13.967
X-95.785 Y-13.892
X-95.791 Y-13.854
X-95.811 Y-13.82
X-95.843 Y-13.797
X-95.88 Y-13.788
X-96.201 Y-13.775
X-96.828 Y-13.748
X-96.866 Y-13.754
X-96.9 Y-13.775
X-96.923 Y-13.806
X-96.932 Y-13.845
Y-14.098
X-96.924 Y-14.248
X-96.847 Y-14.376
X-96.737 Y-14.478
X-96.608 Y-14.556
X-96.469 Y-14.611
X-96.323 Y-14.644
X-96.173 Y-14.655
X-96.024 Y-14.635
X-95.99 Y-14.623
X-95.886 Y-14.559
X-95.815 Y-14.459
X-95.791 Y-14.34
Y-14.104
X-95.799 Y-14.067
X-95.821 Y-14.036
X-95.853 Y-14.015
X-95.89 Y-14.008
X-96.2 Y-14.006
X-96.831 Y-14.001
X-96.869 Y-14.008
X-96.901 Y-14.029
X-96.923 Y-14.061
X-96.932 Y-14.098
Y-14.351
X-96.924 Y-14.501
X-96.844 Y-14.628
X-96.732 Y-14.728
X-96.602 Y-14.803
X-96.462 Y-14.856
X-96.315 Y-14.886
X-96.165 Y-14.894
X-96.017 Y-14.87
X-95.986 Y-14.859
X-95.884 Y-14.795
X-95.815 Y-14.696
X-95.791 Y-14.578
Y-14.34
X-95.799 Y-14.302
X-95.822 Y-14.271
X-95.854 Y-14.25
X-95.892 Y-14.243
X-96.2 Y-14.247
X-96.833 Y-14.255
X-96.87 Y-14.262
X-96.902 Y-14.283
X-96.923 Y-14.314
X-96.932 Y-14.351
Y-14.605
X-96.928 Y-14.68
X-96.874 Y-14.82
X-96.774 Y-14.931
X-96.651 Y-15.016
X-96.514 Y-15.078
X-96.369 Y-15.118
X-96.22 Y-15.133
X-96.07 Y-15.122
X-96.008 Y-15.104
X-95.895 Y-15.043
X-95.818 Y-14.941
X-95.791 Y-14.816
Y-14.578
X-95.799 Y-14.54
X-95.822 Y-14.508
X-95.855 Y-14.488
X-95.893 Y-14.481
X-96.2 Y-14.49
X-96.835 Y-14.508
X-96.871 Y-14.516
X-96.902 Y-14.537
X-96.924 Y-14.568
X-96.932 Y-14.605
Y-14.858
X-96.928 Y-14.933
X-96.868 Y-15.07
X-96.765 Y-15.18
X-96.641 Y-15.263
X-96.503 Y-15.322
X-96.357 Y-15.358
X-96.208 Y-15.372
X-96.059 Y-15.356
X-96.005 Y-15.34
X-95.893 Y-15.278
X-95.818 Y-15.177
X-95.791 Y-15.052
Y-14.816
X-95.8 Y-14.777
X-95.823 Y-14.746
X-95.856 Y-14.725
X-95.895 Y-14.719
X-96.201 Y-14.733
X-96.836 Y-14.762
X-96.872 Y-14.77
X-96.903 Y-14.791
X-96.924 Y-14.822
X-96.932 Y-14.858
Y-15.065
X-96.924 Y-15.215
X-96.848 Y-15.344
X-96.738 Y-15.446
X-96.608 Y-15.522
X-96.468 Y-15.574
X-96.321 Y-15.603
X-96.171 Y-15.609
X-96.023 Y-15.586
X-95.987 Y-15.573
X-95.884 Y-15.509
X-95.815 Y-15.41
X-95.791 Y-15.291
Y-15.052
X-95.799 Y-15.015
X-95.822 Y-14.983
X-95.854 Y-14.963
X-95.892 Y-14.956
X-96.2 Y-14.96
X-96.833 Y-14.969
X-96.87 Y-14.976
X-96.902 Y-14.997
X-96.923 Y-15.028
X-96.932 Y-15.065
Y-15.318
X-96.924 Y-15.468
X-96.843 Y-15.595
X-96.731 Y-15.693
X-96.6 Y-15.767
X-96.458 Y-15.816
X-96.311 Y-15.843
X-96.161 Y-15.848
X-96.013 Y-15.823
X-95.982 Y-15.811
X-95.882 Y-15.747
X-95.814 Y-15.648
X-95.791 Y-15.531
Y-15.291
X-95.799 Y-15.253
X-95.822 Y-15.222
X-95.855 Y-15.201
X-95.893 Y-15.195
X-96.2 Y-15.204
X-96.835 Y-15.222
X-96.871 Y-15.23
X-96.902 Y-15.251
X-96.924 Y-15.282
X-96.932 Y-15.318
Y-15.572
X-96.928 Y-15.647
X-96.873 Y-15.786
X-96.771 Y-15.896
X-96.646 Y-15.979
X-96.508 Y-16.039
X-96.363 Y-16.076
X-96.213 Y-16.089
X-96.064 Y-16.076
X-96.004 Y-16.058
X-95.893 Y-15.996
X-95.817 Y-15.895
X-95.791 Y-15.771
Y-15.531
X-95.8 Y-15.493
X-95.823 Y-15.461
X-95.856 Y-15.441
X-95.895 Y-15.435
X-96.201 Y-15.448
X-96.836 Y-15.475
X-96.872 Y-15.484
X-96.903 Y-15.505
X-96.924 Y-15.536
X-96.932 Y-15.572
Y-15.787
X-96.924 Y-15.937
X-96.846 Y-16.065
X-96.735 Y-16.166
X-96.606 Y-16.241
X-96.465 Y-16.293
X-96.318 Y-16.322
X-96.168 Y-16.327
X-96.02 Y-16.303
X-95.985 Y-16.29
X-95.883 Y-16.226
X-95.815 Y-16.128
X-95.791 Y-16.01
Y-15.771
X-95.799 Y-15.733
X-95.822 Y-15.701
X-95.854 Y-15.681
X-95.892 Y-15.674
X-96.2 Y-15.679
X-96.834 Y-15.691
X-96.871 Y-15.699
X-96.902 Y-15.719
X-96.923 Y-15.75
X-96.932 Y-15.787
Y-16.041
X-96.928 Y-16.116
X-96.876 Y-16.256
X-96.777 Y-16.368
X-96.653 Y-16.454
X-96.516 Y-16.514
X-96.371 Y-16.553
X-96.222 Y-16.567
X-96.072 Y-16.556
X-96.008 Y-16.537
X-95.895 Y-16.476
X-95.818 Y-16.374
X-95.791 Y-16.249
Y-16.01
X-95.8 Y-15.972
X-95.822 Y-15.94
X-95.855 Y-15.92
X-95.894 Y-15.913
X-96.2 Y-15.923
X-96.835 Y-15.944
X-96.872 Y-15.952
X-96.903 Y-15.973
X-96.924 Y-16.004
X-96.932 Y-16.041
Y-16.294
X-96.928 Y-16.369
X-96.869 Y-16.507
X-96.767 Y-16.617
X-96.642 Y-16.7
X-96.504 Y-16.758
X-96.358 Y-16.793
X-96.209 Y-16.806
X-96.059 Y-16.79
X-96.004 Y-16.774
X-95.893 Y-16.712
X-95.817 Y-16.611
X-95.791 Y-16.486
Y-16.249
X-95.8 Y-16.211
X-95.823 Y-16.179
X-95.856 Y-16.158
X-95.895 Y-16.153
X-96.201 Y-16.167
X-96.837 Y-16.198
X-96.873 Y-16.206
X-96.903 Y-16.227
X-96.924 Y-16.258
X-96.932 Y-16.294
Y-16.501
X-96.924 Y-16.651
X-96.848 Y-16.78
X-96.738 Y-16.882
X-96.609 Y-16.957
X-96.468 Y-17.01
X-96.321 Y-17.038
X-96.171 Y-17.044
X-96.023 Y-17.02
X-95.986 Y-17.007
X-95.884 Y-16.943
X-95.815 Y-16.844
X-95.791 Y-16.726
Y-16.486
X-95.799 Y-16.449
X-95.822 Y-16.417
X-95.854 Y-16.397
X-95.892 Y-16.39
X-96.2 Y-16.395
X-96.833 Y-16.404
X-96.87 Y-16.412
X-96.902 Y-16.433
X-96.923 Y-16.464
X-96.932 Y-16.501
Y-16.754
X-96.924 Y-16.904
X-96.843 Y-17.03
X-96.73 Y-17.129
X-96.599 Y-17.202
X-96.458 Y-17.252
X-96.31 Y-17.278
X-96.16 Y-17.283
X-96.012 Y-17.257
X-95.982 Y-17.246
X-95.882 Y-17.181
X-95.814 Y-17.083
X-95.791 Y-16.966
Y-16.726
X-95.8 Y-16.688
X-95.822 Y-16.656
X-95.855 Y-16.636
X-95.894 Y-16.629
X-96.2 Y-16.639
X-96.835 Y-16.658
X-96.871 Y-16.666
X-96.902 Y-16.687
X-96.924 Y-16.718
X-96.932 Y-16.754
Y-17.008
Y-17.054
Y-17.092
X-96.93 Y-17.121
X-96.922 Y-17.136
X-96.855 Y-17.217
X-96.764 Y-17.27
X-96.661 Y-17.289
G3 X-96.497 Y-16.968 I-0.007 J0.206
X-96.932 Y-17.092 I-0.198 J-0.132
G1 Y-17.177
X-96.931 Y-17.189
X-96.928 Y-17.201
X-96.924 Y-17.213
X-96.917 Y-17.226
X-96.904 Y-17.243
X-96.888 Y-17.261
X-96.874 Y-17.272
X-96.86 Y-17.28
X-96.846 Y-17.285
X-96.833 Y-17.288
X-96.664 Y-17.289
X-95.94
X-95.902 Y-17.288
X-95.886 Y-17.286
X-95.861 Y-17.277
X-95.855 Y-17.273
X-95.839 Y-17.254
X-95.833 Y-17.23
X-95.837 Y-17.205
X-95.854 Y-17.182
X-95.88 Y-17.169
X-95.909 Y-17.171
X-95.934 Y-17.185
X-95.949 Y-17.21
X-95.95 Y-17.239
X-95.938 Y-17.265
X-95.915 Y-17.282
X-95.886 Y-17.286
X-95.87 Y-17.281
X-95.855 Y-17.273
X-95.839 Y-17.261
X-95.818 Y-17.242
X-95.805 Y-17.226
X-95.797 Y-17.209
X-95.793 Y-17.193
X-95.791 Y-17.177
Y-16.966
X-95.796 Y-16.938
X-95.808 Y-16.912
X-95.837 Y-16.896 Z-0.983
X-95.863 Y-16.881 Z-0.966
X-95.881 Y-16.87 Z-0.939
X-95.891 Y-16.869 Z-0.916
X-95.894 Z-0.89
G0 Z2
X-86.785 Y-15.857
Z0.5
G3 X-86.301 Y-15.982 Z0.29 I0.242 J-0.062 F333.3
X-86.785 Y-15.857 Z0.079 I-0.242 J0.062
X-86.301 Y-15.982 Z-0.131 I0.242 J-0.062
X-86.785 Y-15.857 Z-0.342 I-0.242 J0.062
X-86.301 Y-15.982 Z-0.552 I0.242 J-0.062
X-86.785 Y-15.857 Z-0.763 I-0.242 J0.062
X-86.574 Y-16.168 Z-0.876 I0.242 J-0.062
X-86.293 Y-15.92 Z-0.99 I0.031 J0.248
X-86.793 I-0.25
X-86.293 I0.25
G1 X-86.256 Y-15.774 F1000
X-86.269 Y-15.7
X-86.306 Y-15.635
X-86.413 Y-15.53
X-86.557 Y-15.49
X-86.706 Y-15.511
X-86.836 Y-15.585
X-86.933 Y-15.7
X-86.985 Y-15.841
X-86.987 Y-15.991
X-86.939 Y-16.133
X-86.848 Y-16.252
X-86.722 Y-16.333
X-86.576 Y-16.369
X-86.427 Y-16.355
X-86.29 Y-16.293
X-86.182 Y-16.189
X-86.104 Y-16.061
X-86.053 Y-15.92
X-86.043 Y-15.77
X-86.078 Y-15.625
X-86.149 Y-15.492
X-86.257 Y-15.389
X-86.388 Y-15.315
X-86.534 Y-15.282
X-86.684 Y-15.289
X-86.828 Y-15.33
X-86.958 Y-15.406
X-87.064 Y-15.512
X-87.146 Y-15.637
X-87.196 Y-15.779
X-87.21 Y-15.928
X-87.194 Y-16.077
X-87.143 Y-16.218
X-87.061 Y-16.344
X-86.954 Y-16.449
X-86.827 Y-16.528
X-86.684 Y-16.574
X-86.535 Y-16.591
X-86.386 Y-16.573
X-86.246 Y-16.52
X-86.119 Y-16.44
X-86.01 Y-16.337
X-85.923 Y-16.215
X-85.86 Y-16.079
X-85.836 Y-15.987
X-85.826 Y-15.915
X-85.834 Y-15.843
X-85.858 Y-15.775
X-85.919 Y-15.654
X-85.958 Y-15.572
X-86.019 Y-15.432
X-86.086 Y-15.298
X-86.192 Y-15.191
X-86.32 Y-15.114
X-86.464 Y-15.07
X-86.613 Y-15.058
X-86.763 Y-15.072
X-86.907 Y-15.114
X-87.04 Y-15.183
X-87.103 Y-15.231
X-87.166 Y-15.297
X-87.206 Y-15.378
X-87.22 Y-15.468
Y-16.248
X-87.212 Y-16.397
X-87.144 Y-16.531
X-87.043 Y-16.641
X-86.919 Y-16.726
X-86.781 Y-16.785
X-86.634 Y-16.816
X-86.484 Y-16.821
X-86.471 Y-16.819
X-86.371 Y-16.786
X-86.288 Y-16.719
X-86.235 Y-16.628
X-86.228 Y-16.59
X-86.235 Y-16.552
X-86.257 Y-16.52
X-86.288 Y-16.498
X-86.537 Y-16.392
X-87.081 Y-16.159
X-87.118 Y-16.151
X-87.156 Y-16.158
X-87.189 Y-16.179
X-87.211 Y-16.21
X-87.22 Y-16.248
Y-16.547
X-87.216 Y-16.622
X-87.159 Y-16.761
X-87.058 Y-16.872
X-86.934 Y-16.956
X-86.795 Y-17.014
X-86.649 Y-17.048
X-86.499 Y-17.05
X-86.386 Y-16.995
X-86.305 Y-16.898
X-86.271 Y-16.776
X-86.276 Y-16.744
X-86.29 Y-16.715
X-86.313 Y-16.692
X-86.343 Y-16.678
