%
(096-100)
(T1  D=1 CR=0 - ZMIN=-2 - flat end mill)
G90 G94
G17
G21
G28 G91 Z0
G90

(Clear 16)
M9
T1 M6
S5000 M3
G54
M8
G0 X-124.668 Y-12.3
Z12
Z2
Z0.5
G3 X-124.184 Y-12.424 Z0.29 I0.242 J-0.062 F333.3
X-124.668 Y-12.3 Z0.079 I-0.242 J0.062
X-124.184 Y-12.424 Z-0.131 I0.242 J-0.062
X-124.668 Y-12.3 Z-0.342 I-0.242 J0.062
X-124.184 Y-12.424 Z-0.552 I0.242 J-0.062
X-124.668 Y-12.3 Z-0.763 I-0.242 J0.062
X-124.458 Y-12.61 Z-0.876 I0.242 J-0.062
X-124.176 Y-12.362 Z-0.99 I0.031 J0.248
X-124.676 I-0.25
X-124.176 I0.25
G1 X-124.139 Y-12.217 F1000
X-124.152 Y-12.143
X-124.189 Y-12.078
X-124.296 Y-11.973
X-124.441 Y-11.933
X-124.589 Y-11.954
X-124.719 Y-12.028
X-124.816 Y-12.143
X-124.868 Y-12.283
X-124.87 Y-12.433
X-124.823 Y-12.576
X-124.731 Y-12.694
X-124.605 Y-12.776
X-124.459 Y-12.812
X-124.31 Y-12.798
X-124.174 Y-12.736
X-124.065 Y-12.632
X-123.987 Y-12.504
X-123.937 Y-12.363
X-123.926 Y-12.213
X-123.961 Y-12.067
X-124.032 Y-11.935
X-124.14 Y-11.831
X-124.271 Y-11.758
X-124.417 Y-11.725
X-124.567 Y-11.732
X-124.711 Y-11.773
X-124.841 Y-11.849
X-124.947 Y-11.954
X-124.967 Y-11.985
X-124.991 Y-12.029
X-125.007 Y-12.078
X-125.015 Y-12.128
X-125.026 Y-12.278
X-125.028 Y-12.409
X-125.023 Y-12.559
X-124.978 Y-12.702
X-124.893 Y-12.825
X-124.778 Y-12.922
X-124.645 Y-12.992
X-124.5 Y-13.027
X-124.35 Y-13.026
X-124.203 Y-12.994
X-124.068 Y-12.93
X-123.95 Y-12.837
X-123.901 Y-12.781
X-123.86 Y-12.72
X-123.835 Y-12.651
X-123.828 Y-12.578
X-123.829 Y-12.531
X-123.823 Y-12.278
X-123.816 Y-12.109
X-123.817 Y-11.959
X-123.874 Y-11.82
X-123.967 Y-11.702
X-124.085 Y-11.609
X-124.219 Y-11.542
X-124.364 Y-11.504
X-124.514 Y-11.497
X-124.662 Y-11.517
X-124.805 Y-11.562
X-124.837 Y-11.579
X-124.916 Y-11.64
X-124.97 Y-11.724
X-124.994 Y-11.822
X-125.015 Y-12.128
X-125.01 Y-12.166
X-124.991 Y-12.2
X-124.96 Y-12.224
X-124.922 Y-12.234
X-124.883 Y-12.229
X-124.849 Y-12.21
X-124.826 Y-12.179
X-124.618 Y-11.756
X-124.608 Y-11.719
X-124.613 Y-11.682
X-124.631 Y-11.648
X-124.66 Y-11.624
X-124.696 Y-11.612
X-124.734 Y-11.615
X-124.768 Y-11.631
X-124.793 Y-11.659
G3 X-125.028 Y-12.409 I1.346 J-0.833
G1 X-125.03 Y-12.531
X-125.027 Y-12.616
X-125.016 Y-12.784
X-124.998 Y-12.933
X-124.912 Y-13.056
X-124.795 Y-13.15
X-124.659 Y-13.214
X-124.513 Y-13.25
X-124.364 Y-13.259
X-124.215 Y-13.239
X-124.072 Y-13.193
X-123.938 Y-13.126
X-123.935 Y-13.123
X-123.868 Y-13.054
X-123.827 Y-12.966
X-123.816 Y-12.871
X-123.827 Y-12.616
X-123.828 Y-12.578
X-123.836 Y-12.545
X-123.854 Y-12.516
X-123.881 Y-12.495
X-123.913 Y-12.484
X-123.947 Y-12.485
X-124.303 Y-12.557
X-124.935 Y-12.683
X-124.968 Y-12.696
X-124.994 Y-12.719
X-125.011 Y-12.75
X-125.016 Y-12.784
X-124.999 Y-13.038
X-124.99 Y-13.112
X-124.929 Y-13.249
X-124.82 Y-13.353
X-124.689 Y-13.426
X-124.546 Y-13.472
X-124.398 Y-13.491
X-124.248 Y-13.485
X-124.1 Y-13.457
X-124.01 Y-13.426
X-123.899 Y-13.358
X-123.826 Y-13.251
X-123.805 Y-13.122
X-123.816 Y-12.871
X-123.824 Y-12.839
X-123.842 Y-12.811
X-123.867 Y-12.791
X-123.898 Y-12.78
X-123.931
X-124.281 Y-12.835
X-124.914 Y-12.936
X-124.948 Y-12.948
X-124.976 Y-12.971
X-124.993 Y-13.002
X-124.999 Y-13.038
X-124.982 Y-13.291
X-124.973 Y-13.366
X-124.901 Y-13.498
X-124.789 Y-13.597
X-124.656 Y-13.666
X-124.512 Y-13.708
X-124.363 Y-13.726
X-124.213 Y-13.723
X-124.065 Y-13.697
X-123.924 Y-13.646
X-123.915 Y-13.64
X-123.838 Y-13.566
X-123.791 Y-13.469
X-123.782 Y-13.362
X-123.805 Y-13.122
X-123.818 Y-13.085
X-123.844 Y-13.055
X-123.88 Y-13.038
X-123.919 Y-13.036
X-124.264 Y-13.09
X-124.897 Y-13.189
X-124.931 Y-13.201
X-124.959 Y-13.224
X-124.976 Y-13.256
X-124.982 Y-13.291
X-124.976 Y-13.376
X-124.966 Y-13.46
X-124.953 Y-13.545
X-124.937 Y-13.618
X-124.861 Y-13.747
X-124.745 Y-13.842
X-124.61 Y-13.908
X-124.466 Y-13.948
X-124.317 Y-13.965
X-124.167 Y-13.961
X-124.019 Y-13.937
X-123.879 Y-13.881
X-123.875 Y-13.878
X-123.797 Y-13.799
X-123.753 Y-13.697
X-123.749 Y-13.585
X-123.776 Y-13.414
X-123.782 Y-13.362
X-123.791 Y-13.332
X-123.81 Y-13.306
X-123.835 Y-13.287
X-123.865 Y-13.277
X-123.897
X-124.245 Y-13.333
X-124.869 Y-13.434
X-124.905 Y-13.447
X-124.933 Y-13.472
X-124.95 Y-13.507
X-124.953 Y-13.545
X-124.925 Y-13.714
X-124.914 Y-13.772
X-124.878 Y-13.917
X-124.779 Y-14.031
X-124.653 Y-14.112
X-124.514 Y-14.167
X-124.367 Y-14.198
X-124.217 Y-14.207
X-124.068 Y-14.194
X-123.922 Y-14.158
X-123.875 Y-14.134
X-123.777 Y-14.056
X-123.72 Y-13.944
X-123.713 Y-13.82
X-123.749 Y-13.585
X-123.764 Y-13.55
X-123.79 Y-13.522
X-123.825 Y-13.507
X-123.863 Y-13.505
X-124.21 Y-13.56
X-124.831 Y-13.657
X-124.867 Y-13.671
X-124.896 Y-13.697
X-124.912 Y-13.733
X-124.914 Y-13.772
X-124.867 Y-14.013
X-124.831 Y-14.159
X-124.733 Y-14.273
X-124.607 Y-14.354
X-124.467 Y-14.408
X-124.32 Y-14.438
X-124.17 Y-14.445
X-124.021 Y-14.432
X-123.877 Y-14.39
X-123.83 Y-14.365
X-123.731 Y-14.283
X-123.675 Y-14.166
X-123.674 Y-14.037
X-123.689 Y-13.967
X-123.713 Y-13.82
X-123.727 Y-13.784
X-123.754 Y-13.756
X-123.789 Y-13.741
X-123.827 Y-13.74
X-124.164 Y-13.796
X-124.785 Y-13.899
X-124.821 Y-13.913
X-124.849 Y-13.939
X-124.865 Y-13.975
X-124.867 Y-14.013
X-124.817 Y-14.267
X-124.781 Y-14.412
X-124.68 Y-14.523
X-124.552 Y-14.601
X-124.411 Y-14.652
X-124.263 Y-14.679
X-124.113 Y-14.683
X-123.964 Y-14.665
X-123.822 Y-14.619
X-123.69 Y-14.547
X-123.688 Y-14.544
X-123.621 Y-14.449
X-123.595 Y-14.335
X-123.615 Y-14.22
X-123.651 Y-14.123
X-123.671 Y-14.051
X-123.674 Y-14.037
X-123.69 Y-14.003
X-123.718 Y-13.977
X-123.753 Y-13.963
X-123.791
X-124.118 Y-14.029
X-124.738 Y-14.153
X-124.773 Y-14.167
X-124.801 Y-14.194
X-124.816 Y-14.229
X-124.817 Y-14.267
X-124.793 Y-14.389
X-124.775 Y-14.474
X-124.727 Y-14.584
X-124.658 Y-14.717
X-124.54 Y-14.81
X-124.404 Y-14.872
X-124.258 Y-14.907
X-124.108 Y-14.919
X-123.959 Y-14.908
X-123.813 Y-14.872
X-123.675 Y-14.813
X-123.634 Y-14.782
X-123.55 Y-14.685
X-123.514 Y-14.562
X-123.533 Y-14.435
X-123.615 Y-14.22
X-123.635 Y-14.19
X-123.665 Y-14.169
X-123.7 Y-14.16
X-123.737 Y-14.164
X-124.072 Y-14.267
X-124.664 Y-14.45
X-124.693 Y-14.465
X-124.716 Y-14.489
X-124.73 Y-14.519
X-124.734 Y-14.552
X-124.727 Y-14.584
X-124.612 Y-14.837
X-124.544 Y-14.971
X-124.424 Y-15.061
X-124.285 Y-15.117
X-124.137 Y-15.145
X-123.987 Y-15.149
X-123.839 Y-15.128
X-123.695 Y-15.085
X-123.563 Y-15.014
X-123.535 Y-14.989
X-123.46 Y-14.893
X-123.43 Y-14.774
X-123.449 Y-14.654
X-123.533 Y-14.435
X-123.554 Y-14.403
X-123.585 Y-14.382
X-123.622 Y-14.374
X-123.659 Y-14.38
X-123.967 Y-14.492
X-124.554 Y-14.705
X-124.582 Y-14.721
X-124.603 Y-14.745
X-124.616 Y-14.774
X-124.619 Y-14.806
X-124.612 Y-14.837
X-124.497 Y-15.092
X-124.429 Y-15.225
X-124.304 Y-15.308
X-124.162 Y-15.357
X-124.013 Y-15.377
X-123.863 Y-15.373
X-123.716 Y-15.344
X-123.575 Y-15.293
X-123.448 Y-15.213
X-123.427 Y-15.193
X-123.357 Y-15.085
X-123.338 Y-14.957
X-123.375 Y-14.833
X-123.387 Y-14.812
X-123.397 Y-14.787
X-123.449 Y-14.654
X-123.471 Y-14.621
X-123.504 Y-14.6
X-123.542 Y-14.593
X-123.58 Y-14.6
X-123.863 Y-14.719
X-124.443 Y-14.962
X-124.476 Y-14.983
X-124.497 Y-15.016
X-124.505 Y-15.054
X-124.497 Y-15.092
X-124.413 Y-15.279
X-124.378 Y-15.344
X-124.301 Y-15.473
X-124.172 Y-15.549
X-124.028 Y-15.59
X-123.878 Y-15.602
X-123.729 Y-15.589
X-123.583 Y-15.552
X-123.445 Y-15.493
X-123.324 Y-15.406
X-123.302 Y-15.381
X-123.24 Y-15.274
X-123.227 Y-15.153
X-123.263 Y-15.035
X-123.375 Y-14.833
X-123.399 Y-14.806
X-123.432 Y-14.789
X-123.469 Y-14.785
X-123.505 Y-14.795
X-123.771 Y-14.929
X-124.333 Y-15.211
X-124.364 Y-15.234
X-124.383 Y-15.268
X-124.388 Y-15.307
X-124.378 Y-15.344
X-124.347 Y-15.403
X-124.328 Y-15.437
X-124.225 Y-15.597
X-124.138 Y-15.719
X-124.002 Y-15.784
X-123.855 Y-15.814
X-123.705 Y-15.815
X-123.557 Y-15.791
X-123.416 Y-15.742
X-123.284 Y-15.671
X-123.17 Y-15.573
X-123.164 Y-15.564
X-123.117 Y-15.462
X-123.111 Y-15.351
X-123.147 Y-15.244
X-123.263 Y-15.035
X-123.289 Y-15.007
X-123.324 Y-14.99
X-123.362 Y-14.988
X-123.399 Y-15
X-123.647 Y-15.145
X-124.189 Y-15.46
X-124.219 Y-15.486
X-124.236 Y-15.521
X-124.238 Y-15.56
X-124.225 Y-15.597
X-124.079 Y-15.825
X-124.035 Y-15.886
X-123.913 Y-15.973
X-123.769 Y-16.015
X-123.619 Y-16.023
X-123.47 Y-16.003
X-123.326 Y-15.96
X-123.192 Y-15.894
X-123.074 Y-15.801
X-123.061 Y-15.785
X-123.005 Y-15.679
X-122.996 Y-15.56
X-123.033 Y-15.447
X-123.147 Y-15.244
X-123.173 Y-15.215
X-123.209 Y-15.199
X-123.248 Y-15.197
X-123.285 Y-15.211
X-123.512 Y-15.354
X-124.046 Y-15.69
X-124.074 Y-15.716
X-124.09 Y-15.751
X-124.092 Y-15.789
X-124.079 Y-15.825
X-123.954 Y-16.02
X-123.867 Y-16.142
X-123.731 Y-16.205
X-123.583 Y-16.23
X-123.433 Y-16.225
X-123.286 Y-16.194
X-123.146 Y-16.139
X-123.018 Y-16.061
X-122.91 Y-15.957
X-122.901 Y-15.942
X-122.86 Y-15.818
X-122.875 Y-15.688
X-122.944 Y-15.577
X-122.975 Y-15.557
X-123.011 Y-15.549
X-123.048 Y-15.556
X-123.331 Y-15.661
X-123.903 Y-15.875
X-123.933 Y-15.893
X-123.955 Y-15.92
X-123.967 Y-15.952
X-123.966 Y-15.987
X-123.954 Y-16.02
X-123.862 Y-16.163
X-123.844 Y-16.188
X-123.82 Y-16.213
X-123.736 Y-16.283
X-123.615 Y-16.372
X-123.472 Y-16.415
X-123.322 Y-16.419
X-123.174 Y-16.392
X-123.033 Y-16.341
X-122.903 Y-16.267
X-122.792 Y-16.166
X-122.706 Y-16.042
X-122.692 Y-15.93
X-122.72 Y-15.82
X-122.787 Y-15.729
X-122.89 Y-15.632
X-122.944 Y-15.577
X-122.975 Y-15.557
X-123.01 Y-15.549
X-123.046 Y-15.555
X-123.078 Y-15.573
X-123.267 Y-15.734
X-123.734 Y-16.132
X-123.756 Y-16.158
X-123.768 Y-16.19
Y-16.224
X-123.757 Y-16.256
X-123.736 Y-16.283
X-123.482 Y-16.492
X-123.362 Y-16.581
X-123.213 Y-16.6
X-123.064 Y-16.583
X-122.921 Y-16.538
X-122.788 Y-16.468
X-122.67 Y-16.375
X-122.573 Y-16.261
X-122.558 Y-16.232
X-122.528 Y-16.109
X-122.551 Y-15.985
X-122.624 Y-15.881
X-122.787 Y-15.729
X-122.82 Y-15.71
X-122.858 Y-15.705
X-122.895 Y-15.714
X-122.926 Y-15.737
X-123.065 Y-15.888
X-123.489 Y-16.349
X-123.51 Y-16.383
X-123.516 Y-16.422
X-123.506 Y-16.46
X-123.482 Y-16.492
X-123.287 Y-16.652
X-123.266 Y-16.67
X-123.139 Y-16.751
X-122.99 Y-16.763
X-122.842 Y-16.737
X-122.703 Y-16.681
X-122.576 Y-16.601
X-122.466 Y-16.499
X-122.382 Y-16.375
X-122.371 Y-16.347
X-122.354 Y-16.222
X-122.39 Y-16.101
X-122.472 Y-16.006
X-122.551 Y-15.946
X-122.593 Y-15.91
X-122.624 Y-15.881
X-122.652 Y-15.864
X-122.685 Y-15.857
X-122.718 Y-15.861
X-122.748 Y-15.876
X-122.771 Y-15.9
X-122.877 Y-16.051
X-123.237 Y-16.568
X-123.253 Y-16.603
X-123.254 Y-16.642
X-123.24 Y-16.678
X-123.214 Y-16.706
X-123.035 Y-16.826
X-122.907 Y-16.903
X-122.757 Y-16.907
X-122.611 Y-16.871
X-122.476 Y-16.806
X-122.356 Y-16.715
X-122.255 Y-16.605
X-122.214 Y-16.529
X-122.177 Y-16.39
X-122.207 Y-16.249
X-122.298 Y-16.138
X-122.472 Y-16.006
X-122.508 Y-15.99
X-122.548 Y-15.989
X-122.584 Y-16.004
X-122.613 Y-16.031
X-122.705 Y-16.167
X-123.06 Y-16.689
X-123.075 Y-16.724
Y-16.762
X-123.062 Y-16.798
X-123.035 Y-16.826
X-122.974 Y-16.867
X-122.805 Y-16.965
X-122.672 Y-17.033
X-122.522 Y-17.032
X-122.378 Y-16.988
X-122.248 Y-16.914
X-122.135 Y-16.815
X-122.047 Y-16.694
X-121.986 Y-16.557
Y-16.553
X-121.99 Y-16.441
X-122.036 Y-16.338
X-122.116 Y-16.259
X-122.298 Y-16.138
X-122.334 Y-16.124
X-122.374 Y-16.126
X-122.409 Y-16.142
X-122.436 Y-16.171
X-122.509 Y-16.291
X-122.838 Y-16.828
X-122.851 Y-16.864
X-122.85 Y-16.903
X-122.834 Y-16.938
X-122.805 Y-16.965
X-122.584 Y-17.092
X-122.45 Y-17.16
X-122.3 Y-17.153
X-122.159 Y-17.103
X-122.033 Y-17.021
X-121.926 Y-16.916
X-121.839 Y-16.794
X-121.786 Y-16.654
X-121.798 Y-16.537
X-121.856 Y-16.435
X-121.95 Y-16.364
X-121.959 Y-16.36
X-122.005 Y-16.332
X-122.116 Y-16.259
X-122.146 Y-16.247
X-122.178 Y-16.245
X-122.21 Y-16.253
X-122.237 Y-16.271
X-122.256 Y-16.296
X-122.315 Y-16.403
X-122.619 Y-16.959
X-122.63 Y-16.995
X-122.628 Y-17.033
X-122.611 Y-17.067
X-122.584 Y-17.092
X-122.396 Y-17.2
X-122.382 Y-17.206
X-122.298 Y-17.228
X-122.151 Y-17.257
X-122.004 Y-17.225
X-121.871 Y-17.155
X-121.756 Y-17.059
X-121.663 Y-16.941
X-121.6 Y-16.805
X-121.592 Y-16.766
X-121.601 Y-16.622
X-121.676 Y-16.499
X-121.8 Y-16.425
X-121.829 Y-16.417
X-121.875 Y-16.4
X-121.95 Y-16.364
X-121.989 Y-16.356
X-122.027 Y-16.363
X-122.06 Y-16.385
X-122.082 Y-16.418
X-122.126 Y-16.523
X-122.362 Y-17.094
X-122.369 Y-17.126
X-122.365 Y-17.159
X-122.351 Y-17.189
X-122.328 Y-17.213
X-122.298 Y-17.228
X-121.997 Y-17.303
X-121.924 Y-17.318
X-121.775 Y-17.295
X-121.643 Y-17.225
X-121.532 Y-17.125
X-121.445 Y-17.002
X-121.393 Y-16.862
X-121.387 Y-16.81
X-121.402 Y-16.673
X-121.478 Y-16.557
X-121.597 Y-16.487
X-121.8 Y-16.425
X-121.832 Y-16.422
X-121.864 Y-16.429
X-121.891 Y-16.446
X-121.912 Y-16.471
X-121.924 Y-16.501
X-121.937 Y-16.564
X-122.067 Y-17.187
X-122.068 Y-17.224
X-122.055 Y-17.259
X-122.03 Y-17.286
X-121.997 Y-17.303
X-121.79 Y-17.355
X-121.643 Y-17.384
X-121.499 Y-17.34
X-121.375 Y-17.256
X-121.278 Y-17.142
X-121.208 Y-17.009
X-121.173 Y-16.863
Y-16.827
X-121.204 Y-16.702
X-121.285 Y-16.601
X-121.4 Y-16.543
X-121.452 Y-16.53
X-121.552 Y-16.501
X-121.597 Y-16.487
X-121.629 Y-16.484
X-121.661 Y-16.491
X-121.689 Y-16.508
X-121.709 Y-16.533
X-121.721 Y-16.563
X-121.732 Y-16.616
X-121.86 Y-17.239
X-121.861 Y-17.276
X-121.848 Y-17.311
X-121.823 Y-17.338
X-121.79 Y-17.355
X-121.536 Y-17.418
X-121.387 Y-17.428
X-121.246 Y-17.375
X-121.13 Y-17.28
X-121.041 Y-17.159
X-120.981 Y-17.022
X-120.967 Y-16.93
X-120.971 Y-16.818
X-121.016 Y-16.716
X-121.096 Y-16.637
X-121.199 Y-16.593
X-121.231 Y-16.585
X-121.4 Y-16.543
X-121.433 Y-16.541
X-121.465 Y-16.551
X-121.492 Y-16.57
X-121.511 Y-16.596
X-121.521 Y-16.628
X-121.526 Y-16.671
X-121.608 Y-17.309
X-121.606 Y-17.344
X-121.592 Y-17.376
X-121.568 Y-17.402
X-121.536 Y-17.418
X-121.425 Y-17.43
X-121.236 Y-17.448
X-121.161 Y-17.451
X-121.019 Y-17.401
X-120.904 Y-17.305
X-120.819 Y-17.182
X-120.766 Y-17.042
X-120.75 Y-16.893
X-120.753 Y-16.869
X-120.799 Y-16.75
X-120.891 Y-16.66
X-121.011 Y-16.617
X-121.199 Y-16.593
X-121.233 Y-16.592
X-121.266 Y-16.604
X-121.293 Y-16.626
X-121.311 Y-16.656
X-121.317 Y-16.69
Y-16.708
X-121.323 Y-17.348
X-121.317 Y-17.383
X-121.298 Y-17.414
X-121.27 Y-17.437
X-121.236 Y-17.448
X-121.029 Y-17.468
X-120.954 Y-17.471
X-120.809 Y-17.43
X-120.693 Y-17.336
X-120.607 Y-17.213
X-120.551 Y-17.073
X-120.536 Y-16.924
X-120.54 Y-16.898
X-120.586 Y-16.777
X-120.678 Y-16.687
X-120.8 Y-16.644
X-121.011 Y-16.617
X-121.044 Y-16.619
X-121.075 Y-16.633
X-121.1 Y-16.655
X-121.115 Y-16.684
X-121.121 Y-16.717
Y-16.727
X-121.116 Y-17.369
X-121.109 Y-17.404
X-121.091 Y-17.435
X-121.063 Y-17.457
X-121.029 Y-17.468
X-120.813 Y-17.488
X-120.738 Y-17.491
X-120.593 Y-17.452
X-120.477 Y-17.358
X-120.391 Y-17.235
X-120.337 Y-17.095
X-120.323 Y-16.945
X-120.329 Y-16.912
X-120.387 Y-16.778
X-120.501 Y-16.686
X-120.645 Y-16.66
X-120.658 Y-16.661
X-120.8 Y-16.644
X-120.833 Y-16.646
X-120.864 Y-16.66
X-120.888 Y-16.682
X-120.904 Y-16.712
X-120.909 Y-16.745
Y-16.748
X-120.9 Y-17.39
X-120.893 Y-17.425
X-120.875 Y-17.455
X-120.847 Y-17.477
X-120.813 Y-17.488
X-120.606 Y-17.507
X-120.559 Y-17.505
X-120.41 Y-17.489
X-120.286 Y-17.405
X-120.192 Y-17.288
X-120.131 Y-17.151
X-120.108 Y-17.003
X-120.123 Y-16.853
X-120.133 Y-16.828
X-120.204 Y-16.727
X-120.31 Y-16.662
X-120.433 Y-16.646
X-120.645 Y-16.66
X-120.683 Y-16.672
X-120.713 Y-16.697
X-120.731 Y-16.732
X-120.734 Y-16.771
X-120.733 Y-16.783
X-120.661 Y-17.416
X-120.65 Y-17.451
X-120.627 Y-17.48
X-120.595 Y-17.499
X-120.559 Y-17.505
X-120.521 Y-17.503
X-120.305 Y-17.484
X-120.157 Y-17.463
X-120.037 Y-17.373
X-119.954 Y-17.248
X-119.906 Y-17.106
X-119.89 Y-16.957
X-119.916 Y-16.809
X-119.921 Y-16.799
X-119.994 Y-16.701
X-120.1 Y-16.641
X-120.221 Y-16.627
X-120.352 Y-16.64
X-120.433 Y-16.646
X-120.465 Y-16.655
X-120.491 Y-16.673
X-120.511 Y-16.699
X-120.521 Y-16.73
Y-16.763
X-120.519 Y-16.77
X-120.409 Y-17.401
X-120.396 Y-17.435
X-120.373 Y-17.462
X-120.341 Y-17.479
X-120.305 Y-17.484
X-120.051 Y-17.462
X-119.977 Y-17.452
X-119.846 Y-17.379
X-119.754 Y-17.26
X-119.696 Y-17.122
X-119.673 Y-16.974
X-119.689 Y-16.825
X-119.701 Y-16.791
X-119.78 Y-16.676
X-119.901 Y-16.608
X-120.04 Y-16.603
X-120.098 Y-16.614
X-120.221 Y-16.627
X-120.253 Y-16.637
X-120.28 Y-16.657
X-120.298 Y-16.684
X-120.307 Y-16.716
X-120.305 Y-16.75
X-120.304 Y-16.756
X-120.154 Y-17.385
X-120.14 Y-17.417
X-120.117 Y-17.442
X-120.086 Y-17.458
X-120.051 Y-17.462
X-119.929 Y-17.451
X-119.844 Y-17.441
X-119.697 Y-17.41
X-119.582 Y-17.314
X-119.505 Y-17.185
X-119.465 Y-17.041
X-119.457 Y-16.891
X-119.49 Y-16.744
X-119.505 Y-16.715
X-119.591 Y-16.614
X-119.712 Y-16.56
X-119.844 Y-16.564
X-120.04 Y-16.603
X-120.076 Y-16.619
X-120.103 Y-16.648
X-120.116 Y-16.686
X-120.114 Y-16.725
X-120.11 Y-16.742
X-119.95 Y-17.366
X-119.935 Y-17.398
X-119.911 Y-17.423
X-119.879 Y-17.438
X-119.844 Y-17.441
X-119.776 Y-17.43
X-119.59 Y-17.388
X-119.446 Y-17.348
X-119.34 Y-17.242
X-119.274 Y-17.108
X-119.244 Y-16.96
X-119.248 Y-16.81
X-119.292 Y-16.667
X-119.305 Y-16.645
X-119.392 Y-16.553
X-119.51 Y-16.505
X-119.637 Y-16.51
X-119.844 Y-16.564
X-119.873 Y-16.578
X-119.896 Y-16.6
X-119.911 Y-16.628
X-119.916 Y-16.659
X-119.911 Y-16.691
X-119.904 Y-16.712
X-119.704 Y-17.321
X-119.687 Y-17.353
X-119.66 Y-17.376
X-119.626 Y-17.389
X-119.59 Y-17.388
X-119.365 Y-17.338
X-119.293 Y-17.318
X-119.164 Y-17.242
X-119.081 Y-17.116
X-119.036 Y-16.973
X-119.028 Y-16.823
X-119.054 Y-16.676
X-119.081 Y-16.617
X-119.17 Y-16.505
X-119.3 Y-16.447
X-119.443 Y-16.456
X-119.506 Y-16.476
X-119.637 Y-16.51
X-119.666 Y-16.524
X-119.689 Y-16.547
X-119.704 Y-16.576
X-119.708 Y-16.608
X-119.703 Y-16.64
X-119.693 Y-16.666
X-119.478 Y-17.273
X-119.461 Y-17.304
X-119.434 Y-17.326
X-119.4 Y-17.338
X-119.365
X-119.136 Y-17.286
X-119.125 Y-17.282
X-119.083 Y-17.262
X-118.952 Y-17.188
X-118.869 Y-17.063
X-118.826 Y-16.92
X-118.816 Y-16.77
X-118.845 Y-16.623
X-118.906 Y-16.486
X-118.933 Y-16.454
X-119.046 Y-16.374
X-119.183 Y-16.352
X-119.315 Y-16.395
X-119.343 Y-16.422
X-119.358 Y-16.458
Y-16.498
X-119.339 Y-16.594
X-119.22 Y-17.19
X-119.207 Y-17.223
X-119.184 Y-17.249
X-119.152 Y-17.265
X-119.117 Y-17.27
X-119.083 Y-17.262
X-118.829 Y-17.135
X-118.764 Y-17.099
X-118.67 Y-16.982
X-118.624 Y-16.839
X-118.616 Y-16.689
X-118.64 Y-16.541
X-118.703 Y-16.405
X-118.797 Y-16.287
X-118.903 Y-16.241
X-119.017 Y-16.239
X-119.123 Y-16.278
X-119.146 Y-16.299
X-119.162 Y-16.327
X-119.168 Y-16.358
X-119.164 Y-16.389
X-119.137 Y-16.483
X-118.966 Y-17.072
X-118.952 Y-17.103
X-118.927 Y-17.127
X-118.896 Y-17.141
X-118.862 Y-17.144
X-118.829 Y-17.135
X-118.66 Y-17.051
X-118.618 Y-17.027
X-118.555 Y-16.987
X-118.464 Y-16.868
X-118.422 Y-16.724
X-118.42 Y-16.574
X-118.451 Y-16.427
X-118.511 Y-16.289
X-118.555 Y-16.235
X-118.669 Y-16.149
X-118.809 Y-16.125
X-118.945 Y-16.169
X-119.351 Y-16.417
X-119.421 Y-16.449
X-119.443 Y-16.456
X-119.476 Y-16.476
X-119.499 Y-16.506
X-119.509 Y-16.543
X-119.505 Y-16.581
X-119.486 Y-16.615
X-119.456 Y-16.639
X-119.322 Y-16.709
X-118.71 Y-17.027
X-118.68 Y-17.037
X-118.648
X-118.618 Y-17.027
X-118.44 Y-16.923
X-118.406 Y-16.903
X-118.345 Y-16.86
X-118.26 Y-16.736
X-118.225 Y-16.591
X-118.229 Y-16.441
X-118.264 Y-16.295
X-118.336 Y-16.163
X-118.433 Y-16.049
X-118.451 Y-16.038
X-118.569 Y-15.994
X-118.694 Y-16.003
X-118.805 Y-16.062
X-118.825 Y-16.086
X-118.836 Y-16.114
X-118.838 Y-16.145
X-118.83 Y-16.175
X-118.785 Y-16.284
X-118.546 Y-16.854
X-118.528 Y-16.882
X-118.502 Y-16.903
X-118.471 Y-16.914
X-118.437
X-118.406 Y-16.903
X-118.321 Y-16.85
X-118.208 Y-16.771
X-118.149 Y-16.725
X-118.065 Y-16.6
X-118.034 Y-16.453
X-118.044 Y-16.304
X-118.086 Y-16.16
X-118.155 Y-16.026
X-118.257 Y-15.916
X-118.283 Y-15.899
X-118.404 Y-15.852
X-118.534 Y-15.861
X-118.648 Y-15.925
X-118.667 Y-15.949
X-118.677 Y-15.978
X-118.678 Y-16.009
X-118.67 Y-16.039
X-118.609 Y-16.171
X-118.353 Y-16.728
X-118.334 Y-16.757
X-118.306 Y-16.777
X-118.274 Y-16.786
X-118.239 Y-16.784
X-118.208 Y-16.771
X-118.008 Y-16.631
X-117.949 Y-16.586
X-117.873 Y-16.456
X-117.849 Y-16.308
X-117.863 Y-16.159
X-117.908 Y-16.016
X-117.981 Y-15.885
X-118.066 Y-15.795
X-118.161 Y-15.727
X-118.276 Y-15.701
X-118.392 Y-15.721
X-118.491 Y-15.785
X-118.51 Y-15.81
X-118.52 Y-15.841
Y-15.873
X-118.51 Y-15.903
X-118.437 Y-16.045
X-118.151 Y-16.594
X-118.131 Y-16.62
X-118.104 Y-16.639
X-118.072 Y-16.647
X-118.039 Y-16.645
X-118.008 Y-16.631
X-117.898 Y-16.554
X-117.871 Y-16.532
X-117.79 Y-16.439
X-117.698 Y-16.321
X-117.671 Y-16.173
X-117.684 Y-16.024
X-117.729 Y-15.881
X-117.803 Y-15.75
X-117.901 Y-15.637
X-117.962 Y-15.596
X-118.065 Y-15.55
X-118.177 Y-15.546
X-118.284 Y-15.583
X-118.369 Y-15.656
X-118.406 Y-15.702
X-118.491 Y-15.785
X-118.744 Y-16.011
X-118.829 Y-16.082
X-118.914 Y-16.15
X-118.945 Y-16.169
X-118.97 Y-16.193
X-118.985 Y-16.224
X-118.989 Y-16.259
X-118.981 Y-16.292
X-118.962 Y-16.321
X-118.934 Y-16.342
X-118.901 Y-16.352
X-118.562 Y-16.391
X-117.875 Y-16.47
X-117.844 Y-16.468
X-117.815 Y-16.458
X-117.79 Y-16.439
X-117.624 Y-16.248
X-117.531 Y-16.13
X-117.507 Y-15.982
X-117.527 Y-15.833
X-117.58 Y-15.693
X-117.66 Y-15.566
X-117.767 Y-15.46
X-117.895 Y-15.382
X-117.922 Y-15.373
X-118.051 Y-15.362
X-118.172 Y-15.406
X-118.263 Y-15.497
X-118.276 Y-15.534
X-118.274 Y-15.574
X-118.257 Y-15.609
X-118.147 Y-15.753
X-117.776 Y-16.24
X-117.751 Y-16.263
X-117.719 Y-16.277
X-117.685 Y-16.279
X-117.652 Y-16.268
X-117.624 Y-16.248
X-117.454 Y-16.052
X-117.427 Y-16.02
X-117.405 Y-15.994
X-117.366 Y-15.93
X-117.351 Y-15.781
X-117.38 Y-15.633
X-117.441 Y-15.497
X-117.529 Y-15.375
X-117.637 Y-15.271
X-117.768 Y-15.197
X-117.813 Y-15.183
X-117.944 Y-15.174
X-118.065 Y-15.225
X-118.152 Y-15.324
X-118.164 Y-15.355
X-118.165 Y-15.388
X-118.155 Y-15.42
X-118.134 Y-15.447
X-118.004 Y-15.57
X-117.547 Y-16
X-117.514 Y-16.02
X-117.475 Y-16.027
X-117.437 Y-16.017
X-117.405 Y-15.994
X-117.291 Y-15.825
X-117.253 Y-15.761
X-117.219 Y-15.615
X-117.241 Y-15.466
X-117.299 Y-15.328
X-117.383 Y-15.204
X-117.489 Y-15.098
X-117.616 Y-15.018
X-117.757 Y-14.968
X-117.764 Y-14.967
X-117.876 Y-14.982
X-117.975 Y-15.037
X-118.047 Y-15.126
X-118.056 Y-15.155
X-118.055 Y-15.185
X-118.046 Y-15.215
X-118.028 Y-15.24
X-117.871 Y-15.4
X-117.444 Y-15.837
X-117.416 Y-15.857
X-117.382 Y-15.866
X-117.348 Y-15.864
X-117.316 Y-15.849
X-117.291 Y-15.825
X-117.155 Y-15.622
X-117.117 Y-15.558
X-117.088 Y-15.411
X-117.113 Y-15.263
X-117.174 Y-15.126
X-117.262 Y-15.005
X-117.371 Y-14.901
X-117.496 Y-14.818
X-117.637 Y-14.768
X-117.653 Y-14.766
X-117.775 Y-14.779
X-117.883 Y-14.841
X-117.956 Y-14.94
X-117.963 Y-14.97
X-117.961 Y-15
X-117.951 Y-15.028
X-117.932 Y-15.052
X-117.755 Y-15.217
X-117.305 Y-15.637
X-117.277 Y-15.656
X-117.244 Y-15.664
X-117.21 Y-15.661
X-117.18 Y-15.646
X-117.155 Y-15.622
X-117.029 Y-15.432
X-117.01 Y-15.403
X-116.958 Y-15.262
X-116.972 Y-15.113
X-117.026 Y-14.973
X-117.106 Y-14.846
X-117.208 Y-14.736
X-117.265 Y-14.693
X-117.32 Y-14.661
X-117.38 Y-14.641
X-117.444 Y-14.634
X-117.477 Y-14.641
X-117.506 Y-14.659
X-117.527 Y-14.685
X-117.539 Y-14.717
Y-14.751
X-117.527 Y-14.783
X-117.468 Y-14.887
X-117.178 Y-15.395
X-117.157 Y-15.421
X-117.129 Y-15.438
X-117.096 Y-15.445
X-117.063 Y-15.441
X-117.033 Y-15.427
X-117.01 Y-15.403
X-116.968 Y-15.303
X-116.908 Y-15.15
X-116.86 Y-15.007
X-116.88 Y-14.859
X-116.899 Y-14.814
X-116.964 Y-14.719
X-117.061 Y-14.656
X-117.174 Y-14.634
X-117.212 Y-14.643
X-117.244 Y-14.666
X-117.264 Y-14.699
X-117.27 Y-14.737
X-117.262 Y-14.775
X-117.09 Y-15.151
X-117.068 Y-15.182
X-117.036 Y-15.203
X-116.998 Y-15.21
X-116.961 Y-15.202
X-116.929 Y-15.181
X-116.908 Y-15.15
X-116.808 Y-14.896
X-116.799 Y-14.871
X-116.786 Y-14.838
X-116.771 Y-14.795
X-116.813 Y-14.712
X-116.887 Y-14.654
X-116.978 Y-14.634
X-117.02 Y-14.642
X-117.057 Y-14.663
X-117.087 Y-14.694
X-117.105 Y-14.732
X-117.111 Y-14.775
G3 X-116.786 Y-14.838 I0.169 J0.004
G1 X-116.76 Y-14.769
X-116.757 Y-14.759
X-116.756 Y-14.748
X-116.757 Y-14.738
X-116.758 Y-14.727
X-116.762 Y-14.711
X-116.769 Y-14.695
X-116.781 Y-14.679
X-116.799 Y-14.662
X-116.815 Y-14.652
X-116.831 Y-14.643
X-116.844 Y-14.638
X-116.857 Y-14.635
X-116.883 Y-14.634
X-117.729
X-117.766
X-117.784 Y-14.637
X-117.802 Y-14.643
X-117.814 Y-14.649
X-117.824 Y-14.656
X-117.846 Y-14.677
X-117.855 Y-14.688
X-117.865 Y-14.708
X-117.936 Y-14.896
X-117.983 Y-14.999
X-118.014 Y-15.065
X-118.152 Y-15.324
X-118.321 Y-15.587
X-118.369 Y-15.656
X-118.384 Y-15.693
X-118.383 Y-15.732
X-118.367 Y-15.767
X-118.339 Y-15.794
X-118.307 Y-15.815 Z-0.982
X-118.28 Y-15.833 Z-0.961
X-118.262 Y-15.844 Z-0.928
X-118.255 Y-15.849 Z-0.89
G0 Z2
X-124.125 Y-12.936
Z-0.79
G1 Z-0.89 F1000
X-124.121 Y-12.929 Z-0.928
X-124.109 Y-12.911 Z-0.961
X-124.091 Y-12.884 Z-0.982
X-124.07 Y-12.852 Z-0.99
G3 X-123.816 Y-12.109 I-1.324 J0.868
G1 X-123.803 Y-11.809
X-123.804 Y-11.659
X-123.879 Y-11.529
X-123.986 Y-11.424
X-124.114 Y-11.345
X-124.254 Y-11.293
X-124.402 Y-11.266
X-124.552 Y-11.261
X-124.701 Y-11.279
X-124.767 Y-11.3
X-124.871 Y-11.357
X-124.944 Y-11.45
X-124.976 Y-11.565
X-124.994 Y-11.822
X-124.99 Y-11.854
X-124.976 Y-11.883
X-124.953 Y-11.906
X-124.924 Y-11.921
X-124.892 Y-11.925
X-124.539 Y-11.917
X-123.9 Y-11.901
X-123.864 Y-11.893
X-123.834 Y-11.874
X-123.812 Y-11.844
X-123.803 Y-11.809
X-123.801 Y-11.771
X-123.794 Y-11.686
X-123.783 Y-11.602
X-123.776 Y-11.527
X-123.805 Y-11.38
X-123.891 Y-11.258
X-124.007 Y-11.162
X-124.14 Y-11.093
X-124.283 Y-11.047
X-124.431 Y-11.023
X-124.581 Y-11.019
X-124.729 Y-11.042
X-124.747 Y-11.049
X-124.84 Y-11.102
X-124.908 Y-11.183
X-124.943 Y-11.283
X-124.954 Y-11.349
X-124.967 Y-11.433
X-124.976 Y-11.565
X-124.969 Y-11.603
X-124.948 Y-11.637
X-124.916 Y-11.66
X-124.878 Y-11.668
X-124.526 Y-11.674
X-123.883 Y-11.685
X-123.848 Y-11.679
X-123.817 Y-11.662
X-123.795 Y-11.635
X-123.783 Y-11.602
X-123.753 Y-11.387
X-123.747 Y-11.349
X-123.74 Y-11.274
X-123.785 Y-11.131
X-123.878 Y-11.013
X-123.997 Y-10.921
X-124.131 Y-10.853
X-124.273 Y-10.807
X-124.421 Y-10.781
X-124.571 Y-10.775
X-124.649 Y-10.787
X-124.761 Y-10.829
X-124.848 Y-10.912
X-124.896 Y-11.023
X-124.92 Y-11.142
X-124.943 Y-11.283
X-124.942 Y-11.316
X-124.93 Y-11.347
X-124.909 Y-11.373
X-124.88 Y-11.389
X-124.848 Y-11.396
X-124.491 Y-11.408
X-123.849 Y-11.43
X-123.814 Y-11.425
X-123.783 Y-11.408
X-123.759 Y-11.382
X-123.747 Y-11.349
X-123.715 Y-11.133
X-123.707 Y-11.059
X-123.749 Y-10.915
X-123.839 Y-10.795
X-123.955 Y-10.699
X-124.086 Y-10.626
X-124.226 Y-10.574
X-124.373 Y-10.541
X-124.523 Y-10.533
X-124.588 Y-10.541
X-124.705 Y-10.581
X-124.796 Y-10.665
X-124.845 Y-10.778
X-124.896 Y-11.023
Y-11.056
X-124.885 Y-11.087
X-124.865 Y-11.113
X-124.837 Y-11.131
X-124.805 Y-11.139
X-124.458 Y-11.165
X-123.82 Y-11.214
X-123.784 Y-11.21
X-123.752 Y-11.194
X-123.728 Y-11.167
X-123.715 Y-11.133
X-123.682 Y-10.926
X-123.673 Y-10.852
X-123.706 Y-10.706
X-123.79 Y-10.581
X-123.902 Y-10.481
X-124.029 Y-10.402
X-124.168 Y-10.344
X-124.313 Y-10.306
X-124.462 Y-10.294
X-124.53 Y-10.3
X-124.65 Y-10.339
X-124.744 Y-10.423
X-124.795 Y-10.538
X-124.845 Y-10.778
Y-10.81
X-124.835 Y-10.841
X-124.816 Y-10.867
X-124.789 Y-10.885
X-124.758 Y-10.894
X-124.425 Y-10.932
X-123.791 Y-11.005
X-123.755 Y-11.002
X-123.721 Y-10.987
X-123.696 Y-10.96
X-123.682 Y-10.926
X-123.675 Y-10.884
X-123.662 Y-10.842
X-123.633 Y-10.757
X-123.611 Y-10.685
X-123.625 Y-10.536
X-123.697 Y-10.404
X-123.798 Y-10.294
X-123.919 Y-10.204
X-124.051 Y-10.134
X-124.193 Y-10.085
X-124.341 Y-10.058
X-124.491 Y-10.059
X-124.507 Y-10.063
X-124.591 Y-10.095
X-124.661 Y-10.151
X-124.712 Y-10.224
X-124.742 Y-10.288
X-124.753 Y-10.335
X-124.795 Y-10.538
X-124.794 Y-10.577
X-124.778 Y-10.613
X-124.75 Y-10.639
X-124.714 Y-10.653
X-124.382 Y-10.71
X-123.743 Y-10.819
X-123.709
X-123.677 Y-10.808
X-123.65 Y-10.786
X-123.633 Y-10.757
X-123.567 Y-10.569
X-123.545 Y-10.497
X-123.55 Y-10.347
X-123.613 Y-10.211
X-123.707 Y-10.095
X-123.822 Y-9.998
X-123.951 Y-9.921
X-124.089 Y-9.864
X-124.235 Y-9.828
X-124.304 Y-9.822
X-124.422 Y-9.836
X-124.525 Y-9.895
X-124.597 Y-9.99
X-124.712 Y-10.224
X-124.72 Y-10.257
X-124.717 Y-10.291
X-124.702 Y-10.322
X-124.678 Y-10.347
X-124.647 Y-10.361
X-124.302 Y-10.458
X-123.687 Y-10.629
X-123.65 Y-10.632
X-123.615 Y-10.622
X-123.586 Y-10.6
X-123.567 Y-10.569
X-123.484 Y-10.335
X-123.461 Y-10.264
X-123.478 Y-10.115
X-123.544 Y-9.98
X-123.64 Y-9.864
X-123.755 Y-9.768
X-123.883 Y-9.69
X-124.021 Y-9.632
X-124.167 Y-9.598
X-124.202 Y-9.596
X-124.317 Y-9.613
X-124.417 Y-9.671
X-124.487 Y-9.764
X-124.597 Y-9.99
X-124.605 Y-10.023
X-124.602 Y-10.057
X-124.588 Y-10.087
X-124.564 Y-10.112
X-124.533 Y-10.126
X-124.22 Y-10.216
X-123.604 Y-10.392
X-123.568 Y-10.396
X-123.533 Y-10.386
X-123.504 Y-10.365
X-123.484 Y-10.335
X-123.42 Y-10.166
X-123.373 Y-10.023
X-123.402 Y-9.876
X-123.472 Y-9.744
X-123.57 Y-9.63
X-123.686 Y-9.535
X-123.815 Y-9.458
X-123.953 Y-9.4
X-124.1 Y-9.371
X-124.111
X-124.219 Y-9.392
X-124.312 Y-9.451
X-124.377 Y-9.539
X-124.487 Y-9.764
X-124.495 Y-9.795
X-124.493 Y-9.828
X-124.48 Y-9.858
X-124.458 Y-9.882
X-124.43 Y-9.898
X-124.141 Y-10.004
X-123.546 Y-10.221
X-123.509 Y-10.227
X-123.472 Y-10.219
X-123.441 Y-10.197
X-123.42 Y-10.166
X-123.388 Y-10.082
X-123.328 Y-9.961
X-123.297 Y-9.893
X-123.288 Y-9.743
X-123.338 Y-9.601
X-123.421 Y-9.476
X-123.525 Y-9.369
X-123.645 Y-9.279
X-123.778 Y-9.209
X-123.92 Y-9.161
X-123.951 Y-9.157
X-124.06 Y-9.165
X-124.159 Y-9.212
X-124.235 Y-9.29
X-124.311 Y-9.406
X-124.377 Y-9.539
X-124.385 Y-9.57
X-124.383 Y-9.603
X-124.371 Y-9.633
X-124.349 Y-9.657
X-124.321 Y-9.673
X-124.051 Y-9.777
X-123.451 Y-10.007
X-123.416 Y-10.013
X-123.381 Y-10.007
X-123.35 Y-9.989
X-123.328 Y-9.961
X-123.228 Y-9.764
X-123.198 Y-9.695
X-123.189 Y-9.546
X-123.235 Y-9.403
X-123.314 Y-9.275
X-123.416 Y-9.165
X-123.533 Y-9.072
X-123.663 Y-8.997
X-123.806 Y-8.949
X-123.81
X-123.918 Y-8.956
X-124.016 Y-9
X-124.092 Y-9.077
X-124.159 Y-9.175
X-124.235 Y-9.29
X-124.248 Y-9.322
X-124.249 Y-9.356
X-124.239 Y-9.388
X-124.219 Y-9.415
X-124.191 Y-9.434
X-123.938 Y-9.547
X-123.357 Y-9.807
X-123.321 Y-9.816
X-123.284 Y-9.811
X-123.252 Y-9.793
X-123.228 Y-9.764
X-123.133 Y-9.575
X-123.103 Y-9.506
X-123.085 Y-9.357
X-123.125 Y-9.213
X-123.199 Y-9.082
X-123.296 Y-8.968
X-123.411 Y-8.871
X-123.539 Y-8.793
X-123.61 Y-8.768
X-123.737 Y-8.753
X-123.859 Y-8.792
X-123.953 Y-8.879
X-124.092 Y-9.077
X-124.105 Y-9.108
X-124.108 Y-9.141
X-124.099 Y-9.173
X-124.08 Y-9.2
X-124.053 Y-9.22
X-123.831 Y-9.332
X-123.266 Y-9.616
X-123.229 Y-9.626
X-123.191 Y-9.622
X-123.158 Y-9.604
X-123.133 Y-9.575
X-123.09 Y-9.49
X-123.033 Y-9.385
X-122.999 Y-9.318
X-122.976 Y-9.169
X-123.01 Y-9.024
X-123.08 Y-8.891
X-123.174 Y-8.773
X-123.285 Y-8.673
X-123.414 Y-8.597
X-123.472 Y-8.577
X-123.6 Y-8.56
X-123.723 Y-8.599
X-123.818 Y-8.687
X-123.953 Y-8.879
X-123.967 Y-8.909
X-123.969 Y-8.942
X-123.961 Y-8.974
X-123.943 Y-9.002
X-123.917 Y-9.022
X-123.725 Y-9.124
X-123.165 Y-9.421
X-123.129 Y-9.432
X-123.091 Y-9.429
X-123.058 Y-9.413
X-123.033 Y-9.385
X-123.027 Y-9.374
X-122.938 Y-9.271
X-122.891 Y-9.212
X-122.837 Y-9.073
X-122.849 Y-8.923
X-122.899 Y-8.782
X-122.978 Y-8.654
X-123.078 Y-8.543
X-123.196 Y-8.45
X-123.33 Y-8.383
X-123.354 Y-8.377
X-123.444 Y-8.368
X-123.533 Y-8.387
X-123.612 Y-8.431
X-123.651 Y-8.462
X-123.668 Y-8.477
X-123.678 Y-8.487
X-123.818 Y-8.687
X-123.833 Y-8.723
X-123.832 Y-8.762
X-123.817 Y-8.798
X-123.788 Y-8.825
X-123.61 Y-8.94
X-123.065 Y-9.288
X-123.033 Y-9.301
X-122.998 Y-9.302
X-122.965 Y-9.292
X-122.938 Y-9.271
X-122.908 Y-9.237
X-122.805 Y-9.128
X-122.757 Y-9.071
X-122.694 Y-8.935
X-122.697 Y-8.785
X-122.739 Y-8.641
X-122.81 Y-8.509
X-122.902 Y-8.39
X-123.013 Y-8.29
X-123.069 Y-8.256
X-123.182 Y-8.215
X-123.302 Y-8.221
X-123.41 Y-8.274
X-123.612 Y-8.431
X-123.634 Y-8.458
X-123.646 Y-8.491
Y-8.526
X-123.634 Y-8.559
X-123.611 Y-8.585
X-123.434 Y-8.73
X-122.939 Y-9.135
X-122.907 Y-9.152
X-122.871 Y-9.157
X-122.835 Y-9.149
X-122.805 Y-9.128
X-122.636 Y-8.949
X-122.587 Y-8.892
X-122.54 Y-8.75
X-122.548 Y-8.6
X-122.592 Y-8.456
X-122.664 Y-8.325
X-122.756 Y-8.207
X-122.871 Y-8.11
X-122.89 Y-8.099
X-122.998 Y-8.065
X-123.111 Y-8.073
X-123.213 Y-8.123
X-123.41 Y-8.274
X-123.432 Y-8.301
X-123.444 Y-8.334
Y-8.369
X-123.432 Y-8.402
X-123.409 Y-8.429
X-123.263 Y-8.549
X-122.77 Y-8.955
X-122.738 Y-8.972
X-122.702 Y-8.977
X-122.666 Y-8.969
X-122.636 Y-8.949
X-122.589 Y-8.899
X-122.551 Y-8.863
X-122.517 Y-8.837
X-122.46 Y-8.788
X-122.386 Y-8.657
X-122.376 Y-8.507
X-122.405 Y-8.36
X-122.462 Y-8.222
X-122.545 Y-8.096
X-122.649 Y-7.989
X-122.679 Y-7.969
X-122.782 Y-7.927
X-122.892 Y-7.924
X-122.996 Y-7.962
X-123.01 Y-7.97
X-123.213 Y-8.123
X-123.236 Y-8.149
X-123.248 Y-8.18
X-123.25 Y-8.214
X-123.24 Y-8.246
X-123.22 Y-8.273
X-123.11 Y-8.379
X-122.644 Y-8.827
X-122.616 Y-8.847
X-122.582 Y-8.855
X-122.548 Y-8.852
X-122.517 Y-8.837
X-122.354 Y-8.711
X-122.297 Y-8.663
X-122.222 Y-8.534
X-122.205 Y-8.384
X-122.227 Y-8.236
X-122.278 Y-8.095
X-122.354 Y-7.966
X-122.456 Y-7.856
X-122.459 Y-7.854
X-122.56 Y-7.809
X-122.67 Y-7.804
X-122.775 Y-7.838
X-122.974 Y-7.949
X-122.996 Y-7.962
X-123.022 Y-7.985
X-123.038 Y-8.016
X-123.042 Y-8.05
X-123.035 Y-8.084
X-123.016 Y-8.113
X-122.917 Y-8.223
X-122.486 Y-8.697
X-122.457 Y-8.719
X-122.423 Y-8.729
X-122.387 Y-8.727
X-122.354 Y-8.711
X-122.298 Y-8.668
X-122.178 Y-8.582
X-122.119 Y-8.535
X-122.046 Y-8.404
X-122.027 Y-8.255
X-122.046 Y-8.106
X-122.094 Y-7.964
X-122.167 Y-7.833
X-122.212 Y-7.786
X-122.32 Y-7.712
X-122.45 Y-7.691
X-122.576 Y-7.728
X-122.775 Y-7.838
X-122.801 Y-7.861
X-122.818 Y-7.891
X-122.823 Y-7.925
X-122.817 Y-7.959
X-122.799 Y-7.989
X-122.725 Y-8.077
X-122.31 Y-8.564
X-122.282 Y-8.587
X-122.247 Y-8.598
X-122.211 Y-8.596
X-122.178 Y-8.582
X-122.032 Y-8.477
X-121.992 Y-8.454
X-121.96 Y-8.435
X-121.874 Y-8.312
X-121.844 Y-8.165
X-121.853 Y-8.015
X-121.891 Y-7.87
X-121.962 Y-7.738
X-122.008 Y-7.684
X-122.096 Y-7.614
X-122.204 Y-7.581
X-122.316 Y-7.59
X-122.34 Y-7.598
X-122.576 Y-7.728
X-122.602 Y-7.751
X-122.619 Y-7.782
X-122.625 Y-7.816
X-122.618 Y-7.85
X-122.6 Y-7.88
X-122.545 Y-7.942
X-122.112 Y-8.432
X-122.087 Y-8.452
X-122.056 Y-8.464
X-122.023
X-121.992 Y-8.454
X-121.959 Y-8.436
X-121.875 Y-8.404
X-121.805 Y-8.376
X-121.702 Y-8.267
X-121.655 Y-8.125
X-121.646 Y-7.975
X-121.672 Y-7.827
X-121.728 Y-7.688
X-121.754 Y-7.651
X-121.841 Y-7.566
X-121.954 Y-7.523
X-122.075 Y-7.528
X-122.316 Y-7.59
X-122.348 Y-7.606
X-122.372 Y-7.634
X-122.385 Y-7.667
X-122.384 Y-7.704
X-122.371 Y-7.737
X-122.331 Y-7.802
X-121.988 Y-8.36
X-121.967 Y-8.385
X-121.939 Y-8.401
X-121.907 Y-8.408
X-121.875 Y-8.404
X-121.705 Y-8.347
X-121.635 Y-8.321
X-121.521 Y-8.223
X-121.461 Y-8.086
X-121.441 Y-7.937
X-121.454 Y-7.788
X-121.501 Y-7.645
X-121.523 Y-7.609
X-121.609 Y-7.517
X-121.727 Y-7.468
X-121.853 Y-7.472
X-122.075 Y-7.528
X-122.106 Y-7.544
X-122.131 Y-7.569
X-122.145 Y-7.601
X-122.147 Y-7.636
X-122.137 Y-7.669
X-122.112 Y-7.718
X-121.822 Y-8.296
X-121.802 Y-8.324
X-121.773 Y-8.343
X-121.74 Y-8.351
X-121.705 Y-8.347
X-121.49 Y-8.278
X-121.42 Y-8.251
X-121.314 Y-8.145
X-121.255 Y-8.007
X-121.236 Y-7.858
X-121.248 Y-7.709
X-121.298 Y-7.567
X-121.309 Y-7.549
X-121.395 Y-7.462
X-121.508 Y-7.416
X-121.63 Y-7.419
X-121.817 Y-7.463
X-121.853 Y-7.472
X-121.885 Y-7.488
X-121.909 Y-7.513
X-121.923 Y-7.545
X-121.925 Y-7.58
X-121.915 Y-7.613
X-121.897 Y-7.648
X-121.606 Y-8.226
X-121.586 Y-8.254
X-121.557 Y-8.273
X-121.524 Y-8.281
X-121.49 Y-8.278
X-121.367 Y-8.239
X-121.328 Y-8.23
X-121.255 Y-8.211
X-121.133 Y-8.124
X-121.061 Y-7.992
X-121.027 Y-7.846
X-121.028 Y-7.696
X-121.066 Y-7.551
X-121.075 Y-7.534
X-121.149 Y-7.444
X-121.253 Y-7.39
X-121.369 Y-7.379
X-121.452 Y-7.387
X-121.536 Y-7.397
X-121.63 Y-7.419
X-121.661 Y-7.434
X-121.685 Y-7.457
X-121.7 Y-7.488
X-121.704 Y-7.521
X-121.696 Y-7.555
X-121.689 Y-7.571
X-121.438 Y-8.171
X-121.42 Y-8.199
X-121.393 Y-8.22
X-121.361 Y-8.231
X-121.328 Y-8.23
X-121.282 Y-8.221
X-121.198 Y-8.207
X-121.151 Y-8.201
X-121.078 Y-8.187
X-120.948 Y-8.113
X-120.864 Y-7.988
X-120.819 Y-7.845
X-120.809 Y-7.695
X-120.836 Y-7.548
X-120.844 Y-7.53
X-120.918 Y-7.431
X-121.025 Y-7.369
X-121.148 Y-7.356
X-121.369 Y-7.379
X-121.402 Y-7.389
X-121.429 Y-7.41
X-121.448 Y-7.439
X-121.455 Y-7.473
X-121.451 Y-7.507
X-121.449 Y-7.512
X-121.257 Y-8.131
X-121.241 Y-8.162
X-121.216 Y-8.185
X-121.185 Y-8.199
X-121.151 Y-8.201
X-120.944 Y-8.173
X-120.87 Y-8.159
X-120.741 Y-8.083
X-120.656 Y-7.959
X-120.608 Y-7.817
X-120.594 Y-7.668
X-120.621 Y-7.52
X-120.627 Y-7.507
X-120.701 Y-7.408
X-120.808 Y-7.347
X-120.93 Y-7.334
X-121.148 Y-7.356
X-121.18 Y-7.366
X-121.207 Y-7.387
X-121.226 Y-7.416
X-121.234 Y-7.449
X-121.23 Y-7.483
X-121.05 Y-8.102
X-121.035 Y-8.133
X-121.01 Y-8.157
X-120.978 Y-8.171
X-120.944 Y-8.173
X-120.775 Y-8.15
X-120.728 Y-8.145
X-120.654 Y-8.133
X-120.528 Y-8.052
X-120.443 Y-7.928
X-120.394 Y-7.786
X-120.38 Y-7.637
X-120.408 Y-7.49
X-120.41 Y-7.487
X-120.469 Y-7.403
X-120.554 Y-7.345
X-120.653 Y-7.318
X-120.711 Y-7.313
X-120.733 Y-7.314
X-120.93 Y-7.334
X-120.963 Y-7.344
X-120.99 Y-7.365
X-121.009 Y-7.394
X-121.016 Y-7.427
X-121.012 Y-7.461
X-120.832 Y-8.074
X-120.817 Y-8.104
X-120.793 Y-8.128
X-120.762 Y-8.142
X-120.728 Y-8.145
X-120.675 Y-8.139
X-120.625
X-120.559 Y-8.142
X-120.484 Y-8.143
X-120.348 Y-8.079
X-120.251 Y-7.964
X-120.189 Y-7.828
X-120.164 Y-7.68
X-120.168 Y-7.617
X-120.209 Y-7.483
X-120.307 Y-7.382
X-120.44 Y-7.337
X-120.653 Y-7.318
X-120.689 Y-7.322
X-120.72 Y-7.339
X-120.744 Y-7.366
X-120.757 Y-7.399
Y-7.435
X-120.649 Y-8.06
X-120.638 Y-8.091
X-120.618 Y-8.116
X-120.591 Y-8.134
X-120.559 Y-8.142
X-120.436 Y-8.149
X-120.39 Y-8.153
X-120.315 Y-8.155
X-120.171 Y-8.112
X-120.063 Y-8.008
X-119.99 Y-7.877
X-119.954 Y-7.731
X-119.955 Y-7.581
X-119.959 Y-7.567
X-120.015 Y-7.464
X-120.106 Y-7.39
X-120.219 Y-7.357
X-120.44 Y-7.337
X-120.475 Y-7.341
X-120.505 Y-7.357
X-120.529 Y-7.382
X-120.543 Y-7.413
X-120.545 Y-7.448
X-120.478 Y-8.064
X-120.469 Y-8.097
X-120.45 Y-8.124
X-120.422 Y-8.144
X-120.39 Y-8.153
X-120.183 Y-8.169
X-120.108 Y-8.172
X-119.965 Y-8.126
X-119.856 Y-8.023
X-119.781 Y-7.893
X-119.739 Y-7.749
Y-7.599
X-119.74 Y-7.596
X-119.795 Y-7.489
X-119.887 Y-7.411
X-120.003 Y-7.377
X-120.219 Y-7.357
X-120.253 Y-7.361
X-120.283 Y-7.376
X-120.307 Y-7.401
X-120.321 Y-7.432
X-120.324 Y-7.466
X-120.269 Y-8.079
X-120.261 Y-8.111
X-120.242 Y-8.139
X-120.215 Y-8.159
X-120.183 Y-8.169
X-120.098 Y-8.177
X-120.013 Y-8.193
X-119.939 Y-8.203
X-119.791 Y-8.176
X-119.673 Y-8.084
X-119.586 Y-7.962
X-119.534 Y-7.821
X-119.518 Y-7.672
X-119.522 Y-7.648
X-119.568 Y-7.531
X-119.659 Y-7.443
X-119.778 Y-7.4
X-119.844 Y-7.391
X-120.003 Y-7.377
X-120.035 Y-7.38
X-120.065 Y-7.394
X-120.089 Y-7.417
X-120.103 Y-7.447
X-120.108 Y-7.479
X-120.092 Y-8.098
X-120.085 Y-8.13
X-120.069 Y-8.159
X-120.044 Y-8.18
X-120.013 Y-8.193
X-119.844 Y-8.224
X-119.798 Y-8.235
X-119.724 Y-8.248
X-119.579 Y-8.209
X-119.462 Y-8.115
X-119.376 Y-7.992
X-119.32 Y-7.853
X-119.305 Y-7.704
X-119.307 Y-7.69
X-119.35 Y-7.575
X-119.436 Y-7.486
X-119.549 Y-7.44
X-119.76 Y-7.402
X-119.778 Y-7.4
X-119.812 Y-7.402
X-119.842 Y-7.416
X-119.867 Y-7.439
X-119.883 Y-7.469
X-119.888 Y-7.502
X-119.872 Y-8.14
X-119.866 Y-8.172
X-119.851 Y-8.2
X-119.827 Y-8.222
X-119.798 Y-8.235
X-119.628 Y-8.273
X-119.555 Y-8.286
X-119.406 Y-8.27
X-119.281 Y-8.187
X-119.184 Y-8.072
X-119.12 Y-7.936
X-119.091 Y-7.789
X-119.092 Y-7.769
X-119.125 Y-7.65
X-119.204 Y-7.554
X-119.315 Y-7.498
X-119.506 Y-7.448
X-119.549 Y-7.44
X-119.582 Y-7.441
X-119.613 Y-7.452
X-119.639 Y-7.473
X-119.656 Y-7.501
X-119.664 Y-7.533
X-119.703 Y-8.171
X-119.699 Y-8.205
X-119.684 Y-8.235
X-119.659 Y-8.259
X-119.628 Y-8.273
X-119.59 Y-8.282
X-119.494 Y-8.308
X-119.439 Y-8.324
X-119.367 Y-8.344
X-119.218 Y-8.331
X-119.09 Y-8.253
X-118.988 Y-8.143
X-118.916 Y-8.011
X-118.882 Y-7.865
X-118.883 Y-7.838
X-118.912 Y-7.713
X-118.992 Y-7.612
X-119.106 Y-7.553
X-119.315 Y-7.498
X-119.349 Y-7.497
X-119.381 Y-7.506
X-119.408 Y-7.526
X-119.428 Y-7.554
X-119.436 Y-7.586
X-119.498 Y-8.223
X-119.497 Y-8.254
X-119.485 Y-8.283
X-119.466 Y-8.307
X-119.439 Y-8.324
X-119.421 Y-8.331
X-119.301 Y-8.392
X-119.233 Y-8.425
X-119.083 Y-8.434
X-118.946 Y-8.374
X-118.831 Y-8.277
X-118.745 Y-8.155
X-118.687 Y-8.016
X-118.667 Y-7.868
X-118.668 Y-7.859
X-118.707 Y-7.749
X-118.784 Y-7.662
X-118.888 Y-7.611
X-118.92 Y-7.609
X-118.951 Y-7.617
X-118.978 Y-7.634
X-118.998 Y-7.659
X-119.026 Y-7.709
X-119.337 Y-8.257
X-119.349 Y-8.293
X-119.346 Y-8.332
X-119.329 Y-8.367
X-119.301 Y-8.392
X-119.111 Y-8.496
X-119.044 Y-8.528
X-118.894 Y-8.527
X-118.757 Y-8.466
X-118.641 Y-8.37
X-118.548 Y-8.252
X-118.484 Y-8.117
X-118.469 Y-8.048
X-118.467 Y-7.927
X-118.513 Y-7.816
X-118.599 Y-7.731
X-118.634 Y-7.719
X-118.671 Y-7.72
X-118.706 Y-7.734
X-118.732 Y-7.76
X-118.789 Y-7.842
X-119.142 Y-8.353
X-119.156 Y-8.382
X-119.16 Y-8.415
X-119.153 Y-8.447
X-119.136 Y-8.475
X-119.111 Y-8.496
X-119.083 Y-8.511
X-118.997 Y-8.561
X-118.972 Y-8.578
X-118.907 Y-8.616
X-118.759 Y-8.64
X-118.616 Y-8.596
X-118.49 Y-8.515
X-118.386 Y-8.407
X-118.307 Y-8.279
X-118.282 Y-8.209
X-118.267 Y-8.078
X-118.31 Y-7.953
X-118.403 Y-7.858
X-118.66 Y-7.692
X-118.702 Y-7.666
X-118.723 Y-7.655
X-119.106 Y-7.553
X-119.14 Y-7.552
X-119.172 Y-7.561
X-119.2 Y-7.581
X-119.219 Y-7.609
X-119.228 Y-7.642
X-119.225 Y-7.676
X-119.186 Y-7.828
X-119.011 Y-8.521
X-118.996 Y-8.553
X-118.972 Y-8.578
X-118.829 Y-8.672
X-118.805 Y-8.69
X-118.743 Y-8.732
X-118.595 Y-8.755
X-118.45 Y-8.717
X-118.321 Y-8.641
X-118.21 Y-8.539
X-118.126 Y-8.416
X-118.069 Y-8.277
Y-8.272
X-118.077 Y-8.162
X-118.124 Y-8.063
X-118.204 Y-7.987
X-118.236 Y-7.975
X-118.27 Y-7.974
X-118.302 Y-7.984
X-118.329 Y-8.006
X-118.4 Y-8.083
X-118.817 Y-8.545
X-118.835 Y-8.572
X-118.843 Y-8.603
X-118.84 Y-8.636
X-118.827 Y-8.666
X-118.805 Y-8.69
X-118.744 Y-8.736
X-118.66 Y-8.803
X-118.599 Y-8.847
X-118.453 Y-8.883
X-118.306 Y-8.855
X-118.171 Y-8.789
X-118.054 Y-8.695
X-117.958 Y-8.58
X-117.889 Y-8.447
X-117.885 Y-8.429
X-117.882 Y-8.308
X-117.927 Y-8.195
X-118.014 Y-8.109
X-118.045 Y-8.097
X-118.078 Y-8.096
X-118.109 Y-8.106
X-118.136 Y-8.125
X-118.228 Y-8.217
X-118.666 Y-8.657
X-118.685 Y-8.683
X-118.694 Y-8.715
X-118.693 Y-8.747
X-118.681 Y-8.778
X-118.66 Y-8.803
X-118.513 Y-8.92
X-118.452 Y-8.964
X-118.31 Y-9.013
X-118.161 Y-8.996
X-118.022 Y-8.938
X-117.899 Y-8.852
X-117.795 Y-8.744
X-117.717 Y-8.616
X-117.712 Y-8.601
X-117.698 Y-8.491
X-117.725 Y-8.383
X-117.789 Y-8.293
X-117.819 Y-8.274
X-117.853 Y-8.267
X-117.888 Y-8.272
X-117.919 Y-8.289
X-118.036 Y-8.384
X-118.51 Y-8.767
X-118.533 Y-8.793
X-118.546 Y-8.826
Y-8.861
X-118.535 Y-8.893
X-118.513 Y-8.92
X-118.491 Y-8.938
X-118.438 Y-8.984
X-118.406 Y-9.015
X-118.382 Y-9.044
X-118.331 Y-9.099
X-118.194 Y-9.159
X-118.044 Y-9.154
X-117.901 Y-9.109
X-117.77 Y-9.034
X-117.658 Y-8.936
X-117.566 Y-8.816
X-117.556 Y-8.792
X-117.53 Y-8.674
X-117.553 Y-8.555
X-117.621 Y-8.455
X-117.65 Y-8.436
X-117.684 Y-8.429
X-117.717 Y-8.433
X-117.748 Y-8.449
X-117.858 Y-8.53
X-118.362 Y-8.903
X-118.389 Y-8.932
X-118.402 Y-8.969
X-118.399 Y-9.009
X-118.382 Y-9.044
X-118.362 Y-9.068
X-118.302 Y-9.152
X-118.285 Y-9.178
X-118.24 Y-9.238
X-118.111 Y-9.315
X-117.961 Y-9.328
X-117.814 Y-9.299
X-117.677 Y-9.239
X-117.553 Y-9.154
X-117.448 Y-9.047
X-117.41 Y-8.986
X-117.367 Y-8.859
X-117.384 Y-8.726
X-117.457 Y-8.613
X-117.485 Y-8.596
X-117.516 Y-8.588
X-117.549 Y-8.591
X-117.578 Y-8.604
X-117.726 Y-8.699
X-118.255 Y-9.04
X-118.283 Y-9.067
X-118.298 Y-9.103
X-118.299 Y-9.142
X-118.285 Y-9.178
X-118.237 Y-9.248
X-118.19 Y-9.321
X-118.169 Y-9.355
X-118.127 Y-9.417
X-117.994 Y-9.488
X-117.845 Y-9.503
X-117.697 Y-9.479
X-117.557 Y-9.427
X-117.428 Y-9.35
X-117.317 Y-9.249
X-117.229 Y-9.128
X-117.219 Y-9.102
X-117.197 Y-8.987
X-117.222 Y-8.872
X-117.289 Y-8.776
X-117.316 Y-8.758
X-117.347 Y-8.75
X-117.379 Y-8.753
X-117.409 Y-8.765
X-117.599 Y-8.885
X-118.135 Y-9.222
X-118.163 Y-9.247
X-118.179 Y-9.282
X-118.181 Y-9.319
X-118.169 Y-9.355
X-118.087 Y-9.49
X-118.068 Y-9.525
X-118.03 Y-9.589
X-117.9 Y-9.664
X-117.752 Y-9.687
X-117.602 Y-9.672
X-117.459 Y-9.629
X-117.325 Y-9.561
X-117.206 Y-9.47
X-117.104 Y-9.36
X-117.085 Y-9.328
X-117.05 Y-9.231
X-117.051 Y-9.127
X-117.086 Y-9.03
X-117.113 Y-8.984
X-117.165 Y-8.899
X-117.176 Y-8.884
X-117.898 Y-8.187
X-117.916 Y-8.174
X-117.983 Y-8.13
X-118.403 Y-7.858
X-118.435 Y-7.846
X-118.469 Y-7.845
X-118.501 Y-7.856
X-118.528 Y-7.877
X-118.547 Y-7.906
X-118.554 Y-7.94
X-118.55 Y-7.974
X-118.388 Y-8.493
X-118.301 Y-8.775
X-118.068 Y-9.525
X-117.983 Y-9.688
X-117.945 Y-9.753
X-117.823 Y-9.841
X-117.677 Y-9.875
X-117.528 Y-9.872
X-117.381 Y-9.84
X-117.242 Y-9.783
X-117.115 Y-9.704
X-117.002 Y-9.605
X-116.984 Y-9.581
X-116.934 Y-9.479
X-116.926 Y-9.366
X-116.96 Y-9.258
X-117.017 Y-9.152
X-117.086 Y-9.03
X-117.108 Y-9.005
X-117.137 Y-8.988
X-117.17 Y-8.983
X-117.203 Y-8.988
X-117.232 Y-9.004
X-117.441 Y-9.167
X-117.954 Y-9.567
X-117.977 Y-9.592
X-117.99 Y-9.622
X-117.992 Y-9.656
X-117.983 Y-9.688
X-117.954 Y-9.744
X-117.917 Y-9.828
X-117.898 Y-9.874
X-117.883 Y-9.913
X-117.875 Y-9.934
X-117.866 Y-9.952
X-117.857 Y-9.954
X-117.821 Y-9.956
X-117.786 Y-9.945
X-117.758 Y-9.922
X-117.74 Y-9.891
X-117.734 Y-9.855
X-117.746 Y-9.262
X-117.748 Y-9.165
X-117.756 Y-9.129
X-117.776 Y-9.098
X-117.806 Y-9.077
X-117.841 Y-9.068
X-117.878 Y-9.072
X-117.911 Y-9.089
X-117.935 Y-9.117
X-117.947 Y-9.152
G3 X-117.875 Y-9.934 I1.563 J-0.25
G1 X-117.87 Y-9.944
X-117.864 Y-9.955
X-117.855 Y-9.968
X-117.843 Y-9.98
X-117.832 Y-9.99
X-117.822 Y-9.997
X-117.814 Y-10.001
X-117.803 Y-10.006
X-117.793 Y-10.009
X-117.782 Y-10.01
X-117.771 Y-10.011
X-117.429
X-117.279 Y-10.004
X-117.134 Y-9.965
X-116.999 Y-9.899
X-116.883 Y-9.805
X-116.876 Y-9.796
X-116.824 Y-9.695
X-116.813 Y-9.581
X-116.846 Y-9.472
X-116.867 Y-9.445
X-116.897 Y-9.428
X-116.931 Y-9.421
X-116.964 Y-9.426
X-116.995 Y-9.443
X-117.063 Y-9.496
X-117.487 Y-9.833
X-117.51 Y-9.859
X-117.523 Y-9.891
X-117.524 Y-9.925
X-117.514 Y-9.958
X-117.492 Y-9.986
X-117.463 Y-10.004
X-117.429 Y-10.011
X-117.006
X-116.968
X-116.921
X-116.884 Y-10.009
X-116.782 Y-9.906
X-116.74 Y-9.766
X-116.769 Y-9.624
X-116.79 Y-9.597
X-116.819 Y-9.578
X-116.853 Y-9.57
X-116.887 Y-9.574
X-116.917 Y-9.59
X-116.941 Y-9.615
X-116.955 Y-9.646
X-117.015 Y-9.887
X-117.017 Y-9.922
X-117.007 Y-9.956
X-116.986 Y-9.984
X-116.956 Y-10.004
X-116.921 Y-10.011
X-116.837
X-116.799
X-116.785
X-116.757 Y-10.004
X-116.737 Y-9.987
X-116.727 Y-9.964
Y-9.938
X-116.74 Y-9.913
X-116.764 Y-9.896
X-116.793 Y-9.894
X-116.82 Y-9.905
X-116.838 Y-9.928
X-116.843 Y-9.956
X-116.834 Y-9.984
X-116.813 Y-10.003
X-116.785 Y-10.011
X-116.771 Y-10.008
X-116.757 Y-10.004
X-116.743 Y-9.997
X-116.728 Y-9.987
X-116.714 Y-9.973
X-116.701 Y-9.958
X-116.692 Y-9.943
X-116.686 Y-9.928
X-116.683 Y-9.913
X-116.682 Y-9.902
X-116.683 Y-9.892
X-116.684 Y-9.881
X-116.722 Y-9.744
X-116.734 Y-9.701
X-116.752 Y-9.659
X-116.799 Y-9.563
X-116.883 Y-9.4
X-116.96 Y-9.258
X-116.977 Y-9.236
X-117.001 Y-9.219
X-117.024 Y-9.214 Z-0.987
X-117.046 Y-9.208 Z-0.978
X-117.073 Y-9.216 Z-0.956
X-117.09 Y-9.221 Z-0.925
X-117.097 Y-9.222 Z-0.89
G0 Z2
X-113.58 Y-11.648
Z0.5
G3 X-113.096 Y-11.773 Z0.29 I0.242 J-0.062 F333.3
X-113.58 Y-11.648 Z0.079 I-0.242 J0.062
X-113.096 Y-11.773 Z-0.131 I0.242 J-0.062
X-113.58 Y-11.648 Z-0.342 I-0.242 J0.062
X-113.096 Y-11.773 Z-0.552 I0.242 J-0.062
X-113.58 Y-11.648 Z-0.763 I-0.242 J0.062
X-113.369 Y-11.958 Z-0.876 I0.242 J-0.062
X-113.088 Y-11.71 Z-0.99 I0.031 J0.248
X-113.588 I-0.25
X-113.088 I0.25
G1 X-113.05 Y-11.565 F1000
X-113.063 Y-11.491
X-113.1 Y-11.426
X-113.207 Y-11.321
X-113.352 Y-11.281
X-113.5 Y-11.302
X-113.631 Y-11.376
X-113.728 Y-11.491
X-113.78 Y-11.632
X-113.782 Y-11.782
X-113.734 Y-11.924
X-113.642 Y-12.043
X-113.516 Y-12.124
X-113.371 Y-12.16
X-113.221 Y-12.146
X-113.085 Y-12.084
X-112.976 Y-11.98
X-112.898 Y-11.852
X-112.848 Y-11.711
X-112.837 Y-11.561
X-112.873 Y-11.416
X-112.943 Y-11.283
X-113.052 Y-11.18
X-113.183 Y-11.106
X-113.329 Y-11.073
X-113.479 Y-11.08
X-113.623 Y-11.121
X-113.752 Y-11.197
X-113.859 Y-11.303
X-113.894 Y-11.357
X-113.921 Y-11.408
X-113.937 Y-11.463
X-113.943 Y-11.521
Y-11.771
X-113.935 Y-11.921
X-113.885 Y-12.062
X-113.797 Y-12.183
X-113.681 Y-12.278
X-113.546 Y-12.344
X-113.4 Y-12.377
X-113.25 Y-12.373
X-113.104 Y-12.339
X-112.969 Y-12.272
X-112.92 Y-12.232
X-112.875 Y-12.187
X-112.841 Y-12.133
X-112.818 Y-12.073
X-112.806 Y-12.024
X-112.717 Y-11.771
X-112.699 Y-11.729
X-112.675 Y-11.686
X-112.653 Y-11.652
X-112.633 Y-11.62
X-112.647 Y-11.545
X-112.683 Y-11.482
X-112.738 Y-11.433
G3 X-112.958 Y-11.559 I-0.078 J-0.118
X-112.653 Y-11.652 I0.169 J0.01
G1 X-112.618 Y-11.602
X-112.613 Y-11.591
X-112.611 Y-11.581
X-112.609 Y-11.57
X-112.608 Y-11.56
X-112.609 Y-11.549
X-112.611 Y-11.539
X-112.614 Y-11.528
X-112.618 Y-11.517
X-112.623 Y-11.507
X-112.631 Y-11.497
X-112.642 Y-11.485
X-112.653 Y-11.477
X-112.738 Y-11.433
X-112.822 Y-11.372
X-112.849 Y-11.349
X-112.907 Y-11.282
X-112.92 Y-11.264
X-112.946 Y-11.222
X-112.967 Y-11.18
X-112.98 Y-11.142
X-113.009 Y-11.072
X-113.109 Y-10.961
X-113.243 Y-10.894
X-113.391 Y-10.865
X-113.541 Y-10.869
X-113.686 Y-10.905
X-113.773 Y-10.946
X-113.863 Y-11.013
X-113.922 Y-11.107
X-113.943 Y-11.217
X-113.934 Y-11.255
X-113.911 Y-11.287
X-113.877 Y-11.307
X-113.838 Y-11.313
X-113.672 Y-11.304
X-113.07 Y-11.272
X-113.035 Y-11.263
X-113.005 Y-11.243
X-112.984 Y-11.213
X-112.976 Y-11.178
X-112.98 Y-11.142
X-112.992 Y-11.111
X-112.995 Y-11.095
X-113.011 Y-11.011
X-113.012 Y-10.964
X-113.015 Y-10.927
X-113.087 Y-10.795
X-113.21 Y-10.709
X-113.351 Y-10.66
X-113.501 Y-10.645
X-113.65 Y-10.659
X-113.73 Y-10.683
X-113.841 Y-10.745
X-113.916 Y-10.847
X-113.943 Y-10.97
Y-11.521
X-113.935 Y-11.556
X-113.915 Y-11.586
X-113.886 Y-11.608
X-113.851 Y-11.617
X-113.815 Y-11.613
X-113.783 Y-11.597
X-113.605 Y-11.462
X-113.052 Y-11.043
X-113.031 Y-11.021
X-113.017 Y-10.994
X-113.012 Y-10.964
X-113.014 Y-10.842
Y-10.795
X-113.018 Y-10.72
X-113.095 Y-10.591
X-113.215 Y-10.502
X-113.355 Y-10.448
X-113.503 Y-10.423
X-113.653 Y-10.43
X-113.717 Y-10.446
X-113.834 Y-10.505
X-113.914 Y-10.609
X-113.943 Y-10.737
Y-10.97
X-113.936 Y-11.005
X-113.917 Y-11.035
X-113.889 Y-11.056
X-113.855 Y-11.066
X-113.82 Y-11.064
X-113.728 Y-11.042
X-113.091 Y-10.889
X-113.061 Y-10.876
X-113.037 Y-10.855
X-113.021 Y-10.827
X-113.014 Y-10.795
Y-10.626
Y-10.588
Y-10.542
X-113.016 Y-10.513
X-113.032 Y-10.487
X-113.099 Y-10.41
X-113.188 Y-10.359
X-113.288 Y-10.342
G3 X-113.456 Y-10.666 I0.007 J-0.209
X-113.014 Y-10.542 I0.201 J0.132
G1 X-113.015 Y-10.451
X-113.016 Y-10.441
X-113.019 Y-10.43
X-113.023 Y-10.419
X-113.031 Y-10.404
X-113.044 Y-10.388
X-113.06 Y-10.369
X-113.076 Y-10.357
X-113.087 Y-10.351
X-113.097 Y-10.347
X-113.108 Y-10.344
X-113.118 Y-10.342
X-113.753
X-113.799
X-113.838
X-113.862 Y-10.348
X-113.869 Y-10.35
X-113.891 Y-10.371
X-113.901 Y-10.399
X-113.897 Y-10.429
X-113.879 Y-10.453
X-113.852 Y-10.466
X-113.822 Y-10.465
X-113.796 Y-10.45
X-113.78 Y-10.424
X-113.778 Y-10.394
X-113.79 Y-10.367
X-113.811 Y-10.349
X-113.838 Y-10.342
X-113.848 Y-10.344
X-113.859 Y-10.346
X-113.869 Y-10.35
X-113.88 Y-10.356
X-113.893 Y-10.365
X-113.905 Y-10.377
X-113.922 Y-10.399
X-113.929 Y-10.409
X-113.934 Y-10.419
X-113.938 Y-10.43
X-113.941 Y-10.441
X-113.943 Y-10.451
Y-10.737
X-113.94 Y-10.763
X-113.93 Y-10.787
X-113.721 Y-11.121
X-113.693 Y-11.15
X-113.657 Y-11.166
X-113.617 Y-11.167
X-113.581 Y-11.152
X-113.552 Y-11.124
X-113.537 Y-11.087
X-113.538 Y-11.048
X-113.554 Y-11.011
X-113.582 Y-10.984
X-113.62 Y-10.97
X-113.659 Y-10.971
X-113.695 Y-10.988
X-113.722 Y-11.017
G3 X-113.943 Y-11.771 I1.36 J-0.809
G1 Y-12.109
X-113.939 Y-12.184
X-113.889 Y-12.325
X-113.792 Y-12.439
X-113.667 Y-12.523
X-113.527 Y-12.577
X-113.38 Y-12.604
X-113.23
X-113.082 Y-12.577
X-113.069 Y-12.572
X-112.98 Y-12.518
X-112.914 Y-12.437
X-112.879 Y-12.338
X-112.87 Y-12.278
X-112.818 Y-12.073
X-112.817 Y-12.036
X-112.83 Y-12.001
X-112.854 Y-11.973
X-112.886 Y-11.956
X-112.923 Y-11.952
X-113.213 Y-11.971
X-113.85 Y-12.012
X-113.885 Y-12.021
X-113.915 Y-12.043
X-113.935 Y-12.073
X-113.943 Y-12.109
Y-12.362
X-113.939 Y-12.437
X-113.882 Y-12.576
X-113.777 Y-12.683
X-113.649 Y-12.761
X-113.508 Y-12.812
X-113.36 Y-12.837
X-113.21 Y-12.839
X-113.149 Y-12.827
X-113.031 Y-12.776
X-112.945 Y-12.679
X-112.908 Y-12.556
X-112.905 Y-12.531
X-112.883 Y-12.362
X-112.879 Y-12.338
X-112.881 Y-12.303
X-112.895 Y-12.272
X-112.918 Y-12.246
X-112.949 Y-12.23
X-112.983 Y-12.226
X-113.212 Y-12.236
X-113.848 Y-12.266
X-113.884 Y-12.274
X-113.914 Y-12.295
X-113.935 Y-12.326
X-113.943 Y-12.362
Y-12.578
X-113.939 Y-12.652
X-113.888 Y-12.793
X-113.786 Y-12.903
X-113.66 Y-12.984
X-113.52 Y-13.039
X-113.373 Y-13.07
X-113.223 Y-13.071
X-113.163 Y-13.059
X-113.042 Y-13.006
X-112.956 Y-12.906
X-112.921 Y-12.779
X-112.912 Y-12.616
X-112.908 Y-12.556
X-112.912 Y-12.524
X-112.926 Y-12.494
X-112.949 Y-12.471
X-112.979 Y-12.456
X-113.011 Y-12.452
X-113.212 Y-12.459
X-113.847 Y-12.481
X-113.883 Y-12.489
X-113.914 Y-12.51
X-113.935 Y-12.541
X-113.943 Y-12.578
Y-12.831
X-113.939 Y-12.906
X-113.876 Y-13.042
X-113.77 Y-13.148
X-113.643 Y-13.227
X-113.501 Y-13.278
X-113.354 Y-13.303
X-113.204 Y-13.297
X-113.153 Y-13.284
X-113.036 Y-13.226
X-112.955 Y-13.123
X-112.925 Y-12.996
X-112.924 Y-12.869
X-112.921 Y-12.779
X-112.926 Y-12.747
X-112.941 Y-12.718
X-112.965 Y-12.695
X-112.995 Y-12.681
X-113.028 Y-12.678
X-113.213 Y-12.691
X-113.85 Y-12.735
X-113.885 Y-12.744
X-113.915 Y-12.765
X-113.935 Y-12.795
X-113.943 Y-12.831
Y-13.038
X-113.939 Y-13.113
X-113.888 Y-13.254
X-113.787 Y-13.365
X-113.662 Y-13.447
X-113.522 Y-13.502
X-113.375 Y-13.532
X-113.225 Y-13.529
X-113.161 Y-13.515
X-113.04 Y-13.457
X-112.956 Y-13.353
X-112.926 Y-13.222
X-112.925 Y-12.996
X-112.934 Y-12.957
X-112.957 Y-12.925
X-112.991 Y-12.904
X-113.03 Y-12.898
X-113.212 Y-12.908
X-113.848 Y-12.941
X-113.884 Y-12.95
X-113.914 Y-12.971
X-113.935 Y-13.002
X-113.943 Y-13.038
Y-13.291
X-113.939 Y-13.366
X-113.878 Y-13.503
X-113.773 Y-13.61
X-113.645 Y-13.688
X-113.503 Y-13.738
X-113.355 Y-13.763
X-113.205 Y-13.755
X-113.152 Y-13.741
X-113.035 Y-13.681
X-112.955 Y-13.578
X-112.926 Y-13.45
Y-13.222
X-112.933 Y-13.19
X-112.949 Y-13.162
X-112.973 Y-13.141
X-113.003 Y-13.128
X-113.035 Y-13.126
X-113.214 Y-13.141
X-113.852 Y-13.195
X-113.886 Y-13.205
X-113.916 Y-13.226
X-113.935 Y-13.256
X-113.943 Y-13.291
Y-13.507
X-113.939 Y-13.582
X-113.885 Y-13.721
X-113.783 Y-13.831
X-113.656 Y-13.911
X-113.516 Y-13.964
X-113.368 Y-13.991
X-113.218 Y-13.986
X-113.157 Y-13.971
X-113.038 Y-13.913
X-112.956 Y-13.809
X-112.926 Y-13.68
Y-13.45
X-112.932 Y-13.419
X-112.948 Y-13.391
X-112.972 Y-13.37
X-113.001 Y-13.357
X-113.033 Y-13.354
X-113.213 Y-13.366
X-113.85 Y-13.41
X-113.885 Y-13.419
X-113.915 Y-13.441
X-113.935 Y-13.471
X-113.943 Y-13.507
Y-13.76
X-113.939 Y-13.835
X-113.874 Y-13.97
X-113.767 Y-14.075
X-113.638 Y-14.151
X-113.496 Y-14.2
X-113.348 Y-14.222
X-113.198 Y-14.212
X-113.148 Y-14.198
X-113.033 Y-14.138
X-112.954 Y-14.035
X-112.926 Y-13.909
Y-13.68
X-112.933 Y-13.648
X-112.949 Y-13.62
X-112.973 Y-13.598
X-113.004 Y-13.586
X-113.036 Y-13.584
X-113.214 Y-13.601
X-113.853 Y-13.664
X-113.887 Y-13.674
X-113.916 Y-13.695
X-113.935 Y-13.725
X-113.943 Y-13.76
Y-13.967
X-113.939 Y-14.042
X-113.885 Y-14.182
X-113.783 Y-14.291
X-113.656 Y-14.371
X-113.515 Y-14.424
X-113.368 Y-14.451
X-113.218 Y-14.445
X-113.156 Y-14.43
X-113.037 Y-14.372
X-112.955 Y-14.268
X-112.926 Y-14.139
Y-13.909
X-112.933 Y-13.877
X-112.948 Y-13.85
X-112.972 Y-13.828
X-113.001 Y-13.815
X-113.033 Y-13.813
X-113.213 Y-13.825
X-113.85 Y-13.871
X-113.885 Y-13.88
X-113.915 Y-13.901
X-113.935 Y-13.931
X-113.943 Y-13.967
Y-14.182
X-113.935 Y-14.332
X-113.856 Y-14.459
X-113.742 Y-14.557
X-113.609 Y-14.626
X-113.465 Y-14.668
X-113.316 Y-14.683
X-113.167 Y-14.667
X-113.13 Y-14.654
X-113.024 Y-14.592
X-112.952 Y-14.491
X-112.926 Y-14.37
Y-14.139
X-112.935 Y-14.1
X-112.959 Y-14.069
X-112.993 Y-14.048
X-113.032 Y-14.042
X-113.212 Y-14.052
X-113.848 Y-14.086
X-113.884 Y-14.095
X-113.914 Y-14.116
X-113.935 Y-14.146
X-113.943 Y-14.182
Y-14.436
X-113.939 Y-14.511
X-113.883 Y-14.65
X-113.779 Y-14.758
X-113.651 Y-14.836
X-113.51 Y-14.888
X-113.362 Y-14.913
X-113.212 Y-14.908
X-113.152 Y-14.892
X-113.035 Y-14.833
X-112.955 Y-14.729
X-112.926 Y-14.602
Y-14.37
X-112.933 Y-14.339
X-112.949 Y-14.311
X-112.973 Y-14.289
X-113.002 Y-14.277
X-113.034 Y-14.274
X-113.213 Y-14.288
X-113.851 Y-14.34
X-113.886 Y-14.349
X-113.915 Y-14.37
X-113.935 Y-14.4
X-113.943 Y-14.436
Y-14.643
X-113.935 Y-14.793
X-113.857 Y-14.92
X-113.743 Y-15.018
X-113.61 Y-15.088
X-113.466 Y-15.13
X-113.317 Y-15.146
X-113.168 Y-15.13
X-113.132 Y-15.117
X-113.025 Y-15.055
X-112.952 Y-14.954
X-112.926 Y-14.833
Y-14.602
X-112.935 Y-14.563
X-112.959 Y-14.531
X-112.992 Y-14.511
X-113.031 Y-14.505
X-113.212 Y-14.514
X-113.848 Y-14.546
X-113.884 Y-14.555
X-113.914 Y-14.576
X-113.935 Y-14.607
X-113.943 Y-14.643
Y-14.896
X-113.939 Y-14.971
X-113.884 Y-15.111
X-113.78 Y-15.219
X-113.653 Y-15.298
X-113.512 Y-15.35
X-113.364 Y-15.375
X-113.214 Y-15.37
X-113.153 Y-15.355
X-113.036 Y-15.296
X-112.955 Y-15.192
X-112.926 Y-15.064
Y-14.833
X-112.933 Y-14.801
X-112.948 Y-14.773
X-112.972 Y-14.752
X-113.002 Y-14.739
X-113.034 Y-14.736
X-113.213 Y-14.75
X-113.851 Y-14.8
X-113.886 Y-14.809
X-113.915 Y-14.83
X-113.935 Y-14.861
X-113.943 Y-14.896
Y-15.112
X-113.935 Y-15.261
X-113.854 Y-15.387
X-113.739 Y-15.484
X-113.606 Y-15.553
X-113.462 Y-15.594
X-113.313 Y-15.609
X-113.164 Y-15.591
X-113.129 Y-15.579
X-113.023 Y-15.516
X-112.952 Y-15.416
X-112.926 Y-15.296
Y-15.064
X-112.935 Y-15.025
X-112.959 Y-14.994
X-112.993 Y-14.973
X-113.032 Y-14.968
X-113.212 Y-14.978
X-113.849 Y-15.015
X-113.885 Y-15.024
X-113.915 Y-15.045
X-113.935 Y-15.076
X-113.943 Y-15.112
Y-15.365
X-113.939 Y-15.44
X-113.881 Y-15.578
X-113.776 Y-15.685
X-113.648 Y-15.763
X-113.507 Y-15.814
X-113.359 Y-15.838
X-113.209 Y-15.833
X-113.15 Y-15.817
X-113.034 Y-15.758
X-112.955 Y-15.654
X-112.926 Y-15.527
Y-15.296
X-112.933 Y-15.264
X-112.949 Y-15.236
X-112.973 Y-15.215
X-113.003 Y-15.202
X-113.035 Y-15.199
X-113.214 Y-15.215
X-113.852 Y-15.269
X-113.886 Y-15.278
X-113.916 Y-15.299
X-113.935 Y-15.33
X-113.943 Y-15.365
Y-15.572
X-113.935 Y-15.722
X-113.855 Y-15.848
X-113.741 Y-15.946
X-113.608 Y-16.015
X-113.464 Y-16.056
X-113.314 Y-16.071
X-113.165 Y-16.054
X-113.13 Y-16.042
X-113.024 Y-15.98
X-112.952 Y-15.879
X-112.926 Y-15.758
Y-15.527
X-112.935 Y-15.489
X-112.959 Y-15.457
X-112.993 Y-15.436
X-113.032 Y-15.431
X-113.212 Y-15.441
X-113.849 Y-15.475
X-113.884 Y-15.484
X-113.914 Y-15.505
X-113.935 Y-15.536
X-113.943 Y-15.572
Y-15.825
X-113.939 Y-15.9
X-113.882 Y-16.039
X-113.778 Y-16.146
X-113.65 Y-16.225
X-113.509 Y-16.276
X-113.361 Y-16.301
X-113.211 Y-16.295
X-113.151 Y-16.28
X-113.035 Y-16.221
X-112.955 Y-16.117
X-112.926 Y-15.99
Y-15.758
X-112.933 Y-15.727
X-112.949 Y-15.699
X-112.973 Y-15.677
X-113.002 Y-15.665
X-113.034 Y-15.662
X-113.213 Y-15.677
X-113.851 Y-15.729
X-113.886 Y-15.738
X-113.915 Y-15.76
X-113.935 Y-15.79
X-113.943 Y-15.825
Y-16.041
X-113.939 Y-16.116
X-113.888 Y-16.256
X-113.787 Y-16.367
X-113.66 Y-16.448
X-113.52 Y-16.502
X-113.373 Y-16.53
X-113.223 Y-16.526
X-113.159 Y-16.511
X-113.039 Y-16.453
X-112.956 Y-16.349
X-112.926 Y-16.219
Y-15.99
X-112.936 Y-15.951
X-112.959 Y-15.919
X-112.993 Y-15.899
X-113.032 Y-15.893
X-113.212 Y-15.905
X-113.849 Y-15.944
X-113.885 Y-15.953
X-113.915 Y-15.974
X-113.935 Y-16.005
X-113.943 Y-16.041
Y-16.294
X-113.939 Y-16.369
X-113.877 Y-16.505
X-113.771 Y-16.611
X-113.642 Y-16.689
X-113.5 Y-16.738
X-113.352 Y-16.761
X-113.203 Y-16.752
X-113.15 Y-16.738
X-113.034 Y-16.678
X-112.955 Y-16.575
X-112.926 Y-16.448
Y-16.219
X-112.933 Y-16.187
X-112.949 Y-16.159
X-112.973 Y-16.138
X-113.003 Y-16.125
X-113.035 Y-16.123
X-113.214 Y-16.139
X-113.852 Y-16.198
X-113.887 Y-16.208
X-113.916 Y-16.229
X-113.935 Y-16.259
X-113.943 Y-16.294
Y-16.501
X-113.939 Y-16.576
X-113.888 Y-16.717
X-113.786 Y-16.827
X-113.66 Y-16.908
X-113.52 Y-16.962
X-113.372 Y-16.989
X-113.222 Y-16.985
X-113.158 Y-16.97
X-113.039 Y-16.912
X-112.956 Y-16.808
X-112.926 Y-16.678
Y-16.448
X-112.936 Y-16.409
X-112.959 Y-16.377
X-112.993 Y-16.357
X-113.033 Y-16.352
X-113.213 Y-16.363
X-113.85 Y-16.405
X-113.885 Y-16.414
X-113.915 Y-16.435
X-113.935 Y-16.465
X-113.943 Y-16.501
Y-16.754
X-113.939 Y-16.829
X-113.877 Y-16.966
X-113.77 Y-17.071
X-113.642 Y-17.148
X-113.5 Y-17.197
X-113.42 Y-17.209
X-113.389 Y-17.211
X-113.355 Y-17.204
X-113.326 Y-17.185
X-113.304 Y-17.158
X-113.294 Y-17.125
X-113.295 Y-17.09
X-113.308 Y-17.058
X-113.331 Y-17.032
X-113.336 Y-17.028
X-113.781 Y-16.679
X-113.814 Y-16.662
X-113.85 Y-16.658
X-113.885 Y-16.667
X-113.915 Y-16.688
X-113.935 Y-16.719
X-113.943 Y-16.754
Y-16.97
Y-17.008
Y-17.054
X-113.941 Y-17.091
X-113.887 Y-17.155
X-113.814 Y-17.196
X-113.731 Y-17.211
G3 X-113.6 Y-16.96 I-0.006 J0.163
X-113.943 Y-17.054 I-0.157 J-0.101
G1 Y-17.11
X-113.939 Y-17.127
X-113.933 Y-17.144
X-113.922 Y-17.161
X-113.908 Y-17.177
X-113.89 Y-17.19
X-113.873 Y-17.201
X-113.855 Y-17.207
X-113.838 Y-17.21
X-113.33 Y-17.211
X-113.283
X-113.245
X-113.096 Y-17.203
X-113.083 Y-17.197
X-113 Y-17.13
X-112.945 Y-17.038
X-112.926 Y-16.933
X-112.934 Y-16.897
X-112.955 Y-16.866
X-112.985 Y-16.845
X-113.02 Y-16.837
X-113.057 Y-16.841
X-113.089 Y-16.859
X-113.305 Y-17.033
X-113.327 Y-17.059
X-113.34 Y-17.091
X-113.341 Y-17.126
X-113.33 Y-17.158
X-113.308 Y-17.185
X-113.279 Y-17.204
X-113.245 Y-17.211
X-113.034 Y-17.21
X-113.023 Y-17.209
X-113.013 Y-17.206
X-113.002 Y-17.202
X-112.992 Y-17.197
X-112.962 Y-17.177
X-112.951 Y-17.166
X-112.943 Y-17.156
X-112.937 Y-17.145
X-112.932 Y-17.134
X-112.929 Y-17.124
X-112.927 Y-17.113
X-112.926 Y-17.092
Y-16.678
X-112.931 Y-16.65
X-112.944 Y-16.625
X-112.973 Y-16.608 Z-0.983
X-112.998 Y-16.593 Z-0.966
X-113.017 Y-16.582 Z-0.939
X-113.026 Y-16.581 Z-0.916
X-113.03 Y-16.582 Z-0.89
G0 Z2
X-108.995 Y-11.824
Z0.5
G3 X-108.51 Y-11.948 Z0.29 I0.242 J-0.062 F333.3
X-108.995 Y-11.824 Z0.079 I-0.242 J0.062
X-108.51 Y-11.948 Z-0.131 I0.242 J-0.062
X-108.995 Y-11.824 Z-0.342 I-0.242 J0.062
X-108.51 Y-11.948 Z-0.552 I0.242 J-0.062
X-108.995 Y-11.824 Z-0.763 I-0.242 J0.062
X-108.784 Y-12.134 Z-0.876 I0.242 J-0.062
X-108.502 Y-11.886 Z-0.99 I0.031 J0.248
X-109.002 I-0.25
X-108.502 I0.25
G1 X-108.465 Y-11.741 F1000
X-108.478 Y-11.667
X-108.515 Y-11.602
X-108.622 Y-11.497
X-108.767 Y-11.457
X-108.915 Y-11.478
X-109.046 Y-11.552
X-109.142 Y-11.667
X-109.195 Y-11.807
X-109.197 Y-11.957
X-109.149 Y-12.1
X-109.057 Y-12.218
X-108.931 Y-12.3
X-108.786 Y-12.336
X-108.636 Y-12.322
X-108.5 Y-12.26
X-108.391 Y-12.156
X-108.313 Y-12.028
X-108.263 Y-11.887
X-108.252 Y-11.737
X-108.287 Y-11.591
X-108.358 Y-11.459
X-108.467 Y-11.355
X-108.597 Y-11.282
X-108.744 Y-11.249
X-108.893 Y-11.256
X-109.038 Y-11.297
X-109.167 Y-11.373
X-109.274 Y-11.478
X-109.356 Y-11.604
X-109.405 Y-11.745
X-109.42 Y-11.895
X-109.416 Y-11.922
X-109.413 Y-11.94
X-109.408 Y-11.958
X-109.387 Y-12.024
X-109.377 Y-12.071
X-109.337 Y-12.215
X-109.248 Y-12.336
X-109.136 Y-12.435
X-109.005 Y-12.509
X-108.86 Y-12.548
X-108.71 Y-12.555
X-108.562 Y-12.53
X-108.424 Y-12.471
X-108.302 Y-12.384
X-108.241 Y-12.32
X-108.211 Y-12.284
X-108.187 Y-12.243
X-108.169 Y-12.199
X-108.115 Y-12.024
X-108.099 Y-11.978
X-108.086 Y-11.94
X-108.085 Y-11.937
X-108.036 Y-11.795
X-108.041 Y-11.717
X-108.066 Y-11.612
X-108.128 Y-11.522
X-108.217 Y-11.46
X-108.253 Y-11.453
X-108.289 Y-11.459
X-108.32 Y-11.477
X-108.343 Y-11.505
X-108.354 Y-11.539
X-108.353 Y-11.575
X-108.274 Y-11.919
X-108.26 Y-11.952
X-108.235 Y-11.977
X-108.203 Y-11.993
X-108.168 Y-11.996
X-108.133 Y-11.987
X-108.105 Y-11.966
X-108.085 Y-11.937
X-108.052 Y-11.855
X-108 Y-11.766
X-107.983 Y-11.742
X-107.962 Y-11.711
X-107.948 Y-11.689
X-107.947 Y-11.681
X-107.96 Y-11.601
X-108.01 Y-11.537
X-108.085 Y-11.505
X-108.121 Y-11.504
X-108.156 Y-11.514
X-108.186 Y-11.534
X-108.209 Y-11.563
X-108.221 Y-11.597
G3 X-107.962 Y-11.711 I0.143 J-0.026
G1 X-107.945 Y-11.686
X-107.938 Y-11.676
X-107.933 Y-11.665
X-107.93 Y-11.655
X-107.928 Y-11.644
X-107.926 Y-11.634
Y-11.623
X-107.928 Y-11.613
X-107.93 Y-11.602
X-107.933 Y-11.592
X-107.938 Y-11.581
X-107.952 Y-11.561
X-107.962 Y-11.547
X-107.976 Y-11.534
X-107.988 Y-11.526
X-108.006 Y-11.517
X-108.085 Y-11.505
X-108.127 Y-11.495
X-108.169 Y-11.482
X-108.254 Y-11.444
X-108.273 Y-11.433
X-108.338 Y-11.386
X-108.381 Y-11.349
X-108.423 Y-11.301
X-108.448 Y-11.264
X-108.533 Y-11.14
X-108.666 Y-11.072
X-108.814 Y-11.043
X-108.963 Y-11.048
X-109.109 Y-11.084
X-109.244 Y-11.15
X-109.364 Y-11.24
X-109.468 Y-11.348
X-109.491 Y-11.382
X-109.536 Y-11.491
X-109.535 Y-11.609
X-109.49 Y-11.718
X-109.482 Y-11.729
X-109.466 Y-11.771
X-109.408 Y-11.958
X-109.39 Y-11.992
X-109.361 Y-12.016
X-109.324 Y-12.028
X-109.286 Y-12.025
X-109.252 Y-12.009
X-109.227 Y-11.981
X-109.213 Y-11.945
X-109.145 Y-11.53
Y-11.493
X-109.16 Y-11.459
X-109.186 Y-11.432
X-109.219 Y-11.417
X-109.256 Y-11.415
X-109.292 Y-11.427
X-109.32 Y-11.45
X-109.338 Y-11.483
G3 X-109.377 Y-12.071 I1.128 J-0.369
G1 X-109.331 Y-12.278
X-109.318 Y-12.362
X-109.305 Y-12.436
X-109.235 Y-12.569
X-109.123 Y-12.668
X-108.988 Y-12.735
X-108.843 Y-12.772
X-108.693 Y-12.782
X-108.545 Y-12.764
X-108.401 Y-12.719
X-108.392 Y-12.714
X-108.318 Y-12.661
X-108.263 Y-12.587
X-108.233 Y-12.501
X-108.207 Y-12.362
X-108.19 Y-12.278
X-108.169 Y-12.199
X-108.167 Y-12.173
X-108.171 Y-12.147
X-108.213 Y-12.013
X-108.448 Y-11.264
X-108.495 Y-11.18
X-108.537 Y-11.095
X-108.551 Y-11.07
X-108.59 Y-11.005
X-108.698 Y-10.902
X-108.839 Y-10.851
X-108.988 Y-10.839
X-109.137 Y-10.86
X-109.279 Y-10.908
X-109.411 Y-10.979
X-109.531 Y-11.069
X-109.632 Y-11.18
X-109.642 Y-11.196
X-109.679 Y-11.303
X-109.674 Y-11.416
X-109.628 Y-11.519
X-109.605 Y-11.541
X-109.576 Y-11.555
X-109.544 Y-11.559
X-109.513 Y-11.553
X-109.183 Y-11.427
X-108.605 Y-11.207
X-108.576 Y-11.191
X-108.555 Y-11.165
X-108.542 Y-11.135
X-108.541 Y-11.101
X-108.551 Y-11.07
X-108.674 Y-10.842
X-108.677 Y-10.836
X-108.721 Y-10.775
X-108.841 Y-10.685
X-108.985 Y-10.644
X-109.135 Y-10.641
X-109.283 Y-10.667
X-109.424 Y-10.717
X-109.557 Y-10.788
X-109.678 Y-10.876
X-109.743 Y-10.949
X-109.811 Y-11.075
X-109.816 Y-11.218
X-109.757 Y-11.349
X-109.733 Y-11.37
X-109.703 Y-11.382
X-109.671 Y-11.384
X-109.64 Y-11.376
X-109.297 Y-11.224
X-108.726 Y-10.971
X-108.699 Y-10.954
X-108.679 Y-10.929
X-108.668 Y-10.898
X-108.667 Y-10.866
X-108.677 Y-10.836
X-108.729 Y-10.757
X-108.761 Y-10.713
X-108.876 Y-10.588
X-108.93 Y-10.536
X-109.064 Y-10.469
X-109.213 Y-10.45
X-109.362 Y-10.463
X-109.507 Y-10.501
X-109.645 Y-10.561
X-109.771 Y-10.643
X-109.879 Y-10.747
X-109.965 Y-10.869
X-109.973 Y-10.889
X-109.993 Y-11.008
X-109.963 Y-11.126
X-109.89 Y-11.222
X-109.855 Y-11.241
X-109.816 Y-11.244
X-109.778 Y-11.232
X-109.434 Y-11.039
X-108.903 Y-10.741
X-108.876 Y-10.718
X-108.858 Y-10.688
X-108.852 Y-10.653
X-108.858 Y-10.619
X-108.876 Y-10.588
X-108.954 Y-10.504
X-108.985 Y-10.473
X-109 Y-10.459
X-109.015 Y-10.448
X-109.07 Y-10.419
X-109.223 Y-10.349
X-109.363 Y-10.294
X-109.513 Y-10.293
X-109.659 Y-10.326
X-109.797 Y-10.385
X-109.923 Y-10.466
X-110.036 Y-10.565
X-110.124 Y-10.686
X-110.144 Y-10.732
X-110.169 Y-10.871
X-110.128 Y-11.005
X-110.031 Y-11.106
X-110.001 Y-11.121
X-109.968 Y-11.126
X-109.935 Y-11.119
X-109.906 Y-11.103
X-109.654 Y-10.892
X-109.204 Y-10.516
X-109.179 Y-10.485
X-109.168 Y-10.447
X-109.173 Y-10.408
X-109.192 Y-10.374
X-109.223 Y-10.349
X-109.354 Y-10.29
X-109.451 Y-10.25
X-109.523 Y-10.223
X-109.672 Y-10.204
X-109.822
X-109.965 Y-10.248
X-110.095 Y-10.323
X-110.209 Y-10.42
X-110.298 Y-10.541
X-110.36 Y-10.677
X-110.363 Y-10.7
X-110.352 Y-10.831
X-110.287 Y-10.944
X-110.179 Y-11.019
X-110.147 Y-11.033
X-110.031 Y-11.106
X-109.939 Y-11.18
X-109.861 Y-11.248
X-109.757 Y-11.349
X-109.692 Y-11.433
X-109.629 Y-11.517
X-109.511 Y-11.686
X-109.49 Y-11.718
X-109.463 Y-11.743
X-109.428 Y-11.757
X-109.391
X-109.356 Y-11.743
X-109.329 Y-11.718
X-109.312 Y-11.685
X-109.31 Y-11.647
X-109.369 Y-11.128
X-109.386 Y-10.979
X-109.462 Y-10.304
X-109.472 Y-10.27
X-109.493 Y-10.242
X-109.523 Y-10.223
X-109.607 Y-10.208
X-109.692 Y-10.196
X-109.965 Y-10.166
X-110.115 Y-10.162
X-110.256 Y-10.212
X-110.378 Y-10.299
X-110.477 Y-10.412
X-110.545 Y-10.546
X-110.558 Y-10.604
X-110.553 Y-10.75
X-110.48 Y-10.877
X-110.356 Y-10.954
X-110.324 Y-10.957
X-110.292 Y-10.95
X-110.264 Y-10.934
X-110.243 Y-10.909
X-110.191 Y-10.821
X-109.891 Y-10.316
X-109.878 Y-10.279
X-109.881 Y-10.24
X-109.898 Y-10.204
X-109.928 Y-10.178
X-109.965 Y-10.166
X-110.031 Y-10.161
X-110.115 Y-10.156
X-110.2 Y-10.158
X-110.284 Y-10.163
X-110.345 Y-10.169
X-110.493 Y-10.193
X-110.614 Y-10.281
X-110.705 Y-10.401
X-110.741 Y-10.496
X-110.76 Y-10.62
X-110.728 Y-10.742
X-110.649 Y-10.841
X-110.538 Y-10.9
X-110.501 Y-10.903
X-110.465 Y-10.891
X-110.437 Y-10.867
X-110.418 Y-10.835
X-110.242 Y-10.3
X-110.238 Y-10.262
X-110.248 Y-10.224
X-110.272 Y-10.193
X-110.306 Y-10.174
X-110.345 Y-10.169
X-110.585 Y-10.196
X-110.623 Y-10.201
X-110.696 Y-10.215
X-110.825 Y-10.292
X-110.913 Y-10.414
X-110.953 Y-10.558
Y-10.589
X-110.916 Y-10.725
X-110.822 Y-10.829
X-110.691 Y-10.879
X-110.653 Y-10.876
X-110.62 Y-10.858
X-110.595 Y-10.83
X-110.583 Y-10.794
X-110.515 Y-10.315
X-110.516 Y-10.279
X-110.53 Y-10.246
X-110.555 Y-10.22
X-110.587 Y-10.204
X-110.623 Y-10.201
X-110.707 Y-10.213
X-110.792 Y-10.228
X-110.829 Y-10.236
X-110.877 Y-10.255
X-110.902 Y-10.267
X-111.035 Y-10.337
X-111.117 Y-10.463
X-111.125 Y-10.509
X-111.121 Y-10.63
X-111.069 Y-10.74
X-110.978 Y-10.821
X-110.863 Y-10.858
X-110.83 Y-10.855
X-110.799 Y-10.842
X-110.775 Y-10.819
X-110.76 Y-10.789
X-110.755 Y-10.757
X-110.763 Y-10.357
X-110.772 Y-10.32
X-110.794 Y-10.288
X-110.826 Y-10.267
X-110.864 Y-10.259
X-110.902 Y-10.267
X-111.13 Y-10.372
X-111.195 Y-10.41
X-111.237 Y-10.472
X-111.249 Y-10.606
X-111.198 Y-10.731
X-111.095 Y-10.819
X-110.964 Y-10.849
X-110.927 Y-10.84
X-110.895 Y-10.817
X-110.875 Y-10.785
X-110.869 Y-10.747
X-110.877 Y-10.709
X-111 Y-10.425
X-111.022 Y-10.393
X-111.054 Y-10.372
X-111.092 Y-10.365
X-111.13 Y-10.372
X-111.264 Y-10.442
X-111.297 Y-10.461
X-111.344 Y-10.519
X-111.351 Y-10.641
X-111.301 Y-10.753
X-111.205 Y-10.829
X-111.085 Y-10.852
X-111.053 Y-10.843
X-111.025 Y-10.825
X-111.005 Y-10.798
X-110.995 Y-10.767
Y-10.733
X-111.007 Y-10.702
X-111.135 Y-10.482
X-111.159 Y-10.454
X-111.192 Y-10.437
X-111.228 Y-10.432
X-111.264 Y-10.442
X-111.382 Y-10.504
X-111.384 Y-10.505
X-111.405 Y-10.52
X-111.434 Y-10.548
X-111.445 Y-10.662
X-111.401 Y-10.768
X-111.311 Y-10.84
X-111.197 Y-10.859
X-111.166 Y-10.851
X-111.138 Y-10.834
X-111.117 Y-10.81
G3 X-111.405 Y-10.52 I-0.174 J0.115
G1 X-111.426 Y-10.539
X-111.474 Y-10.588
X-111.496 Y-10.614
X-111.525 Y-10.646
X-111.556 Y-10.685
X-111.519 Y-10.784
X-111.439 Y-10.851
X-111.335 Y-10.87
X-111.298 Y-10.858
X-111.269 Y-10.833
X-111.252 Y-10.798
G3 X-111.525 Y-10.646 I-0.156 J0.041
G1 X-111.553 Y-10.679
X-111.584 Y-10.718
X-111.593 Y-10.738
X-111.598 Y-10.757
Y-10.768
Y-10.778
X-111.597 Y-10.789
X-111.594 Y-10.8
X-111.59 Y-10.81
X-111.584 Y-10.821
X-111.577 Y-10.831
X-111.567 Y-10.842
X-111.543 Y-10.864
X-111.532 Y-10.871
X-111.522 Y-10.877
X-111.511 Y-10.88
X-111.5 Y-10.883
X-111.49 Y-10.884
X-111.479 Y-10.885
X-111.384 Y-10.874
X-111.13 Y-10.854
X-111.046 Y-10.85
X-110.961 Y-10.849
X-110.877 Y-10.857
X-110.792 Y-10.866
X-110.576 Y-10.895
X-110.538 Y-10.9
X-110.369 Y-10.95
X-110.284 Y-10.977
X-110.179 Y-11.019
X-110.154 Y-11.026
X-110.128
X-110.097
X-110.069 Y-11.036
X-109.469 Y-11.34
X-109.238 Y-11.458
X-109.209 Y-11.481
X-109.19 Y-11.513
X-109.184 Y-11.55
X-109.192 Y-11.587
G3 X-109.318 Y-12.362 I1.45 J-0.634
G1 X-109.297 Y-12.531
X-109.293 Y-12.578
X-109.284 Y-12.652
X-109.221 Y-12.788
X-109.109 Y-12.889
X-108.976 Y-12.957
X-108.832 Y-12.998
X-108.682 Y-13.012
X-108.533 Y-13.002
X-108.479 Y-12.988
X-108.371 Y-12.933
X-108.293 Y-12.84
X-108.259 Y-12.723
X-108.25 Y-12.616
X-108.238 Y-12.531
X-108.233 Y-12.501
X-108.234 Y-12.465
X-108.248 Y-12.432
X-108.273 Y-12.405
X-108.306 Y-12.39
X-108.342 Y-12.387
X-108.573 Y-12.41
X-109.204 Y-12.473
X-109.24 Y-12.484
X-109.269 Y-12.508
X-109.288 Y-12.54
X-109.293 Y-12.578
X-109.29 Y-12.616
X-109.282 Y-12.784
X-109.276 Y-12.859
X-109.219 Y-12.998
X-109.112 Y-13.103
X-108.981 Y-13.177
X-108.839 Y-13.223
X-108.69 Y-13.245
X-108.541 Y-13.236
X-108.495 Y-13.224
X-108.381 Y-13.166
X-108.301 Y-13.065
X-108.271 Y-12.941
X-108.27 Y-12.869
X-108.261 Y-12.751
X-108.259 Y-12.723
X-108.263 Y-12.69
X-108.278 Y-12.66
X-108.302 Y-12.636
X-108.333 Y-12.622
X-108.367 Y-12.619
X-108.556 Y-12.634
X-109.19 Y-12.685
X-109.226 Y-12.694
X-109.256 Y-12.717
X-109.276 Y-12.748
X-109.282 Y-12.784
X-109.279 Y-12.869
X-109.278 Y-13
X-109.274 Y-13.075
X-109.22 Y-13.214
X-109.115 Y-13.322
X-108.987 Y-13.4
X-108.845 Y-13.45
X-108.697 Y-13.475
X-108.548 Y-13.467
X-108.499 Y-13.454
X-108.383 Y-13.394
X-108.304 Y-13.291
X-108.275 Y-13.164
Y-13.122
X-108.271 Y-12.941
X-108.277 Y-12.909
X-108.293 Y-12.88
X-108.317 Y-12.858
X-108.346 Y-12.845
X-108.379 Y-12.842
X-108.549 Y-12.855
X-109.186 Y-12.903
X-109.221 Y-12.912
X-109.251 Y-12.934
X-109.271 Y-12.964
X-109.278 Y-13
X-109.277 Y-13.253
X-109.274 Y-13.328
X-109.206 Y-13.462
X-109.097 Y-13.565
X-108.966 Y-13.639
X-108.824 Y-13.685
X-108.675 Y-13.705
X-108.526 Y-13.691
X-108.487 Y-13.679
X-108.377 Y-13.617
X-108.302 Y-13.516
X-108.275 Y-13.393
Y-13.164
X-108.282 Y-13.132
X-108.298 Y-13.103
X-108.323 Y-13.082
X-108.354 Y-13.07
X-108.386 Y-13.068
X-108.55 Y-13.086
X-109.189 Y-13.157
X-109.223 Y-13.167
X-109.251 Y-13.189
X-109.27 Y-13.219
X-109.277 Y-13.253
Y-13.46
X-109.274 Y-13.535
X-109.216 Y-13.674
X-109.111 Y-13.781
X-108.983 Y-13.859
X-108.842 Y-13.909
X-108.694 Y-13.933
X-108.544 Y-13.924
X-108.495 Y-13.911
X-108.381 Y-13.85
X-108.303 Y-13.748
X-108.275 Y-13.622
Y-13.393
X-108.282 Y-13.361
X-108.298 Y-13.333
X-108.322 Y-13.312
X-108.352 Y-13.299
X-108.384 Y-13.296
X-108.548 Y-13.31
X-109.186 Y-13.364
X-109.221 Y-13.374
X-109.25 Y-13.395
X-109.27 Y-13.425
X-109.277 Y-13.46
Y-13.676
X-109.274 Y-13.75
X-109.222 Y-13.891
X-109.12 Y-14.001
X-108.993 Y-14.082
X-108.853 Y-14.135
X-108.705 Y-14.161
X-108.555 Y-14.155
X-108.501 Y-14.141
X-108.384 Y-14.081
X-108.304 Y-13.978
X-108.275 Y-13.85
Y-13.622
X-108.282 Y-13.59
X-108.297 Y-13.563
X-108.321 Y-13.541
X-108.35 Y-13.528
X-108.382 Y-13.525
X-108.547 Y-13.536
X-109.184 Y-13.579
X-109.22 Y-13.588
X-109.249 Y-13.61
X-109.27 Y-13.64
X-109.277 Y-13.676
Y-13.929
X-109.274 Y-14.004
X-109.21 Y-14.14
X-109.104 Y-14.245
X-108.974 Y-14.321
X-108.832 Y-14.369
X-108.684 Y-14.391
X-108.534 Y-14.379
X-108.491 Y-14.366
X-108.379 Y-14.305
X-108.303 Y-14.203
X-108.275 Y-14.078
Y-13.85
X-108.282 Y-13.818
X-108.298 Y-13.79
X-108.323 Y-13.769
X-108.353 Y-13.756
X-108.385 Y-13.754
X-108.549 Y-13.77
X-109.187 Y-13.833
X-109.222 Y-13.843
X-109.25 Y-13.864
X-109.27 Y-13.894
X-109.277 Y-13.929
Y-14.136
X-109.274 Y-14.211
X-109.221 Y-14.351
X-109.118 Y-14.461
X-108.991 Y-14.541
X-108.851 Y-14.593
X-108.703 Y-14.619
X-108.553 Y-14.612
X-108.5 Y-14.598
X-108.384 Y-14.538
X-108.304 Y-14.435
X-108.275 Y-14.307
Y-14.078
X-108.282 Y-14.047
X-108.297 Y-14.019
X-108.321 Y-13.998
X-108.351 Y-13.985
X-108.382 Y-13.982
X-108.547 Y-13.994
X-109.185 Y-14.04
X-109.22 Y-14.049
X-109.25 Y-14.07
X-109.27 Y-14.1
X-109.277 Y-14.136
Y-14.351
X-109.27 Y-14.501
X-109.191 Y-14.629
X-109.077 Y-14.726
X-108.944 Y-14.795
X-108.799 Y-14.836
X-108.65 Y-14.85
X-108.501 Y-14.831
X-108.472 Y-14.821
X-108.369 Y-14.757
X-108.3 Y-14.658
X-108.275 Y-14.539
Y-14.307
X-108.285 Y-14.269
X-108.308 Y-14.237
X-108.342 Y-14.217
X-108.381 Y-14.211
X-108.547 Y-14.22
X-109.183 Y-14.255
X-109.219 Y-14.264
X-109.249 Y-14.285
X-109.269 Y-14.315
X-109.277 Y-14.351
Y-14.605
X-109.274 Y-14.68
X-109.218 Y-14.819
X-109.113 Y-14.926
X-108.985 Y-15.005
X-108.844 Y-15.056
X-108.696 Y-15.079
X-108.546 Y-15.072
X-108.495 Y-15.058
X-108.381 Y-14.998
X-108.303 Y-14.895
X-108.275 Y-14.769
Y-14.539
X-108.282 Y-14.507
X-108.298 Y-14.479
X-108.322 Y-14.458
X-108.351 Y-14.445
X-108.384 Y-14.443
X-108.548 Y-14.456
X-109.186 Y-14.509
X-109.221 Y-14.518
X-109.25 Y-14.539
X-109.27 Y-14.569
X-109.277 Y-14.605
Y-14.812
X-109.27 Y-14.961
X-109.191 Y-15.089
X-109.077 Y-15.187
X-108.944 Y-15.256
X-108.8 Y-15.297
X-108.65 Y-15.311
X-108.502 Y-15.292
X-108.473 Y-15.282
X-108.37 Y-15.218
X-108.3 Y-15.119
X-108.275 Y-15
Y-14.769
X-108.285 Y-14.731
X-108.308 Y-14.699
X-108.342 Y-14.678
X-108.381 Y-14.673
X-108.547 Y-14.681
X-109.183 Y-14.715
X-109.219 Y-14.724
X-109.249 Y-14.745
X-109.269 Y-14.776
X-109.277 Y-14.812
Y-15.065
X-109.274 Y-15.14
X-109.218 Y-15.279
X-109.114 Y-15.387
X-108.986 Y-15.465
X-108.845 Y-15.517
X-108.697 Y-15.54
X-108.547 Y-15.533
X-108.496 Y-15.519
X-108.382 Y-15.459
X-108.303 Y-15.356
X-108.275 Y-15.23
Y-15
X-108.282 Y-14.968
X-108.298 Y-14.941
X-108.322 Y-14.919
X-108.351 Y-14.906
X-108.383 Y-14.904
X-108.548 Y-14.917
X-109.186 Y-14.969
X-109.221 Y-14.978
X-109.25 Y-14.999
X-109.27 Y-15.03
X-109.277 Y-15.065
Y-15.28
X-109.274 Y-15.355
X-109.223 Y-15.497
X-109.122 Y-15.607
X-108.996 Y-15.688
X-108.856 Y-15.742
X-108.708 Y-15.769
X-108.558 Y-15.763
X-108.503 Y-15.749
X-108.385 Y-15.69
X-108.304 Y-15.587
X-108.275 Y-15.458
Y-15.23
X-108.285 Y-15.191
X-108.308 Y-15.159
X-108.342 Y-15.139
X-108.382 Y-15.134
X-108.547 Y-15.144
X-109.184 Y-15.184
X-109.219 Y-15.193
X-109.249 Y-15.214
X-109.27 Y-15.245
X-109.277 Y-15.28
Y-15.534
X-109.274 Y-15.609
X-109.212 Y-15.745
X-109.106 Y-15.851
X-108.977 Y-15.928
X-108.835 Y-15.977
X-108.686 Y-15.999
X-108.537 Y-15.988
X-108.492 Y-15.975
X-108.38 Y-15.914
X-108.303 Y-15.812
X-108.275 Y-15.686
Y-15.458
X-108.282 Y-15.426
X-108.298 Y-15.398
X-108.322 Y-15.377
X-108.352 Y-15.364
X-108.385 Y-15.362
X-108.549 Y-15.378
X-109.187 Y-15.438
X-109.221 Y-15.447
X-109.25 Y-15.469
X-109.27 Y-15.499
X-109.277 Y-15.534
Y-15.741
X-109.274 Y-15.816
X-109.222 Y-15.957
X-109.12 Y-16.067
X-108.994 Y-16.147
X-108.854 Y-16.2
X-108.706 Y-16.227
X-108.556 Y-16.22
X-108.501 Y-16.206
X-108.384 Y-16.147
X-108.304 Y-16.043
X-108.275 Y-15.915
Y-15.686
X-108.282 Y-15.655
X-108.297 Y-15.627
X-108.321 Y-15.606
X-108.35 Y-15.593
X-108.382 Y-15.59
X-108.547 Y-15.601
X-109.184 Y-15.644
X-109.22 Y-15.654
X-109.249 Y-15.675
X-109.27 Y-15.705
X-109.277 Y-15.741
Y-15.994
X-109.274 Y-16.069
X-109.211 Y-16.205
X-109.104 Y-16.311
X-108.975 Y-16.387
X-108.833 Y-16.435
X-108.684 Y-16.456
X-108.535 Y-16.444
X-108.491 Y-16.432
X-108.379 Y-16.371
X-108.303 Y-16.269
X-108.275 Y-16.144
Y-15.915
X-108.282 Y-15.883
X-108.298 Y-15.855
X-108.323 Y-15.834
X-108.353 Y-15.821
X-108.385 Y-15.819
X-108.549 Y-15.835
X-109.187 Y-15.898
X-109.222 Y-15.908
X-109.25 Y-15.929
X-109.27 Y-15.959
X-109.277 Y-15.994
Y-16.21
X-109.274 Y-16.284
X-109.217 Y-16.423
X-109.113 Y-16.531
X-108.985 Y-16.609
X-108.843 Y-16.66
X-108.695 Y-16.685
X-108.546 Y-16.676
X-108.496 Y-16.662
X-108.382 Y-16.602
X-108.303 Y-16.499
X-108.275 Y-16.373
Y-16.144
X-108.282 Y-16.112
X-108.298 Y-16.084
X-108.322 Y-16.063
X-108.351 Y-16.05
X-108.384 Y-16.048
X-108.548 Y-16.061
X-109.186 Y-16.113
X-109.221 Y-16.123
X-109.25 Y-16.144
X-109.27 Y-16.174
X-109.277 Y-16.21
Y-16.417
X-109.27 Y-16.566
X-109.191 Y-16.694
X-109.077 Y-16.791
X-108.944 Y-16.86
X-108.799 Y-16.901
X-108.65 Y-16.915
X-108.501 Y-16.896
X-108.473 Y-16.886
X-108.369 Y-16.822
X-108.3 Y-16.723
X-108.275 Y-16.604
Y-16.373
X-108.285 Y-16.334
X-108.308 Y-16.302
X-108.342 Y-16.282
X-108.381 Y-16.276
X-108.547 Y-16.285
X-109.183 Y-16.32
X-109.219 Y-16.329
X-109.249 Y-16.35
X-109.269 Y-16.381
X-109.277 Y-16.417
Y-16.67
X-109.274 Y-16.745
X-109.218 Y-16.884
X-109.113 Y-16.992
X-108.985 Y-17.07
X-108.844 Y-17.121
X-108.696 Y-17.144
X-108.546 Y-17.137
X-108.495 Y-17.123
X-108.381 Y-17.063
X-108.303 Y-16.96
X-108.275 Y-16.834
Y-16.604
X-108.282 Y-16.572
X-108.298 Y-16.544
X-108.322 Y-16.523
X-108.351 Y-16.51
X-108.384 Y-16.508
X-108.548 Y-16.521
X-109.186 Y-16.574
X-109.221 Y-16.583
X-109.25 Y-16.604
X-109.27 Y-16.635
X-109.277 Y-16.67
Y-16.885
Y-16.923
Y-16.97
X-109.276 Y-17.007
X-109.249 Y-17.055
X-109.183 Y-17.138
X-109.091 Y-17.192
X-108.986 Y-17.211
X-108.952 Y-17.203
X-108.922 Y-17.185
X-108.901 Y-17.157
X-108.891 Y-17.123
X-108.893 Y-17.088
X-108.906 Y-17.056
X-108.931 Y-17.03
X-109.118 Y-16.893
X-109.151 Y-16.877
X-109.187 Y-16.874
X-109.221 Y-16.883
X-109.25 Y-16.905
X-109.27 Y-16.935
X-109.277 Y-16.97
Y-17.092
X-109.276 Y-17.116
X-109.273 Y-17.128
X-109.269 Y-17.14
X-109.259 Y-17.159
X-109.242 Y-17.177
X-109.213 Y-17.197
X-109.199 Y-17.204
X-109.184 Y-17.208
X-109.174 Y-17.21
X-109.142 Y-17.211
X-108.461
X-108.355 Y-17.205
X-108.322 Y-17.185
X-108.3 Y-17.154
X-108.292 Y-17.116
X-108.298 Y-17.078
X-108.319 Y-17.046
X-108.351 Y-17.024
X-108.388 Y-17.016
X-108.456 Y-17.015
X-108.494 Y-17.022
X-108.526 Y-17.043
X-108.547 Y-17.074
X-108.555 Y-17.111
X-108.549 Y-17.148
X-108.529 Y-17.18
X-108.498 Y-17.202
X-108.461 Y-17.211
X-108.381
X-108.37 Y-17.209
X-108.36 Y-17.207
X-108.349 Y-17.203
X-108.338 Y-17.198
X-108.325 Y-17.189
X-108.3 Y-17.166
X-108.292 Y-17.156
X-108.286 Y-17.145
X-108.281 Y-17.134
X-108.278 Y-17.124
X-108.276 Y-17.113
X-108.275 Y-17.092
Y-16.834
X-108.28 Y-16.806
X-108.293 Y-16.781
X-108.322 Y-16.764 Z-0.983
X-108.347 Y-16.749 Z-0.966
X-108.366 Y-16.738 Z-0.939
X-108.375 Z-0.916
X-108.379 Z-0.89
G0 Z2
X-104.678 Y-11.193
Z0.5
G3 X-104.194 Y-11.317 Z0.29 I0.242 J-0.062 F333.3
X-104.678 Y-11.193 Z0.079 I-0.242 J0.062
X-104.194 Y-11.317 Z-0.131 I0.242 J-0.062
X-104.678 Y-11.193 Z-0.342 I-0.242 J0.062
X-104.194 Y-11.317 Z-0.552 I0.242 J-0.062
X-104.678 Y-11.193 Z-0.763 I-0.242 J0.062
X-104.467 Y-11.503 Z-0.876 I0.242 J-0.062
X-104.186 Y-11.255 Z-0.99 I0.031 J0.248
X-104.686 I-0.25
X-104.186 I0.25
G1 X-104.149 Y-11.11 F1000
X-104.162 Y-11.036
X-104.199 Y-10.971
X-104.306 Y-10.866
X-104.45 Y-10.826
X-104.599 Y-10.847
X-104.729 Y-10.921
X-104.826 Y-11.036
X-104.878 Y-11.176
X-104.88 Y-11.326
X-104.833 Y-11.469
X-104.741 Y-11.587
X-104.615 Y-11.669
X-104.469 Y-11.705
X-104.32 Y-11.691
X-104.183 Y-11.629
X-104.075 Y-11.525
X-103.997 Y-11.397
X-103.947 Y-11.256
X-103.936 Y-11.106
X-103.971 Y-10.96
X-104.042 Y-10.828
X-104.15 Y-10.724
X-104.281 Y-10.651
X-104.427 Y-10.618
X-104.577 Y-10.625
X-104.721 Y-10.666
X-104.851 Y-10.742
X-104.957 Y-10.847
X-105.039 Y-10.973
X-105.089 Y-11.114
X-105.098 Y-11.211
X-105.096 Y-11.287
X-105.075 Y-11.36
X-105.036 Y-11.425
X-104.954 Y-11.529
X-104.899 Y-11.602
X-104.87 Y-11.643
X-104.845 Y-11.686
X-104.809 Y-11.752
X-104.691 Y-11.845
X-104.551 Y-11.898
X-104.402 Y-11.915
X-104.253 Y-11.896
X-104.114 Y-11.84
X-103.99 Y-11.755
X-103.885 Y-11.647
X-103.801 Y-11.523
X-103.778 Y-11.468
X-103.759 Y-11.4
X-103.756 Y-11.329
X-103.769 Y-11.26
X-103.807 Y-11.18
X-103.856 Y-11.095
X-103.959 Y-10.926
X-104.025 Y-10.842
X-104.108 Y-10.75
X-104.193 Y-10.666
X-104.272 Y-10.588
X-104.336 Y-10.539
X-104.362 Y-10.518
X-104.38 Y-10.504
X-104.513 Y-10.434
X-104.663 Y-10.433
X-104.809 Y-10.468
X-104.943 Y-10.534
X-105.062 Y-10.626
X-105.163 Y-10.736
X-105.244 Y-10.863
X-105.267 Y-10.92
X-105.288 Y-11.032
X-105.266 Y-11.144
X-105.203 Y-11.239
X-105.173 Y-11.259
X-105.137 Y-11.267
X-105.101 Y-11.262
X-105.069 Y-11.243
X-104.845 Y-11.053
X-104.379 Y-10.657
X-104.357 Y-10.63
X-104.346 Y-10.598
Y-10.563
X-104.358 Y-10.53
X-104.38 Y-10.504
X-104.616 Y-10.365
X-104.647 Y-10.348
X-104.672 Y-10.335
X-104.722 Y-10.313
X-104.73 Y-10.31
X-104.738 Y-10.314
X-104.767 Y-10.336
X-104.785 Y-10.367
X-104.792 Y-10.402
X-104.785 Y-10.438
X-104.767 Y-10.469
X-104.413 Y-10.867
X-104.384 Y-10.889
X-104.349 Y-10.9
X-104.312 Y-10.897
X-104.279 Y-10.881
X-104.254 Y-10.854
X-104.24 Y-10.82
Y-10.783
X-104.252 Y-10.749
G3 X-104.672 Y-10.335 I-1.017 J-0.612
G1 X-104.701 Y-10.32
X-104.747 Y-10.304
X-104.819 Y-10.283
X-104.966 Y-10.315
X-105.102 Y-10.378
X-105.224 Y-10.464
X-105.332 Y-10.569
X-105.418 Y-10.692
X-105.445 Y-10.751
X-105.471 Y-10.879
X-105.441 Y-11.006
X-105.359 Y-11.108
X-105.325 Y-11.124
X-105.287 Y-11.127
X-105.251 Y-11.115
X-105.222 Y-11.091
X-105.084 Y-10.922
X-104.706 Y-10.46
X-104.688 Y-10.427
X-104.684 Y-10.39
X-104.693 Y-10.354
X-104.715 Y-10.324
X-104.747 Y-10.304
X-104.785 Y-10.291
X-104.87 Y-10.264
X-104.954 Y-10.239
X-105.1 Y-10.204
X-105.246 Y-10.242
X-105.377 Y-10.314
X-105.493 Y-10.41
X-105.586 Y-10.527
X-105.622 Y-10.6
X-105.654 Y-10.712
X-105.644 Y-10.828
X-105.593 Y-10.932
X-105.507 Y-11.011
X-105.474 Y-11.023
X-105.439 Y-11.022
X-105.406 Y-11.01
X-105.379 Y-10.987
X-105.278 Y-10.86
X-104.908 Y-10.396
X-104.89 Y-10.363
X-104.886 Y-10.324
X-104.897 Y-10.288
X-104.921 Y-10.258
X-104.954 Y-10.239
X-105.039 Y-10.214
X-105.124 Y-10.195
X-105.208 Y-10.183
X-105.293 Y-10.174
X-105.443 Y-10.166
X-105.579 Y-10.228
X-105.696 Y-10.322
X-105.787 Y-10.442
X-105.845 Y-10.58
X-105.852 Y-10.622
X-105.841 Y-10.761
X-105.768 Y-10.879
X-105.65 Y-10.952
X-105.616 Y-10.956
X-105.583 Y-10.949
X-105.555 Y-10.931
X-105.534 Y-10.904
X-105.5 Y-10.842
X-105.219 Y-10.321
X-105.207 Y-10.284
X-105.21 Y-10.246
X-105.228 Y-10.212
X-105.257 Y-10.187
X-105.293 Y-10.174
X-105.377 Y-10.165
X-105.462 Y-10.158
X-105.631 Y-10.164
X-105.706 Y-10.171
X-105.844 Y-10.231
X-105.952 Y-10.334
X-106.026 Y-10.465
X-106.062 Y-10.61
X-106.061 Y-10.624
X-106.028 Y-10.742
X-105.95 Y-10.837
X-105.841 Y-10.893
X-105.805 Y-10.895
X-105.77 Y-10.884
X-105.742 Y-10.861
X-105.724 Y-10.829
X-105.537 Y-10.298
X-105.531 Y-10.26
X-105.54 Y-10.223
X-105.562 Y-10.192
X-105.594 Y-10.172
X-105.631 Y-10.164
X-105.716 Y-10.168
X-105.8 Y-10.175
X-105.885 Y-10.184
X-105.959 Y-10.196
X-106.094 Y-10.261
X-106.192 Y-10.375
X-106.249 Y-10.514
X-106.251 Y-10.545
X-106.224 Y-10.691
X-106.131 Y-10.806
X-105.995 Y-10.863
X-105.959 Y-10.86
X-105.926 Y-10.844
X-105.9 Y-10.818
X-105.886 Y-10.785
X-105.78 Y-10.305
X-105.779 Y-10.268
X-105.791 Y-10.233
X-105.816 Y-10.205
X-105.848 Y-10.188
X-105.885 Y-10.184
X-106.054 Y-10.203
X-106.139 Y-10.22
X-106.283 Y-10.263
X-106.387 Y-10.37
X-106.435 Y-10.513
X-106.436 Y-10.54
X-106.402 Y-10.682
X-106.305 Y-10.791
X-106.168 Y-10.842
X-106.129 Y-10.837
X-106.096 Y-10.818
X-106.072 Y-10.788
X-106.061 Y-10.751
X-106.023 Y-10.328
X-106.026 Y-10.292
X-106.042 Y-10.259
X-106.069 Y-10.235
X-106.103 Y-10.221
X-106.139 Y-10.22
X-106.223 Y-10.241
X-106.308 Y-10.269
X-106.393 Y-10.299
X-106.462 Y-10.328
X-106.517 Y-10.378
X-106.52 Y-10.383
X-106.558 Y-10.525
X-106.525 Y-10.668
X-106.428 Y-10.778
X-106.29 Y-10.829
X-106.253 Y-10.824
X-106.22 Y-10.807
X-106.196 Y-10.778
X-106.184 Y-10.743
X-106.186 Y-10.706
X-106.265 Y-10.371
X-106.278 Y-10.341
X-106.3 Y-10.316
X-106.328 Y-10.3
X-106.36 Y-10.294
X-106.393 Y-10.299
X-106.531 Y-10.349
X-106.6 Y-10.378
X-106.65 Y-10.434
X-106.708 Y-10.572
X-106.674 Y-10.678
X-106.603 Y-10.764
X-106.504 Y-10.815
X-106.393 Y-10.826
X-106.36 Y-10.815
X-106.332 Y-10.794
X-106.314 Y-10.764
X-106.306 Y-10.73
X-106.311 Y-10.695
X-106.405 Y-10.413
X-106.424 Y-10.379
X-106.455 Y-10.355
X-106.492 Y-10.344
X-106.531 Y-10.349
X-106.646 Y-10.392
X-106.681 Y-10.407
X-106.709 Y-10.419
X-106.77 Y-10.462
X-106.808 Y-10.527
X-106.825 Y-10.6
X-106.798 Y-10.702
X-106.732 Y-10.785
X-106.639 Y-10.834
X-106.533 Y-10.842
X-106.498 Y-10.829
X-106.47 Y-10.804
X-106.454 Y-10.77
X-106.451 Y-10.732
X-106.462 Y-10.696
X-106.583 Y-10.466
X-106.606 Y-10.437
X-106.637 Y-10.419
X-106.673 Y-10.412
X-106.709 Y-10.419
X-106.731 Y-10.433
X-106.83 Y-10.504
X-106.869 Y-10.533
X-106.897 Y-10.558
X-106.925 Y-10.627
X-106.906 Y-10.724
X-106.849 Y-10.803
X-106.763 Y-10.852
X-106.665 Y-10.859
X-106.636 Y-10.851
X-106.611 Y-10.835
X-106.59 Y-10.812
G3 X-106.869 Y-10.533 I-0.163 J0.116
G1 X-106.941 Y-10.588
X-106.969 Y-10.613
X-107.006 Y-10.678
X-106.98 Y-10.785
X-106.9 Y-10.859
X-106.791 Y-10.877
X-106.755 Y-10.865
X-106.725 Y-10.842
G3 X-106.941 Y-10.588 I-0.119 J0.117
G1 X-107.021 Y-10.65
X-107.051 Y-10.673
X-107.069 Y-10.688
X-107.091 Y-10.708
X-107.065 Y-10.812
X-106.984 Y-10.882
X-106.877 Y-10.893
X-106.851 Y-10.88
X-106.832 Y-10.859
X-106.822 Y-10.831
G3 X-107.069 Y-10.688 I-0.154 J0.019
G1 X-107.108 Y-10.721
X-107.128 Y-10.738
X-107.147 Y-10.757
X-107.162 Y-10.786
X-107.157 Y-10.794
X-107.134 Y-10.818
X-107.103 Y-10.833
X-107.07 Y-10.838
X-107.036 Y-10.83
X-106.445 Y-10.586
X-106.397 Y-10.566
X-106.365 Y-10.546
X-106.344 Y-10.516
X-106.335 Y-10.479
X-106.34 Y-10.442
X-106.358 Y-10.41
X-106.387 Y-10.386
X-106.423 Y-10.375
X-106.46 Y-10.377
G3 X-107.147 Y-10.757 I0.398 J-1.532
G1 X-107.154 Y-10.767
X-107.162 Y-10.786
X-107.167 Y-10.805
Y-10.823
X-107.165 Y-10.842
X-107.16 Y-10.855
X-107.154 Y-10.868
X-107.141 Y-10.886
X-107.124 Y-10.903
X-107.109 Y-10.917
X-107.094 Y-10.926
X-107.082 Y-10.931
X-107.069 Y-10.935
X-107.052 Y-10.937
X-107.034 Y-10.936
X-106.985 Y-10.922
X-106.9 Y-10.898
X-106.816 Y-10.88
X-106.477 Y-10.834
X-106.393 Y-10.826
X-106.308 Y-10.827
X-106.054 Y-10.854
X-105.97 Y-10.866
X-105.885 Y-10.881
X-105.8 Y-10.904
X-105.716 Y-10.931
X-105.631 Y-10.959
X-105.507 Y-11.011
X-105.416 Y-11.069
X-105.375 Y-11.095
X-105.27 Y-11.18
X-105.208 Y-11.234
X-105.097 Y-11.349
X-105.036 Y-11.425
X-105.008 Y-11.449
X-104.973 Y-11.462
X-104.936 Y-11.461
X-104.902 Y-11.447
X-104.876 Y-11.422
X-104.86 Y-11.388
X-104.746 Y-10.945
X-104.743 Y-10.909
X-104.754 Y-10.874
X-104.776 Y-10.845
X-104.806 Y-10.827
X-104.842 Y-10.82
X-104.877 Y-10.826
X-104.908 Y-10.844
X-104.931 Y-10.873
X-104.942 Y-10.907
G3 X-104.845 Y-11.686 I1.57 J-0.201
G1 X-104.827 Y-11.729
X-104.811 Y-11.771
X-104.785 Y-11.847
X-104.758 Y-11.916
X-104.66 Y-12.03
X-104.525 Y-12.096
X-104.378 Y-12.123
X-104.228 Y-12.114
X-104.083 Y-12.074
X-103.948 Y-12.008
X-103.826 Y-11.922
X-103.759 Y-11.859
X-103.696 Y-11.772
X-103.668 Y-11.669
X-103.677 Y-11.562
X-103.715 Y-11.433
X-103.769 Y-11.26
X-103.787 Y-11.229
X-103.815 Y-11.207
X-103.849 Y-11.195
X-103.884 Y-11.196
X-103.917 Y-11.21
X-104.189 Y-11.382
X-104.743 Y-11.733
X-104.767 Y-11.755
X-104.783 Y-11.783
X-104.789 Y-11.815
X-104.785 Y-11.847
X-104.725 Y-12.024
X-104.713 Y-12.071
X-104.692 Y-12.143
X-104.585 Y-12.248
X-104.448 Y-12.309
X-104.3 Y-12.332
X-104.15 Y-12.324
X-104.004 Y-12.29
X-103.865 Y-12.234
X-103.734 Y-12.156
X-103.673 Y-12.084
X-103.637 Y-11.997
X-103.63 Y-11.903
X-103.641 Y-11.771
X-103.649 Y-11.686
X-103.666 Y-11.602
X-103.677 Y-11.562
X-103.693 Y-11.531
X-103.719 Y-11.508
X-103.752 Y-11.494
X-103.787 Y-11.493
X-103.82 Y-11.504
X-104.086 Y-11.648
X-104.663 Y-11.962
X-104.688 Y-11.982
X-104.706 Y-12.008
X-104.715 Y-12.039
X-104.713 Y-12.071
X-104.704 Y-12.109
X-104.678 Y-12.24
X-104.66 Y-12.312
X-104.57 Y-12.432
X-104.439 Y-12.506
X-104.294 Y-12.543
X-104.144 Y-12.55
X-103.995 Y-12.532
X-103.851 Y-12.491
X-103.784 Y-12.459
X-103.688 Y-12.389
X-103.628 Y-12.286
X-103.611 Y-12.169
X-103.62 Y-12.024
X-103.63 Y-11.903
X-103.64 Y-11.868
X-103.662 Y-11.84
X-103.693 Y-11.821
X-103.728 Y-11.814
X-103.763 Y-11.82
X-104.005 Y-11.909
X-104.614 Y-12.13
X-104.643 Y-12.147
X-104.666 Y-12.173
X-104.678 Y-12.205
Y-12.24
X-104.671 Y-12.278
X-104.662 Y-12.362
X-104.658 Y-12.409
X-104.648 Y-12.483
X-104.575 Y-12.613
X-104.452 Y-12.7
X-104.312 Y-12.753
X-104.163 Y-12.776
X-104.014 Y-12.773
X-103.866 Y-12.746
X-103.791 Y-12.718
X-103.685 Y-12.65
X-103.617 Y-12.545
X-103.597 Y-12.422
X-103.61 Y-12.193
X-103.611 Y-12.169
X-103.621 Y-12.136
X-103.641 Y-12.108
X-103.669 Y-12.088
X-103.702 Y-12.079
X-103.737 Y-12.082
X-103.957 Y-12.14
X-104.584 Y-12.307
X-104.615 Y-12.321
X-104.639 Y-12.345
X-104.654 Y-12.375
X-104.658 Y-12.409
X-104.648 Y-12.531
X-104.645 Y-12.616
X-104.64 Y-12.69
X-104.564 Y-12.82
X-104.444 Y-12.911
X-104.307 Y-12.97
X-104.16 Y-13.001
X-104.01 Y-13.008
X-103.861 Y-12.988
X-103.795 Y-12.965
X-103.687 Y-12.902
X-103.614 Y-12.801
X-103.589 Y-12.679
X-103.591 Y-12.531
X-103.597 Y-12.422
X-103.606 Y-12.389
X-103.625 Y-12.361
X-103.652 Y-12.341
X-103.685 Y-12.331
X-103.718 Y-12.333
X-103.929 Y-12.379
X-104.566 Y-12.52
X-104.597 Y-12.532
X-104.622 Y-12.554
X-104.638 Y-12.583
X-104.645 Y-12.616
X-104.642 Y-12.784
X-104.638 Y-12.859
X-104.586 Y-13
X-104.478 Y-13.104
X-104.347 Y-13.177
X-104.204 Y-13.222
X-104.055 Y-13.242
X-103.905 Y-13.235
X-103.759 Y-13.199
X-103.75 Y-13.194
X-103.665 Y-13.128
X-103.608 Y-13.035
X-103.588 Y-12.929
X-103.589 Y-12.679
X-103.596 Y-12.647
X-103.613 Y-12.618
X-103.638 Y-12.597
X-103.668 Y-12.585
X-103.701 Y-12.584
X-103.916 Y-12.61
X-104.554 Y-12.688
X-104.588 Y-12.698
X-104.616 Y-12.72
X-104.635 Y-12.75
X-104.642 Y-12.784
X-104.641 Y-12.953
Y-13
X-104.637 Y-13.075
X-104.584 Y-13.215
X-104.479 Y-13.322
X-104.35 Y-13.399
X-104.209 Y-13.448
X-104.061 Y-13.473
X-103.911
X-103.764 Y-13.442
X-103.762 Y-13.44
X-103.671 Y-13.374
X-103.61 Y-13.28
X-103.589 Y-13.17
X-103.588 Y-12.929
X-103.595 Y-12.897
X-103.611 Y-12.869
X-103.635 Y-12.848
X-103.665 Y-12.835
X-103.697 Y-12.833
X-103.912 Y-12.851
X-104.55 Y-12.904
X-104.584 Y-12.913
X-104.614 Y-12.934
X-104.633 Y-12.965
X-104.641 Y-13
Y-13.253
X-104.637 Y-13.328
X-104.57 Y-13.462
X-104.46 Y-13.564
X-104.329 Y-13.638
X-104.187 Y-13.686
X-104.039 Y-13.709
X-103.889 Y-13.708
X-103.818 Y-13.691
X-103.701 Y-13.632
X-103.619 Y-13.528
X-103.59 Y-13.4
X-103.589 Y-13.17
X-103.596 Y-13.138
X-103.612 Y-13.11
X-103.636 Y-13.088
X-103.666 Y-13.076
X-103.699 Y-13.073
X-103.913 Y-13.094
X-104.551 Y-13.157
X-104.585 Y-13.167
X-104.614 Y-13.188
X-104.634 Y-13.218
X-104.641 Y-13.253
Y-13.46
X-104.637 Y-13.535
X-104.579 Y-13.673
X-104.474 Y-13.781
X-104.347 Y-13.859
X-104.206 Y-13.912
X-104.059 Y-13.942
X-103.909
X-103.762 Y-13.912
X-103.756 Y-13.908
X-103.669 Y-13.842
X-103.611 Y-13.749
X-103.591 Y-13.641
X-103.59 Y-13.4
X-103.596 Y-13.369
X-103.612 Y-13.341
X-103.636 Y-13.319
X-103.665 Y-13.306
X-103.697 Y-13.304
X-103.911 Y-13.319
X-104.548 Y-13.364
X-104.584 Y-13.373
X-104.613 Y-13.394
X-104.633 Y-13.425
X-104.641 Y-13.46
Y-13.676
X-104.637 Y-13.75
X-104.586 Y-13.891
X-104.484 Y-14.002
X-104.359 Y-14.085
X-104.22 Y-14.141
X-104.074 Y-14.172
X-103.924 Y-14.179
X-103.776 Y-14.152
X-103.771 Y-14.15
X-103.677 Y-14.085
X-103.614 Y-13.989
X-103.591 Y-13.876
Y-13.641
X-103.599 Y-13.603
X-103.622 Y-13.571
X-103.656 Y-13.551
X-103.695 Y-13.545
X-103.91 Y-13.553
X-104.545 Y-13.579
X-104.582 Y-13.588
X-104.612 Y-13.609
X-104.633 Y-13.639
X-104.641 Y-13.676
Y-13.929
X-104.637 Y-14.004
X-104.576 Y-14.141
X-104.471 Y-14.248
X-104.344 Y-14.327
X-104.203 Y-14.38
X-104.056 Y-14.409
X-103.906 Y-14.413
X-103.829 Y-14.396
X-103.707 Y-14.339
X-103.622 Y-14.235
X-103.592 Y-14.104
X-103.591 Y-13.876
X-103.6 Y-13.837
X-103.624 Y-13.805
X-103.658 Y-13.785
X-103.697 Y-13.779
X-103.911 Y-13.793
X-104.548 Y-13.833
X-104.583 Y-13.842
X-104.613 Y-13.863
X-104.633 Y-13.893
X-104.641 Y-13.929
Y-14.136
X-104.634 Y-14.286
X-104.553 Y-14.412
X-104.439 Y-14.51
X-104.307 Y-14.581
X-104.164 Y-14.627
X-104.016 Y-14.648
X-103.866 Y-14.637
X-103.814 Y-14.623
X-103.699 Y-14.563
X-103.621 Y-14.461
X-103.593 Y-14.334
X-103.592 Y-14.104
X-103.601 Y-14.066
X-103.624 Y-14.034
X-103.657 Y-14.013
X-103.696 Y-14.007
X-103.91 Y-14.015
X-104.545 Y-14.039
X-104.581 Y-14.048
X-104.612 Y-14.069
X-104.633 Y-14.1
X-104.641 Y-14.136
Y-14.389
X-104.637 Y-14.464
X-104.581 Y-14.603
X-104.478 Y-14.712
X-104.351 Y-14.793
X-104.212 Y-14.848
X-104.065 Y-14.877
X-103.915
X-103.768 Y-14.847
X-103.76 Y-14.843
X-103.672 Y-14.777
X-103.614 Y-14.684
X-103.593 Y-14.576
Y-14.334
X-103.599 Y-14.303
X-103.614 Y-14.275
X-103.638 Y-14.254
X-103.667 Y-14.241
X-103.699 Y-14.238
X-103.911 Y-14.252
X-104.548 Y-14.293
X-104.583 Y-14.302
X-104.613 Y-14.323
X-104.633 Y-14.354
X-104.641 Y-14.389
Y-14.605
X-104.634 Y-14.755
X-104.553 Y-14.881
X-104.44 Y-14.979
X-104.308 Y-15.05
