%
(091-095)
(T1  D=1 CR=0 - ZMIN=-2 - flat end mill)
G90 G94
G17
G21
G28 G91 Z0
G90

(Clear 15)
M9
T1 M6
S5000 M3
G54
M8
G0 X-115.816 Y-11.45
Z12
Z2
Z0.5
G3 X-115.332 Y-11.575 Z0.29 I0.242 J-0.062 F333.3
X-115.816 Y-11.45 Z0.079 I-0.242 J0.062
X-115.332 Y-11.575 Z-0.131 I0.242 J-0.062
X-115.816 Y-11.45 Z-0.342 I-0.242 J0.062
X-115.332 Y-11.575 Z-0.552 I0.242 J-0.062
X-115.816 Y-11.45 Z-0.763 I-0.242 J0.062
X-115.605 Y-11.76 Z-0.876 I0.242 J-0.062
X-115.324 Y-11.512 Z-0.99 I0.031 J0.248
X-115.824 I-0.25
X-115.324 I0.25
G1 X-115.286 Y-11.367 F1000
X-115.299 Y-11.293
X-115.336 Y-11.228
X-115.443 Y-11.123
X-115.588 Y-11.083
X-115.737 Y-11.104
X-115.867 Y-11.178
X-115.964 Y-11.293
X-116.016 Y-11.434
X-116.018 Y-11.584
X-115.97 Y-11.726
X-115.878 Y-11.844
X-115.753 Y-11.926
X-115.607 Y-11.962
X-115.458 Y-11.948
X-115.321 Y-11.886
X-115.212 Y-11.782
X-115.134 Y-11.654
X-115.084 Y-11.513
X-115.073 Y-11.363
X-115.109 Y-11.217
X-115.179 Y-11.085
X-115.288 Y-10.981
X-115.419 Y-10.908
X-115.565 Y-10.875
X-115.715 Y-10.882
X-115.859 Y-10.923
X-115.988 Y-10.999
X-116 Y-11.011
X-116.037 Y-11.055
X-116.065 Y-11.105
X-116.082 Y-11.16
X-116.106 Y-11.264
X-116.122 Y-11.306
X-116.141 Y-11.349
X-116.202 Y-11.486
X-116.21 Y-11.635
X-116.173 Y-11.781
X-116.101 Y-11.912
X-116.001 Y-12.024
X-115.876 Y-12.108
X-115.736 Y-12.16
X-115.587 Y-12.183
X-115.438 Y-12.169
X-115.296 Y-12.122
X-115.274 Y-12.109
X-115.228 Y-12.076
X-115.189 Y-12.034
X-115.158 Y-11.986
X-115.022 Y-11.72
X-115.011 Y-11.686
X-114.951 Y-11.387
X-114.929 Y-11.238
X-114.953 Y-11.09
X-115.019 Y-10.955
X-115.117 Y-10.841
X-115.237 Y-10.752
X-115.373 Y-10.688
X-115.518 Y-10.652
X-115.668 Y-10.646
X-115.817 Y-10.668
X-115.828 Y-10.671
X-115.922 Y-10.722
X-115.992 Y-10.802
X-116.03 Y-10.902
X-116.068 Y-11.095
X-116.082 Y-11.16
Y-11.199
X-116.067 Y-11.234
X-116.039 Y-11.261
X-116.004 Y-11.276
X-115.687 Y-11.339
X-115.068 Y-11.462
X-115.03
X-114.994 Y-11.448
X-114.967 Y-11.421
X-114.951 Y-11.387
X-114.91 Y-11.18
X-114.901 Y-11.095
X-114.894 Y-11.011
X-114.889 Y-10.861
X-114.959 Y-10.728
X-115.06 Y-10.617
X-115.181 Y-10.529
X-115.317 Y-10.465
X-115.461 Y-10.424
X-115.61 Y-10.407
X-115.76 Y-10.418
X-115.79 Y-10.426
X-115.898 Y-10.483
X-115.975 Y-10.577
X-116.008 Y-10.694
X-116.018 Y-10.842
X-116.03 Y-10.902
X-116.029 Y-10.935
X-116.018 Y-10.965
X-115.998 Y-10.991
X-115.971 Y-11.009
X-115.939 Y-11.017
X-115.631 Y-11.044
X-115.002 Y-11.099
X-114.964 Y-11.095
X-114.93 Y-11.077
X-114.906 Y-11.047
X-114.894 Y-11.011
X-114.881 Y-10.842
X-114.877 Y-10.757
X-114.876 Y-10.607
X-114.946 Y-10.474
X-115.05 Y-10.366
X-115.174 Y-10.283
X-115.312 Y-10.222
X-115.457 Y-10.184
X-115.606 Y-10.168
X-115.755 Y-10.183
X-115.79 Y-10.194
X-115.898 Y-10.255
X-115.973 Y-10.356
X-116 Y-10.478
X-116.001 Y-10.588
X-116.008 Y-10.694
X-116.002 Y-10.732
X-115.982 Y-10.765
X-115.951 Y-10.788
X-115.914 Y-10.798
X-115.612 Y-10.814
X-114.982 Y-10.848
X-114.944 Y-10.843
X-114.911 Y-10.824
X-114.887 Y-10.794
X-114.877 Y-10.757
X-114.868 Y-10.588
Y-10.457
X-114.871 Y-10.383
X-114.932 Y-10.245
X-115.033 Y-10.135
X-115.156 Y-10.049
X-115.293 Y-9.987
X-115.438 Y-9.947
X-115.587 Y-9.93
X-115.736 Y-9.944
X-115.787 Y-9.959
X-115.902 Y-10.023
X-115.978 Y-10.129
X-116.002 Y-10.258
X-115.999 Y-10.335
X-116 Y-10.478
X-115.991 Y-10.516
X-115.969 Y-10.547
X-115.936 Y-10.568
X-115.897 Y-10.575
X-115.599 Y-10.568
X-114.965 Y-10.554
X-114.929 Y-10.546
X-114.897 Y-10.525
X-114.876 Y-10.494
X-114.868 Y-10.457
X-114.867 Y-10.335
X-114.871 Y-10.25
X-114.874 Y-10.204
X-114.883 Y-10.13
X-114.943 Y-9.992
X-115.046 Y-9.883
X-115.171 Y-9.8
X-115.309 Y-9.741
X-115.454 Y-9.706
X-115.604 Y-9.694
X-115.753 Y-9.712
X-115.811 Y-9.731
X-115.928 Y-9.802
X-116.001 Y-9.917
X-116.016 Y-10.053
X-116.012 Y-10.082
X-116.002 Y-10.258
X-115.991 Y-10.295
X-115.968 Y-10.326
X-115.935 Y-10.345
X-115.897 Y-10.351
X-115.598 Y-10.337
X-114.969 Y-10.307
X-114.932 Y-10.298
X-114.9 Y-10.275
X-114.88 Y-10.242
X-114.874 Y-10.204
X-114.888 Y-9.997
X-114.893 Y-9.951
X-114.914 Y-9.802
X-115.004 Y-9.682
X-115.122 Y-9.59
X-115.256 Y-9.522
X-115.399 Y-9.478
X-115.548 Y-9.457
X-115.698 Y-9.463
X-115.844 Y-9.498
X-115.891 Y-9.522
X-115.992 Y-9.603
X-116.049 Y-9.719
X-116.052 Y-9.849
X-116.023 Y-9.997
X-116.016 Y-10.053
X-116.003 Y-10.088
X-115.979 Y-10.116
X-115.945 Y-10.133
X-115.908 Y-10.137
X-115.613 Y-10.111
X-114.984 Y-10.056
X-114.947 Y-10.045
X-114.917 Y-10.022
X-114.898 Y-9.989
X-114.893 Y-9.951
X-114.911 Y-9.744
X-114.927 Y-9.659
X-114.967 Y-9.514
X-115.067 Y-9.403
X-115.191 Y-9.319
X-115.33 Y-9.261
X-115.476 Y-9.228
X-115.626 Y-9.219
X-115.775 Y-9.235
X-115.917 Y-9.282
X-115.956 Y-9.304
X-116.054 Y-9.393
X-116.103 Y-9.516
X-116.095 Y-9.649
X-116.092 Y-9.659
X-116.073 Y-9.744
X-116.052 Y-9.849
X-116.037 Y-9.883
X-116.01 Y-9.909
X-115.976 Y-9.924
X-115.939 Y-9.925
X-115.631 Y-9.874
X-115.01 Y-9.773
X-114.974 Y-9.76
X-114.945 Y-9.733
X-114.929 Y-9.698
X-114.927 Y-9.659
X-114.982 Y-9.406
X-115.022 Y-9.261
X-115.121 Y-9.149
X-115.247 Y-9.068
X-115.388 Y-9.015
X-115.535 Y-8.988
X-115.685 Y-8.985
X-115.834 Y-9.005
X-115.975 Y-9.055
X-116.104 Y-9.132
X-116.11 Y-9.139
X-116.176 Y-9.244
X-116.193 Y-9.368
X-116.158 Y-9.487
X-116.122 Y-9.562
X-116.117 Y-9.575
X-116.095 Y-9.649
X-116.077 Y-9.68
X-116.05 Y-9.704
X-116.016 Y-9.716
X-115.979 Y-9.715
X-115.678 Y-9.652
X-115.06 Y-9.521
X-115.025 Y-9.507
X-114.998 Y-9.479
X-114.983 Y-9.444
X-114.982 Y-9.406
X-115.022 Y-9.225
X-115.027 Y-9.207
X-115.034 Y-9.189
X-115.097 Y-9.068
X-115.174 Y-8.939
X-115.293 Y-8.848
X-115.432 Y-8.79
X-115.579 Y-8.759
X-115.728 Y-8.754
X-115.877 Y-8.773
X-116.021 Y-8.816
X-116.154 Y-8.885
X-116.196 Y-8.923
X-116.275 Y-9.03
X-116.299 Y-9.162
X-116.263 Y-9.29
X-116.158 Y-9.487
X-116.136 Y-9.514
X-116.106 Y-9.531
X-116.071 Y-9.537
X-116.037 Y-9.531
X-115.733 Y-9.419
X-115.153 Y-9.206
X-115.124 Y-9.189
X-115.102 Y-9.164
X-115.09 Y-9.133
X-115.088 Y-9.1
X-115.097 Y-9.068
X-115.232 Y-8.815
X-115.309 Y-8.686
X-115.432 Y-8.6
X-115.573 Y-8.55
X-115.722 Y-8.529
X-115.872 Y-8.534
X-116.019 Y-8.564
X-116.159 Y-8.617
X-116.285 Y-8.699
X-116.334 Y-8.748
X-116.409 Y-8.869
X-116.419 Y-9.011
X-116.362 Y-9.142
X-116.291 Y-9.238
X-116.263 Y-9.29
X-116.239 Y-9.318
X-116.207 Y-9.335
X-116.171 Y-9.34
X-116.136 Y-9.331
X-115.852 Y-9.204
X-115.281 Y-8.95
X-115.254 Y-8.932
X-115.235 Y-8.907
X-115.224 Y-8.877
X-115.223 Y-8.845
X-115.232 Y-8.815
X-115.277 Y-8.73
X-115.302 Y-8.688
X-115.425 Y-8.531
X-115.524 Y-8.417
X-115.658 Y-8.35
X-115.805 Y-8.32
X-115.955 Y-8.321
X-116.102 Y-8.347
X-116.244 Y-8.397
X-116.373 Y-8.473
X-116.485 Y-8.573
X-116.51 Y-8.61
X-116.557 Y-8.727
X-116.553 Y-8.852
X-116.497 Y-8.965
X-116.362 Y-9.142
X-116.335 Y-9.166
X-116.301 Y-9.178
X-116.265 Y-9.177
X-116.231 Y-9.164
X-115.979 Y-9.005
X-115.453 Y-8.674
X-115.428 Y-8.652
X-115.412 Y-8.624
X-115.406 Y-8.592
X-115.411 Y-8.56
X-115.425 Y-8.531
X-115.6 Y-8.308
X-115.614 Y-8.29
X-115.633 Y-8.267
X-115.655 Y-8.243
X-115.693 Y-8.224
X-115.735 Y-8.219
X-115.777 Y-8.229
X-115.813 Y-8.252
X-115.839 Y-8.286
X-115.851 Y-8.328
X-115.848 Y-8.371
X-115.831 Y-8.41
X-115.801 Y-8.441
X-115.761 Y-8.46
X-115.718 Y-8.463
X-115.677 Y-8.452
X-115.642 Y-8.426
X-115.618 Y-8.39
X-115.608 Y-8.348
X-115.613 Y-8.305
X-115.633 Y-8.267
X-115.649 Y-8.248
X-115.666 Y-8.234
X-115.797 Y-8.161
X-115.942 Y-8.124
X-116.092 Y-8.123
X-116.24 Y-8.152
X-116.38 Y-8.206
X-116.51 Y-8.281
X-116.62 Y-8.383
X-116.656 Y-8.433
X-116.709 Y-8.56
X-116.699 Y-8.697
X-116.629 Y-8.816
X-116.55 Y-8.899
X-116.497 Y-8.965
X-116.466 Y-8.99
X-116.428 Y-9
X-116.388 Y-8.995
X-116.354 Y-8.974
X-116.136 Y-8.777
X-115.687 Y-8.371
X-115.665 Y-8.342
X-115.655 Y-8.308
X-115.658 Y-8.272
X-115.673 Y-8.239
X-115.698 Y-8.214
X-115.951 Y-8.054
X-116.081 Y-7.981
X-116.23 Y-7.96
X-116.379 Y-7.979
X-116.52 Y-8.028
X-116.651 Y-8.102
X-116.763 Y-8.202
X-116.852 Y-8.322
X-116.871 Y-8.373
X-116.89 Y-8.507
X-116.848 Y-8.635
X-116.754 Y-8.732
X-116.641 Y-8.805
X-116.629 Y-8.816
X-116.603 Y-8.834
X-116.573 Y-8.843
X-116.541 Y-8.842
X-116.511 Y-8.831
X-116.486 Y-8.811
X-116.347 Y-8.659
X-115.933 Y-8.204
X-115.915 Y-8.176
X-115.907 Y-8.142
X-115.911 Y-8.109
X-115.926 Y-8.078
X-115.951 Y-8.054
X-116.084 Y-7.97
X-116.122 Y-7.949
X-116.259 Y-7.885
X-116.398 Y-7.83
X-116.548 Y-7.835
X-116.691 Y-7.881
X-116.821 Y-7.956
X-116.935 Y-8.053
X-117.024 Y-8.174
X-117.083 Y-8.312
X-117.086 Y-8.329
X-117.077 Y-8.446
X-117.024 Y-8.551
X-116.935 Y-8.627
X-116.799 Y-8.705
X-116.754 Y-8.732
X-116.717 Y-8.745
X-116.678 Y-8.743
X-116.642 Y-8.726
X-116.616 Y-8.697
X-116.535 Y-8.56
X-116.218 Y-8.026
X-116.206 Y-7.995
X-116.205 Y-7.963
X-116.214 Y-7.931
X-116.232 Y-7.905
X-116.259 Y-7.885
X-116.46 Y-7.794
X-116.507 Y-7.773
X-116.646 Y-7.718
X-116.796 Y-7.73
X-116.936 Y-7.783
X-117.06 Y-7.868
X-117.163 Y-7.977
X-117.245 Y-8.103
X-117.291 Y-8.246
Y-8.249
X-117.272 Y-8.37
X-117.206 Y-8.473
X-117.105 Y-8.541
X-117.052 Y-8.562
X-116.935 Y-8.627
X-116.898 Y-8.638
X-116.859 Y-8.634
X-116.824 Y-8.614
X-116.8 Y-8.583
X-116.742 Y-8.468
X-116.461 Y-7.907
X-116.451 Y-7.869
X-116.456 Y-7.831
X-116.476 Y-7.797
X-116.507 Y-7.773
X-116.632 Y-7.717
X-116.673 Y-7.702
X-116.799 Y-7.677
X-116.845 Y-7.669
X-116.994 Y-7.65
X-117.137 Y-7.695
X-117.262 Y-7.777
X-117.367 Y-7.884
X-117.448 Y-8.01
X-117.475 Y-8.094
X-117.482 Y-8.241
X-117.42 Y-8.374
X-117.301 Y-8.461
X-117.105 Y-8.541
X-117.073 Y-8.547
X-117.041 Y-8.543
X-117.011 Y-8.528
X-116.989 Y-8.505
X-116.974 Y-8.476
X-116.949 Y-8.39
X-116.771 Y-7.795
X-116.766 Y-7.763
X-116.773 Y-7.731
X-116.79 Y-7.702
X-116.815 Y-7.681
X-116.845 Y-7.669
X-116.968 Y-7.648
X-117.137 Y-7.625
X-117.286 Y-7.613
X-117.424 Y-7.673
X-117.54 Y-7.767
X-117.628 Y-7.889
X-117.683 Y-8.029
X-117.689 Y-8.087
X-117.669 Y-8.231
X-117.584 Y-8.348
X-117.454 Y-8.412
X-117.391 Y-8.426
X-117.301 Y-8.461
X-117.267 Y-8.467
X-117.233 Y-8.461
X-117.203 Y-8.444
X-117.18 Y-8.417
X-117.168 Y-8.384
X-117.164 Y-8.359
X-117.055 Y-7.741
X-117.056 Y-7.702
X-117.072 Y-7.666
X-117.1 Y-7.639
X-117.137 Y-7.625
X-117.391 Y-7.592
X-117.466 Y-7.585
X-117.612 Y-7.618
X-117.733 Y-7.706
X-117.827 Y-7.824
X-117.882 Y-7.963
X-117.903 Y-8.112
X-117.9 Y-8.129
X-117.854 Y-8.243
X-117.767 Y-8.329
X-117.652 Y-8.373
X-117.547 Y-8.392
X-117.454 Y-8.412
X-117.42 Y-8.413
X-117.388 Y-8.402
X-117.362 Y-8.38
X-117.344 Y-8.352
X-117.337 Y-8.319
X-117.307 Y-7.695
X-117.312 Y-7.659
X-117.329 Y-7.627
X-117.357 Y-7.604
X-117.391 Y-7.592
X-117.56 Y-7.57
X-117.645 Y-7.563
X-117.72 Y-7.562
X-117.862 Y-7.608
X-117.975 Y-7.706
X-118.056 Y-7.833
X-118.105 Y-7.975
X-118.107 Y-8.037
X-118.075 Y-8.181
X-117.978 Y-8.293
X-117.839 Y-8.345
X-117.814 Y-8.347
X-117.652 Y-8.373
X-117.618 Y-8.372
X-117.586 Y-8.359
X-117.561 Y-8.336
X-117.544 Y-8.305
X-117.539 Y-8.272
X-117.555 Y-7.66
X-117.563 Y-7.625
X-117.582 Y-7.595
X-117.61 Y-7.574
X-117.645 Y-7.563
X-117.814 Y-7.551
X-117.86 Y-7.55
X-118.01 Y-7.553
X-118.139 Y-7.63
X-118.236 Y-7.744
X-118.297 Y-7.881
X-118.318 Y-8.029
X-118.311 Y-8.074
X-118.262 Y-8.201
X-118.162 Y-8.293
X-118.031 Y-8.331
X-117.898 Y-8.338
X-117.839 Y-8.345
X-117.805 Y-8.341
X-117.775 Y-8.327
X-117.751 Y-8.303
X-117.736 Y-8.273
X-117.732 Y-8.239
X-117.767 Y-7.644
X-117.776 Y-7.609
X-117.796 Y-7.579
X-117.825 Y-7.559
X-117.86 Y-7.55
X-117.898 Y-7.549
X-118.114 Y-7.546
X-118.189 Y-7.55
X-118.329 Y-7.604
X-118.432 Y-7.713
X-118.5 Y-7.846
X-118.525 Y-7.994
X-118.52 Y-8.05
X-118.473 Y-8.188
X-118.367 Y-8.287
X-118.226 Y-8.324
X-118.152 Y-8.325
X-118.031 Y-8.331
X-117.997 Y-8.326
X-117.966 Y-8.309
X-117.943 Y-8.283
X-117.931 Y-8.251
X-117.93 Y-8.216
X-118.02 Y-7.631
X-118.03 Y-7.599
X-118.052 Y-7.572
X-118.081 Y-7.554
X-118.114 Y-7.546
X-118.321
X-118.396 Y-7.55
X-118.537 Y-7.602
X-118.641 Y-7.71
X-118.708 Y-7.844
X-118.73 Y-7.993
X-118.725 Y-8.049
X-118.677 Y-8.187
X-118.568 Y-8.285
X-118.427 Y-8.321
X-118.226 Y-8.324
X-118.193 Y-8.317
X-118.163 Y-8.3
X-118.141 Y-8.274
X-118.13 Y-8.242
Y-8.207
X-118.226 Y-7.63
X-118.238 Y-7.597
X-118.259 Y-7.571
X-118.288 Y-7.553
X-118.321 Y-7.546
X-118.537
X-118.612 Y-7.55
X-118.751 Y-7.605
X-118.852 Y-7.716
X-118.916 Y-7.852
X-118.935 Y-8.001
X-118.929 Y-8.055
X-118.879 Y-8.19
X-118.771 Y-8.286
X-118.631 Y-8.321
X-118.427
X-118.393 Y-8.314
X-118.364 Y-8.296
X-118.342 Y-8.269
X-118.331 Y-8.237
X-118.332 Y-8.202
X-118.442 Y-7.627
X-118.454 Y-7.596
X-118.476 Y-7.57
X-118.504 Y-7.553
X-118.537 Y-7.546
X-118.744
X-118.819 Y-7.55
X-118.959 Y-7.605
X-119.059 Y-7.716
X-119.122 Y-7.853
X-119.141 Y-8.002
X-119.135 Y-8.056
X-119.084 Y-8.191
X-118.976 Y-8.287
X-118.837 Y-8.321
X-118.631
X-118.597 Y-8.314
X-118.568 Y-8.296
X-118.547 Y-8.269
X-118.536 Y-8.236
Y-8.202
X-118.65 Y-7.627
X-118.662 Y-7.595
X-118.683 Y-7.57
X-118.712 Y-7.553
X-118.744 Y-7.546
X-118.96
X-119.035 Y-7.55
X-119.172 Y-7.611
X-119.27 Y-7.724
X-119.33 Y-7.862
X-119.346 Y-8.011
X-119.34 Y-8.061
X-119.288 Y-8.194
X-119.181 Y-8.287
X-119.042 Y-8.321
X-118.837
X-118.803 Y-8.314
X-118.773 Y-8.295
X-118.752 Y-8.268
X-118.741 Y-8.235
X-118.742 Y-8.2
X-118.866 Y-7.625
X-118.878 Y-7.594
X-118.899 Y-7.569
X-118.928 Y-7.553
X-118.96 Y-7.546
X-119.167
X-119.242 Y-7.55
X-119.379 Y-7.612
X-119.477 Y-7.725
X-119.537 Y-7.863
X-119.553 Y-8.012
X-119.546 Y-8.062
X-119.494 Y-8.194
X-119.387 Y-8.287
X-119.249 Y-8.321
X-119.042
X-119.008 Y-8.314
X-118.979 Y-8.295
X-118.957 Y-8.268
X-118.947 Y-8.235
X-118.948 Y-8.2
X-119.073 Y-7.625
X-119.085 Y-7.594
X-119.107 Y-7.569
X-119.135 Y-7.553
X-119.167 Y-7.546
X-119.383
X-119.458 Y-7.55
X-119.592 Y-7.617
X-119.687 Y-7.733
X-119.745 Y-7.871
X-119.759 Y-8.021
X-119.751 Y-8.067
X-119.698 Y-8.197
X-119.591 Y-8.288
X-119.455 Y-8.321
X-119.249
X-119.214 Y-8.314
X-119.185 Y-8.295
X-119.163 Y-8.267
X-119.153 Y-8.233
X-119.155 Y-8.198
X-119.289 Y-7.623
X-119.302 Y-7.593
X-119.323 Y-7.569
X-119.351 Y-7.552
X-119.383 Y-7.546
X-119.59
X-119.665 Y-7.55
X-119.799 Y-7.617
X-119.894 Y-7.733
X-119.952 Y-7.872
X-119.965 Y-8.021
X-119.958 Y-8.068
X-119.905 Y-8.197
X-119.798 Y-8.288
X-119.662 Y-8.321
X-119.455
X-119.421 Y-8.314
X-119.391 Y-8.295
X-119.37 Y-8.267
X-119.359 Y-8.233
X-119.361 Y-8.198
X-119.497 Y-7.623
X-119.509 Y-7.593
X-119.53 Y-7.569
X-119.559 Y-7.552
X-119.59 Y-7.546
X-119.806
X-119.881 Y-7.55
X-120.012 Y-7.622
X-120.105 Y-7.74
X-120.161 Y-7.88
X-120.172 Y-8.029
X-120.164 Y-8.072
X-120.11 Y-8.2
X-120.004 Y-8.289
X-119.869 Y-8.321
X-119.662
X-119.627 Y-8.314
X-119.597 Y-8.294
X-119.576 Y-8.266
X-119.566 Y-8.232
X-119.568 Y-8.197
X-119.713 Y-7.622
X-119.725 Y-7.592
X-119.747 Y-7.568
X-119.775 Y-7.552
X-119.806 Y-7.546
X-119.975
X-120.05 Y-7.55
X-120.192 Y-7.598
X-120.296 Y-7.707
X-120.359 Y-7.843
X-120.382 Y-7.991
X-120.366 Y-8.14
X-120.299 Y-8.237
X-120.203 Y-8.299
X-120.09 Y-8.321
X-119.869
X-119.835 Y-8.314
X-119.806 Y-8.296
X-119.785 Y-8.269
X-119.773 Y-8.237
X-119.774 Y-8.203
X-119.881 Y-7.628
X-119.892 Y-7.596
X-119.914 Y-7.57
X-119.942 Y-7.553
X-119.975 Y-7.546
X-120.229
X-120.304 Y-7.55
X-120.434 Y-7.625
X-120.524 Y-7.745
X-120.577 Y-7.885
X-120.596 Y-8.034
X-120.589 Y-8.075
X-120.533 Y-8.202
X-120.426 Y-8.29
X-120.292 Y-8.321
X-120.09
X-120.056 Y-8.314
X-120.026 Y-8.295
X-120.005 Y-8.267
X-119.994 Y-8.233
X-119.997 Y-8.198
X-120.135 Y-7.623
X-120.148 Y-7.593
X-120.169 Y-7.569
X-120.197 Y-7.552
X-120.229 Y-7.546
X-120.398
X-120.473 Y-7.55
X-120.614 Y-7.603
X-120.715 Y-7.713
X-120.781 Y-7.848
X-120.804 Y-7.996
X-120.788 Y-8.145
X-120.774 Y-8.175
X-120.685 Y-8.288
X-120.554 Y-8.347
X-120.41 Y-8.338
X-120.377 Y-8.318
X-120.354 Y-8.288
X-120.344 Y-8.25
X-120.302 Y-7.653
X-120.305 Y-7.621
X-120.318 Y-7.592
X-120.339 Y-7.568
X-120.367 Y-7.552
X-120.398 Y-7.546
X-120.606
X-120.681 Y-7.55
X-120.821 Y-7.603
X-120.923 Y-7.713
X-120.988 Y-7.848
X-121.018 Y-7.995
X-121.006 Y-8.144
X-120.954 Y-8.286
X-120.943 Y-8.3
X-120.851 Y-8.379
X-120.735 Y-8.415
X-120.615 Y-8.403
X-120.41 Y-8.338
X-120.378 Y-8.319
X-120.355 Y-8.29
X-120.344 Y-8.254
X-120.347 Y-8.217
X-120.513 Y-7.619
X-120.526 Y-7.591
X-120.547 Y-7.568
X-120.575 Y-7.552
X-120.606 Y-7.546
X-120.821
X-120.896 Y-7.55
X-121.035 Y-7.608
X-121.136 Y-7.719
X-121.201 Y-7.854
X-121.232 Y-8
X-121.229 Y-8.15
X-121.191 Y-8.295
X-121.146 Y-8.372
X-121.058 Y-8.468
X-120.938 Y-8.519
X-120.807 Y-8.515
X-120.69 Y-8.457
X-120.67 Y-8.433
X-120.658 Y-8.404
X-120.656 Y-8.372
X-120.665 Y-8.275
X-120.725 Y-7.637
X-120.735 Y-7.602
X-120.756 Y-7.573
X-120.786 Y-7.554
X-120.821 Y-7.546
X-121.029
X-121.104 Y-7.55
X-121.242 Y-7.606
X-121.345 Y-7.716
X-121.413 Y-7.849
X-121.45 Y-7.995
X-121.456 Y-8.145
X-121.43 Y-8.292
X-121.373 Y-8.431
X-121.286 Y-8.553
X-121.171 Y-8.65
X-121.145 Y-8.662
X-121.01 Y-8.686
X-120.878 Y-8.648
X-120.777 Y-8.555
X-120.764 Y-8.52
Y-8.482
X-120.807 Y-8.265
X-120.934 Y-7.627
X-120.946 Y-7.595
X-120.967 Y-7.57
X-120.996 Y-7.553
X-121.029 Y-7.546
X-121.244
X-121.319 Y-7.55
X-121.457 Y-7.609
X-121.56 Y-7.717
X-121.631 Y-7.85
X-121.671 Y-7.994
X-121.684 Y-8.144
X-121.669 Y-8.293
X-121.626 Y-8.437
X-121.561 Y-8.572
X-121.474 Y-8.694
X-121.362 Y-8.794
X-121.229 Y-8.864
X-121.185 Y-8.873
X-121.044 Y-8.868
X-120.92 Y-8.798
X-120.842 Y-8.679
X-120.838 Y-8.65
X-120.842 Y-8.62
X-120.957 Y-8.249
X-121.152 Y-7.616
X-121.166 Y-7.589
X-121.187 Y-7.567
X-121.214 Y-7.552
X-121.244 Y-7.546
X-121.452
X-121.527 Y-7.55
X-121.666 Y-7.604
X-121.773 Y-7.71
X-121.847 Y-7.84
X-121.894 Y-7.983
X-121.914 Y-8.131
X-121.91 Y-8.281
X-121.882 Y-8.428
X-121.833 Y-8.57
X-121.765 Y-8.704
X-121.678 Y-8.826
X-121.571 Y-8.931
X-121.448 Y-9.017
X-121.309 Y-9.072
X-121.161 Y-9.096
X-121.134 Y-9.092
X-121.006 Y-9.045
X-120.913 Y-8.945
X-120.874 Y-8.815
X-120.875 Y-8.791
X-120.881 Y-8.769
X-121.106 Y-8.228
X-121.363 Y-7.608
X-121.384 Y-7.576
X-121.415 Y-7.555
X-121.452 Y-7.546
X-121.667
X-121.705
X-121.752
X-121.789 Y-7.548
X-121.92 Y-7.622
X-121.946 Y-7.652
X-121.986 Y-7.711
X-122.011 Y-7.778
X-122.02 Y-7.849
X-122.013 Y-7.883
X-121.995 Y-7.912
X-121.968 Y-7.934
X-121.935 Y-7.945
X-121.901 Y-7.944
X-121.869 Y-7.932
X-121.843 Y-7.909
X-121.678 Y-7.71
X-121.66 Y-7.677
X-121.656 Y-7.641
X-121.664 Y-7.605
X-121.685 Y-7.575
X-121.716 Y-7.554
X-121.752 Y-7.546
X-121.875
X-121.921 Y-7.548
X-121.94 Y-7.553
X-121.959 Y-7.563
X-121.978 Y-7.579
X-121.997 Y-7.598
X-122.008 Y-7.615
X-122.015 Y-7.632
X-122.018 Y-7.643
X-122.02 Y-7.653
Y-8.477
X-122.012 Y-8.627
X-121.972 Y-8.771
X-121.903 Y-8.904
X-121.813 Y-9.024
X-121.705 Y-9.128
X-121.582 Y-9.214
X-121.446 Y-9.277
X-121.3 Y-9.315
X-121.15 Y-9.316
X-121.109 Y-9.306
X-120.99 Y-9.248
X-120.908 Y-9.143
X-120.879 Y-9.014
Y-8.899
X-120.874 Y-8.815
X-120.878 Y-8.784
X-120.891 Y-8.755
X-120.913 Y-8.733
X-120.941 Y-8.718
X-121.322 Y-8.584
X-121.887 Y-8.386
X-121.924 Y-8.38
X-121.96 Y-8.389
X-121.991 Y-8.41
X-122.012 Y-8.44
X-122.02 Y-8.477
Y-8.861
X-122.012 Y-9.011
X-121.956 Y-9.15
X-121.868 Y-9.271
X-121.757 Y-9.372
X-121.63 Y-9.452
X-121.492 Y-9.51
X-121.346 Y-9.546
X-121.196 Y-9.549
X-121.048 Y-9.521
X-121.045 Y-9.519
X-120.957 Y-9.453
X-120.899 Y-9.359
X-120.879 Y-9.251
Y-9.014
X-120.886 Y-8.981
X-120.904 Y-8.951
X-120.93 Y-8.93
X-120.963 Y-8.919
X-121.296 Y-8.865
X-121.904 Y-8.766
X-121.938
X-121.969 Y-8.778
X-121.995 Y-8.799
X-122.013 Y-8.828
X-122.02 Y-8.861
Y-9.199
X-122.012 Y-9.349
X-121.934 Y-9.477
X-121.829 Y-9.583
X-121.705 Y-9.668
X-121.569 Y-9.732
X-121.425 Y-9.773
X-121.276 Y-9.788
X-121.126 Y-9.779
X-121.088 Y-9.766
X-120.979 Y-9.704
X-120.905 Y-9.603
X-120.879 Y-9.481
Y-9.251
X-120.887 Y-9.215
X-120.907 Y-9.184
X-120.937 Y-9.163
X-120.973 Y-9.155
X-121.289 Y-9.137
X-121.914 Y-9.103
X-121.953 Y-9.108
X-121.987 Y-9.129
X-122.011 Y-9.16
X-122.02 Y-9.199
Y-9.452
X-122.012 Y-9.602
X-121.938 Y-9.732
X-121.831 Y-9.838
X-121.705 Y-9.92
X-121.567 Y-9.978
X-121.422 Y-10.014
X-121.272 Y-10.029
X-121.123 Y-10.012
X-121.085 Y-9.999
X-120.977 Y-9.936
X-120.904 Y-9.836
X-120.879 Y-9.714
Y-9.481
X-120.887 Y-9.444
X-120.908 Y-9.413
X-120.939 Y-9.392
X-120.976 Y-9.384
X-121.288 Y-9.375
X-121.917 Y-9.356
X-121.955 Y-9.362
X-121.988 Y-9.383
X-122.011 Y-9.414
X-122.02 Y-9.452
Y-9.706
X-122.012 Y-9.855
X-121.937 Y-9.985
X-121.829 Y-10.089
X-121.701 Y-10.167
X-121.562 Y-10.223
X-121.415 Y-10.256
X-121.266 Y-10.267
X-121.117 Y-10.246
X-121.08 Y-10.234
X-120.975 Y-10.17
X-120.904 Y-10.07
X-120.879 Y-9.95
Y-9.714
X-120.887 Y-9.677
X-120.909 Y-9.646
X-120.94 Y-9.625
X-120.978 Y-9.617
X-121.288 Y-9.615
X-121.919 Y-9.609
X-121.957 Y-9.616
X-121.989 Y-9.637
X-122.011 Y-9.668
X-122.02 Y-9.706
Y-9.959
X-122.012 Y-10.109
X-121.934 Y-10.237
X-121.823 Y-10.338
X-121.694 Y-10.414
X-121.554 Y-10.467
X-121.407 Y-10.497
X-121.257 Y-10.505
X-121.109 Y-10.482
X-121.075 Y-10.47
X-120.972 Y-10.406
X-120.903 Y-10.307
X-120.879 Y-10.188
Y-9.95
X-120.887 Y-9.913
X-120.909 Y-9.881
X-120.942 Y-9.861
X-120.979 Y-9.854
X-121.288 Y-9.857
X-121.921 Y-9.863
X-121.958 Y-9.87
X-121.99 Y-9.891
X-122.011 Y-9.922
X-122.02 Y-9.959
Y-10.212
X-122.016 Y-10.287
X-121.965 Y-10.428
X-121.866 Y-10.541
X-121.743 Y-10.627
X-121.606 Y-10.689
X-121.461 Y-10.729
X-121.312 Y-10.744
X-121.163 Y-10.734
X-121.097 Y-10.715
X-120.984 Y-10.655
X-120.906 Y-10.552
X-120.879 Y-10.427
Y-10.188
X-120.887 Y-10.15
X-120.91 Y-10.119
X-120.943 Y-10.098
X-120.981 Y-10.092
X-121.288 Y-10.1
X-121.922 Y-10.116
X-121.959 Y-10.124
X-121.99 Y-10.145
X-122.012 Y-10.176
X-122.02 Y-10.212
Y-10.466
X-122.016 Y-10.541
X-121.958 Y-10.679
X-121.856 Y-10.789
X-121.732 Y-10.874
X-121.594 Y-10.933
X-121.449 Y-10.969
X-121.299 Y-10.983
X-121.15 Y-10.968
X-121.094 Y-10.951
X-120.982 Y-10.89
X-120.906 Y-10.788
X-120.879 Y-10.664
Y-10.427
X-120.888 Y-10.388
X-120.911 Y-10.357
X-120.944 Y-10.336
X-120.983 Y-10.33
X-121.289 Y-10.343
X-121.924 Y-10.369
X-121.96 Y-10.378
X-121.991 Y-10.399
X-122.012 Y-10.43
X-122.02 Y-10.466
Y-10.719
X-122.016 Y-10.794
X-121.952 Y-10.93
X-121.848 Y-11.038
X-121.722 Y-11.119
X-121.583 Y-11.176
X-121.437 Y-11.21
X-121.287 Y-11.221
X-121.139 Y-11.203
X-121.088 Y-11.187
X-120.979 Y-11.125
X-120.905 Y-11.024
X-120.879 Y-10.901
Y-10.664
X-120.888 Y-10.625
X-120.911 Y-10.593
X-120.945 Y-10.573
X-120.984 Y-10.567
X-121.289 Y-10.585
X-121.926 Y-10.623
X-121.961 Y-10.632
X-121.991 Y-10.653
X-122.012 Y-10.683
X-122.02 Y-10.719
Y-10.926
X-122.012 Y-11.076
X-121.932 Y-11.203
X-121.82 Y-11.302
X-121.69 Y-11.376
X-121.548 Y-11.427
X-121.401 Y-11.454
X-121.251 Y-11.458
X-121.103 Y-11.433
X-121.071 Y-11.421
X-120.97 Y-11.357
X-120.902 Y-11.258
X-120.879 Y-11.141
Y-10.901
X-120.887 Y-10.863
X-120.91 Y-10.832
X-120.943 Y-10.811
X-120.981 Y-10.805
X-121.288 Y-10.813
X-121.923 Y-10.83
X-121.959 Y-10.838
X-121.99 Y-10.859
X-122.012 Y-10.89
X-122.02 Y-10.926
Y-11.18
X-122.016 Y-11.255
X-121.962 Y-11.394
X-121.861 Y-11.505
X-121.736 Y-11.589
X-121.599 Y-11.649
X-121.453 Y-11.686
X-121.304 Y-11.699
X-121.155 Y-11.686
X-121.093 Y-11.668
X-120.982 Y-11.607
X-120.906 Y-11.505
X-120.879 Y-11.381
Y-11.141
X-120.888 Y-11.103
X-120.911 Y-11.071
X-120.944 Y-11.051
X-120.983 Y-11.045
X-121.289 Y-11.057
X-121.924 Y-11.083
X-121.96 Y-11.092
X-121.991 Y-11.113
X-122.012 Y-11.143
X-122.02 Y-11.18
Y-11.395
X-122.012 Y-11.545
X-121.936 Y-11.674
X-121.825 Y-11.775
X-121.696 Y-11.851
X-121.555 Y-11.903
X-121.408 Y-11.932
X-121.258 Y-11.938
X-121.11 Y-11.914
X-121.074 Y-11.901
X-120.972 Y-11.837
X-120.903 Y-11.738
X-120.879 Y-11.62
Y-11.381
X-120.887 Y-11.343
X-120.91 Y-11.312
X-120.942 Y-11.291
X-120.98 Y-11.284
X-121.288 Y-11.289
X-121.921 Y-11.299
X-121.958 Y-11.306
X-121.99 Y-11.327
X-122.011 Y-11.358
X-122.02 Y-11.395
Y-11.648
X-122.012 Y-11.798
X-121.931 Y-11.924
X-121.818 Y-12.023
X-121.687 Y-12.096
X-121.545 Y-12.145
X-121.398 Y-12.172
X-121.248 Y-12.177
X-121.1 Y-12.151
X-121.07 Y-12.14
X-120.97 Y-12.075
X-120.902 Y-11.977
X-120.879 Y-11.86
Y-11.62
X-120.888 Y-11.582
X-120.91 Y-11.55
X-120.943 Y-11.53
X-120.982 Y-11.523
X-121.288 Y-11.533
X-121.923 Y-11.552
X-121.959 Y-11.56
X-121.99 Y-11.581
X-122.012 Y-11.612
X-122.02 Y-11.648
Y-11.902
X-122.016 Y-11.977
X-121.96 Y-12.116
X-121.858 Y-12.226
X-121.733 Y-12.309
X-121.595 Y-12.368
X-121.45 Y-12.405
X-121.3 Y-12.417
X-121.151 Y-12.404
X-121.088 Y-12.385
X-120.975 Y-12.321
X-120.899 Y-12.215
X-120.875 Y-12.087
X-120.878 Y-12.024
X-120.879 Y-11.896
Y-11.86
X-120.888 Y-11.822
X-120.911 Y-11.79
X-120.944 Y-11.769
X-120.983 Y-11.763
X-121.289 Y-11.777
X-121.924 Y-11.805
X-121.96 Y-11.814
X-121.991 Y-11.835
X-122.012 Y-11.866
X-122.02 Y-11.902
Y-12.155
X-122.016 Y-12.23
X-121.952 Y-12.366
X-121.848 Y-12.473
X-121.722 Y-12.555
X-121.583 Y-12.611
X-121.437 Y-12.645
X-121.287 Y-12.656
X-121.138 Y-12.639
X-120.995 Y-12.594
X-120.97 Y-12.578
X-120.875 Y-12.483
X-120.832 Y-12.356
X-120.848 Y-12.222
X-120.867 Y-12.192
X-120.896 Y-12.17
X-120.931 Y-12.16
X-121.291 Y-12.123
X-121.91 Y-12.059
X-121.942 Y-12.061
X-121.972 Y-12.074
X-121.997 Y-12.095
X-122.013 Y-12.123
X-122.02 Y-12.155
Y-12.362
X-122.012 Y-12.512
X-121.932 Y-12.639
X-121.82 Y-12.738
X-121.689 Y-12.812
X-121.548 Y-12.863
X-121.4 Y-12.89
X-121.251 Y-12.894
X-121.101 Y-12.878
X-120.959 Y-12.829
X-120.887 Y-12.786
X-120.798 Y-12.705
X-120.746 Y-12.596
X-120.74 Y-12.476
X-120.781 Y-12.362
X-120.806 Y-12.32
X-120.828 Y-12.278
X-120.848 Y-12.222
X-120.865 Y-12.195
X-120.889 Y-12.174
X-120.919 Y-12.162
X-120.952 Y-12.16
X-121.292 Y-12.197
X-121.931 Y-12.266
X-121.965 Y-12.276
X-121.993 Y-12.298
X-122.012 Y-12.327
X-122.02 Y-12.362
Y-12.616
X-122.016 Y-12.69
X-121.962 Y-12.83
X-121.86 Y-12.941
X-121.736 Y-13.025
X-121.598 Y-13.084
X-121.453 Y-13.122
X-121.304 Y-13.138
X-121.154 Y-13.131
X-121.007 Y-13.101
X-120.868 Y-13.045
X-120.741 Y-12.965
X-120.679 Y-12.901
X-120.613 Y-12.799
X-120.592 Y-12.679
X-120.619 Y-12.561
X-120.69 Y-12.462
X-120.707 Y-12.447
X-120.781 Y-12.362
X-120.808 Y-12.34
X-120.84 Y-12.328
X-120.875 Y-12.329
X-121.298 Y-12.405
X-121.938 Y-12.521
X-121.969 Y-12.532
X-121.996 Y-12.554
X-122.013 Y-12.582
X-122.02 Y-12.616
Y-12.831
X-122.012 Y-12.981
X-121.936 Y-13.11
X-121.825 Y-13.211
X-121.695 Y-13.287
X-121.555 Y-13.34
X-121.409 Y-13.371
X-121.259 Y-13.382
X-121.109 Y-13.372
X-120.962 Y-13.343
X-120.82 Y-13.294
X-120.689 Y-13.223
X-120.572 Y-13.128
X-120.476 Y-13.013
X-120.409 Y-12.879
X-120.406 Y-12.866
X-120.411 Y-12.735
X-120.472 Y-12.618
X-120.577 Y-12.538
X-120.603 Y-12.532
X-120.63
X-121.296 Y-12.636
X-121.935 Y-12.736
X-121.968 Y-12.747
X-121.995 Y-12.768
X-122.013 Y-12.797
X-122.02 Y-12.831
Y-13.084
X-122.016 Y-13.159
X-121.966 Y-13.3
X-121.867 Y-13.413
X-121.744 Y-13.499
X-121.608 Y-13.562
X-121.463 Y-13.603
X-121.315 Y-13.625
X-121.165 Y-13.628
X-121.016 Y-13.612
X-120.87 Y-13.577
X-120.766 Y-13.54
X-120.727 Y-13.522
X-120.69 Y-13.499
X-120.658 Y-13.472
X-120.624 Y-13.448
X-120.606 Y-13.439
X-120.47 Y-13.375
X-120.364 Y-13.268
X-120.274 Y-13.148
X-120.215 Y-13.011
X-120.186 Y-12.864
X-120.187 Y-12.853
X-120.226 Y-12.73
X-120.315 Y-12.636
X-120.436 Y-12.589
X-120.521 Y-12.564
X-120.577 Y-12.538
X-120.614 Y-12.531
X-120.652 Y-12.538
X-120.685 Y-12.559
X-120.707 Y-12.591
X-120.715 Y-12.628
X-120.718 Y-12.742
X-120.733 Y-13.34
X-120.727 Y-13.377
X-120.708 Y-13.409
X-120.678 Y-13.432
X-120.643 Y-13.442
X-120.606 Y-13.439
X-120.366 Y-13.363
X-120.352 Y-13.361
X-120.278 Y-13.35
X-120.151 Y-13.27
X-120.058 Y-13.152
X-119.997 Y-13.015
X-119.981 Y-12.866
X-119.985 Y-12.842
X-120.041 Y-12.718
X-120.145 Y-12.63
X-120.278 Y-12.599
X-120.352 Y-12.598
X-120.394 Y-12.595
X-120.436 Y-12.589
X-120.473 Y-12.591
X-120.506 Y-12.607
X-120.532 Y-12.634
X-120.546 Y-12.668
Y-12.705
X-120.448 Y-13.278
X-120.436 Y-13.31
X-120.414 Y-13.336
X-120.385 Y-13.354
X-120.352 Y-13.361
X-120.183 Y-13.36
X-120.108 Y-13.356
X-119.969 Y-13.3
X-119.864 Y-13.193
X-119.797 Y-13.058
X-119.774 Y-12.91
X-119.78 Y-12.864
X-119.831 Y-12.73
X-119.938 Y-12.634
X-120.078 Y-12.6
X-120.278 Y-12.599
X-120.311 Y-12.605
X-120.34 Y-12.623
X-120.362 Y-12.649
X-120.373 Y-12.681
X-120.374 Y-12.715
X-120.278 Y-13.277
X-120.266 Y-13.309
X-120.245 Y-13.336
X-120.216 Y-13.353
X-120.183 Y-13.36
X-119.967
X-119.892 Y-13.356
X-119.753 Y-13.299
X-119.652 Y-13.188
X-119.589 Y-13.052
X-119.572 Y-12.903
X-119.578 Y-12.859
X-119.63 Y-12.727
X-119.737 Y-12.633
X-119.875 Y-12.6
X-120.078
X-120.111 Y-12.607
X-120.141 Y-12.625
X-120.162 Y-12.652
X-120.173 Y-12.685
X-120.172 Y-12.719
X-120.061 Y-13.28
X-120.05 Y-13.311
X-120.028 Y-13.336
X-120 Y-13.353
X-119.967 Y-13.36
X-119.76
X-119.685 Y-13.356
X-119.546 Y-13.3
X-119.445 Y-13.189
X-119.383 Y-13.052
X-119.367 Y-12.903
X-119.374 Y-12.857
X-119.426 Y-12.726
X-119.533 Y-12.633
X-119.671 Y-12.6
X-119.875
X-119.909 Y-12.607
X-119.938 Y-12.625
X-119.96 Y-12.652
X-119.97 Y-12.685
X-119.969 Y-12.72
X-119.854 Y-13.28
X-119.842 Y-13.311
X-119.821 Y-13.337
X-119.792 Y-13.354
X-119.76 Y-13.36
X-119.544
X-119.469 Y-13.356
X-119.332 Y-13.294
X-119.235 Y-13.18
X-119.176 Y-13.042
X-119.163 Y-12.893
X-119.17 Y-12.851
X-119.224 Y-12.723
X-119.33 Y-12.632
X-119.466 Y-12.6
X-119.671
X-119.705 Y-12.607
X-119.735 Y-12.626
X-119.756 Y-12.654
X-119.766 Y-12.687
X-119.765 Y-12.722
X-119.638 Y-13.282
X-119.626 Y-13.313
X-119.604 Y-13.337
X-119.576 Y-13.354
X-119.544 Y-13.36
X-119.337
X-119.262 Y-13.356
X-119.126 Y-13.293
X-119.029 Y-13.179
X-118.971 Y-13.04
X-118.958 Y-12.891
X-118.965 Y-12.85
X-119.019 Y-12.722
X-119.126 Y-12.632
X-119.261 Y-12.6
X-119.466
X-119.5 Y-12.607
X-119.53 Y-12.626
X-119.551 Y-12.654
X-119.562 Y-12.687
X-119.56 Y-12.722
X-119.431 Y-13.283
X-119.418 Y-13.313
X-119.397 Y-13.337
X-119.369 Y-13.354
X-119.337 Y-13.36
X-119.121
X-119.046 Y-13.356
X-118.913 Y-13.287
X-118.819 Y-13.17
X-118.763 Y-13.031
X-118.753 Y-12.881
X-118.76 Y-12.844
X-118.816 Y-12.719
X-118.922 Y-12.631
X-119.055 Y-12.6
X-119.261
X-119.295 Y-12.607
X-119.325 Y-12.626
X-119.347 Y-12.655
X-119.357 Y-12.689
X-119.354 Y-12.724
X-119.214 Y-13.284
X-119.202 Y-13.314
X-119.18 Y-13.338
X-119.152 Y-13.354
X-119.121 Y-13.36
X-118.914
X-118.839 Y-13.356
X-118.706 Y-13.286
X-118.612 Y-13.169
X-118.557 Y-13.03
X-118.548 Y-12.88
X-118.555 Y-12.843
X-118.61 Y-12.718
X-118.716 Y-12.631
X-118.849 Y-12.6
X-119.055
X-119.09 Y-12.607
X-119.12 Y-12.626
X-119.141 Y-12.655
X-119.151 Y-12.689
X-119.149 Y-12.724
X-119.007 Y-13.285
X-118.994 Y-13.314
X-118.973 Y-13.338
X-118.945 Y-13.354
X-118.914 Y-13.36
X-118.698
X-118.623 Y-13.356
X-118.493 Y-13.281
X-118.402 Y-13.162
X-118.349 Y-13.021
X-118.342 Y-12.872
X-118.349 Y-12.838
X-118.406 Y-12.716
X-118.511 Y-12.63
X-118.643 Y-12.6
X-118.849
X-118.884 Y-12.607
X-118.914 Y-12.627
X-118.935 Y-12.656
X-118.945 Y-12.69
X-118.942 Y-12.726
X-118.791 Y-13.286
X-118.778 Y-13.315
X-118.757 Y-13.339
X-118.729 Y-13.354
X-118.698 Y-13.36
X-118.529
X-118.454 Y-13.356
X-118.313 Y-13.304
X-118.212 Y-13.194
X-118.151 Y-13.057
X-118.132 Y-12.908
X-118.139 Y-12.858
X-118.192 Y-12.726
X-118.299 Y-12.633
X-118.437 Y-12.6
X-118.643
X-118.677 Y-12.607
X-118.706 Y-12.625
X-118.727 Y-12.652
X-118.738 Y-12.685
X-118.737 Y-12.72
X-118.623 Y-13.28
X-118.611 Y-13.311
X-118.59 Y-13.337
X-118.561 Y-13.354
X-118.529 Y-13.36
X-118.321
X-118.246 Y-13.356
X-118.106 Y-13.303
X-118.006 Y-13.191
X-117.944 Y-13.054
X-117.928 Y-12.905
X-117.935 Y-12.855
X-117.988 Y-12.722
X-118.097 Y-12.629
X-118.237 Y-12.597
X-118.437 Y-12.6
X-118.471 Y-12.607
X-118.5 Y-12.625
X-118.521 Y-12.652
X-118.532 Y-12.685
X-118.531 Y-12.72
X-118.416 Y-13.28
X-118.404 Y-13.311
X-118.382 Y-13.337
X-118.354 Y-13.354
X-118.321 Y-13.36
X-118.152
X-118.106 Y-13.359
X-118.031 Y-13.353
X-117.893 Y-13.293
X-117.796 Y-13.179
X-117.737 Y-13.041
X-117.724 Y-12.892
X-117.732 Y-12.842
X-117.79 Y-12.708
X-117.903 Y-12.617
X-118.047 Y-12.59
X-118.152 Y-12.595
X-118.237 Y-12.597
X-118.271 Y-12.605
X-118.3 Y-12.623
X-118.321 Y-12.651
X-118.331 Y-12.684
X-118.33 Y-12.719
X-118.202 Y-13.281
X-118.19 Y-13.312
X-118.168 Y-13.337
X-118.138 Y-13.353
X-118.106 Y-13.359
X-117.898 Y-13.352
X-117.824 Y-13.344
X-117.686 Y-13.285
X-117.589 Y-13.17
X-117.532 Y-13.032
X-117.52 Y-12.882
X-117.545 Y-12.733
X-117.62 Y-12.641
X-117.726 Y-12.585
X-117.845 Y-12.575
X-117.898 Y-12.581
X-118.047 Y-12.59
X-118.08 Y-12.599
X-118.108 Y-12.619
X-118.127 Y-12.646
X-118.137 Y-12.679
X-118.134 Y-12.713
X-117.996 Y-13.275
X-117.983 Y-13.306
X-117.96 Y-13.33
X-117.931 Y-13.346
X-117.898 Y-13.352
X-117.814 Y-13.347
X-117.683 Y-13.336
X-117.608 Y-13.326
X-117.472 Y-13.264
X-117.379 Y-13.146
X-117.325 Y-13.006
X-117.307 Y-12.857
X-117.335 Y-12.71
X-117.338 Y-12.703
X-117.418 Y-12.606
X-117.53 Y-12.549
X-117.656 Y-12.544
X-117.814 Y-12.571
X-117.845 Y-12.575
X-117.877 Y-12.585
X-117.903 Y-12.605
X-117.922 Y-12.633
X-117.93 Y-12.665
X-117.927 Y-12.698
X-117.784 Y-13.261
X-117.77 Y-13.292
X-117.747 Y-13.317
X-117.716 Y-13.332
X-117.683 Y-13.336
X-117.56 Y-13.326
X-117.429 Y-13.312
X-117.355 Y-13.3
X-117.232 Y-13.214
X-117.149 Y-13.089
X-117.106 Y-12.945
X-117.098 Y-12.795
X-117.136 Y-12.65
X-117.139 Y-12.646
X-117.224 Y-12.555
X-117.338 Y-12.506
X-117.463 Y-12.508
X-117.581 Y-12.531
X-117.656 Y-12.544
X-117.688 Y-12.556
X-117.713 Y-12.579
X-117.73 Y-12.608
X-117.736 Y-12.641
X-117.73 Y-12.675
X-117.531 Y-13.245
X-117.515 Y-13.274
X-117.491 Y-13.296
X-117.461 Y-13.309
X-117.429 Y-13.312
X-117.243 Y-13.291
X-117.169 Y-13.279
X-117.037 Y-13.207
X-116.949 Y-13.085
X-116.897 Y-12.945
X-116.884 Y-12.795
X-116.911 Y-12.648
X-116.932 Y-12.604
X-116.999 Y-12.514
X-117.095 Y-12.456
X-117.205 Y-12.436
X-117.315 Y-12.458
X-117.391 Y-12.489
X-117.433 Y-12.501
X-117.463 Y-12.508
X-117.492 Y-12.521
X-117.516 Y-12.543
X-117.531 Y-12.571
X-117.537 Y-12.603
X-117.532 Y-12.635
X-117.346 Y-13.222
X-117.331 Y-13.251
X-117.306 Y-13.274
X-117.276 Y-13.288
X-117.243 Y-13.291
X-117.006 Y-13.263
X-116.932 Y-13.25
X-116.809 Y-13.165
X-116.727 Y-13.039
X-116.682 Y-12.896
X-116.672 Y-12.746
X-116.702 Y-12.599
X-116.767 Y-12.464
X-116.778 Y-12.452
X-116.879 Y-12.377
X-117.001 Y-12.349
X-117.124 Y-12.375
X-117.315 Y-12.458
X-117.347 Y-12.481
X-117.367 Y-12.513
X-117.374 Y-12.551
X-117.366 Y-12.588
X-117.363 Y-12.595
X-117.107 Y-13.203
X-117.09 Y-13.229
X-117.066 Y-13.25
X-117.037 Y-13.261
X-117.006 Y-13.263
X-116.968 Y-13.259
X-116.799 Y-13.23
X-116.756 Y-13.223
X-116.735 Y-13.219
X-116.681 Y-13.199
X-116.649 Y-13.177
X-116.628 Y-13.144
X-116.621 Y-13.106
X-116.629 Y-13.068
X-116.651 Y-13.036
X-116.684 Y-13.015
X-116.722 Y-13.008
X-116.76 Y-13.015
X-116.79 Y-13.028
X-116.82 Y-13.048
X-116.841 Y-13.077
X-116.851 Y-13.112
X-116.847 Y-13.148
X-116.831 Y-13.18
X-116.805 Y-13.205
X-116.771 Y-13.218
X-116.735 Y-13.219
X-116.714 Y-13.212
X-116.661 Y-13.191
X-116.627 Y-13.176
X-116.533 Y-13.059
X-116.476 Y-12.92
X-116.463 Y-12.828
X-116.422 Y-12.744
X-116.357 Y-12.677
X-116.193 Y-12.589
X-115.832 Y-12.498
X-115.683 Y-12.487
X-115.574 Y-12.471
X-115.501 Y-12.45
X-115.435 Y-12.411
X-115.381 Y-12.358
G3 X-115.555 Y-12.175 I-0.104 J0.075
G1 X-115.916 Y-12.409
X-116.428 Y-12.739
X-116.774 Y-12.963
G3 X-116.661 Y-13.191 I0.07 J-0.108
G1 X-116.514 Y-13.132
X-116.488 Y-13.122
X-116.46 Y-13.111
X-116.324 Y-13.048
X-115.994 Y-12.875
X-115.971 Y-12.869
X-115.943 Y-12.861
X-115.916 Y-12.851
X-115.89 Y-12.837
X-115.862 Y-12.812
X-115.846 Y-12.778
X-115.843 Y-12.74
X-115.855 Y-12.704
X-115.879 Y-12.675
X-115.912 Y-12.657
X-115.949 Y-12.653
X-115.986 Y-12.662
X-116.103 Y-12.719
X-116.537 Y-12.927
X-116.568 Y-12.949
X-116.587 Y-12.981
X-116.594 Y-13.019
X-116.586 Y-13.055
X-116.565 Y-13.087
X-116.534 Y-13.108
X-116.497 Y-13.117
X-116.46 Y-13.111
X-116.376 Y-13.077
X-116.122 Y-12.969
X-116.092 Y-12.953
X-115.699 Y-12.728
X-115.653 Y-12.7
X-115.631 Y-12.679
X-115.614 Y-12.659
X-115.296 Y-12.247
X-115.285 Y-12.232
X-115.276 Y-12.216
X-115.158 Y-11.986
X-115.149 Y-11.952
X-115.152 Y-11.918
X-115.167 Y-11.886
X-115.193 Y-11.861
X-115.485 Y-11.662
X-115.997 Y-11.314
X-116.027 Y-11.3
X-116.06 Y-11.297
X-116.093 Y-11.305
X-116.12 Y-11.323
X-116.141 Y-11.349
X-116.228 Y-11.517
X-116.291 Y-11.639
X-116.322 Y-11.686
X-116.509 Y-11.94
X-116.576 Y-12.024
X-116.64 Y-12.087
X-116.714 Y-12.136
X-116.801 Y-12.193
X-117.014 Y-12.321
X-117.052 Y-12.343
X-117.124 Y-12.375
X-117.155 Y-12.398
X-117.175 Y-12.432
X-117.18 Y-12.47
X-117.171 Y-12.508
X-117.154 Y-12.543 Z-0.982
X-117.14 Y-12.572 Z-0.961
X-117.131 Y-12.591 Z-0.928
X-117.127 Y-12.598 Z-0.89
G0 Z2
X-121.747 Y-12.245
Z-0.79
G1 Z-0.89 F1000
X-121.751 Y-12.251 Z-0.928
X-121.762 Y-12.27 Z-0.961
X-121.779 Y-12.298 Z-0.982
X-121.799 Y-12.331 Z-0.99
G3 X-122.02 Y-13.084 I1.36 J-0.809
G1 Y-13.338
X-122.016 Y-13.413
X-121.959 Y-13.551
X-121.858 Y-13.662
X-121.734 Y-13.747
X-121.597 Y-13.809
X-121.453 Y-13.85
X-121.305 Y-13.872
X-121.155 Y-13.877
X-121.059 Y-13.87
X-120.973 Y-13.848
X-120.898 Y-13.798
X-120.845 Y-13.727
X-120.672 Y-13.485
X-120.658 Y-13.472
X-120.638 Y-13.44
X-120.63 Y-13.403
X-120.638 Y-13.366
X-120.658 Y-13.334
X-120.689 Y-13.312
X-120.725 Y-13.303
X-121.282 Y-13.274
X-121.289
X-121.915 Y-13.241
X-121.954 Y-13.247
X-121.987 Y-13.267
X-122.011 Y-13.299
X-122.02 Y-13.338
Y-13.591
X-122.016 Y-13.666
X-121.954 Y-13.802
X-121.85 Y-13.911
X-121.726 Y-13.995
X-121.589 Y-14.056
X-121.445 Y-14.098
X-121.297 Y-14.122
X-121.147 Y-14.125
X-121.118 Y-14.12
X-121 Y-14.071
X-120.913 Y-13.978
X-120.873 Y-13.857
X-120.876 Y-13.823
X-120.891 Y-13.792
X-120.915 Y-13.767
X-120.947 Y-13.753
X-121.309 Y-13.655
X-121.894 Y-13.498
X-121.93 Y-13.495
X-121.964 Y-13.505
X-121.993 Y-13.526
X-122.012 Y-13.556
X-122.02 Y-13.591
Y-13.798
X-122.012 Y-13.948
X-121.935 Y-14.076
X-121.825 Y-14.178
X-121.697 Y-14.257
X-121.559 Y-14.315
X-121.414 Y-14.353
X-121.265 Y-14.369
X-121.115 Y-14.355
X-121.08 Y-14.342
X-120.975 Y-14.279
X-120.904 Y-14.179
X-120.879 Y-14.059
Y-13.967
X-120.876 Y-13.883
X-120.873 Y-13.857
X-120.878 Y-13.818
X-120.898 Y-13.783
X-120.929 Y-13.759
X-120.968 Y-13.75
X-121.289 Y-13.733
X-121.915 Y-13.702
X-121.954 Y-13.707
X-121.988 Y-13.728
X-122.011 Y-13.76
X-122.02 Y-13.798
Y-14.051
X-122.012 Y-14.201
X-121.932 Y-14.328
X-121.822 Y-14.429
X-121.694 Y-14.507
X-121.554 Y-14.563
X-121.408 Y-14.597
X-121.259 Y-14.608
X-121.11 Y-14.588
X-121.078 Y-14.576
X-120.974 Y-14.513
X-120.903 Y-14.413
X-120.879 Y-14.294
X-120.885 Y-14.262
X-120.901 Y-14.235
X-120.924 Y-14.213
X-120.954 Y-14.2
X-121.308 Y-14.109
X-121.895 Y-13.958
X-121.93 Y-13.955
X-121.965 Y-13.965
X-121.993 Y-13.987
X-122.012 Y-14.017
X-122.02 Y-14.051
Y-14.305
X-122.016 Y-14.38
X-121.964 Y-14.52
X-121.866 Y-14.634
X-121.744 Y-14.721
X-121.608 Y-14.785
X-121.464 Y-14.828
X-121.316 Y-14.846
X-121.166 Y-14.838
X-121.1 Y-14.82
X-120.985 Y-14.76
X-120.907 Y-14.657
X-120.879 Y-14.53
X-120.885 Y-14.498
X-120.901 Y-14.47
X-120.925 Y-14.449
X-120.955 Y-14.436
X-121.305 Y-14.353
X-121.897 Y-14.211
X-121.932 Y-14.209
X-121.965 Y-14.219
X-121.994 Y-14.241
X-122.012 Y-14.27
X-122.02 Y-14.305
Y-14.558
X-122.016 Y-14.633
X-121.959 Y-14.772
X-121.859 Y-14.883
X-121.736 Y-14.969
X-121.599 Y-15.031
X-121.454 Y-15.069
X-121.305 Y-15.085
X-121.155 Y-15.071
X-121.097 Y-15.055
X-120.984 Y-14.994
X-120.906 Y-14.892
X-120.879 Y-14.766
X-120.885 Y-14.734
X-120.902 Y-14.706
X-120.927 Y-14.684
X-120.957 Y-14.672
X-121.303 Y-14.596
X-121.898 Y-14.464
X-121.933 Y-14.463
X-121.966 Y-14.473
X-121.994 Y-14.495
X-122.013 Y-14.524
X-122.02 Y-14.558
Y-14.774
X-122.012 Y-14.923
X-121.936 Y-15.053
X-121.827 Y-15.155
X-121.698 Y-15.232
X-121.558 Y-15.286
X-121.411 Y-15.316
X-121.261 Y-15.322
X-121.113 Y-15.3
X-121.076 Y-15.286
X-120.973 Y-15.223
X-120.903 Y-15.123
X-120.879 Y-15.005
X-120.885 Y-14.973
X-120.901 Y-14.945
X-120.925 Y-14.924
X-120.955 Y-14.911
X-121.306 Y-14.825
X-121.896 Y-14.68
X-121.931 Y-14.678
X-121.965 Y-14.688
X-121.993 Y-14.709
X-122.012 Y-14.739
X-122.02 Y-14.774
Y-15.027
X-122.012 Y-15.177
X-121.932 Y-15.304
X-121.82 Y-15.403
X-121.69 Y-15.477
X-121.549 Y-15.528
X-121.401 Y-15.556
X-121.251 Y-15.561
X-121.103 Y-15.537
X-121.072 Y-15.525
X-120.971 Y-15.46
X-120.903 Y-15.362
X-120.879 Y-15.244
X-120.885 Y-15.212
X-120.901 Y-15.184
X-120.926 Y-15.163
X-120.956 Y-15.15
X-121.304 Y-15.07
X-121.897 Y-14.933
X-121.932 Y-14.931
X-121.966 Y-14.942
X-121.994 Y-14.963
X-122.012 Y-14.993
X-122.02 Y-15.027
Y-15.28
X-122.016 Y-15.355
X-121.962 Y-15.495
X-121.861 Y-15.606
X-121.737 Y-15.69
X-121.599 Y-15.75
X-121.454 Y-15.788
X-121.305 Y-15.802
X-121.155 Y-15.789
X-121.094 Y-15.771
X-120.982 Y-15.71
X-120.906 Y-15.608
X-120.879 Y-15.483
X-120.885 Y-15.451
X-120.902 Y-15.423
X-120.927 Y-15.401
X-120.957 Y-15.389
X-121.302 Y-15.315
X-121.899 Y-15.186
X-121.934 Y-15.185
X-121.967 Y-15.196
X-121.994 Y-15.217
X-122.013 Y-15.246
X-122.02 Y-15.28
Y-15.534
X-122.016 Y-15.609
X-121.954 Y-15.745
X-121.851 Y-15.854
X-121.725 Y-15.936
X-121.587 Y-15.994
X-121.441 Y-16.028
X-121.291 Y-16.04
X-121.142 Y-16.024
X-121.09 Y-16.007
X-120.98 Y-15.946
X-120.905 Y-15.844
X-120.879 Y-15.721
X-120.885 Y-15.688
X-120.902 Y-15.659
X-120.928 Y-15.638
X-120.959 Y-15.626
X-121.3 Y-15.558
X-121.9 Y-15.439
X-121.935 Y-15.438
X-121.968 Y-15.449
X-121.995 Y-15.471
X-122.013 Y-15.5
X-122.02 Y-15.534
Y-15.741
X-122.012 Y-15.891
X-121.934 Y-16.019
X-121.823 Y-16.119
X-121.693 Y-16.194
X-121.552 Y-16.245
X-121.404 Y-16.273
X-121.254 Y-16.278
X-121.106 Y-16.254
X-121.072 Y-16.241
X-120.971 Y-16.177
X-120.903 Y-16.078
X-120.879 Y-15.96
X-120.885 Y-15.928
X-120.901 Y-15.9
X-120.926 Y-15.879
X-120.956 Y-15.866
X-121.304 Y-15.785
X-121.897 Y-15.647
X-121.932 Y-15.645
X-121.966 Y-15.655
X-121.994 Y-15.677
X-122.012 Y-15.706
X-122.02 Y-15.741
Y-15.994
X-122.016 Y-16.069
X-121.964 Y-16.21
X-121.864 Y-16.321
X-121.74 Y-16.406
X-121.603 Y-16.466
X-121.457 Y-16.504
X-121.308 Y-16.518
X-121.159 Y-16.506
X-121.095 Y-16.488
X-120.983 Y-16.427
X-120.906 Y-16.325
X-120.879 Y-16.2
X-120.885 Y-16.167
X-120.902 Y-16.139
X-120.927 Y-16.118
X-120.957 Y-16.105
X-121.302 Y-16.03
X-121.899 Y-15.9
X-121.933 Y-15.899
X-121.967 Y-15.909
X-121.994 Y-15.931
X-122.013 Y-15.96
X-122.02 Y-15.994
Y-16.248
X-122.016 Y-16.322
X-121.956 Y-16.46
X-121.853 Y-16.569
X-121.728 Y-16.652
X-121.59 Y-16.71
X-121.444 Y-16.745
X-121.295 Y-16.757
X-121.145 Y-16.741
X-121.092 Y-16.724
X-120.981 Y-16.663
X-120.905 Y-16.561
X-120.879 Y-16.437
X-120.885 Y-16.405
X-120.902 Y-16.376
X-120.928 Y-16.355
X-120.959 Y-16.343
X-121.3 Y-16.274
X-121.9 Y-16.153
X-121.935 Y-16.152
X-121.967 Y-16.163
X-121.994 Y-16.184
X-122.013 Y-16.214
X-122.02 Y-16.248
Y-16.463
X-122.012 Y-16.613
X-121.932 Y-16.739
X-121.819 Y-16.839
X-121.689 Y-16.913
X-121.548 Y-16.964
X-121.4 Y-16.99
X-121.25 Y-16.995
X-121.103 Y-16.969
X-121.07 Y-16.957
X-120.97 Y-16.893
X-120.902 Y-16.794
X-120.879 Y-16.677
X-120.885 Y-16.645
X-120.901 Y-16.617
X-120.926 Y-16.596
X-120.956 Y-16.583
X-121.303 Y-16.504
X-121.898 Y-16.369
X-121.933 Y-16.367
X-121.966 Y-16.378
X-121.994 Y-16.399
X-122.013 Y-16.429
X-122.02 Y-16.463
Y-16.716
X-122.016 Y-16.791
X-121.962 Y-16.931
X-121.86 Y-17.042
X-121.736 Y-17.126
X-121.598 Y-17.185
X-121.453 Y-17.222
X-121.303 Y-17.235
X-121.154 Y-17.223
X-121.093 Y-17.204
X-120.982 Y-17.143
X-120.906 Y-17.041
X-120.879 Y-16.917
X-120.885 Y-16.884
X-120.902 Y-16.856
X-120.927 Y-16.835
X-120.958 Y-16.822
X-121.302 Y-16.749
X-121.899 Y-16.622
X-121.934 Y-16.621
X-121.967 Y-16.632
X-121.994 Y-16.653
X-122.013 Y-16.682
X-122.02 Y-16.716
Y-16.97
Y-17.008
Y-17.054
X-122.019 Y-17.079
X-122.008 Y-17.096
X-121.941 Y-17.174
X-121.852 Y-17.224
X-121.751 Y-17.242
G3 X-121.596 Y-16.926 I-0.007 J0.2
X-122.02 Y-17.054 I-0.19 J-0.136
G1 X-122.019 Y-17.134
X-122.018 Y-17.145
X-122.015 Y-17.156
X-122.01 Y-17.166
X-122.005 Y-17.177
X-121.996 Y-17.189
X-121.972 Y-17.215
X-121.959 Y-17.225
X-121.949 Y-17.231
X-121.938 Y-17.236
X-121.927 Y-17.239
X-121.917 Y-17.241
X-121.875 Y-17.242
X-121.029
X-120.986
X-120.976 Y-17.24
X-120.958 Y-17.234
X-120.943 Y-17.227
X-120.929 Y-17.218
X-120.915 Y-17.194
X-120.911 Y-17.165
X-120.918 Y-17.138
X-120.937 Y-17.113
X-120.965 Y-17.099
X-120.996 Y-17.098
X-121.024 Y-17.11
X-121.045 Y-17.133
X-121.054 Y-17.163
X-121.05 Y-17.194
X-121.033 Y-17.22
X-121.007 Y-17.237
X-120.976 Y-17.24
X-120.965 Y-17.238
X-120.955 Y-17.234
X-120.944 Y-17.229
X-120.929 Y-17.218
X-120.914 Y-17.203
X-120.894 Y-17.177
X-120.888 Y-17.166
X-120.884 Y-17.156
X-120.881 Y-17.145
X-120.879 Y-17.134
Y-16.839
Y-14.059
X-120.884 Y-14.031
X-120.896 Y-14.005
X-120.925 Y-13.989 Z-0.983
X-120.951 Y-13.974 Z-0.966
X-120.969 Y-13.963 Z-0.939
X-120.979 Y-13.962 Z-0.916
X-120.982 Z-0.89
G0 Z2
X-112.506 Y-15.701
Z0.5
G3 X-112.022 Y-15.826 Z0.29 I0.242 J-0.062 F333.3
X-112.506 Y-15.701 Z0.079 I-0.242 J0.062
X-112.022 Y-15.826 Z-0.131 I0.242 J-0.062
X-112.506 Y-15.701 Z-0.342 I-0.242 J0.062
X-112.022 Y-15.826 Z-0.552 I0.242 J-0.062
X-112.506 Y-15.701 Z-0.763 I-0.242 J0.062
X-112.295 Y-16.011 Z-0.876 I0.242 J-0.062
X-112.014 Y-15.763 Z-0.99 I0.031 J0.248
X-112.514 I-0.25
X-112.014 I0.25
G1 X-111.977 Y-15.618 F1000
X-111.989 Y-15.544
X-112.027 Y-15.479
X-112.133 Y-15.374
X-112.278 Y-15.334
X-112.427 Y-15.355
X-112.557 Y-15.429
X-112.654 Y-15.544
X-112.706 Y-15.685
X-112.708 Y-15.835
X-112.66 Y-15.977
X-112.568 Y-16.096
X-112.443 Y-16.177
X-112.297 Y-16.213
X-112.148 Y-16.199
X-112.011 Y-16.137
X-111.903 Y-16.033
X-111.824 Y-15.905
X-111.774 Y-15.764
X-111.77 Y-15.701
X-111.771 Y-15.681
X-111.773 Y-15.661
X-111.776 Y-15.61
X-111.793 Y-15.461
X-111.868 Y-15.331
X-111.978 Y-15.229
X-112.11 Y-15.157
X-112.256 Y-15.125
X-112.406 Y-15.133
X-112.55 Y-15.174
X-112.595 Y-15.201
X-112.665 Y-15.258
X-112.715 Y-15.333
X-112.74 Y-15.42
X-112.737 Y-15.456
X-112.722 Y-15.488
X-112.697 Y-15.513
X-112.664 Y-15.527
X-112.485 Y-15.57
X-111.9 Y-15.71
X-111.863 Y-15.712
X-111.829 Y-15.7
X-111.8 Y-15.677
X-111.782 Y-15.646
X-111.776 Y-15.61
X-111.779 Y-15.572
Y-15.487
X-111.772 Y-15.403
X-111.765 Y-15.356
X-111.759 Y-15.282
X-111.818 Y-15.144
X-111.921 Y-15.034
X-112.049 Y-14.957
X-112.193 Y-14.914
X-112.342 Y-14.902
X-112.491 Y-14.918
X-112.497 Y-14.92
X-112.588 Y-14.971
X-112.657 Y-15.05
X-112.694 Y-15.148
X-112.693 Y-15.185
X-112.678 Y-15.219
X-112.653 Y-15.245
X-112.619 Y-15.26
X-112.491 Y-15.291
X-111.887 Y-15.437
X-111.855 Y-15.439
X-111.823 Y-15.431
X-111.796 Y-15.413
X-111.776 Y-15.387
X-111.765 Y-15.356
X-111.742 Y-15.188
X-111.735 Y-15.113
X-111.767 Y-14.966
X-111.859 Y-14.848
X-111.982 Y-14.761
X-112.12 Y-14.704
X-112.268 Y-14.675
X-112.34
X-112.465 Y-14.703
X-112.567 Y-14.779
X-112.628 Y-14.891
X-112.679 Y-15.065
X-112.71 Y-15.234
X-112.725 Y-15.318
X-112.738 Y-15.403
X-112.771 Y-15.656
X-112.773 Y-15.677
X-112.768 Y-15.741
X-112.76 Y-15.825
X-112.735 Y-15.994
X-112.727 Y-16.041
X-112.696 Y-16.187
X-112.598 Y-16.301
X-112.471 Y-16.38
X-112.326 Y-16.42
X-112.176 Y-16.421
X-112.03 Y-16.388
X-111.895 Y-16.322
X-111.833 Y-16.272
X-111.762 Y-16.19
X-111.725 Y-16.088
X-111.727 Y-15.98
X-111.74 Y-15.948
X-111.763 Y-15.923
X-111.794 Y-15.908
X-111.827 Y-15.903
X-112.013 Y-15.909
X-112.631 Y-15.928
X-112.664 Y-15.935
X-112.692 Y-15.951
X-112.714 Y-15.977
X-112.726 Y-16.007
X-112.727 Y-16.041
X-112.693 Y-16.248
X-112.683 Y-16.294
X-112.675 Y-16.332
X-112.663 Y-16.378
X-112.651 Y-16.417
X-112.644 Y-16.435
X-112.635 Y-16.453
X-112.611 Y-16.481
X-112.578 Y-16.499
X-112.542 Y-16.503
X-112.506 Y-16.494
X-112.476 Y-16.472
X-112.456 Y-16.441
X-112.448 Y-16.404
X-112.455 Y-16.368
X-112.472 Y-16.323
X-112.491 Y-16.291
X-112.521 Y-16.269
X-112.556 Y-16.259
X-112.593 Y-16.262
X-112.626 Y-16.279
X-112.651 Y-16.307
X-112.664 Y-16.341
X-112.663 Y-16.378
X-112.653 Y-16.419
X-112.623 Y-16.475
X-112.607 Y-16.502
X-112.482 Y-16.584
X-112.339 Y-16.631
X-112.19 Y-16.644
X-112.041 Y-16.626
X-111.897 Y-16.582
X-111.817 Y-16.537
X-111.71 Y-16.44
X-111.659 Y-16.306
X-111.674 Y-16.163
X-111.694 Y-16.132
X-111.724 Y-16.11
X-111.76 Y-16.1
X-111.796 Y-16.104
X-111.976 Y-16.158
X-112.562 Y-16.336
X-112.593 Y-16.351
X-112.617 Y-16.376
X-112.631 Y-16.408
X-112.633 Y-16.442
X-112.623 Y-16.475
X-112.61 Y-16.501
X-112.569 Y-16.57
X-112.526 Y-16.632
X-112.435 Y-16.751
X-112.302 Y-16.82
X-112.155 Y-16.848
X-112.005 Y-16.845
X-111.859 Y-16.81
X-111.723 Y-16.747
X-111.665 Y-16.7
X-111.581 Y-16.591
X-111.554 Y-16.457
X-111.59 Y-16.325
X-111.61 Y-16.3
X-111.638 Y-16.283
X-111.669 Y-16.275
X-111.702 Y-16.278
X-111.89 Y-16.328
X-112.467 Y-16.482
X-112.501 Y-16.498
X-112.526 Y-16.525
X-112.54 Y-16.56
Y-16.597
X-112.526 Y-16.632
X-112.384 Y-16.839
X-112.365 Y-16.864
X-112.269 Y-16.98
X-112.13 Y-17.036
X-111.981 Y-17.052
X-111.832 Y-17.034
X-111.691 Y-16.985
X-111.564 Y-16.905
X-111.523 Y-16.864
X-111.45 Y-16.745
X-111.439 Y-16.605
X-111.493 Y-16.476
X-111.517 Y-16.454
X-111.545 Y-16.441
X-111.577 Y-16.438
X-111.607 Y-16.444
X-111.754 Y-16.499
X-112.318 Y-16.714
X-112.349 Y-16.733
X-112.371 Y-16.761
X-112.382 Y-16.795
X-112.38 Y-16.831
X-112.365 Y-16.864
X-112.315 Y-16.932
X-112.254 Y-17.008
X-112.242 Y-17.018
X-112.146 Y-17.082
X-112.061 Y-17.131
X-111.927 Y-17.199
X-111.778 Y-17.214
X-111.631 Y-17.186
X-111.494 Y-17.123
X-111.378 Y-17.028
X-111.354 Y-16.994
X-111.303 Y-16.871
X-111.311 Y-16.737
X-111.375 Y-16.621
X-111.403 Y-16.601
X-111.435 Y-16.591
X-111.47 Y-16.592
X-111.501 Y-16.606
X-111.569 Y-16.649
X-112.062 Y-16.962
X-112.087 Y-16.984
X-112.103 Y-17.014
X-112.108 Y-17.047
X-112.102 Y-17.08
X-112.086 Y-17.109
X-112.061 Y-17.131
X-111.976 Y-17.179
X-111.782 Y-17.286
X-111.714 Y-17.319
X-111.565 Y-17.338
X-111.42 Y-17.303
X-111.29 Y-17.228
X-111.187 Y-17.119
X-111.178 Y-17.099
X-111.147 Y-16.961
X-111.184 Y-16.824
X-111.28 Y-16.72
X-111.31 Y-16.707
X-111.344 Y-16.705
X-111.376 Y-16.714
X-111.403 Y-16.734
X-111.801 Y-17.129
X-111.822 Y-17.159
X-111.83 Y-17.194
X-111.826 Y-17.23
X-111.809 Y-17.262
X-111.782 Y-17.286
X-111.723 Y-17.318
X-111.669 Y-17.346
X-111.638 Y-17.36
X-111.596 Y-17.377
X-111.553 Y-17.387
X-111.469 Y-17.403
X-111.32 Y-17.423
X-111.178 Y-17.373
X-111.062 Y-17.278
X-110.982 Y-17.151
X-110.981 Y-17.147
X-110.98 Y-17.023
X-111.029 Y-16.909
X-111.119 Y-16.825
X-111.154 Y-16.813
X-111.19 Y-16.814
X-111.223 Y-16.829
X-111.249 Y-16.854
X-111.528 Y-17.248
X-111.544 Y-17.283
X-111.545 Y-17.322
X-111.531 Y-17.359
X-111.504 Y-17.387
X-111.469 Y-17.403
X-111.384 Y-17.419
X-111.215 Y-17.444
X-111.14 Y-17.451
X-110.993 Y-17.424
X-110.873 Y-17.333
X-110.859 Y-17.306
X-110.824 Y-17.19
X-110.838 Y-17.069
X-110.899 Y-16.964
X-110.996 Y-16.892
X-111.034 Y-16.884
X-111.072 Y-16.891
X-111.104 Y-16.912
X-111.127 Y-16.943
X-111.288 Y-17.305
X-111.297 Y-17.34
X-111.292 Y-17.375
X-111.275 Y-17.407
X-111.249 Y-17.431
X-111.215 Y-17.444
X-111.13 Y-17.456
X-110.961 Y-17.478
X-110.886 Y-17.479
X-110.818 Y-17.448
X-110.703 Y-17.352
X-110.7 Y-17.345
X-110.677 Y-17.232
X-110.699 Y-17.118
X-110.762 Y-17.021
X-110.857 Y-16.955
X-110.892 Y-16.948
X-110.927 Y-16.954
X-110.958 Y-16.972
X-110.981 Y-16.999
X-110.992 Y-17.033
X-111.044 Y-17.364
X-111.043 Y-17.403
X-111.026 Y-17.438
X-110.998 Y-17.464
X-110.961 Y-17.478
X-110.877 Y-17.484
X-110.792 Y-17.487
X-110.718 Y-17.476
X-110.649 Y-17.446
X-110.595 Y-17.394
X-110.559 Y-17.274
X-110.581 Y-17.149
X-110.655 Y-17.048
X-110.767 Y-16.99
X-110.803 Y-16.989
X-110.837 Y-17
X-110.864 Y-17.023
X-110.882 Y-17.054
X-110.888 Y-17.089
X-110.884 Y-17.389
X-110.877 Y-17.425
X-110.857 Y-17.456
X-110.828 Y-17.478
X-110.792 Y-17.487
X-110.623 Y-17.471
X-110.549 Y-17.46
X-110.489 Y-17.414
X-110.45 Y-17.296
X-110.469 Y-17.172
X-110.543 Y-17.072
X-110.655 Y-17.017
X-110.693
X-110.728 Y-17.032
X-110.756 Y-17.059
X-110.771 Y-17.094
X-110.772 Y-17.132
X-110.727 Y-17.388
X-110.715 Y-17.422
X-110.691 Y-17.449
X-110.659 Y-17.466
X-110.623 Y-17.471
X-110.492 Y-17.457
X-110.455 Y-17.451
X-110.39 Y-17.413
X-110.348 Y-17.351
X-110.335 Y-17.25
X-110.368 Y-17.153
X-110.438 Y-17.079
X-110.534 Y-17.043
X-110.571 Y-17.047
X-110.605 Y-17.063
X-110.63 Y-17.091
X-110.643 Y-17.126
X-110.642 Y-17.163
X-110.597 Y-17.378
X-110.584 Y-17.411
X-110.559 Y-17.437
X-110.527 Y-17.453
X-110.492 Y-17.457
X-110.407 Y-17.447
X-110.369 Y-17.442
X-110.332 Y-17.435
X-110.271 Y-17.392
X-110.236 Y-17.286
X-110.258 Y-17.178
X-110.329 Y-17.094
X-110.433 Y-17.056
X-110.461 Y-17.059
X-110.488 Y-17.069
G3 X-110.369 Y-17.442 I0.099 J-0.173
G1 X-110.284 Y-17.43
X-110.238 Y-17.422
X-110.203 Y-17.413
X-110.15 Y-17.36
X-110.133 Y-17.263
X-110.162 Y-17.169
X-110.23 Y-17.098
X-110.323 Y-17.066
X-110.358 Y-17.071
X-110.388 Y-17.088
G3 X-110.238 Y-17.422 I0.123 J-0.145
G1 X-110.2 Y-17.415
X-110.153 Y-17.401
X-110.118 Y-17.389
X-110.058 Y-17.343
X-110.042 Y-17.25
X-110.072 Y-17.161
X-110.14 Y-17.096
X-110.23 Y-17.071
X-110.25 Y-17.074
X-110.27 Y-17.081
G3 X-110.153 Y-17.401 I0.074 J-0.155
G1 X-110.115 Y-17.39
X-110.031 Y-17.361
X-109.996 Y-17.346
X-109.954 Y-17.284
X-109.962 Y-17.178
X-110.031 Y-17.096
X-110.135 Y-17.069
X-110.158 Y-17.074
X-110.178 Y-17.087
G3 X-110.031 Y-17.361 I0.102 J-0.122
G1 X-109.946 Y-17.328
X-109.912 Y-17.313
X-109.866 Y-17.253
X-109.882 Y-17.155
X-109.951 Y-17.082
X-110.048 Y-17.062
X-110.067 Y-17.067
X-110.084 Y-17.076
G3 X-109.946 Y-17.328 I0.089 J-0.115
G1 X-109.861 Y-17.294
X-109.816 Y-17.276
X-109.779 Y-17.261
X-109.753 Y-17.249
X-109.777 Y-17.146
X-109.852 Y-17.073
X-109.956 Y-17.053
X-109.981 Y-17.061
X-110 Y-17.079
X-110.011 Y-17.103
Y-17.13
G3 X-109.779 Y-17.261 I0.173 J0.034
G1 X-109.734 Y-17.242
X-109.72 Y-17.233
X-109.707 Y-17.219
X-109.698 Y-17.208
X-109.692 Y-17.196
X-109.686 Y-17.177
X-109.684 Y-17.161
Y-17.146
X-109.687 Y-17.13
X-109.692 Y-17.115
X-109.698 Y-17.103
X-109.72 Y-17.073
X-109.731 Y-17.062
X-109.741 Y-17.054
X-109.759 Y-17.045
X-109.777 Y-17.04
X-109.787 Y-17.038
X-109.798
X-110.115 Y-17.068
X-110.2 Y-17.072
X-110.284 Y-17.07
X-110.454 Y-17.054
X-110.538 Y-17.043
X-110.707 Y-17.005
X-110.792 Y-16.984
X-110.928 Y-16.923
X-111.046 Y-16.869
X-111.13 Y-16.818
X-111.228 Y-16.754
X-111.3 Y-16.706
X-111.407 Y-16.585
X-111.475 Y-16.501
X-111.537 Y-16.416
X-111.553 Y-16.39
X-111.6 Y-16.306
X-111.638 Y-16.235
X-111.674 Y-16.163
X-111.704 Y-16.079
X-111.724 Y-15.994
X-111.741 Y-15.91
X-111.773 Y-15.661
X-111.786 Y-15.624
X-111.812 Y-15.594
X-111.847 Y-15.577
X-111.887 Y-15.575
X-111.924 Y-15.589
X-112.196 Y-15.755
X-112.225 Y-15.781
X-112.241 Y-15.815
X-112.243 Y-15.854
X-112.231 Y-15.89
X-112.205 Y-15.919
X-112.171 Y-15.936
X-112.133 Y-15.939
X-112.096 Y-15.927
X-112.066 Y-15.903
G3 X-111.742 Y-15.188 I-1.234 J0.991
G1 X-111.736 Y-15.15
X-111.723 Y-15.088
X-111.7 Y-15.019
X-111.681 Y-14.946
X-111.698 Y-14.797
X-111.78 Y-14.671
X-111.893 Y-14.573
X-112.025 Y-14.502
X-112.169 Y-14.459
X-112.21 Y-14.456
X-112.308 Y-14.465
X-112.398 Y-14.504
X-112.47 Y-14.571
X-112.485 Y-14.6
X-112.489 Y-14.633
X-112.482 Y-14.665
X-112.465 Y-14.694
X-112.44 Y-14.715
X-112.368 Y-14.758
X-111.846 Y-15.071
X-111.813 Y-15.083
X-111.778 Y-15.084
X-111.745 Y-15.072
X-111.718 Y-15.049
X-111.7 Y-15.019
X-111.661 Y-14.896
X-111.638 Y-14.828
X-111.614 Y-14.757
X-111.632 Y-14.608
X-111.708 Y-14.479
X-111.817 Y-14.375
X-111.944 Y-14.296
X-111.989 Y-14.282
X-112.093 Y-14.267
X-112.197 Y-14.29
X-112.286 Y-14.346
X-112.306 Y-14.374
X-112.315 Y-14.407
X-112.313 Y-14.441
X-112.299 Y-14.472
X-112.276 Y-14.497
X-112.271 Y-14.5
X-111.79 Y-14.867
X-111.758 Y-14.883
X-111.722 Y-14.887
X-111.687 Y-14.878
X-111.658 Y-14.858
X-111.638 Y-14.828
X-111.631 Y-14.812
X-111.591 Y-14.727
X-111.57 Y-14.694
X-111.534 Y-14.628
X-111.525 Y-14.478
X-111.581 Y-14.339
X-111.674 Y-14.222
X-111.734 Y-14.177
X-111.857 Y-14.122
X-111.992 Y-14.127
X-112.111 Y-14.191
X-112.131 Y-14.216
X-112.142 Y-14.247
Y-14.279
X-112.132 Y-14.31
X-112.112 Y-14.336
X-111.723 Y-14.71
X-111.694 Y-14.73
X-111.66 Y-14.738
X-111.626 Y-14.734
X-111.594 Y-14.719
X-111.57 Y-14.694
X-111.553 Y-14.666
X-111.5 Y-14.596
X-111.47 Y-14.558
X-111.426 Y-14.498
X-111.402 Y-14.35
X-111.443 Y-14.206
X-111.529 Y-14.083
X-111.569 Y-14.049
X-111.664 Y-13.994
X-111.774 Y-13.978
X-111.881 Y-14.002
X-111.91 Y-14.022
X-111.929 Y-14.051
X-111.938 Y-14.085
X-111.934 Y-14.12
X-111.919 Y-14.152
X-111.626 Y-14.551
X-111.6 Y-14.576
X-111.568 Y-14.59
X-111.532 Y-14.591
X-111.498 Y-14.58
X-111.47 Y-14.558
X-111.4 Y-14.474
X-111.364 Y-14.437
X-111.314 Y-14.381
X-111.269 Y-14.238
X-111.296 Y-14.09
X-111.32 Y-14.049
X-111.418 Y-13.948
X-111.55 Y-13.903
X-111.689 Y-13.922
X-111.717 Y-13.941
X-111.738 Y-13.968
X-111.748 Y-14.001
X-111.747 Y-14.035
X-111.734 Y-14.067
X-111.518 Y-14.417
X-111.495 Y-14.444
X-111.463 Y-14.46
X-111.428 Y-14.465
X-111.393 Y-14.457
X-111.364 Y-14.437
X-111.3 Y-14.371
X-111.218 Y-14.305
X-111.19 Y-14.28
X-111.159 Y-14.212
X-111.137 Y-14.064
X-111.143 Y-14.045
X-111.204 Y-13.942
X-111.3 Y-13.87
X-111.417 Y-13.843
X-111.535 Y-13.863
X-111.566 Y-13.883
X-111.587 Y-13.913
X-111.596 Y-13.949
X-111.591 Y-13.985
X-111.574 Y-14.017
X-111.356 Y-14.287
X-111.327 Y-14.312
X-111.291 Y-14.324
X-111.253 Y-14.321
X-111.218 Y-14.305
X-111.112 Y-14.22
X-111.056 Y-14.171
X-111.027 Y-14.102
X-111.014 Y-13.952
X-111.101 Y-13.844
X-111.228 Y-13.789
X-111.366 Y-13.799
X-111.397 Y-13.817
X-111.419 Y-13.845
X-111.431 Y-13.879
X-111.429 Y-13.915
X-111.415 Y-13.948
X-111.255 Y-14.194
X-111.233 Y-14.218
X-111.205 Y-14.234
X-111.173 Y-14.24
X-111.141 Y-14.235
X-111.112 Y-14.22
X-111.046 Y-14.168
X-111.031 Y-14.157
X-111.015 Y-14.15
X-110.949 Y-14.115
X-110.907 Y-14.053
X-110.892 Y-13.98
X-110.928 Y-13.869
X-111.008 Y-13.786
X-111.116 Y-13.745
X-111.232 Y-13.756
X-111.263 Y-13.774
X-111.286 Y-13.802
X-111.297 Y-13.837
X-111.295 Y-13.873
X-111.28 Y-13.906
X-111.137 Y-14.115
X-111.113 Y-14.139
X-111.082 Y-14.154
X-111.049 Y-14.158
X-111.015 Y-14.15
X-110.877 Y-14.085
X-110.843 Y-14.068
X-110.803 Y-14.005
X-110.786 Y-13.932
X-110.819 Y-13.829
X-110.892 Y-13.75
X-110.992 Y-13.709
X-111.099 Y-13.714
X-111.134 Y-13.733
X-111.159 Y-13.763
X-111.17 Y-13.801
X-111.166 Y-13.84
X-111.147 Y-13.874
X-110.991 Y-14.058
X-110.967 Y-14.078
X-110.938 Y-14.09
X-110.907 Y-14.093
X-110.877 Y-14.085
X-110.792 Y-14.047
X-110.758 Y-14.032
X-110.705 Y-13.978
X-110.682 Y-13.907
X-110.706 Y-13.81
X-110.769 Y-13.732
X-110.859 Y-13.688
X-110.959 Y-13.686
X-110.986 Y-13.697
X-111.009 Y-13.716
G3 X-110.792 Y-14.047 I0.151 J-0.138
G1 X-110.707 Y-14.014
X-110.661 Y-13.997
X-110.626 Y-13.983
X-110.588 Y-13.918
X-110.596 Y-13.813
X-110.651 Y-13.723
X-110.742 Y-13.67
X-110.847 Y-13.664
X-110.874 Y-13.675
X-110.896 Y-13.693
X-110.912 Y-13.717
G3 X-110.661 Y-13.997 I0.187 J-0.085
G1 X-110.578 Y-13.967
X-110.543 Y-13.952
X-110.498 Y-13.893
X-110.503 Y-13.791
X-110.554 Y-13.704
X-110.641 Y-13.651
X-110.742 Y-13.645
X-110.774 Y-13.659
X-110.799 Y-13.685
G3 X-110.578 Y-13.967 I0.162 J-0.101
G1 X-110.538 Y-13.953
X-110.492 Y-13.938
X-110.456 Y-13.925
X-110.409 Y-13.867
X-110.412 Y-13.769
X-110.461 Y-13.684
X-110.544 Y-13.633
X-110.642 Y-13.626
X-110.673 Y-13.64
X-110.696 Y-13.664
G3 X-110.492 Y-13.938 I0.155 J-0.097
G1 X-110.454 Y-13.926
X-110.407 Y-13.914
X-110.371 Y-13.902
X-110.322 Y-13.846
X-110.323 Y-13.75
X-110.37 Y-13.667
X-110.451 Y-13.616
X-110.546 Y-13.609
X-110.576 Y-13.622
X-110.599 Y-13.646
G3 X-110.407 Y-13.914 I0.152 J-0.093
G1 X-110.325 Y-13.892
X-110.289 Y-13.881
X-110.237 Y-13.827
X-110.236 Y-13.735
X-110.279 Y-13.653
X-110.355 Y-13.602
X-110.447 Y-13.593
X-110.473 Y-13.603
X-110.494 Y-13.622
G3 X-110.325 Y-13.892 I0.132 J-0.105
G1 X-110.238 Y-13.87
X-110.202 Y-13.859
X-110.15 Y-13.805
X-110.149 Y-13.716
X-110.191 Y-13.638
X-110.264 Y-13.588
X-110.352 Y-13.579
X-110.377 Y-13.588
X-110.398 Y-13.606
G3 X-110.238 Y-13.87 I0.126 J-0.104
G1 X-110.2 Y-13.86
X-110.153 Y-13.851
X-110.117 Y-13.842
X-110.064 Y-13.788
X-110.063 Y-13.702
X-110.102 Y-13.625
X-110.173 Y-13.576
X-110.259 Y-13.566
X-110.284 Y-13.575
X-110.305 Y-13.593
G3 X-110.153 Y-13.851 I0.126 J-0.099
G1 X-110.069 Y-13.834
X-110.032 Y-13.825
X-109.979 Y-13.772
X-109.986 Y-13.661
X-110.058 Y-13.577
X-110.167 Y-13.554
X-110.191 Y-13.562
X-110.211 Y-13.578
G3 X-110.069 Y-13.834 I0.117 J-0.103
G1 X-109.984 Y-13.817
X-109.948 Y-13.808
X-109.896 Y-13.753
X-109.903 Y-13.646
X-109.974 Y-13.565
X-110.079 Y-13.543
X-110.102 Y-13.551
X-110.12 Y-13.566
G3 X-109.984 Y-13.817 I0.112 J-0.102
G1 X-109.885 Y-13.798
X-109.849 Y-13.789
X-109.804 Y-13.729
X-109.819 Y-13.627
X-109.892 Y-13.552
X-109.994 Y-13.533
X-110.022 Y-13.544
X-110.043 Y-13.567
G3 X-109.885 Y-13.798 I0.134 J-0.078
G1 X-109.815 Y-13.785
X-109.778 Y-13.776
X-109.728 Y-13.721
X-109.735 Y-13.619
X-109.802 Y-13.542
X-109.902 Y-13.521
X-109.923 Y-13.528
X-109.941 Y-13.542
G3 X-109.815 Y-13.785 I0.104 J-0.1
G1 X-109.73 Y-13.769
X-109.694 Y-13.76
X-109.644 Y-13.704
X-109.654 Y-13.605
X-109.721 Y-13.531
X-109.82 Y-13.511
X-109.842 Y-13.519
X-109.86 Y-13.533
G3 X-109.73 Y-13.769 I0.108 J-0.094
G1 X-109.646 Y-13.753
X-109.609 Y-13.744
X-109.561 Y-13.687
X-109.573 Y-13.59
X-109.64 Y-13.519
X-109.735 Y-13.501
X-109.758 Y-13.509
X-109.776 Y-13.524
G3 X-109.646 Y-13.753 I0.109 J-0.09
G1 X-109.561 Y-13.737
X-109.525 Y-13.728
X-109.478 Y-13.67
X-109.492 Y-13.576
X-109.558 Y-13.507
X-109.652 Y-13.49
X-109.675 Y-13.499
X-109.692 Y-13.515
G3 X-109.561 Y-13.737 I0.11 J-0.085
G1 X-109.476 Y-13.721
X-109.44 Y-13.712
X-109.395 Y-13.652
X-109.411 Y-13.561
X-109.476 Y-13.496
X-109.567 Y-13.479
X-109.59 Y-13.488
X-109.608 Y-13.504
G3 X-109.476 Y-13.721 I0.111 J-0.081
G1 X-109.391 Y-13.704
X-109.355 Y-13.695
X-109.312 Y-13.634
X-109.329 Y-13.546
X-109.394 Y-13.483
X-109.482 Y-13.468
X-109.504 Y-13.477
X-109.522 Y-13.493
X-109.542 Y-13.533
X-109.548 Y-13.578
X-109.538 Y-13.622
X-109.514 Y-13.661
X-109.479 Y-13.689
X-109.437 Y-13.704
X-109.391
X-109.354 Y-13.696
X-109.307 Y-13.685
X-109.271 Y-13.674
X-109.248 Y-13.598
X-109.27 Y-13.521
X-109.33 Y-13.469
X-109.409 Y-13.458
X-109.433 Y-13.469
X-109.45 Y-13.488
X-109.465 Y-13.528
X-109.467 Y-13.572
X-109.454 Y-13.614
X-109.428 Y-13.649
X-109.393 Y-13.674
X-109.351 Y-13.687
X-109.307 Y-13.685
X-109.223 Y-13.664
X-109.187 Y-13.653
X-109.155 Y-13.585
X-109.18 Y-13.507
X-109.243 Y-13.454
X-109.325 Y-13.445
X-109.349 Y-13.455
X-109.366 Y-13.475
X-109.379 Y-13.515
Y-13.557
X-109.365 Y-13.597
X-109.34 Y-13.631
X-109.305 Y-13.654
X-109.265 Y-13.666
X-109.223 Y-13.664
X-109.138 Y-13.643
X-109.1 Y-13.633
X-109.083 Y-13.629
X-109.054 Y-13.62
X-109.071 Y-13.519
X-109.144 Y-13.447
X-109.245 Y-13.431
X-109.266 Y-13.44
X-109.282 Y-13.457
X-109.29 Y-13.478
X-109.289 Y-13.501
X-109.273 Y-13.542
X-109.247 Y-13.579
X-109.212 Y-13.607
X-109.172 Y-13.625
X-109.128 Y-13.633
X-109.083 Y-13.629
X-109.049 Y-13.62
X-109.032 Y-13.615
X-109.015 Y-13.605
X-108.998 Y-13.59
X-108.987 Y-13.575
X-108.979 Y-13.56
X-108.974 Y-13.545
X-108.973 Y-13.534
X-108.972 Y-13.524
Y-13.513
X-108.976 Y-13.494
X-108.993 Y-13.467
X-109.02 Y-13.451
X-109.051 Y-13.45
X-109.079 Y-13.464
X-109.097 Y-13.49
X-109.1 Y-13.521
X-109.088 Y-13.55
X-109.087 Y-13.552
X-109.062 Y-13.571
X-109.031 Y-13.577
X-109.001 Y-13.567
X-108.98 Y-13.544
X-108.972 Y-13.513
X-108.974 Y-13.502
X-108.977 Y-13.492
X-108.981 Y-13.481
X-109.002 Y-13.445
X-109.015 Y-13.431
X-109.026 Y-13.422
X-109.036 Y-13.416
X-109.047 Y-13.411
X-109.058 Y-13.408
X-109.068 Y-13.405
X-109.079 Y-13.404
X-109.089
X-109.1 Y-13.406
X-109.184 Y-13.421
X-109.42 Y-13.46
X-109.777 Y-13.506
X-110.284 Y-13.569
X-110.454 Y-13.594
X-110.538 Y-13.608
X-110.792 Y-13.654
X-111.097 Y-13.714
X-111.13 Y-13.722
X-111.384 Y-13.805
X-111.469 Y-13.837
X-111.723 Y-13.936
X-111.807 Y-13.97
X-111.892 Y-14.007
X-111.906 Y-14.016
X-112.061 Y-14.147
X-112.241 Y-14.305
X-112.315 Y-14.373
X-112.328 Y-14.389
X-112.526 Y-14.643
X-112.55 Y-14.674
X-112.569 Y-14.706
X-112.578 Y-14.727
X-112.605 Y-14.812
X-112.628 Y-14.891
X-112.631 Y-14.92
X-112.626 Y-14.948
X-112.603 Y-14.972 Z-0.983
X-112.583 Y-14.993 Z-0.966
X-112.568 Y-15.009 Z-0.939
X-112.559 Y-15.012 Z-0.915
X-112.556 Y-15.013 Z-0.89
G0 Z2
X-107.71 Y-15.974
Z0.5
G3 X-107.226 Y-16.098 Z0.29 I0.242 J-0.062 F333.3
X-107.71 Y-15.974 Z0.079 I-0.242 J0.062
X-107.226 Y-16.098 Z-0.131 I0.242 J-0.062
X-107.71 Y-15.974 Z-0.342 I-0.242 J0.062
X-107.226 Y-16.098 Z-0.552 I0.242 J-0.062
X-107.71 Y-15.974 Z-0.763 I-0.242 J0.062
X-107.499 Y-16.284 Z-0.876 I0.242 J-0.062
X-107.218 Y-16.036 Z-0.99 I0.031 J0.248
X-107.718 I-0.25
X-107.218 I0.25
G1 X-107.181 Y-15.891 F1000
X-107.194 Y-15.817
X-107.231 Y-15.752
X-107.338 Y-15.647
X-107.482 Y-15.607
X-107.631 Y-15.628
X-107.761 Y-15.702
X-107.858 Y-15.817
X-107.91 Y-15.957
X-107.912 Y-16.107
X-107.864 Y-16.25
X-107.773 Y-16.368
X-107.647 Y-16.45
X-107.501 Y-16.486
X-107.352 Y-16.472
X-107.215 Y-16.41
X-107.107 Y-16.306
X-107.029 Y-16.178
X-106.978 Y-16.037
X-106.968 Y-15.887
X-107.003 Y-15.741
X-107.074 Y-15.609
X-107.182 Y-15.505
X-107.313 Y-15.432
X-107.459 Y-15.399
X-107.609 Y-15.406
X-107.753 Y-15.447
X-107.883 Y-15.523
X-107.916 Y-15.556
X-107.945 Y-15.589
X-107.968 Y-15.625
X-107.986 Y-15.665
X-108 Y-15.701
X-108.018 Y-15.741
X-108.033 Y-15.766
X-108.1 Y-15.9
X-108.123 Y-16.049
X-108.11 Y-16.198
X-108.085 Y-16.273
X-108.059 Y-16.327
X-108.023 Y-16.376
X-107.978 Y-16.416
X-107.944 Y-16.435
X-107.906 Y-16.44
X-107.869 Y-16.429
X-107.838 Y-16.405
X-107.819 Y-16.372
X-107.814 Y-16.333
X-107.848 Y-15.812
X-107.857 Y-15.777
X-107.877 Y-15.748
X-107.907 Y-15.728
X-107.941 Y-15.719
X-107.977 Y-15.723
X-108.009 Y-15.74
X-108.033 Y-15.766
X-108.116 Y-15.91
X-108.195 Y-16.044
X-108.215 Y-16.079
X-108.236 Y-16.113
X-108.255 Y-16.146
X-108.244 Y-16.225
X-108.201 Y-16.292
X-108.134 Y-16.335
X-108.095 Y-16.343
X-108.056 Y-16.339
X-108.019 Y-16.324
X-107.988 Y-16.299
X-107.965 Y-16.267
X-107.952 Y-16.229
G3 X-108.236 Y-16.113 I-0.154 J0.029
G1 X-108.268 Y-16.163
X-108.272 Y-16.174
X-108.275 Y-16.184
X-108.277 Y-16.195
Y-16.205
Y-16.216
X-108.275 Y-16.226
X-108.273 Y-16.237
X-108.268 Y-16.248
X-108.262 Y-16.259
X-108.254 Y-16.27
X-108.233 Y-16.295
X-108.222 Y-16.303
X-108.212 Y-16.31
X-108.142 Y-16.332
X-108.085 Y-16.354
X-108 Y-16.401
X-107.978 Y-16.416
X-107.915 Y-16.473
X-107.889 Y-16.501
X-107.785 Y-16.609
X-107.649 Y-16.672
X-107.502 Y-16.702
X-107.352 Y-16.694
X-107.208 Y-16.652
X-107.076 Y-16.58
X-106.962 Y-16.482
X-106.905 Y-16.41
X-106.869 Y-16.352
X-106.848 Y-16.288
X-106.841 Y-16.22
X-106.849 Y-16.186
X-106.868 Y-16.156
X-106.897 Y-16.135
X-106.93 Y-16.126
X-106.965 Y-16.128
X-107.256 Y-16.202
X-107.831 Y-16.347
X-107.866 Y-16.364
X-107.891 Y-16.392
X-107.905 Y-16.428
X-107.904 Y-16.466
X-107.889 Y-16.501
X-107.858 Y-16.543
X-107.831 Y-16.585
X-107.809 Y-16.628
X-107.793 Y-16.67
X-107.766 Y-16.74
X-107.656 Y-16.842
X-107.516 Y-16.895
X-107.366 Y-16.908
X-107.218 Y-16.888
X-107.075 Y-16.841
X-106.993 Y-16.797
X-106.907 Y-16.728
X-106.851 Y-16.632
X-106.835 Y-16.522
X-106.842 Y-16.49
X-106.86 Y-16.462
X-106.886 Y-16.442
X-106.917 Y-16.431
X-106.95 Y-16.43
X-107.097 Y-16.453
X-107.711 Y-16.548
X-107.742 Y-16.559
X-107.768 Y-16.578
X-107.787 Y-16.606
X-107.795 Y-16.637
X-107.793 Y-16.67
X-107.77 Y-16.754
X-107.764 Y-16.801
X-107.749 Y-16.874
X-107.669 Y-17.001
X-107.54 Y-17.078
X-107.395 Y-17.114
X-107.245 Y-17.117
X-107.097 Y-17.093
X-107.021 Y-17.064
X-106.913 Y-16.995
X-106.843 Y-16.886
X-106.827 Y-16.758
X-106.838 Y-16.723
X-106.861 Y-16.694
X-106.892 Y-16.675
X-106.929 Y-16.67
X-107.047 Y-16.673
X-107.667 Y-16.69
X-107.699 Y-16.696
X-107.728 Y-16.713
X-107.749 Y-16.737
X-107.762 Y-16.768
X-107.764 Y-16.801
X-107.758 Y-16.839
X-107.742 Y-16.979
X-107.739 Y-17.008
X-107.734 Y-17.054
X-107.729 Y-17.082
X-107.706 Y-17.116
X-107.639 Y-17.183
X-107.555 Y-17.227
X-107.461 Y-17.242
G3 X-107.302 Y-16.871 I-0.008 J0.223
X-107.734 Y-17.054 I-0.185 J-0.164
G1 X-107.723 Y-17.145
X-107.72 Y-17.156
X-107.716 Y-17.166
X-107.71 Y-17.177
X-107.693 Y-17.203
X-107.677 Y-17.22
X-107.662 Y-17.23
X-107.651 Y-17.235
X-107.641 Y-17.239
X-107.63 Y-17.241
X-107.619 Y-17.242
X-107.108
X-107.069
X-107.023
X-106.948 Y-17.238
X-106.865 Y-17.17
X-106.815 Y-17.075
X-106.806 Y-16.968
X-106.819 Y-16.931
X-106.845 Y-16.902
X-106.881 Y-16.885
X-106.92 Y-16.884
X-106.957 Y-16.897
X-106.986 Y-16.924
X-107.101 Y-17.084
X-107.116 Y-17.116
X-107.119 Y-17.152
X-107.109 Y-17.186
X-107.088 Y-17.215
X-107.058 Y-17.234
X-107.023 Y-17.242
X-106.9
X-106.89 Y-17.241
X-106.879 Y-17.239
X-106.869 Y-17.236
X-106.858 Y-17.231
X-106.847 Y-17.225
X-106.837 Y-17.216
X-106.816 Y-17.196
X-106.8 Y-17.177
X-106.794 Y-17.166
X-106.79 Y-17.156
X-106.787 Y-17.145
X-106.785 Y-17.134
Y-17.124
Y-17.113
X-106.789 Y-17.092
X-106.801 Y-17.008
X-106.82 Y-16.839
X-106.827 Y-16.754
X-106.835 Y-16.501
X-106.842 Y-16.163
X-106.845 Y-15.825
Y-15.779
X-106.853 Y-15.629
X-106.913 Y-15.491
X-107.007 Y-15.375
X-107.125 Y-15.282
X-107.259 Y-15.215
X-107.405 Y-15.178
X-107.555 Y-15.171
X-107.703 Y-15.19
X-107.721 Y-15.196
X-107.813 Y-15.243
X-107.883 Y-15.319
X-107.924 Y-15.413
X-107.961 Y-15.572
X-107.983 Y-15.656
X-107.986 Y-15.665
X-107.991 Y-15.7
X-107.984 Y-15.735
X-107.964 Y-15.765
X-107.935 Y-15.786
X-107.9 Y-15.796
X-107.574 Y-15.823
X-106.953 Y-15.875
X-106.921 Y-15.873
X-106.891 Y-15.86
X-106.867 Y-15.839
X-106.851 Y-15.811
X-106.845 Y-15.779
Y-15.487
X-106.853 Y-15.338
X-106.924 Y-15.205
X-107.03 Y-15.099
X-107.157 Y-15.02
X-107.297 Y-14.967
X-107.445 Y-14.94
X-107.595 Y-14.936
X-107.639 Y-14.944
X-107.751 Y-14.989
X-107.836 Y-15.075
X-107.88 Y-15.187
X-107.904 Y-15.318
X-107.915 Y-15.379
X-107.924 Y-15.413
Y-15.447
X-107.914 Y-15.48
X-107.893 Y-15.506
X-107.864 Y-15.525
X-107.831 Y-15.533
X-107.576 Y-15.547
X-106.951 Y-15.584
X-106.912 Y-15.578
X-106.878 Y-15.558
X-106.855 Y-15.526
X-106.845 Y-15.487
Y-15.234
X-106.853 Y-15.084
X-106.927 Y-14.954
X-107.038 Y-14.852
X-107.168 Y-14.778
X-107.309 Y-14.728
X-107.457 Y-14.702
X-107.607 Y-14.708
X-107.632 Y-14.714
X-107.742 Y-14.769
X-107.82 Y-14.864
X-107.854 Y-14.981
X-107.86 Y-15.065
X-107.874 Y-15.15
X-107.88 Y-15.187
X-107.879 Y-15.22
X-107.867 Y-15.251
X-107.846 Y-15.277
X-107.817 Y-15.294
X-107.785 Y-15.301
X-107.577 Y-15.308
X-106.949 Y-15.33
X-106.91 Y-15.324
X-106.877 Y-15.304
X-106.854 Y-15.272
X-106.845 Y-15.234
Y-14.981
X-106.853 Y-14.831
X-106.934 Y-14.704
X-107.048 Y-14.607
X-107.179 Y-14.535
X-107.322 Y-14.49
X-107.471 Y-14.469
X-107.62 Y-14.483
X-107.636 Y-14.488
X-107.74 Y-14.549
X-107.812 Y-14.646
X-107.839 Y-14.763
X-107.841 Y-14.812
X-107.854 Y-14.981
X-107.85 Y-15.013
X-107.836 Y-15.042
X-107.814 Y-15.066
X-107.785 Y-15.08
X-107.753 Y-15.085
X-107.577 Y-15.084
X-106.944 Y-15.077
X-106.907 Y-15.07
X-106.876 Y-15.049
X-106.854 Y-15.018
X-106.845 Y-14.981
Y-14.727
X-106.849 Y-14.652
X-106.906 Y-14.513
X-107.009 Y-14.405
X-107.135 Y-14.324
X-107.275 Y-14.269
X-107.422 Y-14.241
X-107.572 Y-14.246
X-107.611 Y-14.256
X-107.725 Y-14.315
X-107.804 Y-14.417
X-107.833 Y-14.543
X-107.827 Y-14.575
X-107.811 Y-14.604
X-107.786 Y-14.625
X-107.756 Y-14.638
X-107.561 Y-14.683
X-106.968 Y-14.821
X-106.933 Y-14.823
X-106.899 Y-14.813
X-106.872 Y-14.791
X-106.853 Y-14.761
X-106.845 Y-14.727
Y-14.512
X-106.853 Y-14.362
X-106.933 Y-14.235
X-107.047 Y-14.137
X-107.179 Y-14.067
X-107.323 Y-14.024
X-107.472 Y-14.009
X-107.621 Y-14.028
X-107.642 Y-14.037
X-107.742 Y-14.101
X-107.809 Y-14.199
X-107.833 Y-14.316
Y-14.474
X-107.834 Y-14.558
X-107.839 Y-14.763
X-107.832 Y-14.8
X-107.812 Y-14.831
X-107.782 Y-14.853
X-107.746 Y-14.863
X-107.709 Y-14.858
X-107.546 Y-14.806
X-106.915 Y-14.604
X-106.888 Y-14.59
X-106.866 Y-14.569
X-106.851 Y-14.542
X-106.845 Y-14.512
Y-14.258
X-106.849 Y-14.183
X-106.905 Y-14.044
X-107.009 Y-13.936
X-107.137 Y-13.857
X-107.277 Y-13.805
X-107.425 Y-13.781
X-107.575 Y-13.788
X-107.617 Y-13.8
X-107.729 Y-13.861
X-107.806 Y-13.964
X-107.833 Y-14.088
Y-14.316
X-107.827 Y-14.347
X-107.811 Y-14.375
X-107.787 Y-14.397
X-107.757 Y-14.409
X-107.726 Y-14.412
X-107.575 Y-14.401
X-106.938 Y-14.355
X-106.903 Y-14.345
X-106.873 Y-14.324
X-106.853 Y-14.294
X-106.845 Y-14.258
Y-14.005
X-106.849 Y-13.93
X-106.916 Y-13.796
X-107.024 Y-13.692
X-107.155 Y-13.617
X-107.297 Y-13.571
X-107.446 Y-13.551
X-107.556 Y-13.562
X-107.668 Y-13.595
X-107.76 Y-13.667
X-107.819 Y-13.767
X-107.836 Y-13.883
X-107.833 Y-13.967
Y-14.088
X-107.826 Y-14.12
X-107.81 Y-14.149
X-107.785 Y-14.17
X-107.755 Y-14.182
X-107.722 Y-14.184
X-107.574 Y-14.169
X-106.935 Y-14.101
X-106.901 Y-14.091
X-106.872 Y-14.07
X-106.853 Y-14.04
X-106.845 Y-14.005
Y-13.798
X-106.849 Y-13.723
X-106.906 Y-13.584
X-107.01 Y-13.476
X-107.138 Y-13.398
X-107.279 Y-13.347
X-107.427 Y-13.326
X-107.577 Y-13.333
X-107.72 Y-13.378
X-107.738 Y-13.389
X-107.831 Y-13.482
X-107.875 Y-13.605
X-107.863 Y-13.735
X-107.844 Y-13.767
X-107.815 Y-13.79
X-107.78 Y-13.8
X-107.573 Y-13.824
X-106.957 Y-13.894
X-106.924 Y-13.892
X-106.893 Y-13.88
X-106.868 Y-13.859
X-106.852 Y-13.83
X-106.845 Y-13.798
Y-13.583
X-106.849 Y-13.508
X-106.9 Y-13.367
X-107.001 Y-13.256
X-107.128 Y-13.176
X-107.268 Y-13.123
X-107.416 Y-13.096
X-107.566 Y-13.099
X-107.712 Y-13.131
X-107.846 Y-13.198
X-107.877 Y-13.226
X-107.956 Y-13.346
X-107.97 Y-13.489
X-107.915 Y-13.622
X-107.893 Y-13.647
X-107.865 Y-13.663
X-107.832 Y-13.669
X-107.577 Y-13.672
X-106.947 Y-13.679
X-106.909 Y-13.672
X-106.876 Y-13.652
X-106.854 Y-13.62
X-106.845 Y-13.583
Y-13.329
X-106.849 Y-13.254
X-106.912 Y-13.118
X-107.018 Y-13.013
X-107.147 Y-12.936
X-107.289 Y-12.887
X-107.437 Y-12.864
X-107.587 Y-12.865
X-107.735 Y-12.893
X-107.874 Y-12.948
X-107.996 Y-13.036
X-108.04 Y-13.087
X-108.098 Y-13.19
X-108.112 Y-13.307
X-108.08 Y-13.42
X-108.006 Y-13.513
X-107.972 Y-13.53
X-107.934 Y-13.533
X-107.573 Y-13.494
X-106.935 Y-13.425
X-106.901 Y-13.415
X-106.872 Y-13.394
X-106.853 Y-13.364
X-106.845 Y-13.329
Y-13.122
X-106.849 Y-13.047
X-106.901 Y-12.907
X-107.004 Y-12.797
X-107.13 Y-12.716
X-107.27 Y-12.662
X-107.417 Y-12.632
X-107.567 Y-12.625
X-107.716 Y-12.642
X-107.86 Y-12.683
X-107.908 Y-12.705
X-107.957 Y-12.733
X-107.999 Y-12.77
X-108.034 Y-12.814
X-108.07 Y-12.869
X-108.085 Y-12.887
X-108.148 Y-12.953
X-108.169 Y-12.973
X-108.254 Y-13.045
X-108.338 Y-13.109
X-108.423 Y-13.16
X-108.437 Y-13.169
X-108.451 Y-13.183
X-108.459 Y-13.195
X-108.465 Y-13.207
X-108.469 Y-13.217
X-108.471 Y-13.228
X-108.473 Y-13.238
Y-13.249
X-108.472 Y-13.26
X-108.47 Y-13.27
X-108.467 Y-13.281
X-108.462 Y-13.291
X-108.456 Y-13.302
X-108.447 Y-13.313
X-108.423 Y-13.335
X-108.413 Y-13.343
X-108.402 Y-13.35
X-108.391 Y-13.354
X-108.381 Y-13.358
X-108.338 Y-13.362
X-108.254 Y-13.376
X-108.169 Y-13.404
X-108.127 Y-13.424
X-108.085 Y-13.449
X-108.069 Y-13.46
X-108.006 Y-13.513
X-107.978 Y-13.528
X-107.946 Y-13.534
X-107.914 Y-13.529
X-107.547 Y-13.413
X-106.915 Y-13.214
X-106.888 Y-13.201
X-106.866 Y-13.179
X-106.851 Y-13.152
X-106.845 Y-13.122
Y-12.869
X-106.849 Y-12.794
X-106.913 Y-12.658
X-107.019 Y-12.552
X-107.147 Y-12.475
X-107.288 Y-12.422
X-107.435 Y-12.393
X-107.585 Y-12.385
X-107.664 Y-12.392
X-107.768 Y-12.419
X-107.855 Y-12.482
X-107.914 Y-12.571
X-107.921 Y-12.603
X-107.917 Y-12.636
X-107.903 Y-12.665
X-107.879 Y-12.689
X-107.85 Y-12.703
X-107.552 Y-12.791
X-106.974 Y-12.961
X-106.938 Y-12.965
X-106.903 Y-12.956
X-106.873 Y-12.935
X-106.853 Y-12.904
X-106.845 Y-12.869
Y-12.654
X-106.849 Y-12.579
X-106.905 Y-12.44
X-107.008 Y-12.33
X-107.134 Y-12.249
X-107.273 Y-12.192
X-107.419 Y-12.157
X-107.568 Y-12.147
X-107.607 Y-12.152
X-107.722 Y-12.191
X-107.812 Y-12.272
X-107.863 Y-12.383
Y-12.419
X-107.85 Y-12.454
X-107.826 Y-12.481
X-107.794 Y-12.497
X-107.551 Y-12.571
X-106.974 Y-12.746
X-106.938 Y-12.75
X-106.903 Y-12.741
X-106.873 Y-12.719
X-106.853 Y-12.689
X-106.845 Y-12.654
Y-12.4
X-106.849 Y-12.325
X-106.914 Y-12.19
X-107.02 Y-12.084
X-107.147 Y-12.004
X-107.287 Y-11.949
X-107.433 Y-11.918
X-107.523 Y-11.919
X-107.666 Y-11.955
X-107.776 Y-12.054
X-107.827 Y-12.193
X-107.831 Y-12.229
X-107.839 Y-12.278
X-107.894 Y-12.521
X-107.897 Y-12.531
X-107.934 Y-12.616
X-107.973 Y-12.7
X-108.015 Y-12.784
X-108.034 Y-12.814
X-108.047 Y-12.848
Y-12.884
X-108.033 Y-12.918
X-108.009 Y-12.945
X-107.977 Y-12.961
X-107.941 Y-12.965
X-107.906 Y-12.956
X-107.515 Y-12.773
X-106.903 Y-12.487
X-106.873 Y-12.466
X-106.853 Y-12.436
X-106.845 Y-12.4
Y-12.278
X-106.849 Y-12.193
X-106.864 Y-12.044
X-106.943 Y-11.917
X-107.057 Y-11.819
X-107.188 Y-11.747
X-107.332 Y-11.703
X-107.481 Y-11.691
X-107.576 Y-11.703
X-107.684 Y-11.739
X-107.771 Y-11.813
X-107.824 Y-11.913
X-107.836 Y-12.027
X-107.828 Y-12.056
X-107.811 Y-12.081
X-107.787 Y-12.101
X-107.759 Y-12.112
X-107.561 Y-12.157
X-106.971 Y-12.292
X-106.936 Y-12.293
X-106.901 Y-12.282
X-106.873 Y-12.26
X-106.855 Y-12.229
X-106.849 Y-12.193
X-106.857 Y-12.024
X-106.864 Y-11.94
X-106.869 Y-11.893
X-106.881 Y-11.819
X-106.953 Y-11.688
X-107.065 Y-11.587
X-107.197 Y-11.518
X-107.342 Y-11.476
X-107.491 Y-11.466
X-107.64 Y-11.487
X-107.678 Y-11.502
X-107.792 Y-11.584
X-107.856 Y-11.707
X-107.857 Y-11.847
X-107.855 Y-11.855
X-107.845 Y-11.94
X-107.831 Y-12.084
X-107.829 Y-12.109
X-107.827 Y-12.193
X-107.818 Y-12.229
X-107.796 Y-12.26
X-107.765 Y-12.28
X-107.728 Y-12.288
X-107.692 Y-12.281
X-107.548 Y-12.227
X-106.934 Y-11.995
X-106.906 Y-11.979
X-106.885 Y-11.955
X-106.872 Y-11.925
X-106.869 Y-11.893
X-106.883 Y-11.771
X-106.894 Y-11.686
X-106.907 Y-11.626
X-106.926 Y-11.554
X-107.005 Y-11.426
X-107.123 Y-11.334
X-107.261 Y-11.274
X-107.408 Y-11.244
X-107.558 Y-11.242
X-107.704 Y-11.277
X-107.752 Y-11.301
X-107.86 Y-11.39
X-107.915 Y-11.517
X-107.907 Y-11.657
X-107.893 Y-11.684
X-107.871 Y-11.705
X-107.844 Y-11.719
X-107.815 Y-11.724
X-107.615 Y-11.729
X-107.007 Y-11.744
X-106.973 Y-11.738
X-106.942 Y-11.721
X-106.919 Y-11.694
X-106.907 Y-11.661
Y-11.626
X-106.948 Y-11.433
X-106.961 Y-11.387
X-107.007 Y-11.244
X-107.113 Y-11.138
X-107.245 Y-11.066
X-107.389 Y-11.025
X-107.539 Y-11.014
X-107.687 Y-11.035
X-107.827 Y-11.088
X-107.879 Y-11.125
X-107.974 Y-11.235
X-108.004 Y-11.378
X-107.962 Y-11.517
X-107.938 Y-11.549
X-107.903 Y-11.568
X-107.864 Y-11.573
X-107.662 Y-11.557
X-107.05 Y-11.509
X-107.017 Y-11.5
X-106.989 Y-11.481
X-106.969 Y-11.454
X-106.959 Y-11.421
X-106.961 Y-11.387
X-106.985 Y-11.302
X-107.009 Y-11.222
X-107.014 Y-11.211
X-107.021 Y-11.201
X-107.102 Y-11.095
X-107.18 Y-11.011
X-107.212 Y-10.976
X-107.32 Y-10.872
X-107.462 Y-10.822
X-107.611 Y-10.808
X-107.76 Y-10.825
X-107.9 Y-10.878
X-108.026 Y-10.961
X-108.052 Y-10.992
X-108.112 Y-11.107
X-108.118 Y-11.237
X-108.068 Y-11.357
X-108.045 Y-11.379
X-108.016 Y-11.393
X-107.985 Y-11.397
X-107.954 Y-11.391
X-107.809 Y-11.338
X-107.253 Y-11.136
X-107.22 Y-11.116
X-107.197 Y-11.085
X-107.188 Y-11.048
X-107.193 Y-11.01
X-107.212 Y-10.976
X-107.339 Y-10.842
X-107.408 Y-10.777
X-107.431 Y-10.757
X-107.549 Y-10.665
X-107.695 Y-10.629
X-107.845 Y-10.637
X-107.989 Y-10.679
X-108.118 Y-10.755
X-108.223 Y-10.862
X-108.231 Y-10.876
X-108.266 Y-11.001
X-108.244 Y-11.129
X-108.17 Y-11.236
X-108.145 Y-11.253
X-108.115 Y-11.26
X-108.085 Y-11.259
X-108.057 Y-11.249
X-107.974 Y-11.204
X-107.451 Y-10.919
X-107.422 Y-10.895
X-107.404 Y-10.862
X-107.399 Y-10.824
X-107.408 Y-10.788
X-107.431 Y-10.757
X-107.529 Y-10.673
X-107.588 Y-10.625
X-107.598 Y-10.619
X-107.619 Y-10.608
X-107.667 Y-10.588
X-107.793 Y-10.541
X-107.936 Y-10.495
X-108.084 Y-10.514
X-108.222 Y-10.574
X-108.338 Y-10.669
X-108.367 Y-10.712
X-108.417 Y-10.847
X-108.398 Y-10.991
X-108.314 Y-11.109
X-108.283 Y-11.126
X-108.248 Y-11.131
X-108.213 Y-11.123
X-108.183 Y-11.103
X-107.763 Y-10.706
X-107.74 Y-10.673
X-107.731 Y-10.635
X-107.738 Y-10.596
X-107.76 Y-10.563
X-107.793 Y-10.541
X-107.915 Y-10.494
X-108.047 Y-10.448
X-108.19 Y-10.405
X-108.337 Y-10.437
X-108.462 Y-10.519
X-108.506 Y-10.573
X-108.563 Y-10.685
X-108.57 Y-10.81
X-108.525 Y-10.927
X-108.436 Y-11.015
X-108.403 Y-11.028
X-108.367
X-108.333 Y-11.015
X-108.306 Y-10.991
X-108.004 Y-10.603
X-107.987 Y-10.57
X-107.983 Y-10.533
X-107.993 Y-10.497
X-108.015 Y-10.468
X-108.047 Y-10.448
X-108.254 Y-10.375
X-108.3 Y-10.361
X-108.373 Y-10.342
X-108.521 Y-10.364
X-108.644 Y-10.45
X-108.728 Y-10.574
X-108.735 Y-10.598
X-108.741 Y-10.742
X-108.679 Y-10.872
X-108.563 Y-10.958
X-108.527 Y-10.965
X-108.49 Y-10.957
X-108.459 Y-10.937
X-108.437 Y-10.907
X-108.244 Y-10.498
X-108.235 Y-10.466
X-108.236 Y-10.432
X-108.249 Y-10.402
X-108.271 Y-10.377
X-108.3 Y-10.361
X-108.47 Y-10.307
X-108.508 Y-10.295
X-108.582 Y-10.283
X-108.728 Y-10.317
X-108.845 Y-10.41
X-108.917 Y-10.542
X-108.921 Y-10.566
X-108.912 Y-10.705
X-108.842 Y-10.824
X-108.725 Y-10.899
X-108.592 Y-10.946
X-108.508 Y-10.982
X-108.444 Y-11.011
X-108.423 Y-11.024
X-108.338 Y-11.088
X-108.231 Y-11.18
X-108.169 Y-11.237
X-108.074 Y-11.349
X-108 Y-11.454
X-107.962 Y-11.517
X-107.924 Y-11.602
X-107.898 Y-11.686
X-107.875 Y-11.771
X-107.857 Y-11.847
X-107.841 Y-11.881
X-107.814 Y-11.906
X-107.779 Y-11.92
X-107.741 Y-11.919
X-107.707 Y-11.906
X-107.68 Y-11.88
X-107.664 Y-11.846
X-107.661 Y-11.809
X-107.673 Y-11.773
X-107.887 Y-11.381
X-108.112 Y-10.967
X-108.453 Y-10.341
X-108.476 Y-10.313
X-108.508 Y-10.295
X-108.592 Y-10.277
X-108.677 Y-10.261
X-108.719 Y-10.255
X-108.794 Y-10.249
X-108.938 Y-10.289
X-109.048 Y-10.391
X-109.106 Y-10.529
X-109.107 Y-10.538
X-109.085 Y-10.671
X-109.007 Y-10.781
X-108.888 Y-10.845
X-108.851 Y-10.847
X-108.816 Y-10.835
X-108.788 Y-10.811
X-108.77 Y-10.779
X-108.641 Y-10.385
X-108.636 Y-10.351
X-108.643 Y-10.318
X-108.661 Y-10.289
X-108.687 Y-10.267
X-108.719 Y-10.255
X-108.846 Y-10.238
X-108.931 Y-10.23
X-109.006 Y-10.226
X-109.147 Y-10.275
X-109.248 Y-10.386
X-109.261 Y-10.425
X-109.273 Y-10.546
X-109.236 Y-10.662
X-109.156 Y-10.753
X-109.046 Y-10.806
X-109.007
X-108.971 Y-10.792
X-108.943 Y-10.765
X-108.928 Y-10.729
X-108.846 Y-10.35
X-108.845 Y-10.317
X-108.854 Y-10.286
X-108.873 Y-10.259
X-108.899 Y-10.239
X-108.931 Y-10.23
X-109.146 Y-10.208
X-109.221 Y-10.204
X-109.289 Y-10.237
X-109.399 Y-10.339
X-109.453 Y-10.48
X-109.418 Y-10.621
X-109.321 Y-10.729
X-109.185 Y-10.779
X-109.146 Y-10.774
X-109.111 Y-10.754
X-109.087 Y-10.722
X-109.078 Y-10.684
X-109.06 Y-10.312
X-109.065 Y-10.275
X-109.083 Y-10.243
X-109.111 Y-10.22
X-109.146 Y-10.208
X-109.316 Y-10.191
X-109.353 Y-10.189
X-109.425 Y-10.209
X-109.55 Y-10.292
X-109.618 Y-10.426
X-109.619 Y-10.439
X-109.606 Y-10.553
X-109.551 Y-10.654
X-109.462 Y-10.727
X-109.352 Y-10.761
X-109.313 Y-10.756
X-109.278 Y-10.736
X-109.254 Y-10.704
X-109.245 Y-10.665
X-109.229 Y-10.295
X-109.234 Y-10.258
X-109.252 Y-10.226
X-109.281 Y-10.203
X-109.316 Y-10.191
X-109.354 Y-10.187
X-109.438 Y-10.182
X-109.485 Y-10.18
X-109.56
X-109.628 Y-10.212
X-109.686 Y-10.258
X-109.772 Y-10.381
X-109.776 Y-10.408
X-109.769 Y-10.533
X-109.71 Y-10.645
X-109.611 Y-10.722
X-109.489 Y-10.752
X-109.451 Y-10.744
X-109.418 Y-10.722
X-109.397 Y-10.69
X-109.389 Y-10.651
X-109.393 Y-10.278
X-109.4 Y-10.242
X-109.42 Y-10.211
X-109.449 Y-10.189
X-109.485 Y-10.18
X-109.654 Y-10.173
X-109.692 Y-10.172
X-109.767 Y-10.18
X-109.829 Y-10.221
X-109.925 Y-10.337
X-109.959 Y-10.483
Y-10.489
X-109.908 Y-10.619
X-109.803 Y-10.712
X-109.668 Y-10.747
X-109.636 Y-10.741
X-109.607 Y-10.726
X-109.585 Y-10.702
X-109.572 Y-10.672
X-109.569 Y-10.639
X-109.599 Y-10.264
X-109.608 Y-10.229
X-109.628 Y-10.2
X-109.658 Y-10.18
X-109.692 Y-10.172
X-109.861 Y-10.181
X-109.936 Y-10.189
X-110.059 Y-10.275
X-110.129 Y-10.408
X-110.13 Y-10.44
X-110.11 Y-10.561
X-110.043 Y-10.664
X-109.94 Y-10.731
X-109.819 Y-10.752
X-109.781 Y-10.741
X-109.75 Y-10.717
X-109.731 Y-10.682
X-109.726 Y-10.643
X-109.76 Y-10.272
X-109.77 Y-10.236
X-109.793 Y-10.207
X-109.824 Y-10.187
X-109.861 Y-10.181
X-110.031 Y-10.191
X-110.105 Y-10.199
X-110.17 Y-10.235
X-110.273 Y-10.345
X-110.308 Y-10.491
X-110.306 Y-10.508
X-110.266 Y-10.616
X-110.189 Y-10.702
X-110.085 Y-10.752
X-109.971 Y-10.759
X-109.935 Y-10.746
X-109.907 Y-10.721
X-109.89 Y-10.687
X-109.887 Y-10.649
X-109.929 Y-10.279
X-109.94 Y-10.244
X-109.963 Y-10.215
X-109.994 Y-10.197
X-110.031 Y-10.191
X-110.2 Y-10.2
X-110.274 Y-10.209
X-110.339 Y-10.247
X-110.392 Y-10.3
X-110.469 Y-10.429
X-110.477 Y-10.579
X-110.476 Y-10.582
X-110.404 Y-10.697
X-110.289 Y-10.769
X-110.153 Y-10.783
X-110.119 Y-10.77
X-110.091 Y-10.746
X-110.074 Y-10.713
X-110.07 Y-10.677
X-110.098 Y-10.293
X-110.108 Y-10.256
X-110.13 Y-10.226
X-110.162 Y-10.206
X-110.2 Y-10.2
X-110.284 Y-10.206
X-110.369 Y-10.219
X-110.442 Y-10.234
X-110.509 Y-10.268
X-110.613 Y-10.376
X-110.661 Y-10.518
X-110.657 Y-10.548
X-110.618 Y-10.664
X-110.536 Y-10.755
X-110.424 Y-10.805
X-110.302 Y-10.807
X-110.269 Y-10.793
X-110.244 Y-10.768
X-110.228 Y-10.736
X-110.225 Y-10.701
X-110.258 Y-10.309
X-110.265 Y-10.278
X-110.282 Y-10.252
X-110.307 Y-10.231
X-110.337 Y-10.22
X-110.369 Y-10.219
X-110.538 Y-10.244
X-110.569 Y-10.25
X-110.642 Y-10.269
X-110.704 Y-10.311
X-110.755 Y-10.366
X-110.821 Y-10.501
Y-10.548
X-110.791 Y-10.68
X-110.706 Y-10.786
X-110.583 Y-10.843
X-110.447 Y-10.84
X-110.415 Y-10.823
X-110.39 Y-10.796
X-110.377 Y-10.761
Y-10.725
X-110.455 Y-10.33
X-110.469 Y-10.294
X-110.496 Y-10.267
X-110.531 Y-10.252
X-110.569 Y-10.25
X-110.754 Y-10.289
X-110.826 Y-10.307
X-110.887 Y-10.352
X-110.975 Y-10.473
X-110.998 Y-10.621
X-110.962 Y-10.767
X-110.947 Y-10.789
X-110.843 Y-10.885
X-110.706 Y-10.922
X-110.567 Y-10.891
X-110.54 Y-10.871
X-110.522 Y-10.842
X-110.514 Y-10.809
X-110.518 Y-10.775
X-110.641 Y-10.359
X-110.658 Y-10.327
X-110.684 Y-10.302
X-110.718 Y-10.289
X-110.754
X-110.923 Y-10.324
X-110.961 Y-10.332
X-110.976 Y-10.335
X-111.02 Y-10.35
X-111.041 Y-10.359
X-111.044 Y-10.368
X-111.048 Y-10.402
X-111.041 Y-10.436
X-111.022 Y-10.466
X-110.994 Y-10.487
X-110.961 Y-10.497
X-110.365 Y-10.574
X-110.239 Y-10.591
X-110.202 Y-10.589
X-110.169 Y-10.574
X-110.143 Y-10.548
X-110.128 Y-10.514
X-110.127 Y-10.478
X-110.138 Y-10.443
X-110.162 Y-10.415
X-110.193 Y-10.397
G3 X-110.976 Y-10.335 I-0.512 J-1.497
G1 X-111.011 Y-10.345
X-111.046 Y-10.361
X-111.078 Y-10.38
X-111.16 Y-10.506
X-111.187 Y-10.654
X-111.16 Y-10.801
X-111.09 Y-10.934
X-111.088 Y-10.936
X-110.984 Y-10.998
X-110.863 Y-11.014
X-110.747 Y-10.981
X-110.718 Y-10.956
X-110.701 Y-10.924
X-110.696 Y-10.886
X-110.706 Y-10.85
X-110.916 Y-10.41
X-110.939 Y-10.379
X-110.971 Y-10.359
X-111.009 Y-10.353
X-111.046 Y-10.361
X-111.188 Y-10.437
X-111.252 Y-10.475
X-111.339 Y-10.598
X-111.363 Y-10.746
X-111.341 Y-10.894
X-111.27 Y-11.026
X-111.262 Y-11.034
X-111.142 Y-11.104
X-111.004 Y-11.113
X-110.877 Y-11.059
X-110.852 Y-11.034
X-110.838 Y-11.003
X-110.835 Y-10.969
X-110.844 Y-10.935
X-111.053 Y-10.485
X-111.077 Y-10.453
X-111.111 Y-10.433
X-111.15 Y-10.427
X-111.188 Y-10.437
X-111.353 Y-10.524
X-111.417 Y-10.563
X-111.512 Y-10.679
X-111.543 Y-10.826
X-111.524 Y-10.975
X-111.457 Y-11.109
X-111.431 Y-11.138
X-111.309 Y-11.218
X-111.164 Y-11.231
X-111.03 Y-11.174
X-111.008 Y-11.149
X-110.995 Y-11.119
X-110.993 Y-11.087
X-111.001 Y-11.055
X-111.217 Y-10.573
X-111.235 Y-10.547
X-111.26 Y-10.527
X-111.29 Y-10.516
X-111.322 Y-10.515
X-111.353 Y-10.524
X-111.553 Y-10.632
X-111.611 Y-10.68
X-111.694 Y-10.804
X-111.715 Y-10.953
X-111.689 Y-11.101
X-111.616 Y-11.232
X-111.578 Y-11.271
X-111.479 Y-11.338
X-111.362 Y-11.362
X-111.244 Y-11.338
X-111.146 Y-11.269
X-111.129 Y-11.243
X-111.121 Y-11.212
X-111.123 Y-11.18
X-111.135 Y-11.151
X-111.423 Y-10.67
X-111.448 Y-10.642
X-111.481 Y-10.625
X-111.518 Y-10.622
X-111.553 Y-10.632
X-111.608 Y-10.673
X-111.748 Y-10.786
X-111.804 Y-10.836
X-111.871 Y-10.97
X-111.874 Y-11.12
X-111.833 Y-11.264
X-111.751 Y-11.39
X-111.637 Y-11.487
X-111.615 Y-11.497
X-111.476 Y-11.523
X-111.341 Y-11.484
X-111.239 Y-11.386
X-111.226 Y-11.349
X-111.228 Y-11.309
X-111.246 Y-11.274
X-111.609 Y-10.804
X-111.638 Y-10.779
X-111.675 Y-10.767
X-111.713 Y-10.769
X-111.748 Y-10.786
X-111.892 Y-10.901
X-111.948 Y-10.951
X-112.028 Y-11.078
X-112.039 Y-11.228
X-112.005 Y-11.374
X-111.932 Y-11.505
X-111.828 Y-11.613
X-111.699 Y-11.69
X-111.671 Y-11.697
X-111.54 Y-11.7
X-111.42 Y-11.646
X-111.335 Y-11.547
X-111.325 Y-11.511
X-111.329 Y-11.474
X-111.346 Y-11.441
X-111.365 Y-11.417
X-111.753 Y-10.92
X-111.782 Y-10.895
X-111.819 Y-10.882
X-111.857 Y-10.885
X-111.892 Y-10.901
X-112.027 Y-11.011
X-112.061 Y-11.04
X-112.071 Y-11.054
X-112.096 Y-11.095
X-112.121 Y-11.142
X-112.185 Y-11.277
X-112.181 Y-11.427
X-112.132 Y-11.569
X-112.051 Y-11.695
X-111.945 Y-11.801
X-111.935 Y-11.807
X-111.889 Y-11.827
X-111.84 Y-11.84
X-111.79 Y-11.844
X-111.752 Y-11.835
X-111.721 Y-11.813
X-111.7 Y-11.78
X-111.693 Y-11.742
X-111.702 Y-11.704
X-111.717 Y-11.67
X-111.942 Y-11.152
X-111.963 Y-11.122
X-111.993 Y-11.101
X-112.028 Y-11.092
X-112.065 Y-11.097
X-112.097 Y-11.114
X-112.121 Y-11.142
X-112.244 Y-11.374
X-112.275 Y-11.442
X-112.294 Y-11.591
X-112.286 Y-11.623
X-112.226 Y-11.737
X-112.123 Y-11.816
X-111.996 Y-11.844
X-111.958 Y-11.835
X-111.926 Y-11.812
X-111.906 Y-11.778
X-111.9 Y-11.738
X-111.91 Y-11.7
X-112.067 Y-11.38
X-112.089 Y-11.351
X-112.119 Y-11.331
X-112.154 Y-11.324
X-112.189 Y-11.329
X-112.221 Y-11.347
X-112.244 Y-11.374
X-112.275 Y-11.433
X-112.317 Y-11.517
X-112.339 Y-11.564
X-112.356 Y-11.602
X-112.375 Y-11.644
X-112.39 Y-11.692
X-112.392 Y-11.7
X-112.387 Y-11.708
X-112.362 Y-11.734
X-112.33 Y-11.749
X-112.295 Y-11.752
X-112.26 Y-11.742
X-112.231 Y-11.721
X-111.821 Y-11.287
X-111.736 Y-11.196
X-111.716 Y-11.166
X-111.708 Y-11.13
X-111.714 Y-11.094
X-111.733 Y-11.062
X-111.761 Y-11.039
X-111.796 Y-11.028
X-111.833 Y-11.031
X-111.866 Y-11.046
G3 X-112.375 Y-11.644 I0.913 J-1.293
G1 X-112.383 Y-11.665
X-112.394 Y-11.708
X-112.396 Y-11.718
Y-11.729
X-112.39 Y-11.759
X-112.377 Y-11.787
X-112.358 Y-11.811
X-112.324 Y-11.834
X-112.284 Y-11.842
X-112.244 Y-11.835
X-112.209 Y-11.814
X-112.185 Y-11.782
X-112.174 Y-11.742
X-112.178 Y-11.702
X-112.197 Y-11.666
X-112.228 Y-11.639
X-112.267 Y-11.626
X-112.303 Y-11.627
X-112.338 Y-11.639
X-112.367 Y-11.662
X-112.387 Y-11.693
X-112.396 Y-11.729
Y-11.739
X-112.394 Y-11.75
X-112.391 Y-11.76
X-112.387 Y-11.771
X-112.38 Y-11.783
X-112.362 Y-11.807
X-112.351 Y-11.819
X-112.333 Y-11.832
X-112.315 Y-11.839
X-112.304 Y-11.842
X-112.294 Y-11.844
X-111.553
X-111.543 Y-11.843
X-111.532 Y-11.841
X-111.522 Y-11.838
X-111.511 Y-11.834
X-111.5 Y-11.828
X-111.49 Y-11.82
X-111.478 Y-11.807
X-111.469 Y-11.795
X-111.454 Y-11.771
X-111.3 Y-11.481
X-111.214 Y-11.349
X-111.181 Y-11.306
X-111.141 Y-11.264
X-111.13 Y-11.254
X-111.037 Y-11.18
X-110.877 Y-11.059
X-110.804 Y-11.011
X-110.707 Y-10.96
X-110.538 Y-10.877
X-110.454 Y-10.841
X-110.369 Y-10.82
X-110.284 Y-10.803
X-110.2 Y-10.789
X-109.957 Y-10.757
X-109.692 Y-10.747
X-109.523 Y-10.751
X-109.438 Y-10.754
X-109.382 Y-10.757
X-109.184 Y-10.779
X-109.1 Y-10.793
X-108.9 Y-10.842
X-108.846 Y-10.857
X-108.725 Y-10.899
X-108.697 Y-10.904
X-108.668 Y-10.9
X-108.643 Y-10.879 Z-0.983
X-108.621 Y-10.86 Z-0.966
X-108.604 Y-10.846 Z-0.939
X-108.601 Y-10.837 Z-0.915
X-108.599 Y-10.834 Z-0.89
G0 Z2
X-92.126 Y-13.229
Z0.5
G3 X-91.642 Y-13.354 Z0.29 I0.242 J-0.062 F333.3
X-92.126 Y-13.229 Z0.079 I-0.242 J0.062
X-91.642 Y-13.354 Z-0.131 I0.242 J-0.062
X-92.126 Y-13.229 Z-0.342 I-0.242 J0.062
X-91.642 Y-13.354 Z-0.552 I0.242 J-0.062
X-92.126 Y-13.229 Z-0.763 I-0.242 J0.062
X-91.915 Y-13.539 Z-0.876 I0.242 J-0.062
X-91.634 Y-13.291 Z-0.99 I0.031 J0.248
X-92.134 I-0.25
X-91.634 I0.25
G1 X-91.597 Y-13.146 F1000
X-91.61 Y-13.072
X-91.647 Y-13.007
X-91.754 Y-12.902
X-91.898 Y-12.862
X-92.047 Y-12.883
X-92.177 Y-12.957
X-92.274 Y-13.072
X-92.326 Y-13.213
X-92.328 Y-13.363
X-92.28 Y-13.505
X-92.189 Y-13.623
X-92.063 Y-13.705
X-91.917 Y-13.741
X-91.768 Y-13.727
X-91.631 Y-13.665
X-91.523 Y-13.561
X-91.445 Y-13.433
X-91.394 Y-13.292
X-91.384 Y-13.142
X-91.419 Y-12.996
X-91.49 Y-12.864
X-91.598 Y-12.76
X-91.729 Y-12.687
X-91.875 Y-12.654
X-92.025 Y-12.661
X-92.169 Y-12.702
X-92.299 Y-12.778
X-92.405 Y-12.883
X-92.431 Y-12.924
X-92.458 Y-12.975
X-92.475 Y-13.03
X-92.48 Y-13.088
Y-13.376
X-92.472 Y-13.525
X-92.416 Y-13.665
X-92.324 Y-13.783
X-92.203 Y-13.873
X-92.066 Y-13.932
X-91.918 Y-13.96
X-91.768 Y-13.95
X-91.625 Y-13.908
X-91.493 Y-13.837
X-91.379 Y-13.739
X-91.351 Y-13.704
X-91.316 Y-13.647
X-91.294 Y-13.584
X-91.287 Y-13.517
X-91.288 Y-12.991
X-91.295 Y-12.842
X-91.363 Y-12.708
X-91.463 Y-12.596
X-91.587 Y-12.512
X-91.727 Y-12.456
X-91.874 Y-12.428
X-92.024 Y-12.429
X-92.171 Y-12.458
X-92.31 Y-12.514
X-92.337 Y-12.531
X-92.413 Y-12.598
X-92.463 Y-12.686
X-92.48 Y-12.786
Y-13.088
X-92.474 Y-13.119
X-92.457 Y-13.148
X-92.433 Y-13.169
X-92.403 Y-13.181
X-92.371 Y-13.184
X-92.016 Y-13.149
X-91.378 Y-13.087
X-91.344 Y-13.078
X-91.315 Y-13.056
X-91.295 Y-13.026
X-91.288 Y-12.991
Y-12.7
X-91.291 Y-12.625
X-91.344 Y-12.485
X-91.444 Y-12.372
X-91.568 Y-12.289
X-91.707 Y-12.231
X-91.853 Y-12.198
X-92.003 Y-12.191
X-92.152 Y-12.208
X-92.296 Y-12.248
X-92.315 Y-12.257
X-92.402 Y-12.324
X-92.46 Y-12.417
X-92.48 Y-12.525
Y-12.786
X-92.474 Y-12.818
X-92.458 Y-12.846
X-92.434 Y-12.867
X-92.404 Y-12.88
X-92.372 Y-12.882
X-92.017 Y-12.852
X-91.379 Y-12.796
X-91.344 Y-12.787
X-91.315 Y-12.765
X-91.295 Y-12.735
X-91.288 Y-12.7
Y-12.447
X-91.291 Y-12.372
X-91.352 Y-12.234
X-91.456 Y-12.126
X-91.582 Y-12.046
X-91.722 Y-11.992
X-91.869 Y-11.961
X-92.019 Y-11.952
X-92.168 Y-11.963
X-92.313 Y-12.004
X-92.318 Y-12.007
X-92.404 Y-12.073
X-92.46 Y-12.166
X-92.48 Y-12.273
Y-12.525
X-92.474 Y-12.557
X-92.458 Y-12.585
X-92.434 Y-12.606
X-92.404 Y-12.619
X-92.372 Y-12.622
X-92.017 Y-12.593
X-91.38 Y-12.543
X-91.345 Y-12.533
X-91.315 Y-12.512
X-91.295 Y-12.482
X-91.288 Y-12.447
Y-12.231
X-91.291 Y-12.156
X-91.343 Y-12.016
X-91.443 Y-11.904
X-91.568 Y-11.821
X-91.706 Y-11.762
X-91.852 Y-11.726
X-92.001 Y-11.71
X-92.151 Y-11.716
X-92.297 Y-11.75
X-92.308 Y-11.755
X-92.399 Y-11.821
X-92.459 Y-11.916
X-92.48 Y-12.027
Y-12.273
X-92.471 Y-12.311
X-92.448 Y-12.343
X-92.415 Y-12.363
X-92.376 Y-12.369
X-92.019 Y-12.354
X-91.383 Y-12.328
X-91.347 Y-12.319
X-91.317 Y-12.298
X-91.296 Y-12.267
X-91.288 Y-12.231
Y-11.978
X-91.291 Y-11.903
X-91.352 Y-11.766
X-91.456 Y-11.657
X-91.582 Y-11.576
X-91.72 Y-11.518
X-91.866 Y-11.482
X-92.015 Y-11.467
X-92.165 Y-11.473
X-92.31 Y-11.51
X-92.314 Y-11.512
X-92.402 Y-11.578
X-92.46 Y-11.672
X-92.48 Y-11.78
Y-12.027
X-92.471 Y-12.065
X-92.448 Y-12.097
X-92.414 Y-12.117
X-92.375 Y-12.123
X-92.019 Y-12.105
X-91.383 Y-12.074
X-91.347 Y-12.066
X-91.316 Y-12.045
X-91.296 Y-12.014
X-91.288 Y-11.978
Y-11.771
X-91.295 Y-11.621
X-91.373 Y-11.493
X-91.485 Y-11.393
X-91.614 Y-11.317
X-91.755 Y-11.264
X-91.902 Y-11.233
X-92.051 Y-11.223
X-92.201 Y-11.234
X-92.267 Y-11.254
X-92.378 Y-11.315
X-92.453 Y-11.417
X-92.48 Y-11.541
Y-11.78
X-92.471 Y-11.817
X-92.449 Y-11.849
X-92.417 Y-11.87
X-92.379 Y-11.877
X-92.019 Y-11.873
X-91.387 Y-11.867
X-91.349 Y-11.86
X-91.318 Y-11.839
X-91.296 Y-11.808
X-91.288 Y-11.771
Y-11.517
X-91.291 Y-11.443
X-91.343 Y-11.302
X-91.443 Y-11.19
X-91.566 Y-11.104
X-91.703 Y-11.042
X-91.847 Y-11.001
X-91.996 Y-10.98
X-92.146 Y-10.984
X-92.292 Y-11.016
X-92.31 Y-11.025
X-92.4 Y-11.091
X-92.459 Y-11.186
X-92.48 Y-11.295
Y-11.541
X-92.471 Y-11.579
X-92.449 Y-11.61
X-92.416 Y-11.631
X-92.378 Y-11.637
X-92.019 Y-11.629
X-91.385 Y-11.614
X-91.348 Y-11.606
X-91.317 Y-11.585
X-91.296 Y-11.554
X-91.288 Y-11.517
Y-11.264
X-91.291 Y-11.189
X-91.35 Y-11.051
X-91.452 Y-10.941
X-91.576 Y-10.857
X-91.713 Y-10.795
X-91.858 Y-10.756
X-92.007 Y-10.738
X-92.157 Y-10.742
X-92.303 Y-10.777
X-92.31 Y-10.78
X-92.4 Y-10.846
X-92.459 Y-10.941
X-92.48 Y-11.051
Y-11.295
X-92.471 Y-11.333
X-92.449 Y-11.365
X-92.415 Y-11.385
X-92.377 Y-11.392
X-92.019 Y-11.38
X-91.384 Y-11.361
X-91.348 Y-11.352
X-91.317 Y-11.331
X-91.296 Y-11.301
X-91.288 Y-11.264
Y-11.049
X-91.295 Y-10.899
X-91.374 Y-10.771
X-91.484 Y-10.67
X-91.613 Y-10.593
X-91.753 Y-10.538
X-91.899 Y-10.505
X-92.049 Y-10.494
X-92.198 Y-10.504
X-92.265 Y-10.524
X-92.377 Y-10.585
X-92.453 Y-10.687
X-92.48 Y-10.812
Y-11.051
X-92.472 Y-11.088
X-92.45 Y-11.119
X-92.418 Y-11.14
X-92.38 Y-11.147
X-92.019 Y-11.146
X-91.387 Y-11.145
X-91.35 Y-11.138
X-91.318 Y-11.117
X-91.296 Y-11.086
X-91.288 Y-11.049
Y-10.795
X-91.291 Y-10.72
X-91.343 Y-10.579
X-91.441 Y-10.466
X-91.564 Y-10.379
X-91.699 Y-10.316
X-91.843 Y-10.274
X-91.992 Y-10.252
X-92.142 Y-10.255
X-92.288 Y-10.286
X-92.308 Y-10.295
X-92.399 Y-10.362
