%
(101-105)
(T1  D=1 CR=0 - ZMIN=-2 - flat end mill)
G90 G94
G17
G21
G28 G91 Z0
G90

(Clear 17)
M9
T1 M6
S5000 M3
G54
M8
G0 X-119.429 Y-16.577
Z12
Z2
Z0.5
G3 X-118.945 Y-16.702 Z0.29 I0.242 J-0.062 F333.3
X-119.429 Y-16.577 Z0.079 I-0.242 J0.062
X-118.945 Y-16.702 Z-0.131 I0.242 J-0.062
X-119.429 Y-16.577 Z-0.342 I-0.242 J0.062
X-118.945 Y-16.702 Z-0.552 I0.242 J-0.062
X-119.429 Y-16.577 Z-0.763 I-0.242 J0.062
X-119.219 Y-16.888 Z-0.876 I0.242 J-0.062
X-118.937 Y-16.64 Z-0.99 I0.031 J0.248
X-119.437 I-0.25
X-118.937 I0.25
G1 X-118.9 Y-16.494 F1000
X-118.913 Y-16.421
X-118.95 Y-16.355
X-119.057 Y-16.25
X-119.201 Y-16.21
X-119.35 Y-16.232
X-119.48 Y-16.306
X-119.577 Y-16.42
X-119.629 Y-16.561
X-119.631 Y-16.711
X-119.584 Y-16.853
X-119.492 Y-16.972
X-119.366 Y-17.054
X-119.22 Y-17.089
X-119.071 Y-17.075
X-118.934 Y-17.013
X-118.826 Y-16.91
X-118.748 Y-16.782
X-118.698 Y-16.64
X-118.687 Y-16.491
X-118.722 Y-16.345
X-118.793 Y-16.213
X-118.901 Y-16.109
X-118.966 Y-16.072
X-119.003 Y-16.055
X-119.042 Y-16.043
X-119.083 Y-16.037
X-119.125 Y-16.027
X-119.272 Y-15.995
X-119.419 Y-16.025
X-119.553 Y-16.092
X-119.67 Y-16.185
X-119.763 Y-16.304
X-119.823 Y-16.441
X-119.828 Y-16.463
X-119.833 Y-16.505
Y-16.548
X-119.827 Y-16.59
X-119.771 Y-16.839
X-119.765 Y-16.867
X-119.76 Y-16.889
X-119.72 Y-17.034
X-119.621 Y-17.147
X-119.544 Y-17.199
X-119.492 Y-17.228
X-119.434 Y-17.246
X-119.374 Y-17.252
X-119.337 Y-17.243
X-119.306 Y-17.221
X-119.285 Y-17.189
X-119.278 Y-17.151
X-119.286 Y-17.113
X-119.307 Y-17.081
X-119.591 Y-16.8
X-119.621 Y-16.779
X-119.656 Y-16.771
X-119.691 Y-16.775
X-119.723 Y-16.792
X-119.747 Y-16.819
X-119.76 Y-16.853
Y-16.889
X-119.703 Y-17.139
X-119.694 Y-17.177
X-119.687 Y-17.193
X-119.675 Y-17.208
X-119.664 Y-17.219
X-119.643 Y-17.235
X-119.633 Y-17.241
X-119.622 Y-17.246
X-119.612 Y-17.249
X-119.601 Y-17.251
X-119.59 Y-17.252
X-119.121
X-118.971 Y-17.245
X-118.832 Y-17.189
X-118.711 Y-17.101
X-118.611 Y-16.989
X-118.533 Y-16.861
X-118.481 Y-16.72
X-118.46 Y-16.571
X-118.468 Y-16.421
X-118.503 Y-16.276
X-118.569 Y-16.141
X-118.655 Y-16.065
X-118.762 Y-16.026
X-118.876 Y-16.031
X-118.908 Y-16.045
X-118.932 Y-16.07
X-118.947 Y-16.102
X-119.061 Y-16.54
X-119.214 Y-17.127
X-119.217 Y-17.162
X-119.207 Y-17.197
X-119.186 Y-17.225
X-119.156 Y-17.244
X-119.121 Y-17.252
X-118.782
X-118.744
X-118.698
X-118.66 Y-17.25
X-118.528 Y-17.18
X-118.418 Y-17.078
X-118.332 Y-16.955
X-118.283 Y-16.845
X-118.275 Y-16.827
X-118.269 Y-16.808
X-118.264 Y-16.789
Y-16.752
X-118.278 Y-16.718
X-118.303 Y-16.691
X-118.336 Y-16.674
X-118.373 Y-16.671
X-118.409 Y-16.682
X-118.438 Y-16.705
X-118.77 Y-17.086
X-118.789 Y-17.119
X-118.794 Y-17.156
X-118.786 Y-17.192
X-118.765 Y-17.223
X-118.734 Y-17.244
X-118.698 Y-17.252
X-118.529
X-118.491
X-118.448
X-118.429 Y-17.248
X-118.403 Y-17.234
X-118.386 Y-17.21
X-118.381 Y-17.181
X-118.389 Y-17.153
X-118.409 Y-17.132
X-118.436 Y-17.121
X-118.466 Y-17.123
X-118.491 Y-17.138
X-118.507 Y-17.163
X-118.508 Y-17.164
X-118.511 Y-17.194
X-118.5 Y-17.223
X-118.478 Y-17.244
X-118.448 Y-17.252
X-118.438 Y-17.25
X-118.427 Y-17.248
X-118.417 Y-17.244
X-118.406 Y-17.239
X-118.389 Y-17.226
X-118.371 Y-17.208
X-118.36 Y-17.192
X-118.353 Y-17.177
X-118.314 Y-17.008
X-118.256 Y-16.754
X-118.231 Y-16.607
X-118.227 Y-16.457
X-118.248 Y-16.308
X-118.293 Y-16.165
X-118.368 Y-16.035
X-118.375 Y-16.028
X-118.486 Y-15.959
X-118.616 Y-15.943
X-118.74 Y-15.983
X-118.767 Y-16.008
X-118.783 Y-16.041
X-118.786 Y-16.077
X-118.775 Y-16.112
X-118.687 Y-16.288
X-118.442 Y-16.774
X-118.422 Y-16.802
X-118.393 Y-16.821
X-118.36 Y-16.829
X-118.326 Y-16.825
X-118.295 Y-16.81
X-118.271 Y-16.786
X-118.256 Y-16.754
X-118.152 Y-16.292
X-118.127 Y-16.145
X-118.164 Y-15.999
X-118.251 Y-15.877
X-118.376 Y-15.827
X-118.51 Y-15.838
X-118.626 Y-15.906
X-118.648 Y-15.939
X-118.655 Y-15.978
X-118.646 Y-16.016
X-118.624 Y-16.048
X-118.318 Y-16.339
X-118.289 Y-16.359
X-118.256 Y-16.367
X-118.222 Y-16.363
X-118.191 Y-16.348
X-118.167 Y-16.324
X-118.152 Y-16.292
X-118.093 Y-16.032
X-118.081 Y-15.958
X-118.092 Y-15.884
X-118.186 Y-15.781
X-118.317 Y-15.735
X-118.454 Y-15.756
X-118.565 Y-15.84
X-118.581 Y-15.873
X-118.585 Y-15.91
X-118.574 Y-15.946
X-118.551 Y-15.975
X-118.519 Y-15.994
X-118.224 Y-16.101
X-118.192 Y-16.107
X-118.159 Y-16.102
X-118.13 Y-16.086
X-118.107 Y-16.062
X-118.093 Y-16.032
X-118.055 Y-15.863
X-118.049 Y-15.826
X-118.067 Y-15.753
X-118.164 Y-15.666
X-118.29 Y-15.636
X-118.416 Y-15.669
X-118.511 Y-15.759
X-118.553 Y-15.825
X-118.565 Y-15.84
X-118.582 Y-15.876
X-118.584 Y-15.915
X-118.57 Y-15.953
X-118.543 Y-15.981
X-118.506 Y-15.998
X-118.467
X-118.134 Y-15.936
X-118.099 Y-15.923
X-118.072 Y-15.897
X-118.055 Y-15.863
X-118.028 Y-15.741
X-118.021 Y-15.704
X-118.044 Y-15.632
X-118.151 Y-15.554
X-118.283 Y-15.539
X-118.404 Y-15.593
X-118.483 Y-15.7
X-118.488 Y-15.739
X-118.478 Y-15.777
X-118.454 Y-15.808
X-118.42 Y-15.828
X-118.381 Y-15.833
X-118.118 Y-15.815
X-118.088 Y-15.808
X-118.061 Y-15.792
X-118.04 Y-15.769
X-118.028 Y-15.741
X-118.009 Y-15.656
X-118.002 Y-15.619
X-118.014 Y-15.545
X-118.057 Y-15.484
X-118.169 Y-15.432
X-118.293 Y-15.441
X-118.397 Y-15.508
X-118.456 Y-15.616
X-118.457 Y-15.652
X-118.445 Y-15.686
X-118.422 Y-15.714
X-118.391 Y-15.732
X-118.355 Y-15.737
X-118.103 Y-15.731
X-118.071 Y-15.725
X-118.043 Y-15.709
X-118.022 Y-15.686
X-118.009 Y-15.656
X-117.983 Y-15.542
X-117.977 Y-15.505
X-117.993 Y-15.432
X-118.034 Y-15.37
X-118.15 Y-15.324
X-118.273 Y-15.338
X-118.376 Y-15.408
X-118.432 Y-15.519
X-118.456 Y-15.616
X-118.457 Y-15.653
X-118.445 Y-15.687
X-118.421 Y-15.715
X-118.389 Y-15.732
X-118.353 Y-15.737
X-118.318 Y-15.729
X-118.04 Y-15.609
X-118.014 Y-15.593
X-117.995 Y-15.57
X-117.983 Y-15.542
X-117.952 Y-15.403
X-117.945 Y-15.366
X-117.975 Y-15.297
X-118.026 Y-15.242
X-118.14 Y-15.208
X-118.258 Y-15.229
X-118.354 Y-15.301
X-118.407 Y-15.408
X-118.432 Y-15.519
Y-15.557
X-118.419 Y-15.592
X-118.393 Y-15.619
X-118.359 Y-15.635
X-118.321 Y-15.637
X-118.285 Y-15.625
X-117.999 Y-15.465
X-117.978 Y-15.449
X-117.962 Y-15.428
X-117.952 Y-15.403
X-117.933 Y-15.318
X-117.926 Y-15.281
X-117.937 Y-15.207
X-117.98 Y-15.146
X-118.097 Y-15.1
X-118.222 Y-15.115
X-118.325 Y-15.187
X-118.382 Y-15.298
X-118.407 Y-15.408
Y-15.444
X-118.394 Y-15.479
X-118.37 Y-15.506
X-118.337 Y-15.523
X-118.301 Y-15.527
X-118.265 Y-15.517
X-117.986 Y-15.383
X-117.962 Y-15.367
X-117.944 Y-15.345
X-117.933 Y-15.318
X-117.905 Y-15.197
X-117.899 Y-15.16
X-117.921 Y-15.089
X-117.966 Y-15.029
X-118.082 Y-14.99
X-118.203 Y-15.008
X-118.302 Y-15.08
X-118.356 Y-15.189
X-118.382 Y-15.298
Y-15.336
X-118.368 Y-15.37
X-118.343 Y-15.398
X-118.31 Y-15.414
X-118.273 Y-15.417
X-118.237 Y-15.406
X-117.956 Y-15.261
X-117.933 Y-15.245
X-117.916 Y-15.223
X-117.905 Y-15.197
X-117.884 Y-15.103
X-117.878 Y-15.066
X-117.886 Y-14.992
X-117.928 Y-14.93
X-118.046 Y-14.883
X-118.171 Y-14.897
X-118.274 Y-14.969
X-118.332 Y-15.082
X-118.356 Y-15.189
X-118.357 Y-15.226
X-118.344 Y-15.26
X-118.32 Y-15.287
X-118.287 Y-15.304
X-118.251 Y-15.308
X-118.216 Y-15.299
X-117.938 Y-15.168
X-117.914 Y-15.152
X-117.895 Y-15.13
X-117.884 Y-15.103
X-117.856 Y-14.981
X-117.85 Y-14.944
X-117.871 Y-14.872
X-117.917 Y-14.812
X-118.032 Y-14.773
X-118.153 Y-14.791
X-118.252 Y-14.863
X-118.306 Y-14.972
X-118.332 Y-15.082
Y-15.119
X-118.318 Y-15.153
X-118.293 Y-15.181
X-118.26 Y-15.197
X-118.223 Y-15.2
X-118.188 Y-15.189
X-117.907 Y-15.044
X-117.884 Y-15.028
X-117.867 Y-15.006
X-117.856 Y-14.981
X-117.827 Y-14.85
X-117.82 Y-14.813
X-117.852 Y-14.745
X-117.903 Y-14.69
X-118.017 Y-14.658
X-118.134 Y-14.68
X-118.228 Y-14.752
X-118.281 Y-14.859
X-118.306 Y-14.972
Y-15.01
X-118.292 Y-15.045
X-118.266 Y-15.072
X-118.232 Y-15.088
X-118.194 Y-15.09
X-118.158 Y-15.077
X-117.873 Y-14.911
X-117.844 Y-14.885
X-117.827 Y-14.85
X-117.806 Y-14.756
X-117.799 Y-14.719
X-117.817 Y-14.647
X-117.864 Y-14.588
X-117.98 Y-14.548
X-118.101 Y-14.566
X-118.2 Y-14.638
X-118.255 Y-14.748
X-118.281 Y-14.859
Y-14.896
X-118.267 Y-14.931
X-118.242 Y-14.958
X-118.209 Y-14.974
X-118.172 Y-14.977
X-118.136 Y-14.966
X-117.856 Y-14.82
X-117.834 Y-14.803
X-117.816 Y-14.782
X-117.806 Y-14.756
X-117.78 Y-14.643
X-117.774 Y-14.606
X-117.796 Y-14.534
X-117.843 Y-14.476
X-117.958 Y-14.438
X-118.078 Y-14.457
X-118.176 Y-14.529
X-118.23 Y-14.638
X-118.255 Y-14.748
Y-14.785
X-118.242 Y-14.82
X-118.216 Y-14.848
X-118.183 Y-14.864
X-118.145 Y-14.866
X-118.11 Y-14.855
X-117.83 Y-14.706
X-117.808 Y-14.689
X-117.791 Y-14.668
X-117.78 Y-14.643
X-117.751 Y-14.512
X-117.744 Y-14.475
X-117.777 Y-14.407
X-117.829 Y-14.353
X-117.943 Y-14.323
X-118.058 Y-14.346
X-118.152 Y-14.418
X-118.204 Y-14.524
X-118.23 Y-14.638
Y-14.676
X-118.215 Y-14.711
X-118.189 Y-14.738
X-118.154 Y-14.754
X-118.116 Y-14.755
X-118.08 Y-14.742
X-117.796 Y-14.572
X-117.767 Y-14.546
X-117.751 Y-14.512
X-117.729 Y-14.417
X-117.723 Y-14.38
X-117.743 Y-14.308
X-117.791 Y-14.25
X-117.906 Y-14.212
X-118.026 Y-14.232
X-118.124 Y-14.304
X-118.178 Y-14.412
X-118.204 Y-14.524
Y-14.561
X-118.19 Y-14.596
X-118.165 Y-14.623
X-118.131 Y-14.639
X-118.094 Y-14.642
X-118.058 Y-14.631
X-117.778 Y-14.48
X-117.756 Y-14.463
X-117.74 Y-14.442
X-117.729 Y-14.417
X-117.704 Y-14.305
X-117.697 Y-14.268
X-117.721 Y-14.197
X-117.768 Y-14.138
X-117.883 Y-14.102
X-118.002 Y-14.122
X-118.099 Y-14.193
X-118.153 Y-14.301
X-118.178 Y-14.412
Y-14.45
X-118.165 Y-14.485
X-118.139 Y-14.512
X-118.105 Y-14.528
X-118.068 Y-14.53
X-118.032 Y-14.519
X-117.753 Y-14.367
X-117.731 Y-14.351
X-117.714 Y-14.33
X-117.704 Y-14.305
X-117.674 Y-14.174
X-117.668 Y-14.137
X-117.701 Y-14.07
X-117.754 Y-14.016
X-117.867 Y-13.986
X-117.982 Y-14.01
X-118.075 Y-14.081
X-118.126 Y-14.187
X-118.153 Y-14.301
Y-14.339
X-118.138 Y-14.375
X-118.112 Y-14.402
X-118.077 Y-14.418
X-118.038 Y-14.419
X-118.003 Y-14.406
X-117.719 Y-14.234
X-117.691 Y-14.208
X-117.674 Y-14.174
X-117.655 Y-14.089
X-117.649 Y-14.053
X-117.663 Y-13.979
X-117.708 Y-13.919
X-117.824 Y-13.878
X-117.946 Y-13.894
X-118.046 Y-13.966
X-118.101 Y-14.075
X-118.126 Y-14.187
X-118.127 Y-14.224
X-118.113 Y-14.259
X-118.088 Y-14.286
X-118.055 Y-14.302
X-118.018 Y-14.305
X-117.983 Y-14.295
X-117.706 Y-14.153
X-117.684 Y-14.137
X-117.666 Y-14.115
X-117.655 Y-14.089
X-117.628 Y-13.967
X-117.621 Y-13.93
X-117.647 Y-13.859
X-117.695 Y-13.802
X-117.809 Y-13.766
X-117.926 Y-13.786
X-118.022 Y-13.857
X-118.075 Y-13.964
X-118.101 Y-14.075
Y-14.113
X-118.087 Y-14.148
X-118.061 Y-14.175
X-118.028 Y-14.191
X-117.99 Y-14.194
X-117.954 Y-14.182
X-117.676 Y-14.029
X-117.655 Y-14.013
X-117.638 Y-13.992
X-117.628 Y-13.967
X-117.598 Y-13.836
X-117.592 Y-13.799
X-117.626 Y-13.732
X-117.679 Y-13.679
X-117.792 Y-13.65
X-117.906 Y-13.674
X-117.998 Y-13.745
X-118.049 Y-13.85
X-118.075 Y-13.964
Y-14.003
X-118.061 Y-14.038
X-118.034 Y-14.065
X-117.999 Y-14.081
X-117.961 Y-14.082
X-117.925 Y-14.069
X-117.643 Y-13.896
X-117.615 Y-13.87
X-117.598 Y-13.836
X-117.579 Y-13.752
X-117.573 Y-13.715
X-117.588 Y-13.641
X-117.634 Y-13.582
X-117.749 Y-13.541
X-117.87 Y-13.559
X-117.969 Y-13.63
X-118.024 Y-13.739
X-118.049 Y-13.85
Y-13.887
X-118.036 Y-13.922
X-118.011 Y-13.949
X-117.977 Y-13.966
X-117.94 Y-13.969
X-117.905 Y-13.958
X-117.63 Y-13.815
X-117.607 Y-13.799
X-117.59 Y-13.777
X-117.579 Y-13.752
X-117.551 Y-13.629
X-117.545 Y-13.592
X-117.571 Y-13.522
X-117.62 Y-13.465
X-117.733 Y-13.43
X-117.85 Y-13.45
X-117.945 Y-13.521
X-117.998 Y-13.628
X-118.024 Y-13.739
Y-13.776
X-118.01 Y-13.811
X-117.984 Y-13.839
X-117.95 Y-13.855
X-117.912 Y-13.857
X-117.877 Y-13.845
X-117.6 Y-13.691
X-117.578 Y-13.675
X-117.562 Y-13.654
X-117.551 Y-13.629
X-117.532 Y-13.545
X-117.526 Y-13.508
X-117.532 Y-13.433
X-117.574 Y-13.371
X-117.69 Y-13.324
X-117.814 Y-13.337
X-117.916 Y-13.408
X-117.973 Y-13.519
X-117.998 Y-13.628
Y-13.664
X-117.985 Y-13.698
X-117.961 Y-13.725
X-117.929 Y-13.742
X-117.893 Y-13.746
X-117.857 Y-13.737
X-117.587 Y-13.61
X-117.562 Y-13.594
X-117.544 Y-13.571
X-117.532 Y-13.545
X-117.503 Y-13.414
X-117.497 Y-13.377
X-117.521 Y-13.306
X-117.569 Y-13.248
X-117.682 Y-13.212
X-117.799 Y-13.231
X-117.895 Y-13.302
X-117.948 Y-13.408
X-117.973 Y-13.519
Y-13.556
X-117.959 Y-13.591
X-117.934 Y-13.618
X-117.9 Y-13.635
X-117.863 Y-13.637
X-117.827 Y-13.626
X-117.552 Y-13.476
X-117.53 Y-13.46
X-117.513 Y-13.439
X-117.503 Y-13.414
X-117.475 Y-13.292
X-117.469 Y-13.255
X-117.499 Y-13.186
X-117.55 Y-13.13
X-117.662 Y-13.099
X-117.777 Y-13.121
X-117.87 Y-13.191
X-117.922 Y-13.297
X-117.948 Y-13.408
Y-13.446
X-117.934 Y-13.481
X-117.907 Y-13.508
X-117.873 Y-13.524
X-117.835 Y-13.526
X-117.799 Y-13.513
X-117.522 Y-13.353
X-117.493 Y-13.327
X-117.475 Y-13.292
X-117.456 Y-13.207
X-117.45 Y-13.17
X-117.461 Y-13.096
X-117.505 Y-13.035
X-117.619 Y-12.992
X-117.741 Y-13.007
X-117.841 Y-13.078
X-117.897 Y-13.187
X-117.922 Y-13.297
Y-13.333
X-117.909 Y-13.368
X-117.884 Y-13.395
X-117.852 Y-13.412
X-117.815 Y-13.415
X-117.779 Y-13.405
X-117.509 Y-13.271
X-117.485 Y-13.255
X-117.467 Y-13.233
X-117.456 Y-13.207
X-117.427 Y-13.076
X-117.42 Y-13.039
X-117.448 Y-12.969
X-117.497 Y-12.913
X-117.609 Y-12.879
X-117.725 Y-12.899
X-117.819 Y-12.97
X-117.871 Y-13.075
X-117.897 Y-13.187
Y-13.225
X-117.883 Y-13.26
X-117.857 Y-13.287
X-117.823 Y-13.303
X-117.785 Y-13.305
X-117.75 Y-13.293
X-117.474 Y-13.138
X-117.444 Y-13.112
X-117.427 Y-13.076
X-117.408 Y-12.991
X-117.401 Y-12.954
X-117.409 Y-12.88
X-117.452 Y-12.818
X-117.566 Y-12.773
X-117.689 Y-12.787
X-117.79 Y-12.857
X-117.846 Y-12.967
X-117.871 Y-13.075
Y-13.112
X-117.859 Y-13.146
X-117.834 Y-13.173
X-117.802 Y-13.19
X-117.765 Y-13.194
X-117.73 Y-13.184
X-117.461 Y-13.056
X-117.437 Y-13.04
X-117.419 Y-13.018
X-117.408 Y-12.991
X-117.38 Y-12.869
X-117.374 Y-12.832
X-117.395 Y-12.76
X-117.441 Y-12.701
X-117.554 Y-12.663
X-117.672 Y-12.681
X-117.768 Y-12.751
X-117.821 Y-12.858
X-117.846 Y-12.967
X-117.847 Y-13.004
X-117.833 Y-13.039
X-117.808 Y-13.066
X-117.774 Y-13.083
X-117.737 Y-13.085
X-117.702 Y-13.075
X-117.43 Y-12.932
X-117.408 Y-12.916
X-117.391 Y-12.894
X-117.38 Y-12.869
X-117.351 Y-12.738
X-117.344 Y-12.701
X-117.376 Y-12.633
X-117.428 Y-12.579
X-117.539 Y-12.548
X-117.653 Y-12.571
X-117.745 Y-12.641
X-117.796 Y-12.745
X-117.821 Y-12.858
Y-12.896
X-117.807 Y-12.931
X-117.781 Y-12.959
X-117.746 Y-12.974
X-117.708 Y-12.976
X-117.672 Y-12.963
X-117.396 Y-12.799
X-117.367 Y-12.773
X-117.351 Y-12.738
X-117.331 Y-12.654
X-117.325 Y-12.617
X-117.338 Y-12.543
X-117.383 Y-12.483
X-117.497 Y-12.441
X-117.617 Y-12.457
X-117.716 Y-12.528
X-117.77 Y-12.636
X-117.796 Y-12.745
Y-12.782
X-117.782 Y-12.817
X-117.758 Y-12.844
X-117.724 Y-12.861
X-117.688 Y-12.864
X-117.652 Y-12.854
X-117.383 Y-12.717
X-117.36 Y-12.701
X-117.342 Y-12.679
X-117.331 Y-12.654
X-117.306 Y-12.541
X-117.3 Y-12.504
X-117.317 Y-12.432
X-117.363 Y-12.372
X-117.476 Y-12.333
X-117.595 Y-12.35
X-117.692 Y-12.421
X-117.746 Y-12.528
X-117.77 Y-12.636
X-117.771 Y-12.673
X-117.757 Y-12.708
X-117.732 Y-12.735
X-117.699 Y-12.751
X-117.662 Y-12.754
X-117.626 Y-12.744
X-117.357 Y-12.605
X-117.334 Y-12.589
X-117.317 Y-12.567
X-117.306 Y-12.541
X-117.274 Y-12.4
X-117.268 Y-12.363
X-117.302 Y-12.297
X-117.356 Y-12.244
X-117.467 Y-12.216
X-117.579 Y-12.239
X-117.669 Y-12.31
X-117.719 Y-12.413
X-117.746 Y-12.528
Y-12.566
X-117.731 Y-12.602
X-117.704 Y-12.629
X-117.669 Y-12.645
X-117.63
X-117.595 Y-12.632
X-117.318 Y-12.46
X-117.291 Y-12.434
X-117.274 Y-12.4
X-117.255 Y-12.316
X-117.249 Y-12.279
X-117.265 Y-12.205
X-117.311 Y-12.146
X-117.424 Y-12.107
X-117.543 Y-12.125
X-117.64 Y-12.195
X-117.694 Y-12.303
X-117.719 Y-12.413
Y-12.45
X-117.706 Y-12.485
X-117.681 Y-12.512
X-117.647 Y-12.528
X-117.61 Y-12.531
X-117.574 Y-12.52
X-117.305 Y-12.379
X-117.283 Y-12.363
X-117.266 Y-12.341
X-117.255 Y-12.316
X-117.228 Y-12.193
X-117.221 Y-12.156
X-117.248 Y-12.086
X-117.297 Y-12.029
X-117.409 Y-11.996
X-117.523 Y-12.017
X-117.617 Y-12.087
X-117.668 Y-12.191
X-117.694 Y-12.303
Y-12.34
X-117.68 Y-12.375
X-117.654 Y-12.403
X-117.62 Y-12.419
X-117.582 Y-12.421
X-117.546 Y-12.409
X-117.275 Y-12.255
X-117.245 Y-12.229
X-117.228 Y-12.193
X-117.209 Y-12.109
X-117.202 Y-12.072
X-117.209 Y-11.997
X-117.252 Y-11.936
X-117.366 Y-11.89
X-117.487 Y-11.905
X-117.588 Y-11.974
X-117.644 Y-12.083
X-117.668 Y-12.191
X-117.669 Y-12.228
X-117.656 Y-12.262
X-117.631 Y-12.289
X-117.599 Y-12.306
X-117.562 Y-12.31
X-117.527 Y-12.3
X-117.262 Y-12.174
X-117.238 Y-12.157
X-117.22 Y-12.135
X-117.209 Y-12.109
X-117.179 Y-11.978
X-117.173 Y-11.941
X-117.198 Y-11.87
X-117.246 Y-11.813
X-117.358 Y-11.778
X-117.473 Y-11.798
X-117.566 Y-11.868
X-117.618 Y-11.972
X-117.644 Y-12.083
Y-12.121
X-117.63 Y-12.156
X-117.604 Y-12.183
X-117.57 Y-12.199
X-117.533 Y-12.202
X-117.497 Y-12.19
X-117.227 Y-12.04
X-117.206 Y-12.024
X-117.189 Y-12.003
X-117.179 Y-11.978
X-117.16 Y-11.893
X-117.154 Y-11.856
X-117.159 Y-11.782
X-117.201 Y-11.72
X-117.315 Y-11.674
X-117.437 Y-11.687
X-117.538 Y-11.757
X-117.594 Y-11.866
X-117.618 Y-11.972
Y-12.009
X-117.606 Y-12.043
X-117.581 Y-12.07
X-117.549 Y-12.087
X-117.513 Y-12.091
X-117.478 Y-12.082
X-117.214 Y-11.959
X-117.19 Y-11.942
X-117.171 Y-11.92
X-117.16 Y-11.893
X-117.132 Y-11.771
X-117.126 Y-11.734
X-117.146 Y-11.662
X-117.192 Y-11.602
X-117.304 Y-11.564
X-117.42 Y-11.582
X-117.516 Y-11.651
X-117.569 Y-11.757
X-117.594 Y-11.866
Y-11.903
X-117.58 Y-11.938
X-117.555 Y-11.965
X-117.522 Y-11.981
X-117.485 Y-11.984
X-117.449 Y-11.973
X-117.183 Y-11.834
X-117.16 Y-11.818
X-117.143 Y-11.796
X-117.132 Y-11.771
X-117.103 Y-11.64
X-117.096 Y-11.603
X-117.128 Y-11.535
X-117.179 Y-11.48
X-117.29 Y-11.45
X-117.402 Y-11.472
X-117.493 Y-11.542
X-117.543 Y-11.645
X-117.569 Y-11.757
Y-11.795
X-117.554 Y-11.83
X-117.528 Y-11.858
X-117.493 Y-11.873
X-117.455 Y-11.875
X-117.419 Y-11.862
X-117.148 Y-11.7
X-117.12 Y-11.675
X-117.103 Y-11.64
X-117.084 Y-11.555
X-117.077 Y-11.519
X-117.089 Y-11.445
X-117.134 Y-11.384
X-117.247 Y-11.343
X-117.366 Y-11.36
X-117.464 Y-11.429
X-117.518 Y-11.537
X-117.543 Y-11.645
Y-11.682
X-117.53 Y-11.716
X-117.505 Y-11.744
X-117.472 Y-11.76
X-117.435 Y-11.763
X-117.4 Y-11.753
X-117.135 Y-11.619
X-117.112 Y-11.603
X-117.095 Y-11.581
X-117.084 Y-11.555
X-117.056 Y-11.433
X-117.05 Y-11.396
X-117.074 Y-11.325
X-117.122 Y-11.267
X-117.233 Y-11.233
X-117.348 Y-11.253
X-117.441 Y-11.322
X-117.493 Y-11.426
X-117.518 Y-11.537
Y-11.574
X-117.504 Y-11.609
X-117.479 Y-11.636
X-117.445 Y-11.652
X-117.407 Y-11.655
X-117.371 Y-11.643
X-117.104 Y-11.495
X-117.083 Y-11.479
X-117.066 Y-11.458
X-117.056 Y-11.433
X-117.027 Y-11.302
X-117.02 Y-11.265
X-117.054 Y-11.198
X-117.107 Y-11.145
X-117.217 Y-11.118
X-117.328 Y-11.141
X-117.417 Y-11.211
X-117.467 Y-11.313
X-117.493 Y-11.426
Y-11.465
X-117.478 Y-11.5
X-117.451 Y-11.528
X-117.416 Y-11.543
X-117.378 Y-11.544
X-117.342 Y-11.53
X-117.071 Y-11.362
X-117.043 Y-11.336
X-117.027 Y-11.302
X-117.008 Y-11.218
X-117.001 Y-11.181
X-117.016 Y-11.107
X-117.063 Y-11.048
X-117.175 Y-11.01
X-117.292 Y-11.027
X-117.388 Y-11.097
X-117.442 Y-11.203
X-117.467 Y-11.313
Y-11.35
X-117.453 Y-11.385
X-117.428 Y-11.412
X-117.395 Y-11.428
X-117.357 Y-11.431
X-117.322 Y-11.42
X-117.058 Y-11.281
X-117.035 Y-11.265
X-117.018 Y-11.243
X-117.008 Y-11.218
X-116.98 Y-11.095
X-116.974 Y-11.058
X-117 Y-10.988
X-117.049 Y-10.931
X-117.16 Y-10.899
X-117.273 Y-10.919
X-117.365 Y-10.989
X-117.416 Y-11.092
X-117.442 Y-11.203
Y-11.241
X-117.428 Y-11.276
X-117.402 Y-11.303
X-117.367 Y-11.319
X-117.33 Y-11.321
X-117.294 Y-11.309
X-117.027 Y-11.157
X-116.997 Y-11.131
X-116.98 Y-11.095
X-116.961 Y-11.011
X-116.955 Y-10.974
X-116.962 Y-10.899
X-117.004 Y-10.838
X-117.117 Y-10.794
X-117.237 Y-10.808
X-117.337 Y-10.877
X-117.392 Y-10.985
X-117.416 Y-11.092
Y-11.129
X-117.403 Y-11.163
X-117.379 Y-11.19
X-117.346 Y-11.207
X-117.31 Y-11.211
X-117.274 Y-11.201
X-117.014 Y-11.075
X-116.99 Y-11.059
X-116.972 Y-11.037
X-116.961 Y-11.011
X-116.931 Y-10.88
X-116.925 Y-10.843
X-116.951 Y-10.772
X-116.999 Y-10.715
X-117.109 Y-10.682
X-117.223 Y-10.702
X-117.315 Y-10.77
X-117.366 Y-10.874
X-117.392 Y-10.985
Y-11.023
X-117.378 Y-11.058
X-117.352 Y-11.085
X-117.318 Y-11.101
X-117.28 Y-11.103
X-117.244 Y-11.091
X-116.979 Y-10.941
X-116.949 Y-10.915
X-116.931 Y-10.88
X-116.912 Y-10.795
X-116.906 Y-10.758
X-116.912 Y-10.684
X-116.955 Y-10.622
X-117.067 Y-10.577
X-117.187 Y-10.591
X-117.287 Y-10.66
X-117.342 Y-10.768
X-117.366 Y-10.874
Y-10.91
X-117.353 Y-10.944
X-117.329 Y-10.972
X-117.297 Y-10.988
X-117.26 Y-10.992
X-117.225 Y-10.983
X-116.966 Y-10.86
X-116.942 Y-10.844
X-116.924 Y-10.822
X-116.912 Y-10.795
X-116.885 Y-10.673
X-116.878 Y-10.636
X-116.899 Y-10.564
X-116.945 Y-10.505
X-117.056 Y-10.468
X-117.171 Y-10.486
X-117.265 Y-10.555
X-117.317 Y-10.659
X-117.342 Y-10.768
Y-10.805
X-117.328 Y-10.84
X-117.303 Y-10.867
X-117.269 Y-10.883
X-117.232 Y-10.886
X-117.197 Y-10.875
X-116.935 Y-10.736
X-116.912 Y-10.72
X-116.895 Y-10.698
X-116.885 Y-10.673
X-116.855 Y-10.542
X-116.849 Y-10.505
X-116.881 Y-10.437
X-116.933 Y-10.383
X-117.042 Y-10.354
X-117.152 Y-10.376
X-117.241 Y-10.445
X-117.291 Y-10.547
X-117.317 Y-10.659
Y-10.697
X-117.302 Y-10.733
X-117.276 Y-10.76
X-117.241 Y-10.775
X-117.203 Y-10.777
X-117.167 Y-10.763
X-116.9 Y-10.602
X-116.872 Y-10.576
X-116.855 Y-10.542
X-116.836 Y-10.457
X-116.83 Y-10.42
X-116.843 Y-10.347
X-116.888 Y-10.287
X-116.999 Y-10.247
X-117.117 Y-10.264
X-117.213 Y-10.333
X-117.266 Y-10.439
X-117.291 Y-10.547
Y-10.584
X-117.278 Y-10.618
X-117.253 Y-10.646
X-117.219 Y-10.662
X-117.183 Y-10.665
X-117.147 Y-10.655
X-116.887 Y-10.521
X-116.864 Y-10.505
X-116.847 Y-10.483
X-116.836 Y-10.457
X-116.809 Y-10.335
X-116.802 Y-10.298
X-116.827 Y-10.227
X-116.876 Y-10.17
X-116.985 Y-10.137
X-117.098 Y-10.157
X-117.19 Y-10.226
X-117.241 Y-10.328
X-117.266 Y-10.439
Y-10.477
X-117.252 Y-10.512
X-117.226 Y-10.539
X-117.192 Y-10.555
X-117.155 Y-10.557
X-117.119 Y-10.545
X-116.856 Y-10.397
X-116.826 Y-10.371
X-116.809 Y-10.335
X-116.789 Y-10.25
X-116.783 Y-10.214
X-116.786 Y-10.176
X-116.815 Y-10.107
X-116.867 Y-10.053
X-116.973 Y-10.025
X-117.08 Y-10.048
X-117.166 Y-10.115
X-117.214 Y-10.213
X-117.241 Y-10.328
Y-10.365
X-117.228 Y-10.399
X-117.204 Y-10.426
X-117.171 Y-10.443
X-117.135 Y-10.447
X-117.1 Y-10.438
X-116.843 Y-10.315
X-116.819 Y-10.299
X-116.801 Y-10.277
X-116.789 Y-10.25
X-116.76 Y-10.12
X-116.754 Y-10.083
X-116.774 Y-10.01
X-116.821 Y-9.952
X-116.931 Y-9.917
X-117.045 Y-9.936
X-117.139 Y-10.004
X-117.19 Y-10.108
X-117.214 Y-10.213
X-117.215 Y-10.251
X-117.201 Y-10.285
X-117.176 Y-10.313
X-117.142 Y-10.329
X-117.105 Y-10.332
X-117.069 Y-10.321
X-116.81 Y-10.182
X-116.787 Y-10.166
X-116.77 Y-10.145
X-116.76 Y-10.12
X-116.732 Y-9.997
X-116.726 Y-9.96
X-116.755 Y-9.891
X-116.805 Y-9.835
X-116.914 Y-9.805
X-117.025 Y-9.827
X-117.115 Y-9.895
X-117.165 Y-9.997
X-117.19 Y-10.108
Y-10.146
X-117.176 Y-10.181
X-117.15 Y-10.208
X-117.115 Y-10.224
X-117.077 Y-10.226
X-117.041 Y-10.213
X-116.778 Y-10.058
X-116.749 Y-10.032
X-116.732 Y-9.997
X-116.714 Y-9.916
X-116.708 Y-9.879
X-116.715 Y-9.804
X-116.758 Y-9.743
X-116.87 Y-9.7
X-116.988 Y-9.715
X-117.086 Y-9.783
X-117.14 Y-9.89
X-117.165 Y-9.997
Y-10.033
X-117.152 Y-10.068
X-117.127 Y-10.095
X-117.094 Y-10.112
X-117.058 Y-10.115
X-117.023 Y-10.105
X-116.767 Y-9.98
X-116.743 Y-9.964
X-116.725 Y-9.942
X-116.714 Y-9.916
X-116.684 Y-9.782
X-116.677 Y-9.745
X-116.705 Y-9.675
X-116.755 Y-9.619
X-116.863 Y-9.588
X-116.974 Y-9.608
X-117.064 Y-9.676
X-117.114 Y-9.777
X-117.14 Y-9.89
Y-9.928
X-117.126 Y-9.963
X-117.1 Y-9.99
X-117.065 Y-10.006
X-117.027 Y-10.008
X-116.992 Y-9.995
X-116.73 Y-9.843
X-116.701 Y-9.817
X-116.684 Y-9.782
X-116.665 Y-9.697
X-116.658 Y-9.66
X-116.667 Y-9.586
X-116.71 Y-9.525
X-116.822 Y-9.483
X-116.939 Y-9.498
X-117.036 Y-9.566
X-117.09 Y-9.672
X-117.114 Y-9.777
X-117.115 Y-9.814
X-117.102 Y-9.848
X-117.077 Y-9.876
X-117.044 Y-9.892
X-117.008 Y-9.896
X-116.972 Y-9.886
X-116.717 Y-9.762
X-116.694 Y-9.746
X-116.676 Y-9.724
X-116.665 Y-9.697
X-116.637 Y-9.575
X-116.631 Y-9.538
X-116.653 Y-9.466
X-116.7 Y-9.408
X-116.809 Y-9.373
X-116.922 Y-9.392
X-117.014 Y-9.46
X-117.065 Y-9.563
X-117.09 Y-9.672
Y-9.71
X-117.077 Y-9.744
X-117.051 Y-9.772
X-117.017 Y-9.788
X-116.98 Y-9.79
X-116.944 Y-9.779
X-116.686 Y-9.637
X-116.664 Y-9.621
X-116.647 Y-9.6
X-116.637 Y-9.575
X-116.608 Y-9.444
X-116.601 Y-9.407
X-116.634 Y-9.34
X-116.687 Y-9.286
X-116.795 Y-9.259
X-116.903 Y-9.282
X-116.991 Y-9.35
X-117.039 Y-9.45
X-117.065 Y-9.563
Y-9.601
X-117.05 Y-9.637
X-117.024 Y-9.664
X-116.988 Y-9.679
X-116.95 Y-9.68
X-116.914 Y-9.667
X-116.651 Y-9.503
X-116.624 Y-9.478
X-116.608 Y-9.444
X-116.588 Y-9.359
X-116.582 Y-9.322
X-116.596 Y-9.249
X-116.643 Y-9.19
X-116.753 Y-9.152
X-116.868 Y-9.17
X-116.962 Y-9.238
X-117.014 Y-9.342
X-117.039 Y-9.45
Y-9.487
X-117.026 Y-9.522
X-117.001 Y-9.549
X-116.967 Y-9.565
X-116.93 Y-9.568
X-116.894 Y-9.557
X-116.639 Y-9.422
X-116.616 Y-9.406
X-116.599 Y-9.385
X-116.588 Y-9.359
X-116.561 Y-9.237
X-116.554 Y-9.2
X-116.581 Y-9.13
X-116.63 Y-9.073
X-116.738 Y-9.042
X-116.849 Y-9.062
X-116.939 Y-9.13
X-116.989 Y-9.231
X-117.014 Y-9.342
X-117.015 Y-9.38
X-117 Y-9.415
X-116.974 Y-9.443
X-116.94 Y-9.458
X-116.902 Y-9.46
X-116.866 Y-9.448
X-116.607 Y-9.298
X-116.578 Y-9.272
X-116.561 Y-9.237
X-116.542 Y-9.152
X-116.535 Y-9.115
X-116.542 Y-9.041
X-116.586 Y-8.979
X-116.696 Y-8.937
X-116.814 Y-8.952
X-116.911 Y-9.02
X-116.965 Y-9.126
X-116.989 Y-9.231
Y-9.268
X-116.976 Y-9.302
X-116.952 Y-9.33
X-116.919 Y-9.346
X-116.882 Y-9.35
X-116.847 Y-9.34
X-116.595 Y-9.217
X-116.571 Y-9.201
X-116.553 Y-9.179
X-116.542 Y-9.152
X-116.512 Y-9.022
X-116.506 Y-8.985
X-116.532 Y-8.914
X-116.581 Y-8.858
X-116.689 Y-8.826
X-116.8 Y-8.846
X-116.889 Y-8.913
X-116.939 Y-9.014
X-116.965 Y-9.126
Y-9.164
X-116.951 Y-9.199
X-116.925 Y-9.226
X-116.89 Y-9.242
X-116.852 Y-9.244
X-116.817 Y-9.231
X-116.559 Y-9.083
X-116.53 Y-9.057
X-116.512 Y-9.022
X-116.493 Y-8.937
X-116.487 Y-8.9
X-116.494 Y-8.825
X-116.537 Y-8.764
X-116.647 Y-8.722
X-116.765 Y-8.736
X-116.862 Y-8.804
X-116.915 Y-8.91
X-116.939 Y-9.014
Y-9.051
X-116.926 Y-9.085
X-116.902 Y-9.112
X-116.869 Y-9.129
X-116.833 Y-9.133
X-116.797 Y-9.123
X-116.546 Y-9.002
X-116.523 Y-8.986
X-116.504 Y-8.963
X-116.493 Y-8.937
X-116.466 Y-8.815
X-116.459 Y-8.778
X-116.481 Y-8.706
X-116.528 Y-8.647
X-116.636 Y-8.613
X-116.748 Y-8.631
X-116.839 Y-8.699
X-116.89 Y-8.801
X-116.915 Y-8.91
Y-8.947
X-116.902 Y-8.982
X-116.876 Y-9.009
X-116.842 Y-9.025
X-116.805 Y-9.028
X-116.769 Y-9.016
X-116.514 Y-8.877
X-116.493 Y-8.861
X-116.476 Y-8.84
X-116.466 Y-8.815
X-116.436 Y-8.684
X-116.43 Y-8.647
X-116.462 Y-8.579
X-116.515 Y-8.526
X-116.622 Y-8.499
X-116.729 Y-8.521
X-116.816 Y-8.589
X-116.864 Y-8.688
X-116.89 Y-8.801
Y-8.839
X-116.876 Y-8.874
X-116.849 Y-8.902
X-116.813 Y-8.917
X-116.775 Y-8.918
X-116.739 Y-8.904
X-116.48 Y-8.743
X-116.452 Y-8.718
X-116.436 Y-8.684
X-116.427 Y-8.646
X-116.415 Y-8.599
X-116.407 Y-8.563
X-116.422 Y-8.489
X-116.468 Y-8.43
X-116.578 Y-8.392
X-116.693 Y-8.409
X-116.788 Y-8.477
X-116.84 Y-8.581
X-116.864 Y-8.688
Y-8.725
X-116.851 Y-8.76
X-116.825 Y-8.787
X-116.792 Y-8.804
X-116.754 Y-8.806
X-116.719 Y-8.795
X-116.463 Y-8.658
X-116.433 Y-8.633
X-116.415 Y-8.599
X-116.405 Y-8.561
X-116.389 Y-8.524
X-116.376 Y-8.489
X-116.374 Y-8.451
X-116.395 Y-8.379
X-116.441 Y-8.32
X-116.553 Y-8.283
X-116.669 Y-8.302
X-116.763 Y-8.371
X-116.816 Y-8.476
X-116.84 Y-8.581
Y-8.618
X-116.828 Y-8.652
X-116.804 Y-8.679
X-116.772 Y-8.696
X-116.736 Y-8.7
X-116.7 Y-8.691
X-116.438 Y-8.572
X-116.409 Y-8.552
X-116.389 Y-8.524
X-116.376 Y-8.493
X-116.367 Y-8.477
X-116.352 Y-8.453
X-116.334 Y-8.421
X-116.319 Y-8.347
X-116.343 Y-8.276
X-116.389 Y-8.217
X-116.507 Y-8.173
X-116.632 Y-8.189
X-116.735 Y-8.262
X-116.792 Y-8.375
X-116.816 Y-8.476
Y-8.511
X-116.805 Y-8.543
X-116.783 Y-8.57
X-116.753 Y-8.588
X-116.719 Y-8.595
X-116.685 Y-8.589
X-116.402 Y-8.491
X-116.374 Y-8.476
X-116.352 Y-8.453
X-116.34 Y-8.434
X-116.317 Y-8.403
X-116.305 Y-8.392
X-116.276 Y-8.368
X-116.246 Y-8.299
X-116.25 Y-8.224
X-116.283 Y-8.157
X-116.332 Y-8.1
X-116.461 Y-8.054
X-116.597 Y-8.074
X-116.708 Y-8.154
X-116.77 Y-8.276
X-116.792 Y-8.375
X-116.793 Y-8.408
X-116.783 Y-8.44
X-116.763 Y-8.466
X-116.735 Y-8.485
X-116.703 Y-8.493
X-116.67 Y-8.491
X-116.339 Y-8.408
X-116.305 Y-8.392
X-116.233 Y-8.337
X-116.204 Y-8.312
X-116.163 Y-8.25
X-116.156 Y-8.175
X-116.171 Y-8.102
X-116.247 Y-7.973
X-116.374 Y-7.893
X-116.386 Y-7.89
X-116.5 Y-7.891
X-116.605 Y-7.934
X-116.687 Y-8.014
X-116.734 Y-8.118
X-116.77 Y-8.276
Y-8.313
X-116.757 Y-8.348
X-116.732 Y-8.375
X-116.698 Y-8.391
X-116.661 Y-8.394
X-116.281 Y-8.355
X-116.256 Y-8.349
X-116.233 Y-8.337
X-116.122 Y-8.251
X-116.092 Y-8.228
X-116.059 Y-8.161
X-116.043 Y-8.011
X-116.103 Y-7.874
X-116.206 Y-7.765
X-116.342 Y-7.702
X-116.375 Y-7.7
X-116.514 Y-7.722
X-116.628 Y-7.805
X-116.691 Y-7.932
X-116.734 Y-8.118
Y-8.152
X-116.724 Y-8.184
X-116.703 Y-8.211
X-116.675 Y-8.229
X-116.642 Y-8.237
X-116.181 Y-8.266
X-116.15 Y-8.263
X-116.122 Y-8.251
X-116.111 Y-8.244
X-116.079 Y-8.237
X-116.043 Y-8.228
X-115.982 Y-8.185
X-115.937 Y-8.124
X-115.895 Y-7.98
X-115.919 Y-7.832
X-115.988 Y-7.699
X-116.094 Y-7.593
X-116.141 Y-7.572
X-116.189 Y-7.56
X-116.238 Y-7.556
X-116.422
X-116.46
X-116.502
X-116.536 Y-7.562
X-116.567 Y-7.576
X-116.595 Y-7.595
X-116.613 Y-7.623
X-116.622 Y-7.655
X-116.623 Y-7.687
X-116.614 Y-7.719
X-116.592 Y-7.754
X-116.558 Y-7.779
X-116.518 Y-7.79
X-116.477 Y-7.787
X-116.439 Y-7.769
X-116.41 Y-7.74
X-116.393 Y-7.702
X-116.39 Y-7.66
X-116.402 Y-7.62
X-116.427 Y-7.587
X-116.462 Y-7.565
X-116.502 Y-7.556
X-116.524 Y-7.557
X-116.534 Y-7.558
X-116.545 Y-7.561
X-116.564 Y-7.57
X-116.583 Y-7.585
X-116.595 Y-7.595
X-116.607 Y-7.608
X-116.615 Y-7.62
X-116.621 Y-7.632
X-116.629 Y-7.664
X-116.691 Y-7.932
Y-7.967
X-116.68 Y-7.999
X-116.658 Y-8.026
X-116.628 Y-8.044
X-116.132 Y-8.232
X-116.106 Y-8.238
X-116.079 Y-8.237
X-115.953 Y-8.211
X-115.88 Y-8.192
X-115.822 Y-8.144
X-115.742 Y-8.017
X-115.721 Y-7.869
X-115.732 Y-7.806
X-115.786 Y-7.678
X-115.892 Y-7.588
X-116.028 Y-7.556
X-116.238
X-116.271 Y-7.563
X-116.3 Y-7.581
X-116.322 Y-7.608
X-116.333 Y-7.64
X-116.332 Y-7.674
X-116.321 Y-7.706
X-116.056 Y-8.162
X-116.037 Y-8.186
X-116.012 Y-8.203
X-115.983 Y-8.211
X-115.953
X-115.879 Y-8.195
X-115.868 Y-8.197
X-115.821 Y-8.208
X-115.785 Y-8.215
X-115.716 Y-8.186
X-115.603 Y-8.087
X-115.542 Y-7.95
X-115.534 Y-7.8
X-115.538 Y-7.783
X-115.597 Y-7.666
X-115.701 Y-7.585
X-115.829 Y-7.556
X-116.028
X-116.066 Y-7.565
X-116.098 Y-7.589
X-116.119 Y-7.623
X-116.124 Y-7.663
X-116.113 Y-7.701
X-115.883 Y-8.157
X-115.868 Y-8.18
X-115.847 Y-8.197
X-115.821 Y-8.208
X-115.726 Y-8.232
X-115.653 Y-8.246
X-115.58 Y-8.226
X-115.453 Y-8.147
X-115.372 Y-8.02
X-115.334 Y-7.875
X-115.338 Y-7.832
X-115.385 Y-7.692
X-115.494 Y-7.592
X-115.637 Y-7.556
X-115.829
X-115.864 Y-7.564
X-115.894 Y-7.583
X-115.915 Y-7.612
X-115.925 Y-7.646
X-115.922 Y-7.682
X-115.796 Y-8.161
X-115.781 Y-8.192
X-115.757 Y-8.217
X-115.726 Y-8.232
X-115.646 Y-8.251
X-115.635 Y-8.256
X-115.614 Y-8.273
X-115.584 Y-8.295
X-115.509 Y-8.303
X-115.363 Y-8.269
X-115.248 Y-8.173
X-115.168 Y-8.046
X-115.136 Y-7.899
X-115.143 Y-7.75
X-115.145 Y-7.745
X-115.21 Y-7.646
X-115.308 Y-7.579
X-115.424 Y-7.556
X-115.637
X-115.67 Y-7.563
X-115.698 Y-7.58
X-115.72 Y-7.606
X-115.732 Y-7.638
Y-7.671
X-115.648 Y-8.212
X-115.636 Y-8.245
X-115.614 Y-8.273
X-115.53 Y-8.341
X-115.469 Y-8.385
X-115.395 Y-8.397
X-115.246 Y-8.382
X-115.117 Y-8.305
X-115.019 Y-8.192
X-114.952 Y-8.057
X-114.918 Y-7.911
X-114.927 Y-7.762
X-114.928 Y-7.758
X-114.991 Y-7.652
X-115.091 Y-7.581
X-115.211 Y-7.556
X-115.424
X-115.459 Y-7.564
X-115.49 Y-7.584
X-115.511 Y-7.614
X-115.52 Y-7.649
X-115.564 Y-8.258
X-115.561 Y-8.288
X-115.55 Y-8.317
X-115.53 Y-8.341
X-115.465 Y-8.392
X-115.453 Y-8.404
X-115.445 Y-8.417
X-115.4 Y-8.477
X-115.332 Y-8.508
X-115.183 Y-8.524
X-115.041 Y-8.477
X-114.918 Y-8.39
X-114.82 Y-8.277
X-114.747 Y-8.146
X-114.704 Y-8.002
X-114.692 Y-7.853
X-114.702 Y-7.8
X-114.758 Y-7.675
X-114.864 Y-7.587
X-114.997 Y-7.556
X-115.031 Y-7.563
X-115.061 Y-7.582
X-115.083 Y-7.61
X-115.135 Y-7.712
X-115.449 Y-8.318
X-115.459 Y-8.351
X-115.458 Y-8.385
X-115.445 Y-8.417
X-115.405 Y-8.477
X-115.4 Y-8.487
X-115.388 Y-8.519
X-115.374 Y-8.554
X-115.322 Y-8.608
X-115.188 Y-8.675
X-115.038 Y-8.672
X-114.896 Y-8.625
X-114.769 Y-8.545
X-114.661 Y-8.441
X-114.575 Y-8.318
X-114.512 Y-8.181
X-114.472 Y-8.037
X-114.464 Y-7.887
X-114.488 Y-7.739
X-114.492 Y-7.729
X-114.558 Y-7.638
X-114.653 Y-7.577
X-114.764 Y-7.556
X-115.211
X-115.246 Y-7.564
X-115.276 Y-7.583
X-115.298 Y-7.612
X-115.307 Y-7.646
X-115.317 Y-7.738
X-115.392 Y-8.478
Y-8.499
X-115.388 Y-8.519
X-115.36 Y-8.597
X-115.344 Y-8.646
X-115.32 Y-8.717
X-115.209 Y-8.818
X-115.064 Y-8.855
X-114.914 Y-8.846
X-114.771 Y-8.801
X-114.639 Y-8.729
X-114.523 Y-8.634
X-114.425 Y-8.521
X-114.395 Y-8.474
X-114.369 Y-8.424
X-114.353 Y-8.369
X-114.348 Y-8.313
Y-7.801
Y-7.755
Y-7.717
X-114.352 Y-7.643
X-114.365 Y-7.619
X-114.388 Y-7.604
X-114.415 Y-7.601
X-114.44 Y-7.612
X-114.458 Y-7.633
X-114.464 Y-7.66
X-114.462 Y-7.716
X-114.454 Y-7.744
X-114.433 Y-7.764
X-114.405 Y-7.772
X-114.377 Y-7.764
X-114.356 Y-7.744
X-114.348 Y-7.717
Y-7.674
X-114.349 Y-7.653
X-114.352 Y-7.643
X-114.355 Y-7.632
X-114.361 Y-7.621
X-114.369 Y-7.609
X-114.381 Y-7.596
X-114.411 Y-7.573
X-114.43 Y-7.563
X-114.44 Y-7.56
X-114.451 Y-7.557
X-114.472 Y-7.556
X-114.764
X-114.799 Y-7.564
X-114.829 Y-7.583
X-114.85 Y-7.612
X-115.01 Y-7.937
X-115.334 Y-8.596
X-115.342 Y-8.62
X-115.344 Y-8.646
X-115.336 Y-8.73
Y-8.777
X-115.334 Y-8.814
X-115.298 Y-8.88
X-115.196 Y-8.989
X-115.055 Y-9.043
X-114.906 Y-9.054
X-114.758 Y-9.031
X-114.617 Y-8.98
X-114.486 Y-8.907
X-114.465 Y-8.891
X-114.402 Y-8.825
X-114.362 Y-8.743
X-114.348 Y-8.653
Y-8.313
X-114.355 Y-8.279
X-114.373 Y-8.25
X-114.4 Y-8.229
X-114.432 Y-8.218
X-114.466
X-114.499 Y-8.23
X-114.697 Y-8.347
X-115.287 Y-8.693
X-115.312 Y-8.715
X-115.329 Y-8.744
X-115.336 Y-8.777
Y-8.899
X-115.333 Y-8.974
X-115.271 Y-9.111
X-115.152 Y-9.201
X-115.01 Y-9.251
X-114.861 Y-9.266
X-114.711 Y-9.252
X-114.566 Y-9.214
X-114.519 Y-9.191
X-114.429 Y-9.125
X-114.369 Y-9.031
X-114.348 Y-8.921
Y-8.653
X-114.356 Y-8.617
X-114.376 Y-8.587
X-114.406 Y-8.566
X-114.441 Y-8.557
X-114.478 Y-8.561
X-114.633 Y-8.61
X-115.266 Y-8.808
X-115.293 Y-8.821
X-115.315 Y-8.842
X-115.33 Y-8.869
X-115.336 Y-8.899
X-115.337 Y-9.114
X-115.334 Y-9.189
X-115.259 Y-9.319
X-115.139 Y-9.409
X-114.999 Y-9.463
X-114.851 Y-9.487
X-114.701 Y-9.486
X-114.554 Y-9.454
X-114.529 Y-9.444
X-114.434 Y-9.378
X-114.37 Y-9.282
X-114.348 Y-9.168
Y-8.921
X-114.355 Y-8.886
X-114.374 Y-8.856
X-114.403 Y-8.835
X-114.437 Y-8.825
X-114.472 Y-8.827
X-114.624 Y-8.864
X-115.261 Y-9.021
X-115.291 Y-9.034
X-115.315 Y-9.055
X-115.331 Y-9.083
X-115.337 Y-9.114
X-115.339 Y-9.283
X-115.336 Y-9.358
X-115.282 Y-9.498
X-115.172 Y-9.6
X-115.039 Y-9.669
X-114.894 Y-9.708
X-114.744 Y-9.72
X-114.595 Y-9.704
X-114.553 Y-9.69
X-114.446 Y-9.627
X-114.374 Y-9.526
X-114.348 Y-9.405
Y-9.168
X-114.355 Y-9.135
X-114.372 Y-9.106
X-114.398 Y-9.085
X-114.429 Y-9.073
X-114.462
X-114.613 Y-9.095
X-115.254 Y-9.189
X-115.286 Y-9.2
X-115.313 Y-9.221
X-115.331 Y-9.25
X-115.339 Y-9.283
X-115.341 Y-9.49
X-115.338 Y-9.565
X-115.285 Y-9.705
X-115.178 Y-9.811
X-115.048 Y-9.885
X-114.905 Y-9.931
X-114.756 Y-9.951
X-114.607 Y-9.938
X-114.562 Y-9.924
X-114.451 Y-9.863
X-114.375 Y-9.761
X-114.348 Y-9.637
Y-9.405
X-114.354 Y-9.373
X-114.371 Y-9.345
X-114.396 Y-9.323
X-114.426 Y-9.311
X-114.459 Y-9.309
X-114.612 Y-9.326
X-115.252 Y-9.396
X-115.286 Y-9.406
X-115.314 Y-9.427
X-115.333 Y-9.456
X-115.341 Y-9.49
X-115.344 Y-9.706
X-115.341 Y-9.781
X-115.288 Y-9.921
X-115.183 Y-10.029
X-115.055 Y-10.106
X-114.913 Y-10.156
X-114.765 Y-10.179
X-114.615 Y-10.169
X-114.567 Y-10.156
X-114.454 Y-10.095
X-114.376 Y-9.992
X-114.348 Y-9.867
Y-9.637
X-114.354 Y-9.605
X-114.37 Y-9.577
X-114.395 Y-9.556
X-114.424 Y-9.543
X-114.457 Y-9.541
X-114.613 Y-9.555
X-115.253 Y-9.611
X-115.287 Y-9.62
X-115.316 Y-9.641
X-115.336 Y-9.671
X-115.344 Y-9.706
X-115.346 Y-9.913
X-115.34 Y-10.063
X-115.261 Y-10.19
X-115.147 Y-10.287
X-115.013 Y-10.356
X-114.869 Y-10.396
X-114.719 Y-10.409
X-114.571 Y-10.39
X-114.544 Y-10.38
X-114.441 Y-10.316
X-114.372 Y-10.217
X-114.348 Y-10.098
Y-9.867
X-114.357 Y-9.828
X-114.381 Y-9.796
X-114.415 Y-9.776
X-114.454 Y-9.77
X-114.614 Y-9.78
X-115.252 Y-9.817
X-115.287 Y-9.826
X-115.317 Y-9.847
X-115.337 Y-9.877
X-115.346 Y-9.913
X-115.348 Y-10.166
X-115.345 Y-10.241
X-115.288 Y-10.38
X-115.184 Y-10.487
X-115.055 Y-10.565
X-114.914 Y-10.616
X-114.766 Y-10.639
X-114.616 Y-10.631
X-114.567 Y-10.617
X-114.453 Y-10.557
X-114.376 Y-10.454
X-114.348 Y-10.328
Y-10.098
X-114.354 Y-10.067
X-114.37 Y-10.039
X-114.395 Y-10.017
X-114.424 Y-10.005
X-114.456 Y-10.002
X-114.618 Y-10.016
X-115.257 Y-10.071
X-115.291 Y-10.08
X-115.32 Y-10.101
X-115.34 Y-10.131
X-115.348 Y-10.166
X-115.349 Y-10.381
X-115.346 Y-10.456
X-115.294 Y-10.597
X-115.192 Y-10.707
X-115.066 Y-10.788
X-114.925 Y-10.841
X-114.778 Y-10.868
X-114.628 Y-10.861
X-114.574 Y-10.847
X-114.457 Y-10.788
X-114.377 Y-10.685
X-114.348 Y-10.557
Y-10.328
X-114.357 Y-10.29
X-114.381 Y-10.258
X-114.415 Y-10.237
X-114.455 Y-10.232
X-114.619 Y-10.243
X-115.256 Y-10.285
X-115.291 Y-10.294
X-115.321 Y-10.316
X-115.341 Y-10.346
X-115.349 Y-10.381
X-115.35 Y-10.635
X-115.346 Y-10.71
X-115.283 Y-10.846
X-115.176 Y-10.951
X-115.047 Y-11.028
X-114.905 Y-11.076
X-114.757 Y-11.097
X-114.607 Y-11.086
X-114.564 Y-11.073
X-114.452 Y-11.012
X-114.375 Y-10.91
X-114.348 Y-10.785
Y-10.557
X-114.354 Y-10.525
X-114.371 Y-10.497
X-114.395 Y-10.475
X-114.425 Y-10.463
X-114.458 Y-10.461
X-114.621 Y-10.477
X-115.26 Y-10.539
X-115.294 Y-10.549
X-115.323 Y-10.57
X-115.342 Y-10.6
X-115.35 Y-10.635
Y-10.842
X-115.346 Y-10.917
X-115.294 Y-11.057
X-115.191 Y-11.167
X-115.064 Y-11.247
X-114.924 Y-11.299
X-114.776 Y-11.325
X-114.626 Y-11.318
X-114.573 Y-11.304
X-114.456 Y-11.245
X-114.376 Y-11.141
X-114.348 Y-11.014
Y-10.785
X-114.354 Y-10.754
X-114.37 Y-10.726
X-114.394 Y-10.704
X-114.423 Y-10.692
X-114.455 Y-10.689
X-114.62 Y-10.7
X-115.257 Y-10.745
X-115.292 Y-10.755
X-115.322 Y-10.776
X-115.342 Y-10.806
X-115.35 Y-10.842
Y-11.057
X-115.343 Y-11.207
X-115.264 Y-11.334
X-115.15 Y-11.432
X-115.017 Y-11.501
X-114.872 Y-11.542
X-114.723 Y-11.557
X-114.574 Y-11.538
X-114.545 Y-11.527
X-114.442 Y-11.463
X-114.372 Y-11.364
X-114.348 Y-11.245
Y-11.014
X-114.357 Y-10.975
X-114.38 Y-10.944
X-114.414 Y-10.923
X-114.453 Y-10.918
X-114.619 Y-10.926
X-115.256 Y-10.961
X-115.291 Y-10.97
X-115.321 Y-10.991
X-115.342 Y-11.021
X-115.35 Y-11.057
Y-11.311
X-115.346 Y-11.385
X-115.291 Y-11.525
X-115.186 Y-11.633
X-115.058 Y-11.711
X-114.917 Y-11.762
X-114.769 Y-11.786
X-114.619 Y-11.779
X-114.568 Y-11.765
X-114.454 Y-11.704
X-114.376 Y-11.602
X-114.348 Y-11.475
Y-11.245
X-114.354 Y-11.214
X-114.37 Y-11.186
X-114.394 Y-11.164
X-114.424 Y-11.152
X-114.456 Y-11.149
X-114.62 Y-11.162
X-115.258 Y-11.214
X-115.293 Y-11.224
X-115.322 Y-11.245
X-115.342 Y-11.275
X-115.35 Y-11.311
Y-11.517
X-115.343 Y-11.667
X-115.264 Y-11.795
X-115.15 Y-11.893
X-115.017 Y-11.962
X-114.873 Y-12.003
X-114.723 Y-12.018
X-114.575 Y-11.999
X-114.546 Y-11.989
X-114.442 Y-11.925
X-114.373 Y-11.825
X-114.348 Y-11.706
Y-11.475
X-114.357 Y-11.437
X-114.38 Y-11.405
X-114.414 Y-11.385
X-114.453 Y-11.379
X-114.619 Y-11.388
X-115.255 Y-11.421
X-115.291 Y-11.43
X-115.321 Y-11.451
X-115.342 Y-11.481
X-115.35 Y-11.517
Y-11.771
X-115.346 Y-11.846
X-115.291 Y-11.985
X-115.187 Y-12.093
X-115.059 Y-12.171
X-114.918 Y-12.223
X-114.77 Y-12.247
X-114.62 Y-12.24
X-114.569 Y-12.226
X-114.454 Y-12.165
X-114.376 Y-12.063
X-114.348 Y-11.936
Y-11.706
X-114.354 Y-11.675
X-114.37 Y-11.647
X-114.394 Y-11.625
X-114.424 Y-11.613
X-114.456 Y-11.61
X-114.62 Y-11.623
X-115.258 Y-11.675
X-115.293 Y-11.684
X-115.322 Y-11.705
X-115.342 Y-11.736
X-115.35 Y-11.771
Y-11.986
X-115.346 Y-12.061
X-115.296 Y-12.203
X-115.195 Y-12.313
X-115.069 Y-12.394
X-114.929 Y-12.448
X-114.781 Y-12.475
X-114.631 Y-12.47
X-114.576 Y-12.456
X-114.458 Y-12.397
X-114.377 Y-12.293
X-114.348 Y-12.165
Y-11.936
X-114.357 Y-11.898
X-114.381 Y-11.866
X-114.415 Y-11.845
X-114.454 Y-11.84
X-114.62 Y-11.85
X-115.256 Y-11.89
X-115.292 Y-11.899
X-115.322 Y-11.92
X-115.342 Y-11.951
X-115.35 Y-11.986
Y-12.24
X-115.346 Y-12.315
X-115.285 Y-12.451
X-115.179 Y-12.557
X-115.05 Y-12.634
X-114.908 Y-12.683
X-114.759 Y-12.705
X-114.61 Y-12.694
X-114.565 Y-12.681
X-114.452 Y-12.62
X-114.375 Y-12.518
X-114.348 Y-12.393
Y-12.165
X-114.354 Y-12.133
X-114.371 Y-12.105
X-114.395 Y-12.083
X-114.425 Y-12.071
X-114.457 Y-12.068
X-114.621 Y-12.084
X-115.259 Y-12.144
X-115.294 Y-12.153
X-115.323 Y-12.175
X-115.342 Y-12.205
X-115.35 Y-12.24
Y-12.447
X-115.346 Y-12.522
X-115.295 Y-12.663
X-115.193 Y-12.773
X-115.067 Y-12.853
X-114.927 Y-12.906
X-114.779 Y-12.933
X-114.629 Y-12.926
X-114.574 Y-12.912
X-114.457 Y-12.853
X-114.377 Y-12.75
X-114.348 Y-12.622
Y-12.393
X-114.354 Y-12.361
X-114.37 Y-12.334
X-114.394 Y-12.312
X-114.423 Y-12.299
X-114.455 Y-12.296
X-114.62 Y-12.308
X-115.257 Y-12.35
X-115.292 Y-12.359
X-115.322 Y-12.381
X-115.342 Y-12.411
X-115.35 Y-12.447
Y-12.7
X-115.346 Y-12.775
X-115.283 Y-12.911
X-115.177 Y-13.017
X-115.048 Y-13.093
X-114.906 Y-13.141
X-114.757 Y-13.162
X-114.608 Y-13.151
X-114.564 Y-13.138
X-114.452 Y-13.077
X-114.375 Y-12.975
X-114.348 Y-12.85
Y-12.622
X-114.354 Y-12.59
X-114.371 Y-12.562
X-114.395 Y-12.54
X-114.425 Y-12.528
X-114.458 Y-12.526
X-114.621 Y-12.542
X-115.26 Y-12.604
X-115.294 Y-12.614
X-115.323 Y-12.635
X-115.342 Y-12.665
X-115.35 Y-12.7
Y-12.915
X-115.346 Y-12.99
X-115.29 Y-13.129
X-115.186 Y-13.237
X-115.058 Y-13.315
X-114.916 Y-13.366
X-114.768 Y-13.391
X-114.619 Y-13.382
X-114.569 Y-13.368
X-114.455 Y-13.308
X-114.376 Y-13.205
X-114.348 Y-13.079
Y-12.85
X-114.354 Y-12.818
X-114.37 Y-12.791
X-114.394 Y-12.769
X-114.424 Y-12.756
X-114.456 Y-12.754
X-114.62 Y-12.767
X-115.258 Y-12.819
X-115.293 Y-12.829
X-115.322 Y-12.85
X-115.342 Y-12.88
X-115.35 Y-12.915
Y-13.122
X-115.343 Y-13.272
X-115.264 Y-13.4
X-115.15 Y-13.497
X-115.017 Y-13.566
X-114.872 Y-13.607
X-114.723 Y-13.622
X-114.574 Y-13.603
X-114.545 Y-13.592
X-114.442 Y-13.528
X-114.373 Y-13.429
X-114.348 Y-13.31
Y-13.079
X-114.357 Y-13.041
X-114.38 Y-13.009
X-114.414 Y-12.988
X-114.453 Y-12.983
X-114.619 Y-12.992
X-115.256 Y-13.026
X-115.291 Y-13.035
X-115.321 Y-13.056
X-115.342 Y-13.086
X-115.35 Y-13.122
Y-13.376
X-115.346 Y-13.451
X-115.291 Y-13.59
X-115.186 Y-13.698
X-115.058 Y-13.776
X-114.917 Y-13.827
X-114.769 Y-13.851
X-114.619 Y-13.844
X-114.568 Y-13.829
X-114.454 Y-13.769
X-114.376 Y-13.666
X-114.348 Y-13.54
Y-13.31
X-114.354 Y-13.279
X-114.37 Y-13.251
X-114.394 Y-13.229
X-114.424 Y-13.217
X-114.456 Y-13.214
X-114.62 Y-13.227
X-115.258 Y-13.28
X-115.293 Y-13.289
X-115.322 Y-13.31
X-115.342 Y-13.34
X-115.35 Y-13.376
Y-13.591
X-115.346 Y-13.666
X-115.296 Y-13.807
X-115.195 Y-13.918
X-115.068 Y-13.999
X-114.928 Y-14.052
X-114.781 Y-14.079
X-114.631 Y-14.073
X-114.575 Y-14.06
X-114.458 Y-14
X-114.377 Y-13.897
X-114.348 Y-13.769
Y-13.54
X-114.357 Y-13.502
X-114.381 Y-13.47
X-114.415 Y-13.449
X-114.454 Y-13.444
X-114.62 Y-13.454
X-115.256 Y-13.495
X-115.292 Y-13.504
X-115.322 Y-13.525
X-115.342 Y-13.555
X-115.35 Y-13.591
Y-13.845
X-115.346 Y-13.919
X-115.284 Y-14.056
X-115.178 Y-14.162
X-115.049 Y-14.239
X-114.907 Y-14.287
X-114.759 Y-14.309
X-114.609 Y-14.298
X-114.565 Y-14.285
X-114.452 Y-14.224
X-114.375 Y-14.122
X-114.348 Y-13.997
Y-13.769
X-114.354 Y-13.737
X-114.371 Y-13.709
X-114.395 Y-13.687
X-114.425 Y-13.675
X-114.457 Y-13.673
X-114.621 Y-13.688
X-115.26 Y-13.748
X-115.294 Y-13.758
X-115.323 Y-13.779
X-115.342 Y-13.809
X-115.35 Y-13.845
Y-14.051
X-115.346 Y-14.126
X-115.295 Y-14.267
X-115.193 Y-14.377
X-115.066 Y-14.458
X-114.926 Y-14.511
X-114.778 Y-14.537
X-114.628 Y-14.53
X-114.574 Y-14.516
X-114.457 Y-14.457
X-114.377 Y-14.353
X-114.348 Y-14.226
Y-13.997
X-114.354 Y-13.965
X-114.37 Y-13.938
X-114.394 Y-13.916
X-114.423 Y-13.903
X-114.455 Y-13.901
X-114.62 Y-13.912
X-115.257 Y-13.955
X-115.292 Y-13.964
X-115.322 Y-13.985
X-115.342 Y-14.016
X-115.35 Y-14.051
Y-14.305
X-115.346 Y-14.38
X-115.283 Y-14.516
X-115.176 Y-14.621
X-115.047 Y-14.697
X-114.905 Y-14.745
X-114.756 Y-14.767
X-114.607 Y-14.755
X-114.564 Y-14.742
X-114.452 Y-14.681
X-114.375 Y-14.579
X-114.348 Y-14.454
Y-14.226
X-114.354 Y-14.194
X-114.371 Y-14.166
X-114.395 Y-14.144
X-114.425 Y-14.132
X-114.458 Y-14.13
X-114.621 Y-14.146
X-115.26 Y-14.209
X-115.294 Y-14.219
X-115.323 Y-14.24
X-115.342 Y-14.27
X-115.35 Y-14.305
Y-14.52
X-115.346 Y-14.595
X-115.289 Y-14.734
X-115.185 Y-14.842
X-115.057 Y-14.92
X-114.916 Y-14.971
X-114.768 Y-14.995
X-114.618 Y-14.986
X-114.569 Y-14.972
X-114.454 Y-14.912
X-114.376 Y-14.809
X-114.348 Y-14.683
Y-14.454
X-114.354 Y-14.423
X-114.37 Y-14.395
X-114.394 Y-14.373
X-114.424 Y-14.361
X-114.456 Y-14.358
X-114.62 Y-14.372
X-115.258 Y-14.424
X-115.293 Y-14.433
X-115.322 Y-14.455
X-115.342 Y-14.485
X-115.35 Y-14.52
Y-14.727
X-115.343 Y-14.877
X-115.263 Y-15.004
X-115.149 Y-15.102
X-115.016 Y-15.171
X-114.872 Y-15.211
X-114.722 Y-15.226
X-114.574 Y-15.207
X-114.545 Y-15.196
X-114.442 Y-15.132
X-114.373 Y-15.033
X-114.348 Y-14.914
Y-14.683
X-114.357 Y-14.645
X-114.38 Y-14.613
X-114.414 Y-14.592
X-114.453 Y-14.587
X-114.619 Y-14.596
X-115.256 Y-14.631
X-115.291 Y-14.64
X-115.322 Y-14.661
X-115.342 Y-14.691
X-115.35 Y-14.727
Y-14.981
X-115.346 Y-15.055
X-115.29 Y-15.195
X-115.186 Y-15.302
X-115.058 Y-15.38
X-114.917 Y-15.432
X-114.768 Y-15.455
X-114.619 Y-15.448
X-114.568 Y-15.434
X-114.454 Y-15.373
X-114.376 Y-15.27
X-114.348 Y-15.144
Y-14.914
X-114.354 Y-14.883
X-114.37 Y-14.855
X-114.394 Y-14.833
X-114.424 Y-14.821
X-114.456 Y-14.818
X-114.62 Y-14.832
X-115.258 Y-14.884
X-115.293 Y-14.894
X-115.322 Y-14.915
X-115.342 Y-14.945
X-115.35 Y-14.981
Y-15.196
X-115.346 Y-15.271
X-115.295 Y-15.412
X-115.194 Y-15.523
X-115.068 Y-15.603
X-114.927 Y-15.656
X-114.78 Y-15.684
X-114.63 Y-15.678
X-114.575 Y-15.664
X-114.458 Y-15.605
X-114.377 Y-15.501
X-114.348 Y-15.373
Y-15.144
X-114.357 Y-15.106
X-114.381 Y-15.074
X-114.415 Y-15.054
X-114.454 Y-15.048
X-114.62 Y-15.059
X-115.257 Y-15.1
X-115.292 Y-15.109
X-115.322 Y-15.13
X-115.342 Y-15.16
X-115.35 Y-15.196
Y-15.449
X-115.346 Y-15.524
X-115.284 Y-15.661
X-115.178 Y-15.766
X-115.049 Y-15.843
X-114.907 Y-15.891
X-114.758 Y-15.913
X-114.609 Y-15.902
X-114.565 Y-15.889
X-114.452 Y-15.828
X-114.375 Y-15.726
X-114.348 Y-15.601
Y-15.373
X-114.354 Y-15.341
X-114.371 Y-15.313
X-114.395 Y-15.291
X-114.425 Y-15.279
X-114.457 Y-15.277
X-114.621 Y-15.292
X-115.26 Y-15.353
X-115.294 Y-15.363
X-115.323 Y-15.384
X-115.342 Y-15.414
X-115.35 Y-15.449
Y-15.656
X-115.346 Y-15.731
X-115.294 Y-15.872
X-115.192 Y-15.982
X-115.066 Y-16.062
X-114.925 Y-16.115
X-114.778 Y-16.141
X-114.628 Y-16.134
X-114.573 Y-16.12
X-114.457 Y-16.061
X-114.377 Y-15.958
X-114.348 Y-15.83
Y-15.601
X-114.354 Y-15.57
X-114.37 Y-15.542
X-114.394 Y-15.52
X-114.423 Y-15.508
X-114.455 Y-15.505
X-114.62 Y-15.516
X-115.257 Y-15.56
X-115.292 Y-15.569
X-115.322 Y-15.59
X-115.342 Y-15.621
X-115.35 Y-15.656
Y-15.91
X-115.346 Y-15.985
X-115.283 Y-16.12
X-115.176 Y-16.226
X-115.047 Y-16.302
X-114.904 Y-16.349
X-114.756 Y-16.371
X-114.606 Y-16.359
X-114.563 Y-16.346
X-114.452 Y-16.285
X-114.375 Y-16.183
X-114.348 Y-16.058
Y-15.83
X-114.354 Y-15.798
X-114.371 Y-15.77
X-114.395 Y-15.748
X-114.425 Y-15.736
X-114.458 Y-15.734
X-114.621 Y-15.75
X-115.26 Y-15.814
X-115.294 Y-15.824
X-115.323 Y-15.845
X-115.342 Y-15.875
X-115.35 Y-15.91
Y-16.125
X-115.346 Y-16.2
X-115.289 Y-16.339
X-115.185 Y-16.446
X-115.056 Y-16.524
X-114.915 Y-16.575
X-114.767 Y-16.599
X-114.618 Y-16.59
X-114.569 Y-16.577
X-114.454 Y-16.516
X-114.376 Y-16.414
X-114.348 Y-16.287
Y-16.058
X-114.354 Y-16.027
X-114.37 Y-15.999
X-114.394 Y-15.977
X-114.424 Y-15.965
X-114.456 Y-15.962
X-114.62 Y-15.976
X-115.258 Y-16.029
X-115.293 Y-16.038
X-115.322 Y-16.06
X-115.342 Y-16.09
X-115.35 Y-16.125
Y-16.332
X-115.343 Y-16.482
X-115.263 Y-16.609
X-115.149 Y-16.706
X-115.016 Y-16.775
X-114.871 Y-16.816
X-114.722 Y-16.83
X-114.573 Y-16.811
X-114.545 Y-16.8
X-114.442 Y-16.737
X-114.372 Y-16.637
X-114.348 Y-16.519
Y-16.287
X-114.357 Y-16.249
X-114.38 Y-16.217
X-114.414 Y-16.197
X-114.453 Y-16.191
X-114.619 Y-16.2
X-115.256 Y-16.236
X-115.291 Y-16.244
X-115.322 Y-16.266
X-115.342 Y-16.296
X-115.35 Y-16.332
Y-16.585
X-115.346 Y-16.66
X-115.29 Y-16.799
X-115.185 Y-16.907
X-115.057 Y-16.985
X-114.916 Y-17.036
X-114.768 Y-17.059
X-114.618 Y-17.052
X-114.568 Y-17.038
X-114.454 Y-16.977
X-114.376 Y-16.875
X-114.348 Y-16.749
Y-16.519
X-114.354 Y-16.487
X-114.37 Y-16.459
X-114.394 Y-16.438
X-114.424 Y-16.425
X-114.456 Y-16.423
X-114.62 Y-16.436
X-115.258 Y-16.489
X-115.293 Y-16.499
X-115.323 Y-16.52
X-115.342 Y-16.55
X-115.35 Y-16.585
Y-16.801
X-115.346 Y-16.876
X-115.295 Y-17.017
X-115.194 Y-17.127
X-115.067 Y-17.208
X-115.001 Y-17.233
X-114.967 Y-17.243
X-114.931 Y-17.25
X-114.895 Y-17.252
X-114.858 Y-17.243
X-114.826 Y-17.221
X-114.806 Y-17.189
X-114.799 Y-17.151
X-114.807 Y-17.113
X-114.829 Y-17.081
X-115.18 Y-16.733
X-115.212 Y-16.712
X-115.249 Y-16.704
X-115.287 Y-16.711
X-115.319 Y-16.732
X-115.341 Y-16.763
X-115.35 Y-16.801
Y-17.054
Y-17.092
Y-17.134
X-115.347 Y-17.166
X-115.332 Y-17.193
X-115.31 Y-17.213
X-115.282 Y-17.225
X-115.251 Y-17.227
X-115.216 Y-17.216
X-115.188 Y-17.192
X-115.172 Y-17.158
Y-17.12
X-115.186 Y-17.086
X-115.213 Y-17.061
X-115.248 Y-17.048
X-115.285 Y-17.051
X-115.318 Y-17.069
X-115.341 Y-17.098
X-115.35 Y-17.134
X-115.349 Y-17.156
X-115.347 Y-17.166
X-115.344 Y-17.177
X-115.339 Y-17.188
X-115.332 Y-17.199
X-115.322 Y-17.211
X-115.31 Y-17.222
X-115.293 Y-17.235
X-115.276 Y-17.244
X-115.265 Y-17.248
X-115.255 Y-17.25
X-115.244 Y-17.252
X-114.722
X-114.572 Y-17.245
X-114.562 Y-17.241
X-114.451 Y-17.18
X-114.375 Y-17.078
X-114.348 Y-16.954
X-114.356 Y-16.919
X-114.375 Y-16.889
X-114.404 Y-16.868
X-114.438 Y-16.858
X-114.474 Y-16.861
X-114.506 Y-16.876
X-114.777 Y-17.071
X-114.801 Y-17.096
X-114.815 Y-17.129
X-114.817 Y-17.164
X-114.807 Y-17.198
X-114.786 Y-17.226
X-114.756 Y-17.245
X-114.722 Y-17.252
X-114.472
X-114.451 Y-17.251
X-114.44 Y-17.249
X-114.43 Y-17.245
X-114.411 Y-17.236
X-114.392 Y-17.225
X-114.38 Y-17.215
X-114.367 Y-17.201
X-114.36 Y-17.189
X-114.354 Y-17.177
X-114.351 Y-17.166
X-114.349 Y-17.156
X-114.348 Y-17.134
Y-16.749
X-114.357 Y-16.711
X-114.38 Y-16.679
X-114.413 Y-16.659
X-114.451 Y-16.652
X-114.49 Y-16.654 Z-0.982
X-114.522 Y-16.655 Z-0.961
X-114.544 Y-16.656 Z-0.928
X-114.551 Z-0.89
G0 Z2
X-118.324 Y-16.403
Z-0.79
G1 Z-0.89 F1000
X-118.33 Y-16.399 Z-0.928
X-118.349 Y-16.388 Z-0.961
X-118.377 Y-16.371 Z-0.982
X-118.41 Y-16.352 Z-0.99
G3 X-119.125 Y-16.027 I-1.855 J-3.138
G1 X-119.167 Y-16.015
X-119.221 Y-15.994
X-119.252 Y-15.979
X-119.294 Y-15.953
X-119.359 Y-15.914
X-119.507 Y-15.891
X-119.652 Y-15.928
X-119.782 Y-16.004
X-119.804 Y-16.024
X-119.865 Y-16.107
X-119.895 Y-16.205
X-119.89 Y-16.308
X-119.827 Y-16.59
X-119.81 Y-16.624
X-119.783 Y-16.649
X-119.748 Y-16.663
X-119.71 Y-16.662
X-119.675 Y-16.648
X-119.648 Y-16.622
X-119.638 Y-16.608
X-119.275 Y-16.089
X-119.259 Y-16.055
X-119.257 Y-16.017
X-119.27 Y-15.982
X-119.294 Y-15.953
X-119.337 Y-15.922
X-119.351 Y-15.91
X-119.421 Y-15.837
X-119.447 Y-15.81
X-119.586 Y-15.752
X-119.735 Y-15.763
X-119.762 Y-15.775
X-119.871 Y-15.857
X-119.932 Y-15.979
X-119.933 Y-16.115
X-119.89 Y-16.308
X-119.874 Y-16.341
X-119.847 Y-16.367
X-119.812 Y-16.38
X-119.775 Y-16.381
X-119.74 Y-16.367
X-119.713 Y-16.342
X-119.423 Y-15.954
X-119.409 Y-15.927
X-119.403 Y-15.896
X-119.408 Y-15.865
X-119.421 Y-15.837
X-119.43 Y-15.825
X-119.481 Y-15.741
X-119.519 Y-15.676
X-119.583 Y-15.638
X-119.728 Y-15.597
X-119.738 Y-15.599
X-119.846 Y-15.646
X-119.928 Y-15.73
X-119.971 Y-15.84
X-119.968 Y-15.958
X-119.933 Y-16.115
X-119.918 Y-16.148
X-119.892 Y-16.173
X-119.858 Y-16.187
X-119.822 Y-16.189
X-119.788 Y-16.177
X-119.76 Y-16.154
X-119.497 Y-15.842
X-119.479 Y-15.811
X-119.474 Y-15.776
X-119.481 Y-15.741
X-119.506 Y-15.683
X-119.515 Y-15.656
X-119.527 Y-15.61
X-119.539 Y-15.574
X-119.588 Y-15.518
X-119.654 Y-15.482
X-119.801 Y-15.453
X-119.926 Y-15.528
X-119.999 Y-15.654
X-120.004 Y-15.799
X-119.968 Y-15.958
X-119.953 Y-15.991
X-119.926 Y-16.016
X-119.893 Y-16.03
X-119.856 Y-16.031
X-119.822 Y-16.02
X-119.794 Y-15.996
X-119.547 Y-15.696
X-119.532 Y-15.67
X-119.525 Y-15.64
X-119.527 Y-15.61
X-119.537 Y-15.572
X-119.557 Y-15.487
X-119.567 Y-15.451
X-119.613 Y-15.392
X-119.673 Y-15.347
X-119.816 Y-15.302
X-119.92 Y-15.347
X-119.999 Y-15.429
X-120.04 Y-15.535
X-120.037 Y-15.648
X-120.004 Y-15.799
X-119.989 Y-15.831
X-119.964 Y-15.856
X-119.932 Y-15.871
X-119.896 Y-15.874
X-119.862 Y-15.864
X-119.834 Y-15.843
X-119.582 Y-15.575
X-119.565 Y-15.549
X-119.556 Y-15.519
X-119.557 Y-15.487
X-119.584 Y-15.37
X-119.605 Y-15.298
X-119.65 Y-15.238
X-119.711 Y-15.195
X-119.856 Y-15.155
X-119.957 Y-15.202
X-120.034 Y-15.285
X-120.073 Y-15.39
X-120.07 Y-15.502
X-120.037 Y-15.648
X-120.023 Y-15.679
X-120 Y-15.704
X-119.969 Y-15.719
X-119.936 Y-15.723
X-119.902 Y-15.715
X-119.874 Y-15.697
X-119.615 Y-15.464
X-119.594 Y-15.437
X-119.583 Y-15.404
X-119.584 Y-15.37
X-119.626 Y-15.188
X-119.637 Y-15.151
X-119.682 Y-15.092
X-119.743 Y-15.048
X-119.887 Y-15.007
X-119.989 Y-15.055
X-120.066 Y-15.138
X-120.106 Y-15.243
X-120.103 Y-15.356
X-120.07 Y-15.502
X-120.055 Y-15.534
X-120.03 Y-15.559
X-119.998 Y-15.574
X-119.962 Y-15.576
X-119.928 Y-15.566
X-119.9 Y-15.545
X-119.651 Y-15.274
X-119.634 Y-15.248
X-119.625 Y-15.219
X-119.626 Y-15.188
X-119.655 Y-15.065
X-119.675 Y-14.993
X-119.723 Y-14.935
X-119.787 Y-14.895
X-119.933 Y-14.861
X-120.058 Y-14.934
X-120.132 Y-15.058
X-120.137 Y-15.203
X-120.103 Y-15.356
X-120.089 Y-15.387
X-120.064 Y-15.412
X-120.033 Y-15.427
X-119.999 Y-15.43
X-119.965 Y-15.422
X-119.936 Y-15.402
X-119.683 Y-15.156
X-119.664 Y-15.129
X-119.654 Y-15.098
X-119.655 Y-15.065
X-119.694 Y-14.896
X-119.714 Y-14.824
X-119.768 Y-14.772
X-119.835 Y-14.737
X-119.974 Y-14.75
X-120.091 Y-14.827
X-120.16 Y-14.949
X-120.163 Y-15.089
X-120.137 Y-15.203
X-120.122 Y-15.235
X-120.097 Y-15.26
X-120.065 Y-15.275
X-120.03 Y-15.278
X-119.996 Y-15.268
X-119.968 Y-15.247
X-119.719 Y-14.984
X-119.702 Y-14.958
X-119.693 Y-14.928
X-119.694 Y-14.896
X-119.724 Y-14.765
X-119.734 Y-14.729
X-119.776 Y-14.667
X-119.841 Y-14.628
X-119.986 Y-14.593
X-120.086 Y-14.64
X-120.161 Y-14.722
X-120.2 Y-14.825
X-120.197 Y-14.936
X-120.163 Y-15.089
X-120.147 Y-15.122
X-120.122 Y-15.147
X-120.089 Y-15.162
X-120.053 Y-15.163
X-120.019 Y-15.152
X-119.99 Y-15.13
X-119.747 Y-14.85
X-119.731 Y-14.824
X-119.723 Y-14.795
X-119.724 Y-14.765
X-119.752 Y-14.643
X-119.773 Y-14.571
X-119.823 Y-14.515
X-119.888 Y-14.477
X-120.035 Y-14.446
X-120.156 Y-14.518
X-120.227 Y-14.64
X-120.232 Y-14.782
X-120.197 Y-14.936
X-120.182 Y-14.968
X-120.158 Y-14.992
X-120.127 Y-15.007
X-120.092 Y-15.01
X-120.058 Y-15.001
X-120.03 Y-14.981
X-119.78 Y-14.733
X-119.761 Y-14.706
X-119.751 Y-14.675
X-119.752 Y-14.643
X-119.792 Y-14.474
X-119.802 Y-14.438
X-119.849 Y-14.379
X-119.91 Y-14.336
X-120.055 Y-14.296
X-120.154 Y-14.341
X-120.229 Y-14.421
X-120.268 Y-14.523
X-120.265 Y-14.632
X-120.232 Y-14.782
X-120.217 Y-14.814
X-120.192 Y-14.839
X-120.159 Y-14.853
X-120.124 Y-14.856
X-120.09 Y-14.846
X-120.062 Y-14.825
X-119.816 Y-14.561
X-119.799 Y-14.535
X-119.79 Y-14.505
X-119.792 Y-14.474
X-119.822 Y-14.343
X-119.842 Y-14.271
X-119.893 Y-14.216
X-119.958 Y-14.178
X-120.105 Y-14.147
X-120.225 Y-14.219
X-120.295 Y-14.34
X-120.299 Y-14.479
X-120.265 Y-14.632
X-120.251 Y-14.663
X-120.226 Y-14.688
X-120.195 Y-14.703
X-120.16 Y-14.706
X-120.127 Y-14.698
X-120.098 Y-14.678
X-119.85 Y-14.433
X-119.831 Y-14.407
X-119.821 Y-14.376
X-119.822 Y-14.343
X-119.861 Y-14.174
X-119.871 Y-14.138
X-119.919 Y-14.08
X-119.98 Y-14.037
X-120.125 Y-13.997
X-120.223 Y-14.042
X-120.297 Y-14.121
X-120.335 Y-14.222
X-120.333 Y-14.33
X-120.299 Y-14.479
X-120.284 Y-14.511
X-120.259 Y-14.536
X-120.227 Y-14.551
X-120.192 Y-14.553
X-120.158 Y-14.543
X-120.129 Y-14.522
X-119.886 Y-14.261
X-119.868 Y-14.235
X-119.86 Y-14.205
X-119.861 Y-14.174
X-119.889 Y-14.051
X-119.91 Y-13.979
X-119.959 Y-13.923
X-120.022 Y-13.883
X-120.168 Y-13.849
X-120.29 Y-13.92
X-120.362 Y-14.04
X-120.366 Y-14.181
X-120.333 Y-14.33
X-120.318 Y-14.361
X-120.294 Y-14.386
X-120.263 Y-14.401
X-120.229 Y-14.405
X-120.196 Y-14.397
X-120.167 Y-14.378
X-119.919 Y-14.143
X-119.899 Y-14.117
X-119.888 Y-14.085
X-119.889 Y-14.051
X-119.928 Y-13.883
X-119.938 Y-13.846
X-119.984 Y-13.787
X-120.044 Y-13.742
X-120.188 Y-13.7
X-120.288 Y-13.744
X-120.363 Y-13.823
X-120.402 Y-13.925
X-120.399 Y-14.034
X-120.366 Y-14.181
X-120.351 Y-14.213
X-120.326 Y-14.238
X-120.294 Y-14.252
X-120.259 Y-14.255
X-120.226 Y-14.245
X-120.197 Y-14.225
X-119.954 Y-13.971
X-119.936 Y-13.945
X-119.927 Y-13.914
X-119.928 Y-13.883
X-119.958 Y-13.752
X-119.979 Y-13.679
X-120.029 Y-13.623
X-120.093 Y-13.585
X-120.24 Y-13.552
X-120.359 Y-13.623
X-120.429 Y-13.743
X-120.433 Y-13.881
X-120.399 Y-14.034
X-120.385 Y-14.065
X-120.36 Y-14.09
X-120.329 Y-14.105
X-120.295 Y-14.108
X-120.261 Y-14.1
X-120.233 Y-14.08
X-119.987 Y-13.843
X-119.968 Y-13.816
X-119.958 Y-13.785
Y-13.752
X-119.998 Y-13.583
X-120.008 Y-13.547
X-120.054 Y-13.488
X-120.115 Y-13.444
X-120.259 Y-13.403
X-120.385 Y-13.47
X-120.461 Y-13.591
X-120.466 Y-13.734
X-120.433 Y-13.881
X-120.418 Y-13.913
X-120.393 Y-13.938
X-120.361 Y-13.953
X-120.326 Y-13.956
X-120.292 Y-13.946
X-120.264 Y-13.925
X-120.023 Y-13.671
X-120.005 Y-13.644
X-119.996 Y-13.614
X-119.998 Y-13.583
X-120.026 Y-13.46
X-120.046 Y-13.388
X-120.095 Y-13.331
X-120.158 Y-13.29
X-120.297 Y-13.296
X-120.416 Y-13.367
X-120.486 Y-13.487
X-120.49 Y-13.626
X-120.466 Y-13.734
X-120.452 Y-13.765
X-120.428 Y-13.789
X-120.397 Y-13.804
X-120.363 Y-13.808
X-120.33 Y-13.8
X-120.301 Y-13.781
X-120.056 Y-13.552
X-120.035 Y-13.526
X-120.025 Y-13.494
X-120.026 Y-13.46
X-120.065 Y-13.291
X-120.075 Y-13.255
X-120.13 Y-13.203
X-120.197 Y-13.17
X-120.332 Y-13.184
X-120.446 Y-13.259
X-120.512 Y-13.379
X-120.515 Y-13.515
X-120.49 Y-13.626
X-120.475 Y-13.659
X-120.448 Y-13.685
X-120.414 Y-13.699
X-120.377 Y-13.7
X-120.343 Y-13.687
X-120.315 Y-13.663
X-120.085 Y-13.373
X-120.07 Y-13.348
X-120.064 Y-13.32
X-120.065 Y-13.291
X-120.092 Y-13.175
X-120.102 Y-13.139
X-120.156 Y-13.087
X-120.224 Y-13.054
X-120.359 Y-13.069
X-120.473 Y-13.145
X-120.538 Y-13.264
X-120.541 Y-13.401
X-120.515 Y-13.515
X-120.499 Y-13.549
X-120.472 Y-13.574
X-120.438 Y-13.588
X-120.401 Y-13.589
X-120.367 Y-13.576
X-120.339 Y-13.551
X-120.111 Y-13.255
X-120.097 Y-13.23
X-120.09 Y-13.203
X-120.092 Y-13.175
X-120.115 Y-13.076
X-120.125 Y-13.04
X-120.171 Y-12.98
X-120.236 Y-12.944
X-120.375 Y-12.952
X-120.494 Y-13.025
X-120.563 Y-13.145
X-120.567 Y-13.284
X-120.541 Y-13.401
X-120.525 Y-13.434
X-120.499 Y-13.459
X-120.466 Y-13.473
X-120.429 Y-13.474
X-120.395 Y-13.462
X-120.367 Y-13.439
X-120.136 Y-13.159
X-120.121 Y-13.134
X-120.113 Y-13.105
X-120.115 Y-13.076
X-120.143 Y-12.953
X-120.153 Y-12.917
X-120.205 Y-12.863
X-120.271 Y-12.828
X-120.408 Y-12.841
X-120.522 Y-12.915
X-120.589 Y-13.035
X-120.592 Y-13.171
X-120.567 Y-13.284
X-120.551 Y-13.318
X-120.525 Y-13.343
X-120.491 Y-13.357
X-120.454 Y-13.358
X-120.42 Y-13.346
X-120.392 Y-13.322
X-120.163 Y-13.035
X-120.149 Y-13.01
X-120.142 Y-12.982
X-120.143 Y-12.953
X-120.173 Y-12.822
X-120.184 Y-12.786
X-120.241 Y-12.738
X-120.31 Y-12.708
X-120.443 Y-12.727
X-120.553 Y-12.804
X-120.616 Y-12.922
X-120.618 Y-13.056
X-120.592 Y-13.171
X-120.576 Y-13.205
X-120.549 Y-13.231
X-120.514 Y-13.244
X-120.477
X-120.442 Y-13.231
X-120.415 Y-13.205
X-120.191 Y-12.901
X-120.178 Y-12.877
X-120.172 Y-12.85
X-120.173 Y-12.822
X-120.193 Y-12.737
X-120.203 Y-12.701
X-120.245 Y-12.638
X-120.31 Y-12.601
X-120.449 Y-12.606
X-120.569 Y-12.677
X-120.64 Y-12.797
X-120.645 Y-12.937
X-120.618 Y-13.056
X-120.602 Y-13.089
X-120.576 Y-13.115
X-120.543 Y-13.129
X-120.507 Y-13.13
X-120.472 Y-13.118
X-120.444 Y-13.095
X-120.215 Y-12.82
X-120.199 Y-12.795
X-120.192 Y-12.767
X-120.193 Y-12.737
X-120.221 Y-12.616
X-120.231 Y-12.579
X-120.281 Y-12.523
X-120.346 Y-12.486
X-120.483 Y-12.496
X-120.599 Y-12.569
X-120.666 Y-12.688
X-120.67 Y-12.825
X-120.645 Y-12.937
X-120.629 Y-12.969
X-120.603 Y-12.995
X-120.57 Y-13.009
X-120.533 Y-13.01
X-120.499 Y-12.998
X-120.471 Y-12.975
X-120.242 Y-12.698
X-120.227 Y-12.673
X-120.22 Y-12.645
X-120.221 Y-12.616
X-120.251 Y-12.485
X-120.262 Y-12.449
X-120.318 Y-12.399
X-120.386 Y-12.367
X-120.519 Y-12.384
X-120.629 Y-12.46
X-120.693 Y-12.578
X-120.695 Y-12.712
X-120.67 Y-12.825
X-120.654 Y-12.859
X-120.627 Y-12.884
X-120.592 Y-12.898
X-120.555 Y-12.899
X-120.52 Y-12.885
X-120.493 Y-12.86
X-120.27 Y-12.564
X-120.256 Y-12.54
X-120.25 Y-12.512
X-120.251 Y-12.485
X-120.274 Y-12.387
X-120.284 Y-12.351
X-120.331 Y-12.292
X-120.397 Y-12.257
X-120.534 Y-12.266
X-120.65 Y-12.339
X-120.718 Y-12.459
X-120.721 Y-12.596
X-120.695 Y-12.712
X-120.679 Y-12.745
X-120.653 Y-12.77
X-120.619 Y-12.784
X-120.583 Y-12.785
X-120.548 Y-12.773
X-120.52 Y-12.749
X-120.294 Y-12.468
X-120.28 Y-12.444
X-120.273 Y-12.415
X-120.274 Y-12.387
X-120.299 Y-12.278
X-120.31 Y-12.242
X-120.356 Y-12.183
X-120.421 Y-12.145
X-120.558 Y-12.154
X-120.674 Y-12.227
X-120.743 Y-12.346
X-120.746 Y-12.483
X-120.721 Y-12.596
X-120.706 Y-12.628
X-120.679 Y-12.654
X-120.646 Y-12.668
X-120.61 Y-12.669
X-120.575 Y-12.657
X-120.547 Y-12.634
X-120.321 Y-12.361
X-120.305 Y-12.336
X-120.298 Y-12.307
X-120.299 Y-12.278
X-120.33 Y-12.147
X-120.34 Y-12.111
X-120.395 Y-12.06
X-120.462 Y-12.027
X-120.595 Y-12.043
X-120.706 Y-12.118
X-120.769 Y-12.236
X-120.772 Y-12.369
X-120.746 Y-12.483
X-120.73 Y-12.516
X-120.704 Y-12.542
X-120.669 Y-12.556
X-120.632
X-120.597 Y-12.543
X-120.57 Y-12.518
X-120.348 Y-12.226
X-120.334 Y-12.202
X-120.328 Y-12.175
X-120.33 Y-12.147
X-120.352 Y-12.051
X-120.362 Y-12.015
X-120.407 Y-11.954
X-120.472 Y-11.918
X-120.609 Y-11.926
X-120.726 Y-11.998
X-120.794 Y-12.117
X-120.798 Y-12.254
X-120.772 Y-12.369
X-120.756 Y-12.402
X-120.73 Y-12.428
X-120.696 Y-12.442
X-120.66 Y-12.443
X-120.626 Y-12.431
X-120.598 Y-12.408
X-120.373 Y-12.133
X-120.358 Y-12.108
X-120.35 Y-12.08
X-120.352 Y-12.051
X-120.377 Y-11.94
X-120.388 Y-11.904
X-120.434 Y-11.845
X-120.498 Y-11.807
X-120.635 Y-11.815
X-120.751 Y-11.887
X-120.819 Y-12.005
X-120.823 Y-12.142
X-120.798 Y-12.254
X-120.782 Y-12.287
X-120.756 Y-12.312
X-120.723 Y-12.326
X-120.686 Y-12.327
X-120.652 Y-12.316
X-120.624 Y-12.293
X-120.399 Y-12.023
X-120.383 Y-11.998
X-120.376 Y-11.969
X-120.377 Y-11.94
X-120.408 Y-11.809
X-120.418 Y-11.773
X-120.472 Y-11.721
X-120.54 Y-11.689
X-120.672 Y-11.705
X-120.782 Y-11.779
X-120.845 Y-11.896
X-120.848 Y-12.029
X-120.823 Y-12.142
X-120.807 Y-12.176
X-120.78 Y-12.201
X-120.746 Y-12.215
X-120.708
X-120.674 Y-12.202
X-120.646 Y-12.177
X-120.426 Y-11.889
X-120.413 Y-11.864
X-120.406 Y-11.837
X-120.408 Y-11.809
X-120.436 Y-11.686
X-120.446 Y-11.65
X-120.503 Y-11.601
X-120.572 Y-11.571
X-120.702 Y-11.59
X-120.81 Y-11.666
X-120.872 Y-11.782
X-120.874 Y-11.914
X-120.848 Y-12.029
X-120.832 Y-12.063
X-120.805 Y-12.088
X-120.77 Y-12.102
X-120.732
X-120.698 Y-12.088
X-120.67 Y-12.063
X-120.453 Y-11.764
X-120.44 Y-11.74
X-120.435 Y-11.714
X-120.436 Y-11.686
X-120.456 Y-11.602
X-120.466 Y-11.566
X-120.506 Y-11.503
X-120.571 Y-11.465
X-120.708 Y-11.47
X-120.826 Y-11.54
X-120.896 Y-11.658
X-120.9 Y-11.795
X-120.874 Y-11.914
X-120.858 Y-11.947
X-120.832 Y-11.972
X-120.799 Y-11.986
X-120.763 Y-11.987
X-120.728 Y-11.976
X-120.7 Y-11.953
X-120.477 Y-11.685
X-120.462 Y-11.66
X-120.454 Y-11.631
X-120.456 Y-11.602
X-120.486 Y-11.471
X-120.496 Y-11.435
X-120.549 Y-11.382
X-120.616 Y-11.348
X-120.748 Y-11.361
X-120.858 Y-11.435
X-120.922 Y-11.551
X-120.925 Y-11.684
X-120.9 Y-11.795
X-120.885 Y-11.829
X-120.858 Y-11.854
X-120.824 Y-11.868
X-120.787 Y-11.869
X-120.752 Y-11.856
X-120.725 Y-11.832
X-120.505 Y-11.552
X-120.491 Y-11.527
X-120.484 Y-11.499
X-120.486 Y-11.471
X-120.514 Y-11.349
X-120.524 Y-11.312
X-120.58 Y-11.262
X-120.648 Y-11.231
X-120.779 Y-11.248
X-120.887 Y-11.323
X-120.948 Y-11.439
X-120.951 Y-11.57
X-120.925 Y-11.684
X-120.909 Y-11.717
X-120.882 Y-11.743
X-120.848 Y-11.757
X-120.81
X-120.776 Y-11.743
X-120.748 Y-11.718
X-120.532 Y-11.427
X-120.519 Y-11.403
X-120.513 Y-11.376
X-120.514 Y-11.349
X-120.534 Y-11.264
X-120.544 Y-11.228
X-120.583 Y-11.164
X-120.647 Y-11.125
X-120.793 Y-11.092
X-120.911 Y-11.161
X-120.981 Y-11.279
X-120.985 Y-11.416
X-120.951 Y-11.57
X-120.935 Y-11.603
X-120.909 Y-11.628
X-120.876 Y-11.642
X-120.84 Y-11.644
X-120.806 Y-11.632
X-120.778 Y-11.61
X-120.556 Y-11.348
X-120.54 Y-11.323
X-120.532 Y-11.294
X-120.534 Y-11.264
X-120.564 Y-11.133
X-120.584 Y-11.061
X-120.637 Y-11.007
X-120.703 Y-10.972
X-120.834 Y-10.985
X-120.944 Y-11.057
X-121.007 Y-11.172
X-121.01 Y-11.304
X-120.985 Y-11.416
X-120.971 Y-11.448
X-120.946 Y-11.472
X-120.914 Y-11.487
X-120.878 Y-11.49
X-120.845 Y-11.48
X-120.816 Y-11.459
X-120.59 Y-11.221
X-120.572 Y-11.195
X-120.563 Y-11.165
X-120.564 Y-11.133
X-120.6 Y-10.979
X-120.61 Y-10.943
X-120.663 Y-10.89
X-120.731 Y-10.857
X-120.861 Y-10.872
X-120.97 Y-10.945
X-121.033 Y-11.061
X-121.035 Y-11.192
X-121.01 Y-11.304
X-120.995 Y-11.337
X-120.968 Y-11.363
X-120.933 Y-11.376
X-120.897 Y-11.377
X-120.862 Y-11.364
X-120.834 Y-11.339
X-120.619 Y-11.059
X-120.605 Y-11.035
X-120.598 Y-11.007
X-120.6 Y-10.979
X-120.623 Y-10.88
X-120.633 Y-10.844
X-120.678 Y-10.784
X-120.744 Y-10.748
X-120.877 Y-10.757
X-120.991 Y-10.828
X-121.057 Y-10.945
X-121.061 Y-11.079
X-121.035 Y-11.192
X-121.02 Y-11.225
X-120.994 Y-11.25
X-120.96 Y-11.264
X-120.923 Y-11.266
X-120.889 Y-11.253
X-120.861 Y-11.23
X-120.643 Y-10.962
X-120.628 Y-10.937
X-120.621 Y-10.909
X-120.623 Y-10.88
X-120.651 Y-10.757
X-120.661 Y-10.721
X-120.713 Y-10.667
X-120.78 Y-10.633
X-120.911 Y-10.647
X-121.02 Y-10.72
X-121.083 Y-10.835
X-121.086 Y-10.967
X-121.061 Y-11.079
X-121.045 Y-11.112
X-121.018 Y-11.138
X-120.984 Y-11.152
X-120.947
X-120.912 Y-11.139
X-120.885 Y-11.115
X-120.67 Y-10.838
X-120.656 Y-10.813
X-120.649 Y-10.786
X-120.651 Y-10.757
X-120.681 Y-10.626
X-120.691 Y-10.59
X-120.749 Y-10.543
X-120.819 Y-10.514
X-120.946 Y-10.534
X-121.05 Y-10.609
X-121.11 Y-10.723
X-121.111 Y-10.852
X-121.086 Y-10.967
X-121.07 Y-11.001
X-121.042 Y-11.026
X-121.007 Y-11.04
X-120.969 Y-11.039
X-120.935 Y-11.025
X-120.907 Y-10.999
X-120.698 Y-10.703
X-120.685 Y-10.679
X-120.68 Y-10.653
X-120.681 Y-10.626
X-120.701 Y-10.541
X-120.711 Y-10.505
X-120.754 Y-10.444
X-120.819 Y-10.407
X-120.953 Y-10.415
X-121.067 Y-10.485
X-121.134 Y-10.601
X-121.138 Y-10.735
X-121.111 Y-10.852
X-121.096 Y-10.885
X-121.07 Y-10.91
X-121.036 Y-10.925
X-120.999 Y-10.926
X-120.965 Y-10.913
X-120.937 Y-10.89
X-120.721 Y-10.623
X-120.706 Y-10.599
X-120.699 Y-10.57
X-120.701 Y-10.541
X-120.729 Y-10.419
X-120.739 Y-10.383
X-120.79 Y-10.328
X-120.857 Y-10.293
X-120.987 Y-10.306
X-121.096 Y-10.378
X-121.16 Y-10.493
X-121.163 Y-10.624
X-121.138 Y-10.735
X-121.122 Y-10.768
X-121.095 Y-10.793
X-121.061 Y-10.807
X-121.025 Y-10.808
X-120.99 Y-10.796
X-120.962 Y-10.771
X-120.749 Y-10.5
X-120.734 Y-10.476
X-120.728 Y-10.448
X-120.729 Y-10.419
X-120.759 Y-10.289
X-120.77 Y-10.252
X-120.827 Y-10.204
X-120.896 Y-10.175
X-121.023 Y-10.194
X-121.127 Y-10.268
X-121.186 Y-10.382
X-121.188 Y-10.51
X-121.163 Y-10.624
X-121.146 Y-10.658
X-121.119 Y-10.683
X-121.084 Y-10.697
X-121.047
X-121.012 Y-10.683
X-120.985 Y-10.657
X-120.776 Y-10.366
X-120.764 Y-10.342
X-120.758 Y-10.316
X-120.759 Y-10.289
X-120.782 Y-10.191
X-120.792 Y-10.155
X-120.841 Y-10.098
X-120.908 Y-10.064
X-121.038 Y-10.077
X-121.148 Y-10.149
X-121.211 Y-10.264
X-121.214 Y-10.395
X-121.188 Y-10.51
X-121.172 Y-10.543
X-121.145 Y-10.569
X-121.111 Y-10.583
X-121.074
X-121.04 Y-10.57
X-121.012 Y-10.546
X-120.801 Y-10.271
X-120.787 Y-10.246
X-120.78 Y-10.219
X-120.782 Y-10.191
X-120.807 Y-10.082
X-120.817 Y-10.045
X-120.866 Y-9.988
X-120.932 Y-9.953
X-121.063 Y-9.966
X-121.172 Y-10.037
X-121.236 Y-10.152
X-121.239 Y-10.283
X-121.214 Y-10.395
X-121.198 Y-10.428
X-121.171 Y-10.454
X-121.137 Y-10.468
X-121.101 Y-10.469
X-121.066 Y-10.456
X-121.038 Y-10.432
X-120.827 Y-10.162
X-120.812 Y-10.138
X-120.806 Y-10.11
X-120.807 Y-10.082
X-120.837 Y-9.951
X-120.848 Y-9.915
X-120.904 Y-9.866
X-120.973 Y-9.836
X-121.099 Y-9.855
X-121.203 Y-9.928
X-121.263 Y-10.041
X-121.264 Y-10.169
X-121.239 Y-10.283
X-121.223 Y-10.317
X-121.195 Y-10.342
X-121.16 Y-10.356
X-121.123
X-121.088 Y-10.342
X-121.061 Y-10.316
X-120.854 Y-10.028
X-120.842 Y-10.004
X-120.836 Y-9.978
X-120.837 Y-9.951
X-120.859 Y-9.855
X-120.87 Y-9.819
X-120.916 Y-9.761
X-120.983 Y-9.726
X-121.113 Y-9.738
X-121.223 Y-9.809
X-121.287 Y-9.924
X-121.29 Y-10.055
X-121.264 Y-10.169
X-121.249 Y-10.202
X-121.222 Y-10.228
X-121.188 Y-10.242
X-121.151
X-121.117 Y-10.23
X-121.089 Y-10.205
X-120.879 Y-9.936
X-120.865 Y-9.911
X-120.858 Y-9.884
X-120.859 Y-9.855
X-120.885 Y-9.744
X-120.896 Y-9.708
X-120.944 Y-9.651
X-121.01 Y-9.615
X-121.14 Y-9.628
X-121.249 Y-9.699
X-121.312 Y-9.813
X-121.315 Y-9.943
X-121.29 Y-10.055
X-121.274 Y-10.088
X-121.248 Y-10.113
X-121.214 Y-10.127
X-121.177 Y-10.128
X-121.142 Y-10.115
X-121.115 Y-10.091
X-120.905 Y-9.825
X-120.891 Y-9.8
X-120.884 Y-9.772
X-120.885 Y-9.744
X-120.916 Y-9.613
X-120.926 Y-9.577
X-120.983 Y-9.528
X-121.051 Y-9.498
X-121.177 Y-9.517
X-121.28 Y-9.59
X-121.339 Y-9.703
X-121.341 Y-9.829
X-121.315 Y-9.943
X-121.299 Y-9.977
X-121.271 Y-10.003
X-121.236 Y-10.016
X-121.199
X-121.164 Y-10.002
X-121.137 Y-9.976
X-120.932 Y-9.69
X-120.92 Y-9.666
X-120.914 Y-9.64
X-120.916 Y-9.613
X-120.935 Y-9.528
X-120.945 Y-9.492
X-120.986 Y-9.429
X-121.051 Y-9.392
X-121.183 Y-9.399
X-121.296 Y-9.468
X-121.363 Y-9.582
X-121.366 Y-9.714
X-121.341 Y-9.829
X-121.325 Y-9.862
X-121.299 Y-9.887
X-121.265 Y-9.902
X-121.229 Y-9.903
X-121.194 Y-9.891
X-121.166 Y-9.867
X-120.956 Y-9.611
X-120.941 Y-9.586
X-120.934 Y-9.557
X-120.935 Y-9.528
X-120.963 Y-9.406
X-120.974 Y-9.37
X-121.024 Y-9.314
X-121.09 Y-9.279
X-121.218 Y-9.291
X-121.326 Y-9.362
X-121.388 Y-9.475
X-121.391 Y-9.604
X-121.366 Y-9.714
X-121.351 Y-9.747
X-121.324 Y-9.773
X-121.29 Y-9.787
X-121.253 Y-9.788
X-121.219 Y-9.775
X-121.191 Y-9.751
X-120.983 Y-9.487
X-120.969 Y-9.462
X-120.962 Y-9.434
X-120.963 Y-9.406
X-120.994 Y-9.275
X-121.004 Y-9.239
X-121.061 Y-9.19
X-121.13 Y-9.161
X-121.254 Y-9.18
X-121.356 Y-9.253
X-121.415 Y-9.365
X-121.416 Y-9.49
X-121.391 Y-9.604
X-121.375 Y-9.638
X-121.347 Y-9.663
X-121.312 Y-9.677
X-121.275
X-121.24 Y-9.663
X-121.213 Y-9.637
X-121.01 Y-9.352
X-120.998 Y-9.328
X-120.992 Y-9.302
X-120.994 Y-9.275
X-121.013 Y-9.19
X-121.023 Y-9.154
X-121.065 Y-9.092
X-121.13 Y-9.055
X-121.261 Y-9.062
X-121.373 Y-9.131
X-121.438 Y-9.245
X-121.442 Y-9.376
X-121.416 Y-9.49
X-121.401 Y-9.524
X-121.375 Y-9.549
X-121.341 Y-9.563
X-121.304 Y-9.564
X-121.27 Y-9.552
X-121.242 Y-9.528
X-121.034 Y-9.273
X-121.019 Y-9.248
X-121.012 Y-9.22
X-121.013 Y-9.19
X-121.042 Y-9.068
X-121.052 Y-9.032
X-121.102 Y-8.977
X-121.169 Y-8.942
X-121.296 Y-8.955
X-121.403 Y-9.026
X-121.464 Y-9.138
X-121.467 Y-9.266
X-121.442 Y-9.376
X-121.426 Y-9.409
X-121.4 Y-9.435
X-121.366 Y-9.449
X-121.329
X-121.294 Y-9.437
X-121.266 Y-9.412
X-121.061 Y-9.149
X-121.047 Y-9.124
X-121.04 Y-9.096
X-121.042 Y-9.068
X-121.072 Y-8.937
X-121.082 Y-8.901
X-121.14 Y-8.853
X-121.209 Y-8.824
X-121.332 Y-8.844
X-121.433 Y-8.917
X-121.491 Y-9.027
X-121.492 Y-9.152
X-121.467 Y-9.266
X-121.451 Y-9.3
X-121.423 Y-9.325
X-121.388 Y-9.339
X-121.35 Y-9.338
X-121.315 Y-9.324
X-121.288 Y-9.298
X-121.088 Y-9.014
X-121.076 Y-8.99
X-121.07 Y-8.964
X-121.072 Y-8.937
X-121.091 Y-8.853
X-121.102 Y-8.817
X-121.143 Y-8.754
X-121.209 Y-8.718
X-121.339 Y-8.726
X-121.449 Y-8.795
X-121.514 Y-8.908
X-121.518 Y-9.038
X-121.492 Y-9.152
X-121.477 Y-9.185
X-121.45 Y-9.21
X-121.416 Y-9.225
X-121.38 Y-9.226
X-121.345 Y-9.213
X-121.318 Y-9.19
X-121.112 Y-8.935
X-121.097 Y-8.91
X-121.09 Y-8.882
X-121.091 Y-8.853
X-121.12 Y-8.73
X-121.13 Y-8.694
X-121.181 Y-8.639
X-121.248 Y-8.605
X-121.374 Y-8.619
X-121.479 Y-8.689
X-121.54 Y-8.8
X-121.543 Y-8.927
X-121.518 Y-9.038
X-121.502 Y-9.071
X-121.475 Y-9.097
X-121.441 Y-9.11
X-121.404 Y-9.111
X-121.369 Y-9.098
X-121.342 Y-9.074
X-121.139 Y-8.81
X-121.125 Y-8.786
X-121.118 Y-8.758
X-121.12 Y-8.73
X-121.15 Y-8.599
X-121.16 Y-8.563
X-121.218 Y-8.515
X-121.287 Y-8.487
X-121.41 Y-8.507
X-121.51 Y-8.58
X-121.566 Y-8.69
X-121.568 Y-8.814
X-121.543 Y-8.927
X-121.526 Y-8.961
X-121.499 Y-8.987
X-121.463 Y-9
X-121.426
X-121.391 Y-8.985
X-121.364 Y-8.959
X-121.166 Y-8.675
X-121.15 Y-8.639
Y-8.599
X-121.169 Y-8.515
X-121.18 Y-8.479
X-121.222 Y-8.417
X-121.288 Y-8.381
X-121.417 Y-8.389
X-121.526 Y-8.458
X-121.59 Y-8.57
X-121.593 Y-8.7
X-121.568 Y-8.814
X-121.552 Y-8.847
X-121.526 Y-8.872
X-121.492 Y-8.886
X-121.455 Y-8.887
X-121.421 Y-8.875
X-121.393 Y-8.851
X-121.19 Y-8.596
X-121.175 Y-8.571
X-121.168 Y-8.543
X-121.169 Y-8.515
X-121.198 Y-8.392
X-121.208 Y-8.356
X-121.26 Y-8.302
X-121.326 Y-8.268
X-121.454 Y-8.283
X-121.56 Y-8.356
X-121.619 Y-8.47
X-121.618 Y-8.599
X-121.606 Y-8.646
X-121.593 Y-8.7
X-121.578 Y-8.733
X-121.551 Y-8.758
X-121.516 Y-8.772
X-121.479 Y-8.773
X-121.445 Y-8.76
X-121.417 Y-8.735
X-121.216 Y-8.472
X-121.203 Y-8.448
X-121.196 Y-8.42
X-121.198 Y-8.392
X-121.228 Y-8.261
X-121.238 Y-8.225
X-121.297 Y-8.178
X-121.366 Y-8.15
X-121.505 Y-8.178
X-121.613 Y-8.27
X-121.661 Y-8.403
X-121.637 Y-8.543
X-121.615 Y-8.573
X-121.582 Y-8.592
X-121.545 Y-8.598
X-121.509 Y-8.591
X-121.477 Y-8.57
X-121.256 Y-8.352
X-121.237 Y-8.325
X-121.227 Y-8.294
X-121.228 Y-8.261
X-121.248 Y-8.177
X-121.258 Y-8.141
X-121.301 Y-8.079
X-121.367 Y-8.044
X-121.514 Y-8.015
X-121.518 Y-8.016
X-121.634 Y-8.087
X-121.706 Y-8.201
X-121.722 Y-8.336
X-121.676 Y-8.463
X-121.653 Y-8.487
X-121.623 Y-8.502
X-121.59 Y-8.506
X-121.558 Y-8.499
X-121.529 Y-8.482
X-121.281 Y-8.272
X-121.259 Y-8.245
X-121.247 Y-8.212
X-121.248 Y-8.177
X-121.276 Y-8.054
X-121.296 Y-7.982
X-121.349 Y-7.929
X-121.415 Y-7.894
X-121.564 Y-7.87
X-121.706 Y-7.918
X-121.721 Y-7.932
X-121.798 Y-8.028
X-121.829 Y-8.148
X-121.81 Y-8.269
X-121.743 Y-8.373
X-121.714 Y-8.392
X-121.68 Y-8.4
X-121.645 Y-8.396
X-121.614 Y-8.38
X-121.314 Y-8.153
X-121.289 Y-8.126
X-121.276 Y-8.091
Y-8.054
X-121.306 Y-7.923
X-121.327 Y-7.851
X-121.377 Y-7.796
X-121.503 Y-7.714
X-121.652 Y-7.702
X-121.793 Y-7.753
X-121.911 Y-7.847
X-121.928 Y-7.874
X-121.972 Y-7.981
X-121.971 Y-8.097
X-121.926 Y-8.204
X-121.845 Y-8.286
X-121.809 Y-8.3
X-121.771 Y-8.299
X-121.736 Y-8.285
X-121.349 Y-8.026
X-121.321 Y-7.998
X-121.306 Y-7.962
Y-7.923
X-121.345 Y-7.755
X-121.354 Y-7.717
X-121.361 Y-7.686
X-121.37 Y-7.655
X-121.402 Y-7.628
X-121.46 Y-7.589
X-121.527 Y-7.564
X-121.596 Y-7.556
G3 X-121.689 Y-7.916 I0.007 J-0.194
X-121.361 Y-7.686 I0.113 J0.188
G1 X-121.367 Y-7.66
X-121.375 Y-7.632
X-121.381 Y-7.62
X-121.388 Y-7.609
X-121.401 Y-7.595
X-121.432 Y-7.571
X-121.452 Y-7.562
X-121.462 Y-7.559
X-121.473 Y-7.557
X-121.494 Y-7.556
X-121.667
X-121.817 Y-7.564
X-121.956 Y-7.621
X-122.067 Y-7.722
X-122.143 Y-7.851
X-122.148 Y-7.873
Y-8.018
X-122.08 Y-8.145
X-121.959 Y-8.226
X-121.875 Y-8.266
X-121.845 Y-8.286
X-121.809 Y-8.3
X-121.771 Y-8.299
X-121.736 Y-8.285
X-121.709 Y-8.258
X-121.694 Y-8.223
X-121.573 Y-7.678
X-121.572 Y-7.643
X-121.582 Y-7.61
X-121.604 Y-7.582
X-121.633 Y-7.563
X-121.667 Y-7.556
X-121.959
X-122.034 Y-7.56
X-122.175 Y-7.611
X-122.282 Y-7.717
X-122.341 Y-7.854
X-122.342 Y-7.887
X-122.327 Y-7.998
X-122.272 Y-8.095
X-122.184 Y-8.165
X-122.077 Y-8.199
X-122.042 Y-8.196
X-122.011 Y-8.18
X-121.986 Y-8.155
X-121.972 Y-8.123
X-121.865 Y-7.679
X-121.863 Y-7.644
X-121.874 Y-7.611
X-121.895 Y-7.582
X-121.925 Y-7.564
X-121.959 Y-7.556
X-122.175
X-122.25 Y-7.56
X-122.39 Y-7.614
X-122.488 Y-7.728
X-122.532 Y-7.871
X-122.53 Y-7.913
X-122.501 Y-8.028
X-122.429 Y-8.122
X-122.326 Y-8.181
X-122.208 Y-8.196
X-122.175 Y-8.187
X-122.148 Y-8.167
X-122.128 Y-8.139
X-122.119 Y-8.106
X-122.079 Y-7.665
X-122.081 Y-7.633
X-122.094 Y-7.603
X-122.115 Y-7.579
X-122.143 Y-7.562
X-122.175 Y-7.556
X-122.382
X-122.457 Y-7.56
X-122.595 Y-7.619
X-122.686 Y-7.738
X-122.722 Y-7.884
X-122.714 Y-7.965
X-122.673 Y-8.09
X-122.582 Y-8.186
X-122.459 Y-8.233
X-122.327 Y-8.223
X-122.298 Y-8.214
X-122.213 Y-8.197
X-122.208 Y-8.196
X-122.173 Y-8.186
X-122.145 Y-8.164
X-122.126 Y-8.133
X-122.119 Y-8.097
X-122.126 Y-8.061
X-122.292 Y-7.621
X-122.313 Y-7.588
X-122.344 Y-7.565
X-122.382 Y-7.556
X-122.598
X-122.673 Y-7.56
X-122.803 Y-7.634
X-122.885 Y-7.76
X-122.915 Y-7.907
X-122.904 Y-8.056
X-122.848 Y-8.195
X-122.828 Y-8.219
X-122.715 Y-8.302
X-122.577 Y-8.324
X-122.444 Y-8.282
X-122.382 Y-8.245
X-122.327 Y-8.223
X-122.298 Y-8.207
X-122.275 Y-8.181
X-122.262 Y-8.149
X-122.261 Y-8.115
X-122.271 Y-8.083
X-122.512 Y-7.611
X-122.534 Y-7.582
X-122.563 Y-7.564
X-122.598 Y-7.556
X-122.767
X-122.842 Y-7.56
X-122.911 Y-7.589
X-123.026 Y-7.686
X-123.093 Y-7.82
X-123.119 Y-7.968
X-123.108 Y-8.118
X-123.054 Y-8.258
X-123.006 Y-8.324
X-122.91 Y-8.409
X-122.789 Y-8.448
X-122.662 Y-8.434
X-122.551 Y-8.37
X-122.483 Y-8.308
X-122.467 Y-8.296
X-122.444 Y-8.282
X-122.418 Y-8.257
X-122.402 Y-8.225
X-122.399 Y-8.188
X-122.409 Y-8.154
X-122.681 Y-7.611
X-122.703 Y-7.583
X-122.732 Y-7.564
X-122.767 Y-7.556
X-122.974
X-123.049 Y-7.56
X-123.18 Y-7.634
X-123.269 Y-7.755
X-123.318 Y-7.896
X-123.333 Y-8.045
X-123.315 Y-8.194
X-123.263 Y-8.335
X-123.181 Y-8.461
X-123.069 Y-8.561
X-123.019 Y-8.586
X-122.876 Y-8.619
X-122.734 Y-8.579
X-122.628 Y-8.476
X-122.602 Y-8.434
X-122.572 Y-8.392
X-122.551 Y-8.37
X-122.536 Y-8.344
X-122.528 Y-8.315
X-122.529 Y-8.285
X-122.539 Y-8.257
X-122.566 Y-8.208
X-122.89 Y-7.609
X-122.911 Y-7.581
X-122.941 Y-7.563
X-122.974 Y-7.556
X-123.144
X-123.219 Y-7.56
X-123.359 Y-7.613
X-123.459 Y-7.725
X-123.522 Y-7.861
X-123.552 Y-8.008
X-123.55 Y-8.158
X-123.521 Y-8.305
X-123.467 Y-8.445
X-123.388 Y-8.573
X-123.285 Y-8.682
X-123.16 Y-8.764
X-123.072 Y-8.798
X-122.951 Y-8.816
X-122.833 Y-8.786
X-122.737 Y-8.71
X-122.679 Y-8.602
X-122.666 Y-8.561
X-122.636 Y-8.492
X-122.628 Y-8.476
X-122.616 Y-8.444
Y-8.41
X-122.627 Y-8.378
X-122.726 Y-8.203
X-123.06 Y-7.607
X-123.081 Y-7.581
X-123.11 Y-7.563
X-123.144 Y-7.556
X-123.359
X-123.397
X-123.444
X-123.481 Y-7.558
X-123.606 Y-7.642
X-123.627 Y-7.67
X-123.659 Y-7.725
X-123.678 Y-7.785
X-123.685 Y-7.847
X-123.678 Y-7.882
X-123.659 Y-7.912
X-123.631 Y-7.933
X-123.597 Y-7.943
X-123.562 Y-7.941
X-123.53 Y-7.927
X-123.504 Y-7.903
X-123.367 Y-7.715
X-123.351 Y-7.683
X-123.348 Y-7.647
X-123.358 Y-7.612
X-123.379 Y-7.583
X-123.409 Y-7.564
X-123.444 Y-7.556
X-123.567
X-123.588 Y-7.557
X-123.598 Y-7.56
X-123.609 Y-7.563
X-123.62 Y-7.568
X-123.63 Y-7.575
X-123.651 Y-7.595
X-123.667 Y-7.613
X-123.678 Y-7.632
X-123.681 Y-7.643
X-123.684 Y-7.653
X-123.685 Y-7.674
Y-8.27
X-123.678 Y-8.42
X-123.639 Y-8.565
X-123.571 Y-8.698
X-123.476 Y-8.815
X-123.362 Y-8.911
X-123.23 Y-8.983
X-123.086 Y-9.026
X-122.936 Y-9.033
X-122.924 Y-9.029
X-122.807 Y-8.971
X-122.726 Y-8.868
X-122.697 Y-8.741
X-122.703 Y-8.708
X-122.72 Y-8.679
X-122.745 Y-8.658
X-123.037 Y-8.483
X-123.534 Y-8.187
X-123.566 Y-8.175
X-123.6 Y-8.174
X-123.633 Y-8.185
X-123.66 Y-8.207
X-123.678 Y-8.236
X-123.685 Y-8.27
Y-8.692
X-123.678 Y-8.842
X-123.602 Y-8.972
X-123.499 Y-9.08
X-123.375 Y-9.165
X-123.237 Y-9.224
X-123.091 Y-9.258
X-122.941 Y-9.252
X-122.913 Y-9.243
X-122.8 Y-9.182
X-122.723 Y-9.079
X-122.697 Y-8.954
Y-8.774
Y-8.741
X-122.704 Y-8.705
X-122.725 Y-8.674
X-122.755 Y-8.653
X-122.791 Y-8.644
X-122.954 Y-8.634
X-123.579 Y-8.596
X-123.618 Y-8.601
X-123.652 Y-8.622
X-123.676 Y-8.654
X-123.685 Y-8.692
Y-8.946
X-123.678 Y-9.095
X-123.605 Y-9.227
X-123.498 Y-9.332
X-123.371 Y-9.41
X-123.229 Y-9.462
X-123.082 Y-9.486
X-122.932 Y-9.474
X-122.903 Y-9.464
X-122.794 Y-9.401
X-122.72 Y-9.299
X-122.695 Y-9.176
X-122.697 Y-8.954
X-122.705 Y-8.917
X-122.727 Y-8.886
X-122.758 Y-8.865
X-122.795 Y-8.858
X-122.953 Y-8.856
X-123.584 Y-8.849
X-123.622 Y-8.856
X-123.654 Y-8.877
X-123.676 Y-8.908
X-123.685 Y-8.946
Y-9.199
X-123.678 Y-9.349
X-123.602 Y-9.478
X-123.49 Y-9.578
X-123.359 Y-9.651
X-123.216 Y-9.696
X-123.067 Y-9.715
X-122.918 Y-9.697
X-122.892 Y-9.688
X-122.787 Y-9.624
X-122.717 Y-9.523
X-122.693 Y-9.402
X-122.695 Y-9.176
X-122.704 Y-9.138
X-122.727 Y-9.107
X-122.76 Y-9.087
X-122.798 Y-9.08
X-122.954 Y-9.085
X-123.588 Y-9.102
X-123.624 Y-9.11
X-123.656 Y-9.131
X-123.677 Y-9.162
X-123.685 Y-9.199
Y-9.452
X-123.681 Y-9.527
X-123.63 Y-9.668
X-123.529 Y-9.779
X-123.403 Y-9.86
X-123.263 Y-9.915
X-123.116 Y-9.942
X-122.966 Y-9.937
X-122.913 Y-9.922
X-122.797 Y-9.862
X-122.717 Y-9.757
X-122.69 Y-9.629
X-122.693 Y-9.402
X-122.702 Y-9.364
X-122.726 Y-9.333
X-122.76 Y-9.313
X-122.799 Y-9.307
X-122.954 Y-9.317
X-123.591 Y-9.356
X-123.627 Y-9.365
X-123.657 Y-9.386
X-123.677 Y-9.417
X-123.685 Y-9.452
Y-9.706
X-123.681 Y-9.781
X-123.619 Y-9.917
X-123.514 Y-10.024
X-123.385 Y-10.101
X-123.243 Y-10.149
X-123.095 Y-10.172
X-122.945 Y-10.16
X-122.902 Y-10.147
X-122.79 Y-10.085
X-122.714 Y-9.982
X-122.688 Y-9.857
X-122.69 Y-9.629
X-122.697 Y-9.597
X-122.713 Y-9.57
X-122.738 Y-9.549
X-122.767 Y-9.536
X-122.8 Y-9.534
X-122.956 Y-9.549
X-123.595 Y-9.61
X-123.629 Y-9.619
X-123.658 Y-9.641
X-123.677 Y-9.671
X-123.685 Y-9.706
Y-9.913
X-123.681 Y-9.988
X-123.63 Y-10.129
X-123.529 Y-10.239
X-123.402 Y-10.32
X-123.262 Y-10.373
X-123.114 Y-10.399
X-122.965 Y-10.392
X-122.91 Y-10.378
X-122.793 Y-10.318
X-122.713 Y-10.213
X-122.686 Y-10.085
X-122.688 Y-9.857
X-122.697 Y-9.818
X-122.721 Y-9.786
X-122.755 Y-9.766
X-122.795 Y-9.761
X-122.955 Y-9.772
X-123.592 Y-9.816
X-123.627 Y-9.825
X-123.657 Y-9.847
X-123.677 Y-9.877
X-123.685 Y-9.913
Y-10.166
X-123.681 Y-10.241
X-123.619 Y-10.377
X-123.512 Y-10.483
X-123.383 Y-10.559
X-123.241 Y-10.607
X-123.092 Y-10.628
X-122.943 Y-10.616
X-122.899 Y-10.603
X-122.787 Y-10.541
X-122.711 Y-10.439
X-122.684 Y-10.313
X-122.686 Y-10.085
X-122.692 Y-10.053
X-122.709 Y-10.025
X-122.733 Y-10.004
X-122.763 Y-9.992
X-122.796 Y-9.99
X-122.956 Y-10.006
X-123.595 Y-10.07
X-123.629 Y-10.08
X-123.658 Y-10.101
X-123.677 Y-10.131
X-123.685 Y-10.166
Y-10.381
X-123.681 Y-10.456
X-123.625 Y-10.595
X-123.521 Y-10.703
X-123.393 Y-10.782
X-123.252 Y-10.832
X-123.104 Y-10.856
X-122.954 Y-10.847
X-122.904 Y-10.834
X-122.789 Y-10.773
X-122.711 Y-10.67
X-122.683 Y-10.543
X-122.684 Y-10.313
X-122.69 Y-10.282
X-122.707 Y-10.254
X-122.731 Y-10.233
X-122.76 Y-10.22
X-122.792 Y-10.218
X-122.956 Y-10.232
X-123.593 Y-10.285
X-123.628 Y-10.295
X-123.658 Y-10.316
X-123.677 Y-10.346
X-123.685 Y-10.381
Y-10.588
X-123.678 Y-10.738
X-123.599 Y-10.866
X-123.485 Y-10.963
X-123.352 Y-11.032
X-123.207 Y-11.073
X-123.058 Y-11.087
X-122.909 Y-11.068
X-122.88 Y-11.057
X-122.777 Y-10.994
X-122.708 Y-10.894
X-122.683 Y-10.776
Y-10.543
X-122.692 Y-10.505
X-122.716 Y-10.473
X-122.75 Y-10.453
X-122.789 Y-10.447
X-122.954 Y-10.456
X-123.591 Y-10.492
X-123.626 Y-10.501
X-123.657 Y-10.522
X-123.677 Y-10.552
X-123.685 Y-10.588
Y-10.842
X-123.681 Y-10.917
X-123.626 Y-11.056
X-123.521 Y-11.164
X-123.393 Y-11.242
X-123.252 Y-11.293
X-123.104 Y-11.316
X-122.954 Y-11.309
X-122.903 Y-11.295
X-122.789 Y-11.234
X-122.711 Y-11.132
X-122.683 Y-11.006
Y-10.776
X-122.689 Y-10.744
X-122.705 Y-10.716
X-122.729 Y-10.695
X-122.759 Y-10.682
X-122.791 Y-10.679
X-122.955 Y-10.693
X-123.593 Y-10.746
X-123.628 Y-10.755
X-123.657 Y-10.776
X-123.677 Y-10.806
X-123.685 Y-10.842
Y-11.057
X-123.681 Y-11.132
X-123.631 Y-11.273
X-123.529 Y-11.384
X-123.403 Y-11.465
X-123.263 Y-11.518
X-123.115 Y-11.545
X-122.965 Y-11.539
X-122.91 Y-11.525
X-122.793 Y-11.466
X-122.712 Y-11.362
X-122.683 Y-11.234
Y-11.006
X-122.692 Y-10.967
X-122.716 Y-10.935
X-122.75 Y-10.915
X-122.789 Y-10.909
X-122.955 Y-10.92
X-123.591 Y-10.961
X-123.627 Y-10.97
X-123.657 Y-10.991
X-123.677 Y-11.021
X-123.685 Y-11.057
Y-11.311
X-123.681 Y-11.385
X-123.619 Y-11.522
X-123.513 Y-11.628
X-123.384 Y-11.704
X-123.242 Y-11.753
X-123.093 Y-11.775
X-122.944 Y-11.763
X-122.9 Y-11.751
X-122.787 Y-11.69
X-122.71 Y-11.587
X-122.683 Y-11.462
Y-11.234
X-122.689 Y-11.202
X-122.706 Y-11.174
X-122.73 Y-11.153
X-122.76 Y-11.14
X-122.792 Y-11.138
X-122.956 Y-11.154
X-123.595 Y-11.214
X-123.629 Y-11.224
X-123.658 Y-11.245
X-123.677 Y-11.276
X-123.685 Y-11.311
Y-11.517
X-123.681 Y-11.592
X-123.63 Y-11.733
X-123.528 Y-11.843
X-123.401 Y-11.923
X-123.26 Y-11.976
X-123.113 Y-12.003
X-122.963 Y-11.996
X-122.908 Y-11.982
X-122.792 Y-11.922
X-122.712 Y-11.819
X-122.683 Y-11.691
Y-11.462
X-122.689 Y-11.431
X-122.705 Y-11.403
X-122.729 Y-11.382
X-122.758 Y-11.369
X-122.79 Y-11.366
X-122.955 Y-11.377
X-123.592 Y-11.421
X-123.627 Y-11.43
X-123.657 Y-11.451
X-123.677 Y-11.482
X-123.685 Y-11.517
Y-11.771
X-123.681 Y-11.846
X-123.618 Y-11.982
X-123.511 Y-12.087
X-123.382 Y-12.163
X-123.24 Y-12.211
X-123.091 Y-12.232
X-122.942 Y-12.22
X-122.898 Y-12.208
X-122.787 Y-12.146
X-122.71 Y-12.044
X-122.683 Y-11.92
Y-11.691
X-122.689 Y-11.659
X-122.706 Y-11.631
X-122.73 Y-11.61
X-122.76 Y-11.597
X-122.793 Y-11.595
X-122.956 Y-11.611
X-123.595 Y-11.675
X-123.629 Y-11.685
X-123.658 Y-11.706
X-123.677 Y-11.736
X-123.685 Y-11.771
Y-11.986
X-123.681 Y-12.061
X-123.624 Y-12.2
X-123.52 Y-12.308
X-123.392 Y-12.386
X-123.25 Y-12.436
X-123.102 Y-12.461
X-122.953 Y-12.451
X-122.904 Y-12.438
X-122.789 Y-12.378
X-122.711 Y-12.275
X-122.683 Y-12.149
Y-11.92
X-122.689 Y-11.888
X-122.705 Y-11.86
X-122.729 Y-11.839
X-122.759 Y-11.826
X-122.791 Y-11.824
X-122.955 Y-11.837
X-123.593 Y-11.89
X-123.628 Y-11.9
X-123.657 Y-11.921
X-123.677 Y-11.951
X-123.685 Y-11.986
Y-12.193
X-123.678 Y-12.343
X-123.598 Y-12.47
X-123.484 Y-12.568
X-123.351 Y-12.637
X-123.206 Y-12.677
X-123.057 Y-12.691
X-122.908 Y-12.672
X-122.88 Y-12.662
X-122.777 Y-12.598
X-122.707 Y-12.499
X-122.683 Y-12.38
Y-12.149
X-122.692 Y-12.11
X-122.715 Y-12.078
X-122.749 Y-12.058
X-122.788 Y-12.052
X-122.954 Y-12.062
X-123.591 Y-12.097
X-123.626 Y-12.106
X-123.657 Y-12.127
X-123.677 Y-12.157
X-123.685 Y-12.193
Y-12.447
X-123.681 Y-12.522
X-123.625 Y-12.661
X-123.52 Y-12.768
X-123.392 Y-12.846
X-123.251 Y-12.897
X-123.103 Y-12.92
X-122.953 Y-12.913
X-122.903 Y-12.899
X-122.789 Y-12.839
X-122.711 Y-12.736
X-122.683 Y-12.61
Y-12.38
X-122.689 Y-12.348
X-122.705 Y-12.32
X-122.729 Y-12.299
X-122.759 Y-12.286
X-122.791 Y-12.284
X-122.955 Y-12.297
X-123.593 Y-12.35
X-123.628 Y-12.36
X-123.657 Y-12.381
X-123.677 Y-12.411
X-123.685 Y-12.447
Y-12.662
X-123.681 Y-12.737
X-123.63 Y-12.878
X-123.529 Y-12.988
X-123.402 Y-13.069
X-123.262 Y-13.122
X-123.114 Y-13.149
X-122.965 Y-13.143
X-122.91 Y-13.129
X-122.792 Y-13.07
X-122.712 Y-12.967
X-122.683 Y-12.838
Y-12.61
X-122.692 Y-12.571
X-122.716 Y-12.539
X-122.75 Y-12.519
X-122.789 Y-12.514
X-122.955 Y-12.524
X-123.592 Y-12.566
X-123.627 Y-12.575
X-123.657 Y-12.596
X-123.677 Y-12.626
X-123.685 Y-12.662
Y-12.915
X-123.681 Y-12.99
X-123.619 Y-13.127
X-123.512 Y-13.232
X-123.383 Y-13.309
X-123.241 Y-13.357
X-123.093 Y-13.379
X-122.943 Y-13.368
X-122.899 Y-13.355
X-122.787 Y-13.294
X-122.71 Y-13.192
X-122.683 Y-13.067
Y-12.838
X-122.689 Y-12.807
X-122.706 Y-12.778
X-122.73 Y-12.757
X-122.76 Y-12.745
X-122.792 Y-12.742
X-122.956 Y-12.758
X-123.595 Y-12.819
X-123.629 Y-12.829
X-123.658 Y-12.85
X-123.677 Y-12.88
X-123.685 Y-12.915
Y-13.122
X-123.681 Y-13.197
X-123.629 Y-13.338
X-123.527 Y-13.448
X-123.4 Y-13.528
X-123.26 Y-13.581
X-123.112 Y-13.607
X-122.962 Y-13.6
X-122.908 Y-13.586
X-122.792 Y-13.527
X-122.711 Y-13.423
X-122.683 Y-13.296
Y-13.067
X-122.689 Y-13.035
X-122.705 Y-13.008
X-122.729 Y-12.986
X-122.758 Y-12.973
X-122.79 Y-12.97
X-122.955 Y-12.982
X-123.592 Y-13.026
X-123.627 Y-13.035
X-123.657 Y-13.056
X-123.677 Y-13.087
X-123.685 Y-13.122
Y-13.376
X-123.681 Y-13.451
X-123.618 Y-13.586
X-123.511 Y-13.692
X-123.381 Y-13.768
X-123.239 Y-13.815
X-123.091 Y-13.836
X-122.941 Y-13.824
X-122.898 Y-13.812
X-122.786 Y-13.751
X-122.71 Y-13.649
X-122.683 Y-13.524
Y-13.296
X-122.689 Y-13.264
X-122.706 Y-13.235
X-122.73 Y-13.214
X-122.76 Y-13.202
X-122.793 Y-13.2
X-122.956 Y-13.216
X-123.595 Y-13.28
X-123.629 Y-13.29
X-123.658 Y-13.311
X-123.677 Y-13.341
X-123.685 Y-13.376
Y-13.591
X-123.681 Y-13.666
X-123.624 Y-13.805
X-123.519 Y-13.912
X-123.391 Y-13.99
X-123.25 Y-14.041
X-123.102 Y-14.065
X-122.952 Y-14.056
X-122.904 Y-14.042
X-122.789 Y-13.982
X-122.711 Y-13.879
X-122.683 Y-13.753
Y-13.524
X-122.689 Y-13.492
X-122.705 Y-13.464
X-122.729 Y-13.443
X-122.759 Y-13.43
X-122.791 Y-13.428
X-122.955 Y-13.442
X-123.593 Y-13.495
X-123.628 Y-13.504
X-123.657 Y-13.526
X-123.677 Y-13.556
X-123.685 Y-13.591
Y-13.798
X-123.678 Y-13.948
X-123.598 Y-14.075
X-123.484 Y-14.172
X-123.35 Y-14.241
X-123.206 Y-14.282
X-123.057 Y-14.296
X-122.908 Y-14.276
X-122.88 Y-14.266
X-122.777 Y-14.202
X-122.707 Y-14.103
X-122.683 Y-13.984
Y-13.753
X-122.692 Y-13.715
X-122.715 Y-13.683
X-122.749 Y-13.662
X-122.789 Y-13.657
X-122.954 Y-13.666
X-123.591 Y-13.702
X-123.626 Y-13.71
X-123.657 Y-13.732
X-123.677 Y-13.762
X-123.685 Y-13.798
Y-14.051
X-123.681 Y-14.126
X-123.625 Y-14.265
X-123.52 Y-14.373
X-123.392 Y-14.45
X-123.251 Y-14.502
X-123.103 Y-14.525
X-122.953 Y-14.517
X-122.902 Y-14.503
X-122.789 Y-14.443
X-122.711 Y-14.34
X-122.683 Y-14.214
Y-13.984
X-122.689 Y-13.953
X-122.705 Y-13.925
X-122.729 Y-13.903
X-122.759 Y-13.891
X-122.791 Y-13.888
X-122.955 Y-13.902
X-123.593 Y-13.955
X-123.628 Y-13.965
X-123.657 Y-13.986
X-123.677 Y-14.016
X-123.685 Y-14.051
Y-14.267
X-123.681 Y-14.342
X-123.63 Y-14.483
X-123.528 Y-14.593
X-123.402 Y-14.674
X-123.262 Y-14.727
X-123.114 Y-14.754
X-122.964 Y-14.747
X-122.909 Y-14.734
X-122.792 Y-14.674
X-122.712 Y-14.571
X-122.683 Y-14.443
Y-14.214
X-122.692 Y-14.176
X-122.716 Y-14.144
X-122.75 Y-14.124
X-122.789 Y-14.118
X-122.955 Y-14.129
X-123.592 Y-14.171
X-123.627 Y-14.18
X-123.657 Y-14.201
X-123.677 Y-14.231
X-123.685 Y-14.267
Y-14.52
X-123.681 Y-14.595
X-123.618 Y-14.731
X-123.512 Y-14.837
X-123.383 Y-14.913
X-123.241 Y-14.962
X-123.092 Y-14.983
X-122.943 Y-14.972
X-122.899 Y-14.959
X-122.787 Y-14.898
X-122.71 Y-14.796
X-122.683 Y-14.671
Y-14.443
X-122.689 Y-14.411
X-122.706 Y-14.383
X-122.73 Y-14.361
X-122.76 Y-14.349
X-122.793 Y-14.347
X-122.956 Y-14.363
X-123.595 Y-14.424
X-123.629 Y-14.434
X-123.658 Y-14.455
X-123.677 Y-14.485
X-123.685 Y-14.52
Y-14.727
X-123.681 Y-14.802
X-123.629 Y-14.943
X-123.527 Y-15.052
X-123.4 Y-15.132
X-123.259 Y-15.185
X-123.112 Y-15.211
X-122.962 Y-15.204
X-122.908 Y-15.19
X-122.792 Y-15.131
X-122.711 Y-15.028
X-122.683 Y-14.9
Y-14.671
X-122.689 Y-14.64
X-122.705 Y-14.612
X-122.729 Y-14.59
X-122.758 Y-14.578
X-122.79 Y-14.575
X-122.955 Y-14.586
X-123.592 Y-14.631
X-123.627 Y-14.64
X-123.657 Y-14.661
X-123.677 Y-14.692
X-123.685 Y-14.727
Y-14.981
X-123.681 Y-15.055
X-123.617 Y-15.191
X-123.51 Y-15.296
X-123.381 Y-15.372
X-123.239 Y-15.42
X-123.09 Y-15.441
X-122.941 Y-15.429
X-122.898 Y-15.416
X-122.786 Y-15.355
X-122.71 Y-15.253
X-122.683 Y-15.128
Y-14.9
X-122.689 Y-14.868
X-122.706 Y-14.84
X-122.73 Y-14.818
X-122.76 Y-14.806
X-122.793 Y-14.804
X-122.956 Y-14.82
X-123.595 Y-14.885
X-123.629 Y-14.894
X-123.658 Y-14.916
X-123.677 Y-14.946
X-123.685 Y-14.981
Y-15.196
X-123.681 Y-15.271
X-123.624 Y-15.409
X-123.519 Y-15.517
X-123.391 Y-15.595
X-123.25 Y-15.645
X-123.101 Y-15.669
X-122.952 Y-15.66
X-122.903 Y-15.647
X-122.789 Y-15.586
X-122.711 Y-15.484
X-122.683 Y-15.357
Y-15.128
X-122.689 Y-15.097
X-122.705 Y-15.069
X-122.729 Y-15.047
X-122.759 Y-15.035
X-122.791 Y-15.032
X-122.956 Y-15.046
X-123.593 Y-15.1
X-123.628 Y-15.109
X-123.658 Y-15.13
X-123.677 Y-15.161
X-123.685 Y-15.196
Y-15.403
X-123.678 Y-15.553
X-123.598 Y-15.68
X-123.483 Y-15.777
X-123.35 Y-15.846
X-123.206 Y-15.886
X-123.056 Y-15.9
X-122.908 Y-15.881
X-122.88 Y-15.87
X-122.777 Y-15.807
X-122.707 Y-15.707
X-122.683 Y-15.589
Y-15.357
X-122.692 Y-15.319
X-122.716 Y-15.287
X-122.749 Y-15.267
X-122.789 Y-15.261
X-122.954 Y-15.27
X-123.591 Y-15.307
X-123.626 Y-15.315
X-123.657 Y-15.336
X-123.677 Y-15.367
X-123.685 Y-15.403
Y-15.656
X-123.681 Y-15.731
X-123.625 Y-15.87
X-123.52 Y-15.977
X-123.391 Y-16.055
X-123.25 Y-16.106
X-123.102 Y-16.129
X-122.952 Y-16.122
X-122.902 Y-16.108
X-122.789 Y-16.047
X-122.711 Y-15.945
X-122.683 Y-15.819
Y-15.589
X-122.689 Y-15.557
X-122.705 Y-15.529
X-122.729 Y-15.508
X-122.759 Y-15.495
X-122.791 Y-15.493
X-122.956 Y-15.506
X-123.593 Y-15.56
X-123.628 Y-15.57
X-123.658 Y-15.591
X-123.677 Y-15.621
X-123.685 Y-15.656
Y-15.872
X-123.681 Y-15.947
X-123.63 Y-16.087
X-123.528 Y-16.198
X-123.401 Y-16.278
X-123.261 Y-16.331
X-123.114 Y-16.358
X-122.964 Y-16.352
X-122.909 Y-16.338
X-122.792 Y-16.279
X-122.712 Y-16.175
X-122.683 Y-16.047
Y-15.819
X-122.692 Y-15.78
X-122.716 Y-15.748
X-122.75 Y-15.728
X-122.789 Y-15.723
X-122.955 Y-15.733
X-123.592 Y-15.775
X-123.627 Y-15.784
X-123.657 Y-15.806
X-123.677 Y-15.836
X-123.685 Y-15.872
Y-16.125
X-123.681 Y-16.2
X-123.618 Y-16.336
X-123.512 Y-16.442
X-123.383 Y-16.518
X-123.24 Y-16.566
X-123.092 Y-16.588
X-122.942 Y-16.576
X-122.899 Y-16.564
X-122.787 Y-16.503
X-122.71 Y-16.4
X-122.683 Y-16.276
Y-16.047
X-122.689 Y-16.015
X-122.706 Y-15.987
X-122.73 Y-15.966
X-122.76 Y-15.953
X-122.793 Y-15.951
X-122.956 Y-15.967
X-123.595 Y-16.029
X-123.629 Y-16.039
X-123.658 Y-16.06
X-123.677 Y-16.09
X-123.685 Y-16.125
Y-16.332
X-123.681 Y-16.407
X-123.629 Y-16.547
X-123.526 Y-16.657
X-123.4 Y-16.737
X-123.259 Y-16.79
X-123.111 Y-16.816
X-122.962 Y-16.809
X-122.908 Y-16.795
X-122.791 Y-16.735
X-122.711 Y-16.632
X-122.683 Y-16.504
Y-16.276
X-122.689 Y-16.244
X-122.705 Y-16.216
X-122.729 Y-16.195
X-122.758 Y-16.182
X-122.79 Y-16.179
X-122.955 Y-16.191
X-123.592 Y-16.236
X-123.627 Y-16.245
X-123.657 Y-16.266
X-123.677 Y-16.296
X-123.685 Y-16.332
Y-16.547
X-123.678 Y-16.697
X-123.599 Y-16.825
X-123.485 Y-16.922
X-123.352 Y-16.992
X-123.208 Y-17.033
X-123.058 Y-17.047
X-122.909 Y-17.028
X-122.88 Y-17.018
X-122.777 Y-16.954
X-122.707 Y-16.855
X-122.683 Y-16.736
Y-16.504
X-122.692 Y-16.466
X-122.715 Y-16.434
X-122.749 Y-16.414
X-122.788 Y-16.408
X-122.954 Y-16.417
X-123.59 Y-16.451
X-123.626 Y-16.46
X-123.656 Y-16.481
X-123.677 Y-16.511
X-123.685 Y-16.547
Y-16.801
X-123.681 Y-16.876
X-123.626 Y-17.015
X-123.521 Y-17.123
X-123.393 Y-17.201
X-123.304 Y-17.234
X-123.271 Y-17.244
X-123.236 Y-17.25
X-123.201 Y-17.252
X-123.163 Y-17.243
X-123.131 Y-17.22
X-123.111 Y-17.187
X-123.105 Y-17.148
X-123.114 Y-17.11
X-123.137 Y-17.078
X-123.518 Y-16.731
X-123.55 Y-16.711
X-123.587 Y-16.704
X-123.624 Y-16.712
X-123.655 Y-16.733
X-123.677 Y-16.764
X-123.685 Y-16.801
Y-17.054
Y-17.092
Y-17.134
X-123.681 Y-17.161
X-123.676 Y-17.179
X-123.669 Y-17.197
X-123.641 Y-17.218
X-123.607 Y-17.227
X-123.572 Y-17.224
X-123.54 Y-17.209
X-123.517 Y-17.181
X-123.506 Y-17.147
X-123.509 Y-17.111
X-123.526 Y-17.08
X-123.554 Y-17.058
X-123.589 Y-17.048
X-123.624 Y-17.053
X-123.655 Y-17.071
X-123.677 Y-17.1
X-123.685 Y-17.134
X-123.684 Y-17.156
X-123.682 Y-17.166
X-123.679 Y-17.177
X-123.669 Y-17.197
X-123.651 Y-17.217
X-123.63 Y-17.233
X-123.62 Y-17.24
X-123.609 Y-17.245
X-123.598 Y-17.248
X-123.588 Y-17.251
X-123.567 Y-17.252
X-123.059
X-123.013
X-122.974
X-122.825 Y-17.245
X-122.749 Y-17.18
X-122.7 Y-17.094
X-122.683 Y-16.997
X-122.691 Y-16.961
X-122.711 Y-16.931
