%
(106-110)
(T1  D=1 CR=0 - ZMIN=-2 - flat end mill)
G90 G94
G17
G21
G28 G91 Z0
G90

(Clear 18)
M9
T1 M6
S5000 M3
G54
M8
G0 X-115.741 Y-13.86
Z12
Z2
Z0.5
G3 X-115.257 Y-13.985 Z0.29 I0.242 J-0.062 F333.3
X-115.741 Y-13.86 Z0.079 I-0.242 J0.062
X-115.257 Y-13.985 Z-0.131 I0.242 J-0.062
X-115.741 Y-13.86 Z-0.342 I-0.242 J0.062
X-115.257 Y-13.985 Z-0.552 I0.242 J-0.062
X-115.741 Y-13.86 Z-0.763 I-0.242 J0.062
X-115.53 Y-14.17 Z-0.876 I0.242 J-0.062
X-115.249 Y-13.922 Z-0.99 I0.031 J0.248
X-115.749 I-0.25
X-115.249 I0.25
G1 X-115.212 Y-13.777 F1000
X-115.225 Y-13.703
X-115.262 Y-13.638
X-115.369 Y-13.533
X-115.513 Y-13.493
X-115.662 Y-13.514
X-115.792 Y-13.588
X-115.889 Y-13.703
X-115.941 Y-13.844
X-115.943 Y-13.994
X-115.895 Y-14.136
X-115.803 Y-14.254
X-115.678 Y-14.336
X-115.532 Y-14.372
X-115.383 Y-14.358
X-115.246 Y-14.296
X-115.138 Y-14.192
X-115.06 Y-14.064
X-115.009 Y-13.923
X-114.999 Y-13.773
X-115.034 Y-13.627
X-115.105 Y-13.495
X-115.213 Y-13.391
X-115.344 Y-13.318
X-115.49 Y-13.285
X-115.64 Y-13.292
X-115.784 Y-13.333
X-115.914 Y-13.409
X-116.02 Y-13.514
X-116.102 Y-13.64
X-116.152 Y-13.781
X-116.156 Y-13.829
X-116.154 Y-13.904
X-116.134 Y-13.976
X-116.096 Y-14.04
X-116.088 Y-14.051
X-116.036 Y-14.136
X-116.002 Y-14.22
X-115.943 Y-14.358
X-115.839 Y-14.467
X-115.71 Y-14.543
X-115.565 Y-14.581
X-115.415 Y-14.582
X-115.268 Y-14.549
X-115.133 Y-14.484
X-115.016 Y-14.39
X-114.919 Y-14.276
X-114.908 Y-14.258
X-114.878 Y-14.189
X-114.866 Y-14.115
X-114.873 Y-14.04
X-114.889 Y-13.967
X-114.933 Y-13.798
X-114.956 Y-13.714
X-114.964 Y-13.692
X-114.974 Y-13.671
X-115.211 Y-13.291
X-115.317 Y-13.184
X-115.449 Y-13.113
X-115.596 Y-13.087
X-115.746 Y-13.097
X-115.89 Y-13.139
X-116.023 Y-13.209
X-116.139 Y-13.303
X-116.237 Y-13.417
X-116.315 Y-13.545
X-116.316 Y-13.548
X-116.333 Y-13.652
X-116.312 Y-13.755
X-116.257 Y-13.845
X-116.224 Y-13.883
X-116.122 Y-14.007
X-116.096 Y-14.04
X-116.072 Y-14.061
X-116.043 Y-14.074
X-116.011 Y-14.077
X-115.98 Y-14.069
X-115.953 Y-14.052
X-115.718 Y-13.845
X-115.232 Y-13.417
X-115.21 Y-13.39
X-115.199 Y-13.358
Y-13.323
X-115.211 Y-13.291
X-115.287 Y-13.207
X-115.425 Y-13.055
X-115.531 Y-12.949
X-115.675 Y-12.906
X-115.825 Y-12.904
X-115.972 Y-12.935
X-116.11 Y-12.994
X-116.236 Y-13.075
X-116.347 Y-13.176
X-116.443 Y-13.291
X-116.472 Y-13.347
X-116.505 Y-13.477
X-116.478 Y-13.608
X-116.396 Y-13.715
X-116.376 Y-13.732
X-116.291 Y-13.807
X-116.257 Y-13.845
X-116.225 Y-13.868
X-116.187 Y-13.876
X-116.149 Y-13.869
X-116.116 Y-13.848
X-115.89 Y-13.631
X-115.432 Y-13.192
X-115.41 Y-13.161
X-115.401 Y-13.125
X-115.407 Y-13.088
X-115.425 Y-13.055
X-115.53 Y-12.94
X-115.551 Y-12.919
X-115.572 Y-12.902
X-115.699 Y-12.825
X-115.833 Y-12.759
X-115.983 Y-12.745
X-116.13 Y-12.772
X-116.269 Y-12.828
X-116.397 Y-12.906
X-116.513 Y-13.002
X-116.608 Y-13.118
X-116.679 Y-13.25
X-116.683 Y-13.266
X-116.687 Y-13.385
X-116.644 Y-13.496
X-116.561 Y-13.582
X-116.545 Y-13.593
X-116.5 Y-13.629
X-116.396 Y-13.715
X-116.362 Y-13.732
X-116.323 Y-13.735
X-116.287 Y-13.723
X-116.257 Y-13.698
X-116.062 Y-13.454
X-115.675 Y-12.972
X-115.659 Y-12.943
X-115.653 Y-12.91
X-115.659 Y-12.877
X-115.674 Y-12.848
X-115.699 Y-12.825
X-115.953 Y-12.684
X-116.087 Y-12.618
X-116.237 Y-12.615
X-116.383 Y-12.651
X-116.518 Y-12.715
X-116.641 Y-12.802
X-116.746 Y-12.909
X-116.833 Y-13.031
X-116.888 Y-13.171
X-116.89 Y-13.191
X-116.879 Y-13.314
X-116.818 Y-13.422
X-116.72 Y-13.497
X-116.621 Y-13.545
X-116.583 Y-13.567
X-116.561 Y-13.582
X-116.525 Y-13.596
X-116.487
X-116.452 Y-13.581
X-116.425 Y-13.555
X-116.275 Y-13.338
X-115.922 Y-12.827
X-115.908 Y-12.797
X-115.904 Y-12.765
X-115.911 Y-12.733
X-115.928 Y-12.705
X-115.953 Y-12.684
X-116.076 Y-12.616
X-116.122 Y-12.591
X-116.235 Y-12.542
X-116.376 Y-12.488
X-116.525 Y-12.505
X-116.665 Y-12.557
X-116.793 Y-12.636
X-116.906 Y-12.735
X-116.998 Y-12.853
X-117.069 Y-12.985
X-117.105 Y-13.132
X-117.082 Y-13.241
X-117.022 Y-13.333
X-116.931 Y-13.398
X-116.72 Y-13.497
X-116.683 Y-13.505
X-116.647 Y-13.499
X-116.615 Y-13.48
X-116.592 Y-13.451
X-116.478 Y-13.233
X-116.19 Y-12.678
X-116.179 Y-12.639
X-116.184 Y-12.6
X-116.204 Y-12.566
X-116.235 Y-12.542
X-116.376 Y-12.48
X-116.47 Y-12.447
X-116.511 Y-12.434
X-116.656 Y-12.395
X-116.804 Y-12.421
X-116.94 Y-12.484
X-117.061 Y-12.573
X-117.163 Y-12.683
X-117.244 Y-12.809
X-117.301 Y-12.948
X-117.308 Y-12.994
X-117.297 Y-13.126
X-117.231 Y-13.241
X-117.121 Y-13.316
X-117.052 Y-13.343
X-116.931 Y-13.398
X-116.894 Y-13.406
X-116.856 Y-13.399
X-116.823 Y-13.378
X-116.801 Y-13.347
X-116.707 Y-13.135
X-116.453 Y-12.569
X-116.445 Y-12.537
X-116.447 Y-12.504
X-116.46 Y-12.474
X-116.482 Y-12.449
X-116.511 Y-12.434
X-116.771 Y-12.352
X-116.917 Y-12.316
X-117.064 Y-12.346
X-117.196 Y-12.415
X-117.311 Y-12.512
X-117.406 Y-12.628
X-117.479 Y-12.759
X-117.521 Y-12.903
X-117.522 Y-12.938
X-117.503 Y-13.062
X-117.434 Y-13.167
X-117.328 Y-13.235
X-117.121 Y-13.316
X-117.083 Y-13.321
X-117.045 Y-13.312
X-117.014 Y-13.289
X-116.994 Y-13.256
X-116.925 Y-13.069
X-116.71 Y-12.481
X-116.704 Y-12.442
X-116.713 Y-12.404
X-116.737 Y-12.372
X-116.771 Y-12.352
X-116.968 Y-12.292
X-117.052 Y-12.27
X-117.126 Y-12.255
X-117.275 Y-12.27
X-117.41 Y-12.335
X-117.526 Y-12.43
X-117.621 Y-12.547
X-117.694 Y-12.678
X-117.733 Y-12.822
X-117.736 Y-12.868
X-117.714 Y-12.997
X-117.638 Y-13.105
X-117.524 Y-13.171
X-117.391 Y-13.211
X-117.328 Y-13.235
X-117.296 Y-13.24
X-117.264 Y-13.235
X-117.235 Y-13.22
X-117.213 Y-13.196
X-117.2 Y-13.167
X-117.153 Y-13
X-116.985 Y-12.392
X-116.982 Y-12.354
X-116.993 Y-12.317
X-117.018 Y-12.288
X-117.052 Y-12.27
X-117.268 Y-12.214
X-117.306 Y-12.205
X-117.38 Y-12.191
X-117.528 Y-12.213
X-117.66 Y-12.284
X-117.772 Y-12.384
X-117.859 Y-12.506
X-117.923 Y-12.642
X-117.954 Y-12.789
X-117.953 Y-12.827
X-117.924 Y-12.951
X-117.846 Y-13.051
X-117.733 Y-13.11
X-117.56 Y-13.16
X-117.524 Y-13.171
X-117.492 Y-13.174
X-117.46 Y-13.167
X-117.433 Y-13.15
X-117.412 Y-13.125
X-117.4 Y-13.095
X-117.368 Y-12.943
X-117.236 Y-12.321
X-117.235 Y-12.284
X-117.248 Y-12.249
X-117.273 Y-12.221
X-117.306 Y-12.205
X-117.522 Y-12.153
X-117.669 Y-12.125
X-117.812 Y-12.172
X-117.934 Y-12.258
X-118.035 Y-12.37
X-118.11 Y-12.499
X-118.16 Y-12.641
X-118.176 Y-12.79
X-118.174 Y-12.807
X-118.133 Y-12.918
X-118.053 Y-13.005
X-117.945 Y-13.055
X-117.898 Y-13.066
X-117.77 Y-13.1
X-117.733 Y-13.11
X-117.694 Y-13.112
X-117.657 Y-13.098
X-117.628 Y-13.07
X-117.612 Y-13.034
X-117.582 Y-12.891
X-117.451 Y-12.27
X-117.45 Y-12.232
X-117.463 Y-12.197
X-117.488 Y-12.169
X-117.522 Y-12.153
X-117.776 Y-12.092
X-117.849 Y-12.078
X-117.997 Y-12.102
X-118.127 Y-12.179
X-118.233 Y-12.285
X-118.316 Y-12.41
X-118.373 Y-12.548
X-118.398 Y-12.696
X-118.396 Y-12.731
X-118.361 Y-12.854
X-118.278 Y-12.95
X-118.163 Y-13.004
X-117.945 Y-13.055
X-117.913 Y-13.056
X-117.882 Y-13.047
X-117.856 Y-13.028
X-117.837 Y-13.003
X-117.827 Y-12.972
X-117.805 Y-12.835
X-117.704 Y-12.204
X-117.705 Y-12.168
X-117.718 Y-12.134
X-117.743 Y-12.108
X-117.776 Y-12.092
X-117.983 Y-12.042
X-118.057 Y-12.028
X-118.206 Y-12.044
X-118.337 Y-12.117
X-118.446 Y-12.22
X-118.53 Y-12.344
X-118.591 Y-12.481
X-118.617 Y-12.629
X-118.615 Y-12.674
X-118.582 Y-12.799
X-118.499 Y-12.899
X-118.382 Y-12.954
X-118.163 Y-13.004
X-118.124
X-118.087 Y-12.988
X-118.06 Y-12.96
X-118.046 Y-12.923
X-118.021 Y-12.784
X-117.911 Y-12.156
X-117.912 Y-12.119
X-117.925 Y-12.085
X-117.95 Y-12.058
X-117.983 Y-12.042
X-118.199 Y-11.99
X-118.346 Y-11.963
X-118.488 Y-12.01
X-118.61 Y-12.099
X-118.708 Y-12.212
X-118.781 Y-12.343
X-118.827 Y-12.485
X-118.84 Y-12.635
X-118.837 Y-12.658
X-118.796 Y-12.769
X-118.715 Y-12.856
X-118.606 Y-12.904
X-118.382 Y-12.954
X-118.343
X-118.307 Y-12.938
X-118.279 Y-12.91
X-118.265 Y-12.874
X-118.239 Y-12.732
X-118.127 Y-12.104
Y-12.067
X-118.141 Y-12.033
X-118.166 Y-12.006
X-118.199 Y-11.99
X-118.454 Y-11.929
X-118.527 Y-11.915
X-118.675 Y-11.942
X-118.802 Y-12.021
X-118.906 Y-12.129
X-118.987 Y-12.256
X-119.042 Y-12.396
X-119.06 Y-12.514
X-119.057 Y-12.626
X-119.012 Y-12.73
X-118.933 Y-12.809
X-118.83 Y-12.854
X-118.606 Y-12.904
X-118.574 Y-12.905
X-118.543 Y-12.895
X-118.517 Y-12.876
X-118.498 Y-12.85
X-118.489 Y-12.819
X-118.469 Y-12.675
X-118.381 Y-12.039
X-118.383 Y-12.003
X-118.397 Y-11.97
X-118.421 Y-11.945
X-118.454 Y-11.929
X-118.66 Y-11.879
X-118.734 Y-11.866
X-118.882 Y-11.886
X-119.012 Y-11.96
X-119.119 Y-12.066
X-119.202 Y-12.191
X-119.258 Y-12.33
X-119.287 Y-12.477
X-119.285 Y-12.527
X-119.251 Y-12.651
X-119.168 Y-12.75
X-119.051 Y-12.804
X-118.83 Y-12.854
X-118.79 Y-12.853
X-118.754 Y-12.837
X-118.726 Y-12.808
X-118.712 Y-12.771
X-118.689 Y-12.623
X-118.588 Y-11.992
X-118.589 Y-11.955
X-118.602 Y-11.922
X-118.627 Y-11.895
X-118.66 Y-11.879
X-118.876 Y-11.828
X-118.949 Y-11.814
X-119.098 Y-11.831
X-119.229 Y-11.904
X-119.337 Y-12.009
X-119.42 Y-12.134
X-119.48 Y-12.271
X-119.507 Y-12.419
X-119.506 Y-12.47
X-119.474 Y-12.597
X-119.391 Y-12.698
X-119.273 Y-12.754
X-119.051 Y-12.804
X-119.011
X-118.975 Y-12.788
X-118.948 Y-12.759
X-118.934 Y-12.722
X-118.909 Y-12.571
X-118.804 Y-11.94
Y-11.904
X-118.818 Y-11.87
X-118.843 Y-11.844
X-118.876 Y-11.828
X-119.114 Y-11.771
X-119.187 Y-11.757
X-119.335 Y-11.783
X-119.463 Y-11.86
X-119.569 Y-11.967
X-119.65 Y-12.094
X-119.706 Y-12.233
X-119.729 Y-12.381
X-119.727 Y-12.426
X-119.693 Y-12.55
X-119.611 Y-12.648
X-119.495 Y-12.703
X-119.273 Y-12.754
X-119.241 Y-12.755
X-119.21 Y-12.746
X-119.184 Y-12.727
X-119.165 Y-12.701
X-119.155 Y-12.67
X-119.133 Y-12.516
X-119.041 Y-11.882
X-119.042 Y-11.846
X-119.056 Y-11.813
X-119.081 Y-11.786
X-119.114 Y-11.771
X-119.299 Y-11.726
X-119.337 Y-11.716
X-119.41 Y-11.702
X-119.558 Y-11.729
X-119.686 Y-11.807
X-119.791 Y-11.914
X-119.871 Y-12.041
X-119.928 Y-12.18
X-119.952 Y-12.328
X-119.949 Y-12.372
X-119.917 Y-12.493
X-119.838 Y-12.591
X-119.725 Y-12.647
X-119.675 Y-12.66
X-119.495 Y-12.703
X-119.463 Y-12.704
X-119.432 Y-12.695
X-119.405 Y-12.676
X-119.387 Y-12.65
X-119.377 Y-12.619
X-119.355 Y-12.463
X-119.265 Y-11.826
X-119.267 Y-11.791
X-119.28 Y-11.758
X-119.305 Y-11.732
X-119.337 Y-11.716
X-119.506 Y-11.674
X-119.552 Y-11.661
X-119.626 Y-11.645
X-119.773 Y-11.671
X-119.902 Y-11.748
X-120.008 Y-11.854
X-120.09 Y-11.98
X-120.148 Y-12.118
X-120.174 Y-12.266
X-120.172 Y-12.309
X-120.141 Y-12.432
X-120.062 Y-12.531
X-119.949 Y-12.588
X-119.725 Y-12.647
X-119.693 Y-12.649
X-119.661 Y-12.64
X-119.634 Y-12.622
X-119.615 Y-12.596
X-119.605 Y-12.565
X-119.581 Y-12.408
X-119.483 Y-11.772
X-119.484 Y-11.736
X-119.497 Y-11.704
X-119.521 Y-11.677
X-119.552 Y-11.661
X-119.76 Y-11.604
X-119.833 Y-11.587
X-119.981 Y-11.609
X-120.112 Y-11.683
X-120.22 Y-11.787
X-120.305 Y-11.91
X-120.365 Y-12.047
X-120.394 Y-12.195
Y-12.243
X-120.365 Y-12.367
X-120.287 Y-12.468
X-120.174 Y-12.528
X-119.949 Y-12.588
X-119.917 Y-12.59
X-119.885 Y-12.582
X-119.859 Y-12.564
X-119.839 Y-12.538
X-119.828 Y-12.508
X-119.801 Y-12.349
X-119.691 Y-11.716
X-119.692 Y-11.681
X-119.704 Y-11.647
X-119.728 Y-11.621
X-119.76 Y-11.604
X-119.844 Y-11.576
X-119.929 Y-11.547
X-120.001 Y-11.526
X-120.151 Y-11.524
X-120.287 Y-11.586
X-120.403 Y-11.681
X-120.497 Y-11.798
X-120.567 Y-11.931
X-120.609 Y-12.075
X-120.62 Y-12.225
X-120.619 Y-12.23
X-120.58 Y-12.33
X-120.508 Y-12.411
X-120.412 Y-12.46
X-120.352 Y-12.478
X-120.174 Y-12.528
X-120.135 Y-12.529
X-120.098 Y-12.516
X-120.07 Y-12.489
X-120.053 Y-12.454
X-120.014 Y-12.288
X-119.868 Y-11.663
X-119.866 Y-11.628
X-119.876 Y-11.594
X-119.898 Y-11.566
X-119.929 Y-11.547
X-120.014 Y-11.517
X-120.098 Y-11.487
X-120.145 Y-11.468
X-120.216 Y-11.445
X-120.366 Y-11.451
X-120.502 Y-11.513
X-120.618 Y-11.608
X-120.712 Y-11.724
X-120.784 Y-11.856
X-120.832 Y-11.998
X-120.839 Y-12.067
X-120.823 Y-12.196
X-120.754 Y-12.307
X-120.645 Y-12.378
X-120.436 Y-12.453
X-120.412 Y-12.46
X-120.372 Y-12.463
X-120.335 Y-12.45
X-120.306 Y-12.423
X-120.289 Y-12.388
X-120.244 Y-12.21
X-120.087 Y-11.585
X-120.085 Y-11.55
X-120.095 Y-11.516
X-120.115 Y-11.488
X-120.145 Y-11.468
X-120.352 Y-11.387
X-120.422 Y-11.362
X-120.572 Y-11.369
X-120.709 Y-11.43
X-120.826 Y-11.524
X-120.923 Y-11.639
X-120.999 Y-11.768
X-121.046 Y-11.91
X-121.054 Y-11.967
X-121.042 Y-12.094
X-120.98 Y-12.204
X-120.877 Y-12.279
X-120.686 Y-12.362
X-120.645 Y-12.378
X-120.613 Y-12.383
X-120.581 Y-12.377
X-120.552 Y-12.362
X-120.53 Y-12.339
X-120.517 Y-12.309
X-120.467 Y-12.126
X-120.297 Y-11.504
X-120.294 Y-11.469
X-120.303 Y-11.436
X-120.323 Y-11.407
X-120.352 Y-11.387
X-120.444 Y-11.349
X-120.521 Y-11.313
X-120.59 Y-11.284
X-120.74 Y-11.272
X-120.881 Y-11.322
X-121.005 Y-11.407
X-121.11 Y-11.514
X-121.193 Y-11.639
X-121.25 Y-11.777
X-121.279 Y-11.925
X-121.252 Y-12.028
X-121.192 Y-12.116
X-121.104 Y-12.177
X-120.944 Y-12.249
X-120.877 Y-12.279
X-120.845 Y-12.286
X-120.813 Y-12.282
X-120.784 Y-12.269
X-120.761 Y-12.247
X-120.745 Y-12.219
X-120.684 Y-12.042
X-120.473 Y-11.434
X-120.468 Y-11.399
X-120.475 Y-11.365
X-120.493 Y-11.335
X-120.521 Y-11.313
X-120.606 Y-11.272
X-120.617 Y-11.264
X-120.657 Y-11.234
X-120.72 Y-11.192
X-120.864 Y-11.152
X-121.011 Y-11.182
X-121.144 Y-11.251
X-121.26 Y-11.346
X-121.356 Y-11.462
X-121.43 Y-11.592
X-121.483 Y-11.732
X-121.487 Y-11.773
X-121.476 Y-11.894
X-121.418 Y-12.001
X-121.321 Y-12.076
X-121.282 Y-12.095
X-121.104 Y-12.177
X-121.066 Y-12.184
X-121.029 Y-12.177
X-120.996 Y-12.157
X-120.974 Y-12.125
X-120.896 Y-11.95
X-120.629 Y-11.352
X-120.621 Y-11.321
X-120.623 Y-11.288
X-120.636 Y-11.258
X-120.657 Y-11.234
X-120.842 Y-11.095
X-120.904 Y-11.053
X-121.052 Y-11.028
X-121.198 Y-11.06
X-121.332 Y-11.128
X-121.449 Y-11.222
X-121.549 Y-11.334
X-121.631 Y-11.459
X-121.686 Y-11.599
X-121.689 Y-11.617
X-121.69 Y-11.712
X-121.661 Y-11.803
X-121.605 Y-11.88
X-121.536 Y-11.949
X-121.494 Y-11.987
X-121.483 Y-11.995
X-121.426 Y-12.024
X-121.321 Y-12.076
X-121.284 Y-12.085
X-121.245 Y-12.079
X-121.212 Y-12.058
X-121.19 Y-12.027
X-121.088 Y-11.808
X-120.814 Y-11.215
X-120.805 Y-11.183
X-120.807 Y-11.15
X-120.82 Y-11.12
X-120.842 Y-11.095
X-120.859 Y-11.082
X-120.944 Y-11.001
X-120.966 Y-10.978
X-121.021 Y-10.927
X-121.164 Y-10.884
X-121.313 Y-10.901
X-121.453 Y-10.955
X-121.58 Y-11.035
X-121.691 Y-11.136
X-121.785 Y-11.253
X-121.859 Y-11.383
X-121.863 Y-11.395
X-121.876 Y-11.503
X-121.85 Y-11.609
X-121.788 Y-11.698
X-121.605 Y-11.88
X-121.576 Y-11.899
X-121.542 Y-11.907
X-121.508 Y-11.903
X-121.477 Y-11.887
X-121.453 Y-11.862
X-121.314 Y-11.648
X-120.956 Y-11.1
X-120.943 Y-11.07
X-120.94 Y-11.037
X-120.948 Y-11.006
X-120.966 Y-10.978
X-121.016 Y-10.926
X-121.087 Y-10.842
X-121.137 Y-10.787
X-121.277 Y-10.732
X-121.427 Y-10.736
X-121.571 Y-10.778
X-121.705 Y-10.846
X-121.824 Y-10.936
X-121.929 Y-11.044
X-121.98 Y-11.117
X-122.027 Y-11.226
X-122.028 Y-11.346
X-121.982 Y-11.456
X-121.883 Y-11.602
X-121.875 Y-11.612
X-121.788 Y-11.698
X-121.761 Y-11.717
X-121.728 Y-11.725
X-121.695 Y-11.722
X-121.665 Y-11.709
X-121.641 Y-11.686
X-121.485 Y-11.483
X-121.086 Y-10.964
X-121.071 Y-10.935
X-121.066 Y-10.903
X-121.071 Y-10.871
X-121.087 Y-10.842
X-121.113 Y-10.81
X-121.15 Y-10.757
X-121.165 Y-10.732
X-121.205 Y-10.669
X-121.326 Y-10.58
X-121.474 Y-10.556
X-121.623 Y-10.574
X-121.765 Y-10.623
X-121.896 Y-10.696
X-122.015 Y-10.787
X-122.116 Y-10.899
X-122.135 Y-10.93
X-122.168 Y-11.006
X-122.179 Y-11.089
X-122.166 Y-11.172
X-122.164 Y-11.18
X-122.157 Y-11.194
X-122.111 Y-11.264
X-121.982 Y-11.456
X-121.958 Y-11.479
X-121.927 Y-11.493
X-121.893 Y-11.497
X-121.86 Y-11.488
X-121.832 Y-11.469
X-121.659 Y-11.304
X-121.184 Y-10.851
X-121.165 Y-10.826
X-121.154 Y-10.795
Y-10.763
X-121.165 Y-10.732
X-121.199 Y-10.673
X-121.235 Y-10.588
X-121.265 Y-10.52
X-121.372 Y-10.415
X-121.516 Y-10.372
X-121.666 Y-10.37
X-121.813 Y-10.401
X-121.952 Y-10.457
X-122.081 Y-10.534
X-122.144 Y-10.586
X-122.216 Y-10.672
X-122.251 Y-10.778
X-122.245 Y-10.889
X-122.236 Y-10.926
X-122.189 Y-11.095
X-122.166 Y-11.172
X-122.148 Y-11.204
X-122.12 Y-11.228
X-122.084 Y-11.239
X-122.048 Y-11.237
X-122.014 Y-11.222
X-121.81 Y-11.079
X-121.272 Y-10.702
X-121.249 Y-10.68
X-121.235 Y-10.651
X-121.23 Y-10.62
X-121.235 Y-10.588
X-121.266 Y-10.504
X-121.296 Y-10.419
X-121.32 Y-10.349
X-121.42 Y-10.237
X-121.559 Y-10.181
X-121.708 Y-10.166
X-121.858 Y-10.181
X-122.002 Y-10.222
X-122.138 Y-10.286
X-122.184 Y-10.319
X-122.263 Y-10.402
X-122.306 Y-10.509
X-122.305 Y-10.623
X-122.295 Y-10.673
X-122.257 Y-10.842
X-122.245 Y-10.889
X-122.229 Y-10.922
X-122.203 Y-10.946
X-122.17 Y-10.96
X-122.134 Y-10.961
X-122.1 Y-10.949
X-121.919 Y-10.848
X-121.345 Y-10.528
X-121.32 Y-10.508
X-121.302 Y-10.482
X-121.294 Y-10.451
X-121.296 Y-10.419
X-121.317 Y-10.335
X-121.335 Y-10.251
X-121.35 Y-10.177
X-121.44 Y-10.057
X-121.573 Y-9.988
X-121.72 Y-9.956
X-121.87
X-122.017 Y-9.981
X-122.159 Y-10.031
X-122.191 Y-10.05
X-122.275 Y-10.124
X-122.326 Y-10.225
X-122.337 Y-10.338
X-122.312 Y-10.588
X-122.305 Y-10.623
X-122.291 Y-10.655
X-122.267 Y-10.68
X-122.236 Y-10.696
X-122.202 Y-10.7
X-122.168 Y-10.692
X-121.997 Y-10.617
X-121.394 Y-10.354
X-121.367 Y-10.336
X-121.347 Y-10.312
X-121.336 Y-10.282
X-121.335 Y-10.251
X-121.36 Y-10.082
X-121.375 Y-10.008
X-121.448 Y-9.877
X-121.573 Y-9.794
X-121.715 Y-9.747
X-121.865 Y-9.731
X-122.014 Y-9.741
X-122.159 Y-9.779
X-122.184 Y-9.792
X-122.264 Y-9.85
X-122.321 Y-9.93
X-122.349 Y-10.025
X-122.358 Y-10.103
Y-10.124
X-122.337 Y-10.338
X-122.326 Y-10.37
X-122.306 Y-10.398
X-122.277 Y-10.416
X-122.243 Y-10.424
X-122.209 Y-10.42
X-122.05 Y-10.373
X-121.431 Y-10.189
X-121.4 Y-10.173
X-121.376 Y-10.148
X-121.362 Y-10.116
X-121.36 Y-10.082
X-121.367 Y-10.036
X-121.372 Y-9.997
X-121.373 Y-9.913
X-121.375 Y-9.838
X-121.433 Y-9.699
X-121.547 Y-9.603
X-121.684 Y-9.541
X-121.831 Y-9.509
X-121.98 Y-9.504
X-122.13 Y-9.528
X-122.221 Y-9.584
X-122.287 Y-9.669
X-122.319 Y-9.772
X-122.349 Y-10.025
X-122.345 Y-10.061
X-122.329 Y-10.094
X-122.302 Y-10.118
X-122.269 Y-10.132
X-122.232
X-122.104 Y-10.11
X-121.455 Y-9.998
X-121.425 Y-9.988
X-121.4 Y-9.969
X-121.382 Y-9.943
X-121.373 Y-9.913
X-121.367 Y-9.851
X-121.352 Y-9.744
X-121.343 Y-9.669
X-121.39 Y-9.527
X-121.493 Y-9.418
X-121.622 Y-9.341
X-121.764 Y-9.293
X-121.912 Y-9.272
X-122.062 Y-9.279
X-122.065 Y-9.28
X-122.165 Y-9.33
X-122.239 Y-9.413
X-122.278 Y-9.518
X-122.302 Y-9.659
X-122.316 Y-9.744
X-122.319 Y-9.772
X-122.316 Y-9.806
X-122.301 Y-9.837
X-122.277 Y-9.862
X-122.246 Y-9.877
X-122.212 Y-9.88
X-122.097 Y-9.872
X-121.443 Y-9.823
X-121.411 Y-9.816
X-121.384 Y-9.799
X-121.364 Y-9.774
X-121.352 Y-9.744
X-121.324 Y-9.575
X-121.315 Y-9.5
X-121.341 Y-9.353
X-121.432 Y-9.234
X-121.552 Y-9.144
X-121.689 Y-9.082
X-121.835 Y-9.047
X-121.916 Y-9.044
X-122.046 Y-9.069
X-122.152 Y-9.146
X-122.215 Y-9.262
X-122.255 Y-9.406
X-122.273 Y-9.49
X-122.278 Y-9.518
X-122.277 Y-9.551
X-122.265 Y-9.582
X-122.243 Y-9.608
X-122.215 Y-9.624
X-122.182 Y-9.631
X-122.07 Y-9.635
X-121.425 Y-9.655
X-121.39 Y-9.65
X-121.36 Y-9.633
X-121.336 Y-9.607
X-121.324 Y-9.575
X-121.309 Y-9.49
X-121.283 Y-9.406
X-121.263 Y-9.334
X-121.274 Y-9.184
X-121.353 Y-9.056
X-121.464 Y-8.955
X-121.593 Y-8.88
X-121.736 Y-8.833
X-121.885 Y-8.817
X-121.901 Y-8.819
X-121.985 Y-8.844
X-122.058 Y-8.892
X-122.114 Y-8.959
X-122.141 Y-9.005
X-122.148 Y-9.026
X-122.215 Y-9.262
X-122.217 Y-9.296
X-122.208 Y-9.329
X-122.189 Y-9.356
X-122.162 Y-9.376
X-122.129 Y-9.385
X-122.036 Y-9.396
X-121.388 Y-9.47
X-121.355 Y-9.469
X-121.324 Y-9.456
X-121.299 Y-9.435
X-121.283 Y-9.406
X-121.227 Y-9.237
X-121.211 Y-9.197
X-121.187 Y-9.126
X-121.212 Y-8.978
X-121.291 Y-8.85
X-121.4 Y-8.747
X-121.527 Y-8.668
X-121.667 Y-8.614
X-121.691 Y-8.611
X-121.806 Y-8.618
X-121.909 Y-8.667
X-121.987 Y-8.751
X-122.114 Y-8.959
X-122.126 Y-8.995
X-122.124 Y-9.032
X-122.109 Y-9.066
X-122.082 Y-9.092
X-122.047 Y-9.106
X-121.958 Y-9.125
X-121.323 Y-9.255
X-121.289 Y-9.256
X-121.256 Y-9.246
X-121.229 Y-9.225
X-121.211 Y-9.197
X-121.193 Y-9.152
X-121.145 Y-9.068
X-121.108 Y-9.003
X-121.101 Y-8.853
X-121.158 Y-8.714
X-121.251 Y-8.596
X-121.367 Y-8.501
X-121.5 Y-8.431
X-121.534 Y-8.423
X-121.647 Y-8.416
X-121.754 Y-8.452
X-121.84 Y-8.524
X-121.87 Y-8.561
X-121.987 Y-8.751
X-121.999 Y-8.785
X-121.998 Y-8.821
X-121.985 Y-8.854
X-121.961 Y-8.88
X-121.929 Y-8.896
X-121.889 Y-8.908
X-121.252 Y-9.101
X-121.213 Y-9.105
X-121.175 Y-9.093
X-121.145 Y-9.068
X-121.052 Y-8.945
X-121.01 Y-8.883
X-120.978 Y-8.737
X-121.015 Y-8.591
X-121.091 Y-8.462
X-121.194 Y-8.353
X-121.318 Y-8.268
X-121.351 Y-8.256
X-121.471 Y-8.236
X-121.589 Y-8.266
X-121.686 Y-8.34
X-121.801 Y-8.477
X-121.84 Y-8.524
X-121.856 Y-8.555
X-121.86 Y-8.59
X-121.852 Y-8.625
X-121.832 Y-8.654
X-121.803 Y-8.675
X-121.763 Y-8.694
X-121.173 Y-8.972
X-121.141 Y-8.981
X-121.108 Y-8.98
X-121.077 Y-8.967
X-121.052 Y-8.945
X-120.951 Y-8.815
X-120.944 Y-8.806
X-120.896 Y-8.748
X-120.85 Y-8.605
X-120.874 Y-8.457
X-120.938 Y-8.321
X-121.031 Y-8.203
X-121.149 Y-8.111
X-121.186 Y-8.093
X-121.312 Y-8.065
X-121.437 Y-8.093
X-121.54 Y-8.17
X-121.686 Y-8.34
X-121.703 Y-8.371
X-121.708 Y-8.405
X-121.701 Y-8.439
X-121.683 Y-8.468
X-121.656 Y-8.49
X-121.638 Y-8.501
X-121.061 Y-8.821
X-121.032 Y-8.831
X-121 Y-8.832
X-120.97 Y-8.824
X-120.944 Y-8.806
X-120.869 Y-8.73
X-120.801 Y-8.671
X-120.747 Y-8.619
X-120.705 Y-8.475
X-120.722 Y-8.326
X-120.777 Y-8.186
X-120.861 Y-8.062
X-120.918 Y-8.011
X-121.03 Y-7.948
X-121.157 Y-7.937
X-121.278 Y-7.981
X-121.452 Y-8.09
X-121.483 Y-8.11
X-121.514 Y-8.139
X-121.54 Y-8.17
X-121.557 Y-8.2
X-121.562 Y-8.233
X-121.556 Y-8.267
X-121.539 Y-8.296
X-121.514 Y-8.318
X-121.484 Y-8.336
X-120.916 Y-8.679
X-120.888 Y-8.69
X-120.858 Y-8.693
X-120.828 Y-8.686
X-120.801 Y-8.671
X-120.674 Y-8.561
X-120.62 Y-8.51
X-120.556 Y-8.374
Y-8.224
X-120.597 Y-8.08
X-120.674 Y-7.951
X-120.715 Y-7.908
X-120.828 Y-7.834
X-120.962 Y-7.818
X-121.09 Y-7.862
X-121.278 Y-7.981
X-121.304 Y-8.006
X-121.319 Y-8.039
X-121.321 Y-8.076
X-121.31 Y-8.11
X-121.287 Y-8.139
X-120.802 Y-8.559
X-120.772 Y-8.576
X-120.738 Y-8.583
X-120.704 Y-8.578
X-120.674 Y-8.561
X-120.606 Y-8.503
X-120.557 Y-8.477
X-120.492 Y-8.439
X-120.402 Y-8.319
X-120.378 Y-8.171
X-120.4 Y-8.022
X-120.459 Y-7.885
X-120.551 Y-7.766
X-120.555 Y-7.763
X-120.655 Y-7.715
X-120.764 Y-7.706
X-120.87 Y-7.738
X-120.992 Y-7.801
X-121.09 Y-7.862
X-121.115 Y-7.887
X-121.13 Y-7.918
X-121.134 Y-7.953
X-121.125 Y-7.987
X-121.105 Y-8.015
X-120.671 Y-8.457
X-120.646 Y-8.475
X-120.617 Y-8.485
X-120.586 Y-8.486
X-120.557 Y-8.477
X-120.436 Y-8.414
X-120.392 Y-8.392
X-120.326 Y-8.356
X-120.23 Y-8.241
X-120.198 Y-8.094
X-120.209 Y-7.945
X-120.257 Y-7.802
X-120.293 Y-7.748
X-120.394 Y-7.654
X-120.526 Y-7.614
X-120.663 Y-7.639
X-120.775 Y-7.689
X-120.87 Y-7.738
X-120.896 Y-7.76
X-120.914 Y-7.79
X-120.921 Y-7.824
X-120.915 Y-7.858
X-120.898 Y-7.888
X-120.51 Y-8.364
X-120.486 Y-8.386
X-120.456 Y-8.398
X-120.423 Y-8.401
X-120.392 Y-8.392
X-120.352 Y-8.373
X-120.231 Y-8.32
X-120.164 Y-8.288
X-120.057 Y-8.182
X-120.013 Y-8.038
X-120.011 Y-7.888
X-120.051 Y-7.744
X-120.125 Y-7.613
X-120.133 Y-7.607
X-120.231 Y-7.545
X-120.345 Y-7.525
X-120.458 Y-7.55
X-120.663 Y-7.639
X-120.691 Y-7.659
X-120.711 Y-7.687
X-120.719 Y-7.721
X-120.716 Y-7.755
X-120.701 Y-7.787
X-120.348 Y-8.285
X-120.325 Y-8.308
X-120.296 Y-8.323
X-120.263 Y-8.327
X-120.231 Y-8.32
X-120.098 Y-8.264
X-120.051 Y-8.246
X-119.983 Y-8.216
X-119.874 Y-8.113
X-119.823 Y-7.972
X-119.816 Y-7.822
X-119.846 Y-7.675
X-119.915 Y-7.542
X-119.996 Y-7.478
X-120.091 Y-7.447
X-120.191 Y-7.448
X-120.22 Y-7.453
X-120.239 Y-7.458
X-120.258 Y-7.463
X-120.458 Y-7.55
X-120.485 Y-7.569
X-120.505 Y-7.597
X-120.514 Y-7.629
X-120.512 Y-7.663
X-120.499 Y-7.694
X-120.168 Y-8.206
X-120.145 Y-8.23
X-120.116 Y-8.246
X-120.084 Y-8.252
X-120.051 Y-8.246
X-119.989 Y-8.223
X-119.844 Y-8.173
X-119.775 Y-8.146
X-119.675 Y-8.033
X-119.627 Y-7.891
X-119.619 Y-7.741
X-119.646 Y-7.594
X-119.659 Y-7.569
X-119.739 Y-7.47
X-119.853 Y-7.414
X-119.98 Y-7.409
X-120.191 Y-7.448
X-120.225 Y-7.462
X-120.252 Y-7.488
X-120.267 Y-7.522
X-120.269 Y-7.559
X-120.257 Y-7.594
X-119.961 Y-8.126
X-119.94 Y-8.153
X-119.911 Y-8.171
X-119.878 Y-8.178
X-119.844 Y-8.173
X-119.781 Y-8.152
X-119.76 Y-8.147
X-119.709 Y-8.139
X-119.635 Y-8.123
X-119.512 Y-8.037
X-119.441 Y-7.905
X-119.412 Y-7.758
X-119.423 Y-7.609
X-119.439 Y-7.564
X-119.516 Y-7.449
X-119.636 Y-7.38
X-119.774 Y-7.372
X-119.98 Y-7.409
X-120.012 Y-7.423
X-120.038 Y-7.447
X-120.054 Y-7.478
X-120.058 Y-7.514
X-120.05 Y-7.548
X-119.812 Y-8.08
X-119.795 Y-8.107
X-119.77 Y-8.127
X-119.74 Y-8.138
X-119.709 Y-8.139
X-119.506 Y-8.107
X-119.432 Y-8.095
X-119.312 Y-8.004
X-119.239 Y-7.873
X-119.206 Y-7.727
X-119.219 Y-7.577
X-119.234 Y-7.535
X-119.305 Y-7.42
X-119.419 Y-7.349
X-119.553 Y-7.335
X-119.59 Y-7.339
X-119.774 Y-7.372
X-119.807 Y-7.386
X-119.833 Y-7.41
X-119.849 Y-7.441
X-119.853 Y-7.476
X-119.844 Y-7.511
X-119.605 Y-8.048
X-119.589 Y-8.074
X-119.565 Y-8.094
X-119.536 Y-8.105
X-119.506 Y-8.107
X-119.337 Y-8.087
X-119.263 Y-8.075
X-119.131 Y-8.003
X-119.046 Y-7.879
X-119.004 Y-7.735
Y-7.585
X-119.016 Y-7.54
X-119.08 Y-7.42
X-119.19 Y-7.341
X-119.324 Y-7.318
X-119.506 Y-7.329
X-119.553 Y-7.335
X-119.586 Y-7.346
X-119.613 Y-7.368
X-119.631 Y-7.398
X-119.638 Y-7.432
X-119.632 Y-7.466
X-119.439 Y-8.021
X-119.424 Y-8.049
X-119.399 Y-8.071
X-119.369 Y-8.085
X-119.337 Y-8.087
X-119.252 Y-8.077
X-119.121 Y-8.07
X-119.046 Y-8.063
X-118.921 Y-7.98
X-118.839 Y-7.854
X-118.797 Y-7.71
X-118.8 Y-7.56
X-118.809 Y-7.526
X-118.873 Y-7.408
X-118.982 Y-7.329
X-119.115 Y-7.306
X-119.324 Y-7.318
X-119.359 Y-7.328
X-119.388 Y-7.349
X-119.407 Y-7.38
X-119.415 Y-7.415
X-119.409 Y-7.45
X-119.217 Y-8.003
X-119.202 Y-8.031
X-119.18 Y-8.052
X-119.152 Y-8.066
X-119.121 Y-8.07
X-118.998 Y-8.064
X-118.952
X-118.877 Y-8.061
X-118.741 Y-7.996
X-118.648 Y-7.879
X-118.596 Y-7.738
X-118.586 Y-7.588
X-118.596 Y-7.539
X-118.653 Y-7.413
X-118.761 Y-7.326
X-118.896 Y-7.297
X-118.998 Y-7.3
X-119.115 Y-7.306
X-119.148 Y-7.315
X-119.177 Y-7.335
X-119.197 Y-7.364
X-119.205 Y-7.398
X-119.202 Y-7.433
X-119.044 Y-7.991
X-119.031 Y-8.02
X-119.01 Y-8.043
X-118.982 Y-8.058
X-118.952 Y-8.064
X-118.914
X-118.744 Y-8.069
X-118.669 Y-8.068
X-118.537 Y-7.998
X-118.444 Y-7.88
X-118.389 Y-7.741
X-118.378 Y-7.591
X-118.386 Y-7.544
X-118.436 Y-7.423
X-118.532 Y-7.335
X-118.656 Y-7.296
X-118.674 Y-7.294
X-118.747
X-118.896 Y-7.297
X-118.93 Y-7.305
X-118.96 Y-7.325
X-118.98 Y-7.353
X-118.99 Y-7.387
X-118.987 Y-7.423
X-118.833 Y-7.995
X-118.82 Y-8.023
X-118.8 Y-8.046
X-118.774 Y-8.062
X-118.744 Y-8.069
X-118.66 Y-8.073
X-118.575 Y-8.079
X-118.5 Y-8.081
X-118.359 Y-8.03
X-118.256 Y-7.921
X-118.191 Y-7.786
X-118.166 Y-7.638
X-118.171 Y-7.586
X-118.215 Y-7.455
X-118.313 Y-7.357
X-118.445 Y-7.314
X-118.656 Y-7.296
X-118.692 Y-7.3
X-118.723 Y-7.317
X-118.747 Y-7.343
X-118.76 Y-7.376
Y-7.412
X-118.663 Y-7.996
X-118.652 Y-8.027
X-118.633 Y-8.052
X-118.606 Y-8.071
X-118.575 Y-8.079
X-118.406 Y-8.093
X-118.359 Y-8.099
X-118.285 Y-8.105
X-118.148 Y-8.042
X-118.048 Y-7.931
X-117.982 Y-7.796
X-117.959 Y-7.648
X-117.963 Y-7.612
X-118.004 Y-7.486
X-118.096 Y-7.389
X-118.22 Y-7.342
X-118.406 Y-7.317
X-118.445 Y-7.314
X-118.48 Y-7.318
X-118.512 Y-7.335
X-118.535 Y-7.362
X-118.548 Y-7.396
Y-7.431
X-118.441 Y-8.018
X-118.431 Y-8.047
X-118.413 Y-8.072
X-118.388 Y-8.089
X-118.359 Y-8.099
X-118.19 Y-8.121
X-118.115 Y-8.127
X-117.972 Y-8.084
X-117.861 Y-7.983
X-117.787 Y-7.853
X-117.753 Y-7.707
X-117.755 Y-7.659
X-117.791 Y-7.525
X-117.884 Y-7.421
X-118.013 Y-7.371
X-118.22 Y-7.342
X-118.255 Y-7.345
X-118.287 Y-7.359
X-118.312 Y-7.384
X-118.327 Y-7.416
X-118.33 Y-7.451
X-118.273 Y-8.032
X-118.265 Y-8.064
X-118.247 Y-8.091
X-118.221 Y-8.111
X-118.19 Y-8.121
X-118.152 Y-8.126
X-118.068 Y-8.146
X-118.021 Y-8.159
X-117.948 Y-8.176
X-117.801 Y-8.146
X-117.683 Y-8.054
X-117.598 Y-7.93
X-117.551 Y-7.787
X-117.543 Y-7.637
X-117.546 Y-7.626
X-117.595 Y-7.522
X-117.679 Y-7.444
X-117.786 Y-7.404
X-117.82 Y-7.405
X-117.852 Y-7.418
X-117.878 Y-7.441
X-117.894 Y-7.471
X-118.085 Y-8.031
X-118.09 Y-8.07
X-118.08 Y-8.109
X-118.056 Y-8.14
X-118.021 Y-8.159
X-117.898 Y-8.193
X-117.852 Y-8.208
X-117.779 Y-8.228
X-117.63 Y-8.212
X-117.505 Y-8.129
X-117.412 Y-8.012
X-117.351 Y-7.874
X-117.325 Y-7.727
X-117.328 Y-7.703
X-117.369 Y-7.582
X-117.457 Y-7.488
X-117.576 Y-7.44
X-117.609 Y-7.441
X-117.64 Y-7.453
X-117.665 Y-7.474
X-117.682 Y-7.502
X-117.911 Y-8.077
X-117.918 Y-8.109
X-117.914 Y-8.14
X-117.901 Y-8.169
X-117.88 Y-8.193
X-117.852 Y-8.208
X-117.645 Y-8.278
X-117.573 Y-8.3
X-117.426 Y-8.27
X-117.303 Y-8.184
X-117.208 Y-8.068
X-117.142 Y-7.933
X-117.115 Y-7.786
X-117.116 Y-7.772
X-117.143 Y-7.666
X-117.206 Y-7.577
X-117.297 Y-7.516
X-117.333 Y-7.509
X-117.37 Y-7.517
X-117.401 Y-7.536
X-117.423 Y-7.567
X-117.43 Y-7.58
X-117.697 Y-8.142
X-117.706 Y-8.173
X-117.704 Y-8.206
X-117.693 Y-8.236
X-117.672 Y-8.261
X-117.645 Y-8.278
X-117.56 Y-8.309
X-117.475 Y-8.344
X-117.405 Y-8.369
X-117.256 Y-8.351
X-117.127 Y-8.274
X-117.023 Y-8.166
X-116.948 Y-8.036
X-116.907 Y-7.892
Y-7.887
X-116.928 Y-7.771
X-116.992 Y-7.672
X-117.089 Y-7.605
X-117.391 Y-7.477
X-117.475 Y-7.459
X-117.56 Y-7.442
X-117.814 Y-7.399
X-118.013 Y-7.371
X-118.052 Y-7.374
X-118.086 Y-7.392
X-118.111 Y-7.421
X-118.123 Y-7.458
X-118.12 Y-7.496
X-118.104 Y-7.53
X-117.956 Y-7.726
X-117.514 Y-8.313
X-117.497 Y-8.331
X-117.475 Y-8.344
X-117.333 Y-8.403
X-117.319 Y-8.41
X-117.253 Y-8.445
X-117.103 Y-8.446
X-116.966 Y-8.384
X-116.853 Y-8.286
X-116.767 Y-8.163
X-116.712 Y-8.023
X-116.71 Y-8.003
X-116.721 Y-7.882
X-116.779 Y-7.775
X-116.875 Y-7.7
X-116.968 Y-7.657
X-117.089 Y-7.605
X-117.123 Y-7.598
X-117.157 Y-7.604
X-117.187 Y-7.62
X-117.21 Y-7.646
X-117.223 Y-7.677
X-117.359 Y-8.308
X-117.36 Y-8.346
X-117.346 Y-8.382
X-117.319 Y-8.41
X-117.306 Y-8.419
X-117.196 Y-8.501
X-117.134 Y-8.542
X-116.986 Y-8.568
X-116.842 Y-8.525
X-116.717 Y-8.442
X-116.615 Y-8.331
X-116.539 Y-8.202
X-116.524 Y-8.144
X-116.517 Y-8.015
X-116.566 Y-7.895
X-116.661 Y-7.806
X-116.694 Y-7.795
X-116.729 Y-7.796
X-116.761 Y-7.809
X-116.787 Y-7.832
X-116.818 Y-7.871
X-117.212 Y-8.36
X-117.23 Y-8.394
X-117.233 Y-8.433
X-117.221 Y-8.471
X-117.196 Y-8.501
X-117.052 Y-8.607
X-116.99 Y-8.649
X-116.846 Y-8.689
X-116.699 Y-8.657
X-116.568 Y-8.585
X-116.456 Y-8.484
X-116.37 Y-8.361
X-116.316 Y-8.222
X-116.315 Y-8.213
X-116.325 Y-8.1
X-116.376 Y-7.999
X-116.461 Y-7.924
X-116.492 Y-7.913
X-116.525
X-116.556 Y-7.924
X-116.582 Y-7.944
X-116.64 Y-8.006
X-117.063 Y-8.461
X-117.081 Y-8.489
X-117.089 Y-8.52
X-117.087 Y-8.553
X-117.074 Y-8.583
X-117.052 Y-8.607
X-116.968 Y-8.671
X-116.894 Y-8.73
X-116.834 Y-8.775
X-116.689 Y-8.814
X-116.542 Y-8.787
X-116.407 Y-8.721
X-116.29 Y-8.627
X-116.196 Y-8.51
X-116.13 Y-8.376
X-116.126 Y-8.356
X-116.127 Y-8.232
X-116.177 Y-8.12
X-116.268 Y-8.037
X-116.299 Y-8.026
X-116.331
X-116.362 Y-8.036
X-116.388 Y-8.056
X-116.466 Y-8.136
X-116.899 Y-8.586
X-116.918 Y-8.613
X-116.927 Y-8.643
X-116.926 Y-8.675
X-116.914 Y-8.705
X-116.894 Y-8.73
X-116.883 Y-8.739
X-116.799 Y-8.82
X-116.777 Y-8.844
X-116.725 Y-8.897
X-116.587 Y-8.956
X-116.437 Y-8.947
X-116.296 Y-8.897
X-116.169 Y-8.816
X-116.062 Y-8.711
X-115.976 Y-8.588
X-115.966 Y-8.562
X-115.947 Y-8.451
X-115.97 Y-8.341
X-116.032 Y-8.247
X-116.172 Y-8.103
X-116.189 Y-8.088
X-116.206 Y-8.074
X-116.67 Y-7.801
X-116.875 Y-7.7
X-116.911 Y-7.691
X-116.947 Y-7.696
X-116.979 Y-7.713
X-117.003 Y-7.741
X-117.015 Y-7.776
X-117.014 Y-7.812
X-116.955 Y-8.081
X-116.798 Y-8.801
X-116.79 Y-8.824
X-116.777 Y-8.844
X-116.714 Y-8.915
X-116.656 Y-8.984
X-116.606 Y-9.04
X-116.472 Y-9.107
X-116.322 Y-9.109
X-116.178 Y-9.069
X-116.045 Y-8.999
X-115.928 Y-8.905
X-115.832 Y-8.79
X-115.816 Y-8.758
X-115.784 Y-8.64
X-115.803 Y-8.518
X-115.869 Y-8.414
X-115.897 Y-8.395
X-115.93 Y-8.387
X-115.964 Y-8.39
X-115.995 Y-8.404
X-116.117 Y-8.488
X-116.632 Y-8.842
X-116.655 Y-8.864
X-116.67 Y-8.892
X-116.675 Y-8.924
X-116.67 Y-8.955
X-116.656 Y-8.984
X-116.522 Y-9.152
X-116.475 Y-9.211
X-116.337 Y-9.27
X-116.187 Y-9.273
X-116.041 Y-9.238
X-115.906 Y-9.174
X-115.784 Y-9.086
X-115.684 Y-8.974
X-115.67 Y-8.949
X-115.635 Y-8.844
X-115.639 Y-8.734
X-115.683 Y-8.634
X-115.71 Y-8.608
X-115.745 Y-8.594
X-115.782
X-115.816 Y-8.607
X-115.946 Y-8.687
X-116.486 Y-9.02
X-116.514 Y-9.046
X-116.53 Y-9.079
X-116.533 Y-9.117
X-116.522 Y-9.152
X-116.497 Y-9.195
X-116.476 Y-9.237
X-116.46 Y-9.275
X-116.428 Y-9.342
X-116.306 Y-9.43
X-116.159 Y-9.46
X-116.01 Y-9.448
X-115.866 Y-9.405
X-115.733 Y-9.335
X-115.614 Y-9.244
X-115.568 Y-9.19
X-115.509 Y-9.077
X-115.503 Y-8.949
X-115.55 Y-8.83
X-115.575 Y-8.806
X-115.607 Y-8.792
X-115.641 Y-8.789
X-115.674 Y-8.798
X-115.835 Y-8.875
X-116.41 Y-9.149
X-116.439 Y-9.171
X-116.459 Y-9.202
X-116.467 Y-9.238
X-116.46 Y-9.275
X-116.389 Y-9.445
X-116.357 Y-9.513
X-116.241 Y-9.608
X-116.096 Y-9.648
X-115.946 Y-9.649
X-115.799 Y-9.618
X-115.66 Y-9.563
X-115.533 Y-9.482
X-115.426 Y-9.378
X-115.419 Y-9.367
X-115.383 Y-9.288
X-115.371 Y-9.202
X-115.384 Y-9.116
X-115.404 Y-9.083
X-115.434 Y-9.06
X-115.471 Y-9.049
X-115.509 Y-9.054
X-115.732 Y-9.125
X-116.326 Y-9.315
X-116.355 Y-9.33
X-116.377 Y-9.353
X-116.391 Y-9.382
X-116.395 Y-9.414
X-116.389 Y-9.445
X-116.37 Y-9.49
X-116.326 Y-9.617
X-116.318 Y-9.638
X-116.306 Y-9.659
X-116.283 Y-9.688
X-116.255 Y-9.705
X-116.222 Y-9.709
X-116.19 Y-9.699
X-116.165 Y-9.677
X-116.152 Y-9.646
Y-9.613
X-116.167 Y-9.583
X-116.174 Y-9.573
X-116.2 Y-9.552
X-116.232 Y-9.543
X-116.265 Y-9.548
X-116.293 Y-9.566
X-116.31 Y-9.594
X-116.315 Y-9.627
X-116.306 Y-9.659
X-116.291 Y-9.68
X-116.28 Y-9.691
X-116.27 Y-9.699
X-116.259 Y-9.705
X-116.249 Y-9.71
X-116.238 Y-9.713
X-116.228 Y-9.715
X-116.206 Y-9.716
X-115.737
X-115.699
X-115.652
X-115.502 Y-9.708
X-115.453 Y-9.679
X-115.356 Y-9.589
X-115.308 Y-9.465
X-115.318 Y-9.332
X-115.334 Y-9.302
X-115.36 Y-9.28
X-115.391 Y-9.267
X-115.425 Y-9.266
X-115.458 Y-9.276
X-115.485 Y-9.296
X-115.722 Y-9.547
X-115.742 Y-9.579
X-115.749 Y-9.617
X-115.741 Y-9.654
X-115.72 Y-9.686
X-115.689 Y-9.707
X-115.652 Y-9.716
X-115.398
X-115.36
X-115.339 Y-9.715
X-115.315 Y-9.708
X-115.307 Y-9.705
X-115.287 Y-9.684
X-115.279 Y-9.656
X-115.284 Y-9.627
X-115.302 Y-9.604
X-115.329 Y-9.593
X-115.359 Y-9.594
X-115.384 Y-9.61
X-115.399 Y-9.635
X-115.401 Y-9.664
X-115.389 Y-9.691
X-115.367 Y-9.709
X-115.339 Y-9.715
X-115.329 Y-9.713
X-115.318 Y-9.71
X-115.307 Y-9.705
X-115.297 Y-9.699
X-115.286 Y-9.691
X-115.276 Y-9.68
X-115.268 Y-9.67
X-115.25 Y-9.638
X-115.246 Y-9.628
X-115.243 Y-9.617
X-115.242 Y-9.606
X-115.241 Y-9.596
X-115.242 Y-9.585
X-115.243 Y-9.575
X-115.399 Y-9.068
X-115.407 Y-9.047
X-115.417 Y-9.027
X-115.732 Y-8.561
X-115.755 Y-8.532
X-116.032 Y-8.247
X-116.065 Y-8.226
X-116.103 Y-8.219
X-116.142 Y-8.228
X-116.174 Y-8.25
X-116.2 Y-8.278 Z-0.982
X-116.222 Y-8.301 Z-0.961
X-116.237 Y-8.317 Z-0.928
X-116.243 Y-8.322 Z-0.89
G0 Z2
X-116.04 Y-13.339
Z-0.79
G1 Z-0.89 F1000
X-116.041 Y-13.346 Z-0.928
X-116.045 Y-13.367 Z-0.961
X-116.051 Y-13.399 Z-0.982
X-116.058 Y-13.437 Z-0.99
G3 X-116.002 Y-14.22 I1.557 J-0.283
G1 X-115.953 Y-14.355
X-115.94 Y-14.389
X-115.916 Y-14.474
X-115.895 Y-14.546
X-115.81 Y-14.669
X-115.682 Y-14.749
X-115.538 Y-14.79
X-115.388 Y-14.799
X-115.24 Y-14.777
X-115.099 Y-14.726
X-114.968 Y-14.652
X-114.931 Y-14.622
X-114.864 Y-14.549
X-114.825 Y-14.457
X-114.818 Y-14.358
X-114.824 Y-14.305
X-114.834 Y-14.22
X-114.873 Y-14.04
X-114.888 Y-14.009
X-114.912 Y-13.984
X-114.944 Y-13.969
X-114.978 Y-13.966
X-115.012 Y-13.974
X-115.265 Y-14.091
X-115.859 Y-14.365
X-115.886 Y-14.384
X-115.906 Y-14.41
X-115.916 Y-14.441
Y-14.474
X-115.898 Y-14.558
X-115.879 Y-14.689
X-115.865 Y-14.763
X-115.775 Y-14.883
X-115.647 Y-14.962
X-115.504 Y-15.005
X-115.354 Y-15.019
X-115.205 Y-15.005
X-115.06 Y-14.966
X-114.923 Y-14.904
X-114.918 Y-14.9
X-114.844 Y-14.826
X-114.8 Y-14.73
X-114.792 Y-14.626
X-114.818 Y-14.358
X-114.829 Y-14.324
X-114.851 Y-14.296
X-114.881 Y-14.278
X-114.916 Y-14.271
X-114.951 Y-14.277
X-115.199 Y-14.365
X-115.813 Y-14.584
X-115.842 Y-14.6
X-115.864 Y-14.625
X-115.877 Y-14.656
X-115.879 Y-14.689
X-115.861 Y-14.812
X-115.859 Y-14.854
X-115.856 Y-14.929
X-115.788 Y-15.063
X-115.67 Y-15.155
X-115.532 Y-15.214
X-115.385 Y-15.242
X-115.235 Y-15.245
X-115.087 Y-15.223
X-115.03 Y-15.205
X-114.93 Y-15.152
X-114.857 Y-15.065
X-114.822 Y-14.957
X-114.792 Y-14.727
X-114.788 Y-14.685
X-114.79 Y-14.643
X-114.792 Y-14.626
X-114.802 Y-14.594
X-114.822 Y-14.567
X-114.85 Y-14.548
X-114.882 Y-14.539
X-114.916 Y-14.542
X-115.145 Y-14.6
X-115.784 Y-14.763
X-115.813 Y-14.776
X-115.837 Y-14.796
X-115.853 Y-14.823
X-115.859 Y-14.854
X-115.861 Y-14.896
X-115.868 Y-14.958
X-115.881 Y-15.027
X-115.886 Y-15.064
X-115.849 Y-15.21
X-115.75 Y-15.322
X-115.623 Y-15.402
X-115.482 Y-15.452
X-115.334 Y-15.477
X-115.184 Y-15.478
X-115.106 Y-15.464
X-114.995 Y-15.421
X-114.911 Y-15.338
X-114.865 Y-15.228
X-114.849 Y-15.15
X-114.836 Y-15.065
X-114.822 Y-14.957
X-114.825 Y-14.922
X-114.84 Y-14.89
X-114.865 Y-14.865
X-114.898 Y-14.85
X-114.933 Y-14.848
X-115.138 Y-14.872
X-115.795 Y-14.95
X-115.825 Y-14.958
X-115.85 Y-14.975
X-115.87 Y-14.999
X-115.881 Y-15.027
X-115.913 Y-15.196
X-115.924 Y-15.27
X-115.88 Y-15.414
X-115.783 Y-15.528
X-115.66 Y-15.613
X-115.522 Y-15.672
X-115.376 Y-15.708
X-115.226 Y-15.716
X-115.176 Y-15.709
X-115.068 Y-15.673
X-114.981 Y-15.599
X-114.928 Y-15.498
X-114.9 Y-15.403
X-114.865 Y-15.228
Y-15.193
X-114.877 Y-15.161
X-114.9 Y-15.135
X-114.93 Y-15.118
X-114.964 Y-15.112
X-115.165 Y-15.113
X-115.817 Y-15.118
X-115.849 Y-15.124
X-115.879 Y-15.14
X-115.901 Y-15.165
X-115.913 Y-15.196
X-115.937 Y-15.318
X-115.953 Y-15.391
X-115.966 Y-15.464
X-115.927 Y-15.609
X-115.836 Y-15.728
X-115.718 Y-15.821
X-115.584 Y-15.889
X-115.441 Y-15.933
X-115.292 Y-15.949
X-115.258 Y-15.945
X-115.145 Y-15.912
X-115.054 Y-15.837
X-114.998 Y-15.733
X-114.928 Y-15.498
X-114.925 Y-15.463
X-114.935 Y-15.429
X-114.955 Y-15.401
X-114.984 Y-15.381
X-115.018 Y-15.373
X-115.202 Y-15.36
X-115.85 Y-15.318
X-115.883 Y-15.321
X-115.914 Y-15.336
X-115.938 Y-15.36
X-115.953 Y-15.391
X-115.955 Y-15.403
X-115.98 Y-15.487
X-116.005 Y-15.545
X-116.031 Y-15.616
X-116.013 Y-15.765
X-115.938 Y-15.894
X-115.831 Y-16
X-115.706 Y-16.082
X-115.568 Y-16.14
X-115.421 Y-16.174
X-115.322 Y-16.158
X-115.234 Y-16.11
X-115.166 Y-16.037
X-115.084 Y-15.91
X-115.03 Y-15.825
X-115.022 Y-15.808
X-114.998 Y-15.733
X-114.996 Y-15.699
X-115.004 Y-15.667
X-115.022 Y-15.639
X-115.049 Y-15.619
X-115.081 Y-15.608
X-115.249 Y-15.584
X-115.9 Y-15.489
X-115.932
X-115.962 Y-15.5
X-115.987 Y-15.519
X-116.005 Y-15.545
X-116.037 Y-15.621
X-116.082 Y-15.714
X-116.11 Y-15.784
X-116.103 Y-15.933
X-116.037 Y-16.068
X-115.94 Y-16.182
X-115.822 Y-16.275
X-115.689 Y-16.345
X-115.628 Y-16.362
X-115.51 Y-16.371
X-115.399 Y-16.334
X-115.31 Y-16.257
X-115.302 Y-16.248
X-115.166 Y-16.037
X-115.153 Y-16.003
Y-15.967
X-115.166 Y-15.933
X-115.191 Y-15.906
X-115.223 Y-15.89
X-115.345 Y-15.852
X-115.964 Y-15.665
X-115.998 Y-15.66
X-116.032 Y-15.668
X-116.061 Y-15.687
X-116.082 Y-15.714
X-116.157 Y-15.872
X-116.187 Y-15.941
X-116.202 Y-16.09
X-116.15 Y-16.231
X-116.063 Y-16.353
X-115.954 Y-16.456
X-115.825 Y-16.532
X-115.8 Y-16.54
X-115.686 Y-16.555
X-115.574 Y-16.526
X-115.482 Y-16.457
X-115.36 Y-16.322
X-115.31 Y-16.257
X-115.294 Y-16.225
X-115.291 Y-16.189
X-115.301 Y-16.154
X-115.323 Y-16.126
X-115.353 Y-16.106
X-115.441 Y-16.07
X-116.031 Y-15.827
X-116.067 Y-15.819
X-116.103 Y-15.825
X-116.134 Y-15.843
X-116.157 Y-15.872
X-116.176 Y-15.91
X-116.206 Y-15.959
X-116.232 Y-15.994
X-116.264 Y-16.029
X-116.288 Y-16.058
X-116.327 Y-16.203
X-116.297 Y-16.35
X-116.228 Y-16.483
X-116.13 Y-16.597
X-116.011 Y-16.687
X-115.98 Y-16.701
X-115.858 Y-16.726
X-115.737 Y-16.701
X-115.637 Y-16.628
X-115.482 Y-16.457
X-115.464 Y-16.425
X-115.459 Y-16.389
X-115.466 Y-16.353
X-115.487 Y-16.323
X-115.517 Y-16.302
X-115.549 Y-16.287
X-116.152 Y-16.009
X-116.181 Y-16.001
X-116.211
X-116.24 Y-16.011
X-116.264 Y-16.029
X-116.31 Y-16.079
X-116.346 Y-16.109
X-116.401 Y-16.161
X-116.465 Y-16.297
X-116.457 Y-16.446
X-116.406 Y-16.587
X-116.323 Y-16.713
X-116.216 Y-16.817
X-116.199 Y-16.827
X-116.098 Y-16.865
X-115.991 Y-16.864
X-115.891 Y-16.825
X-115.737 Y-16.731
X-115.718 Y-16.716
X-115.699 Y-16.696
X-115.637 Y-16.628
X-115.62 Y-16.599
X-115.613 Y-16.566
X-115.618 Y-16.533
X-115.634 Y-16.503
X-115.658 Y-16.48
X-115.678 Y-16.467
X-116.229 Y-16.104
X-116.257 Y-16.091
X-116.288 Y-16.088
X-116.319 Y-16.094
X-116.346 Y-16.109
X-116.488 Y-16.229
X-116.543 Y-16.28
X-116.614 Y-16.412
X-116.616 Y-16.562
X-116.576 Y-16.706
X-116.504 Y-16.838
X-116.456 Y-16.89
X-116.344 Y-16.965
X-116.21 Y-16.983
X-116.082 Y-16.941
X-115.891 Y-16.825
X-115.864 Y-16.8
X-115.849 Y-16.767
X-115.846 Y-16.731
X-115.857 Y-16.696
X-115.879 Y-16.667
X-115.88 Y-16.666
X-116.359 Y-16.233
X-116.389 Y-16.215
X-116.422 Y-16.208
X-116.457 Y-16.213
X-116.488 Y-16.229
X-116.629 Y-16.344
X-116.653 Y-16.36
X-116.713 Y-16.405
X-116.775 Y-16.541
X-116.78 Y-16.691
X-116.744 Y-16.837
X-116.67 Y-16.967
X-116.641 Y-16.998
X-116.53 Y-17.073
X-116.398 Y-17.093
X-116.27 Y-17.052
X-116.122 Y-16.966
X-116.082 Y-16.941
X-116.055 Y-16.916
X-116.04 Y-16.883
X-116.037 Y-16.847
X-116.048 Y-16.812
X-116.07 Y-16.783
X-116.533 Y-16.37
X-116.56 Y-16.353
X-116.591 Y-16.345
X-116.623 Y-16.348
X-116.653 Y-16.36
X-116.672 Y-16.373
X-116.714 Y-16.398
X-116.776 Y-16.431
X-116.841 Y-16.469
X-116.933 Y-16.587
X-116.962 Y-16.734
X-116.944 Y-16.883
X-116.888 Y-17.023
X-116.852 Y-17.071
X-116.752 Y-17.157
X-116.624 Y-17.191
X-116.495 Y-17.167
X-116.46 Y-17.153
X-116.376 Y-17.114
X-116.27 Y-17.052
X-116.245 Y-17.029
X-116.228 Y-16.998
X-116.224 Y-16.964
X-116.231 Y-16.93
X-116.25 Y-16.9
X-116.66 Y-16.453
X-116.684 Y-16.434
X-116.714 Y-16.423
X-116.746 Y-16.422
X-116.776 Y-16.431
X-116.942 Y-16.517
X-117.007 Y-16.555
X-117.107 Y-16.667
X-117.142 Y-16.813
X-117.134 Y-16.963
X-117.082 Y-17.104
X-117.056 Y-17.142
X-116.956 Y-17.235
X-116.825 Y-17.274
X-116.69 Y-17.251
X-116.495 Y-17.167
X-116.465 Y-17.147
X-116.445 Y-17.117
X-116.437 Y-17.083
X-116.441 Y-17.047
X-116.458 Y-17.016
X-116.82 Y-16.546
X-116.845 Y-16.523
X-116.876 Y-16.51
X-116.91 Y-16.508
X-116.942 Y-16.517
X-117.052 Y-16.574
X-117.11 Y-16.601
X-117.177 Y-16.635
X-117.283 Y-16.741
X-117.327 Y-16.885
X-117.324 Y-17.035
X-117.277 Y-17.177
X-117.252 Y-17.217
X-117.152 Y-17.314
X-117.019 Y-17.355
X-116.881 Y-17.332
X-116.69 Y-17.251
X-116.661 Y-17.23
X-116.641 Y-17.202
X-116.633 Y-17.168
X-116.636 Y-17.133
X-116.651 Y-17.101
X-116.991 Y-16.634
X-117.014 Y-16.611
X-117.045 Y-16.596
X-117.078 Y-16.593
X-117.11 Y-16.601
X-117.137 Y-16.613
X-117.222 Y-16.643
X-117.268 Y-16.656
X-117.339 Y-16.679
X-117.456 Y-16.774
X-117.514 Y-16.912
X-117.524 Y-17.062
X-117.492 Y-17.209
X-117.467 Y-17.258
X-117.386 Y-17.356
X-117.273 Y-17.412
X-117.146 Y-17.416
X-117.052 Y-17.399
X-117.031 Y-17.394
X-117.01 Y-17.387
X-116.881 Y-17.332
X-116.853 Y-17.312
X-116.834 Y-17.285
X-116.824 Y-17.252
X-116.827 Y-17.218
X-116.84 Y-17.186
X-117.162 Y-16.698
X-117.182 Y-16.676
X-117.208 Y-16.66
X-117.238 Y-16.654
X-117.268 Y-16.656
X-117.391 Y-16.688
X-117.475 Y-16.709
X-117.547 Y-16.73
X-117.654 Y-16.835
X-117.709 Y-16.975
X-117.722 Y-17.124
X-117.691 Y-17.271
X-117.68 Y-17.293
X-117.6 Y-17.392
X-117.486 Y-17.45
X-117.358 Y-17.454
X-117.146 Y-17.416
X-117.112 Y-17.402
X-117.086 Y-17.376
X-117.07 Y-17.342
X-117.069 Y-17.305
X-117.08 Y-17.269
X-117.368 Y-16.758
X-117.387 Y-16.733
X-117.414 Y-16.716
X-117.444 Y-16.707
X-117.475 Y-16.709
X-117.56 Y-16.73
X-117.645 Y-16.747
X-117.718 Y-16.764
X-117.836 Y-16.857
X-117.903 Y-16.991
X-117.925 Y-17.139
X-117.904 Y-17.287
X-117.892 Y-17.314
X-117.816 Y-17.42
X-117.702 Y-17.483
X-117.572 Y-17.492
X-117.358 Y-17.454
X-117.325 Y-17.441
X-117.298 Y-17.416
X-117.283 Y-17.383
X-117.28 Y-17.347
X-117.289 Y-17.313
X-117.54 Y-16.802
X-117.558 Y-16.776
X-117.583 Y-16.757
X-117.613 Y-16.747
X-117.645
X-117.814 Y-16.778
X-117.887 Y-16.793
X-118.016 Y-16.869
X-118.094 Y-16.997
X-118.128 Y-17.144
X-118.116 Y-17.293
X-118.104 Y-17.327
X-118.03 Y-17.442
X-117.913 Y-17.512
X-117.776 Y-17.523
X-117.572 Y-17.492
X-117.539 Y-17.48
X-117.512 Y-17.457
X-117.496 Y-17.426
X-117.49 Y-17.391
X-117.498 Y-17.356
X-117.71 Y-16.84
X-117.727 Y-16.812
X-117.752 Y-16.791
X-117.782 Y-16.78
X-117.814 Y-16.778
X-117.898 Y-16.791
X-118.03 Y-16.804
X-118.104 Y-16.816
X-118.224 Y-16.905
X-118.298 Y-17.035
X-118.331 Y-17.182
X-118.317 Y-17.331
X-118.311 Y-17.347
X-118.243 Y-17.454
X-118.137 Y-17.523
X-118.012 Y-17.542
X-117.898 Y-17.536
X-117.814 Y-17.529
X-117.776 Y-17.523
X-117.743 Y-17.51
X-117.716 Y-17.487
X-117.699 Y-17.455
X-117.695 Y-17.419
X-117.703 Y-17.385
X-117.931 Y-16.864
X-117.947 Y-16.838
X-117.971 Y-16.818
X-117.999 Y-16.807
X-118.03 Y-16.804
X-118.152 Y-16.816
X-118.199 Y-16.819
X-118.273 Y-16.827
X-118.405 Y-16.899
X-118.49 Y-17.022
X-118.533 Y-17.166
X-118.53 Y-17.316
X-118.523 Y-17.34
X-118.458 Y-17.456
X-118.349 Y-17.532
X-118.218 Y-17.554
X-118.012 Y-17.542
X-117.978 Y-17.532
X-117.949 Y-17.511
X-117.929 Y-17.481
X-117.921 Y-17.446
X-117.927 Y-17.411
X-118.102 Y-16.887
X-118.116 Y-16.859
X-118.139 Y-16.837
X-118.167 Y-16.823
X-118.199 Y-16.819
X-118.406 Y-16.83
X-118.481 Y-16.836
X-118.609 Y-16.913
X-118.694 Y-17.037
X-118.738 Y-17.181
X-118.734 Y-17.331
X-118.727 Y-17.352
X-118.666 Y-17.463
X-118.563 Y-17.539
X-118.438 Y-17.565
X-118.406
X-118.218 Y-17.554
X-118.183 Y-17.544
X-118.154 Y-17.523
X-118.135 Y-17.493
X-118.127 Y-17.458
X-118.133 Y-17.422
X-118.313 Y-16.898
X-118.327 Y-16.871
X-118.349 Y-16.849
X-118.376 Y-16.836
X-118.406 Y-16.83
X-118.575 Y-16.833
X-118.65 Y-16.838
X-118.788 Y-16.897
X-118.884 Y-17.012
X-118.937 Y-17.153
X-118.945 Y-17.303
X-118.939 Y-17.331
X-118.881 Y-17.453
X-118.775 Y-17.537
X-118.644 Y-17.566
X-118.438 Y-17.565
X-118.404 Y-17.557
X-118.374 Y-17.538
X-118.353 Y-17.51
X-118.343 Y-17.476
X-118.346 Y-17.441
X-118.48 Y-16.909
X-118.493 Y-16.879
X-118.515 Y-16.855
X-118.543 Y-16.839
X-118.575 Y-16.833
X-118.66 Y-16.835
X-118.744 Y-16.832
X-118.791 Y-16.83
X-118.866
X-118.998 Y-16.901
X-119.09 Y-17.019
X-119.143 Y-17.16
X-119.149 Y-17.309
X-119.145 Y-17.325
X-119.09 Y-17.44
X-118.993 Y-17.522
X-118.87 Y-17.556
X-118.744 Y-17.564
X-118.66 Y-17.566
X-118.644
X-118.609 Y-17.558
X-118.579 Y-17.539
X-118.558 Y-17.51
X-118.548 Y-17.475
X-118.552 Y-17.439
X-118.703 Y-16.902
X-118.716 Y-16.875
X-118.736 Y-16.853
X-118.762 Y-16.837
X-118.791 Y-16.83
X-118.96 Y-16.821
X-119.035
X-119.176 Y-16.872
X-119.279 Y-16.982
X-119.34 Y-17.119
X-119.357 Y-17.268
X-119.353 Y-17.293
X-119.302 Y-17.418
X-119.203 Y-17.507
X-119.074 Y-17.545
X-118.87 Y-17.556
X-118.835 Y-17.551
X-118.804 Y-17.534
X-118.781 Y-17.507
X-118.769 Y-17.473
Y-17.438
X-118.871 Y-16.902
X-118.882 Y-16.872
X-118.902 Y-16.847
X-118.929 Y-16.829
X-118.96 Y-16.821
X-119.167 Y-16.81
X-119.242 Y-16.808
X-119.381 Y-16.864
X-119.482 Y-16.975
X-119.545 Y-17.111
X-119.56 Y-17.261
X-119.556 Y-17.283
X-119.508 Y-17.401
X-119.415 Y-17.489
X-119.294 Y-17.53
X-119.252 Y-17.535
X-119.074 Y-17.545
X-119.039 Y-17.539
X-119.008 Y-17.522
X-118.985 Y-17.495
X-118.973 Y-17.461
X-118.974 Y-17.425
X-119.08 Y-16.889
X-119.091 Y-16.86
X-119.111 Y-16.835
X-119.137 Y-16.818
X-119.167 Y-16.81
X-119.252 Y-16.803
X-119.337 Y-16.787
X-119.411 Y-16.777
X-119.555 Y-16.818
X-119.665 Y-16.92
X-119.737 Y-17.052
X-119.766 Y-17.199
X-119.763 Y-17.231
X-119.723 Y-17.359
X-119.632 Y-17.456
X-119.508 Y-17.504
X-119.294 Y-17.53
X-119.259 Y-17.526
X-119.227 Y-17.511
X-119.203 Y-17.485
X-119.189 Y-17.452
X-119.187 Y-17.417
X-119.259 Y-16.872
X-119.268 Y-16.843
X-119.285 Y-16.817
X-119.308 Y-16.798
X-119.337 Y-16.787
X-119.511 Y-16.754
X-119.585 Y-16.744
X-119.733 Y-16.77
X-119.849 Y-16.865
X-119.929 Y-16.991
X-119.968 Y-17.136
X-119.967 Y-17.177
X-119.934 Y-17.311
X-119.845 Y-17.416
X-119.718 Y-17.47
X-119.59 Y-17.492
X-119.508 Y-17.504
X-119.473 Y-17.502
X-119.441 Y-17.488
X-119.416 Y-17.464
X-119.401 Y-17.433
X-119.397 Y-17.398
X-119.433 Y-16.845
X-119.441 Y-16.814
X-119.457 Y-16.787
X-119.481 Y-16.766
X-119.511 Y-16.754
X-119.722 Y-16.713
X-119.796 Y-16.702
X-119.941 Y-16.741
X-120.055 Y-16.838
X-120.134 Y-16.966
X-120.169 Y-17.111
Y-17.146
X-120.135 Y-17.278
X-120.046 Y-17.382
X-119.92 Y-17.435
X-119.718 Y-17.47
X-119.683 Y-17.468
X-119.65 Y-17.455
X-119.624 Y-17.431
X-119.609 Y-17.399
X-119.605 Y-17.364
X-119.644 Y-16.803
X-119.652 Y-16.773
X-119.668 Y-16.745
X-119.692 Y-16.725
X-119.722 Y-16.713
X-119.76 Y-16.706
X-119.844 Y-16.684
X-119.884 Y-16.67
X-119.955 Y-16.645
X-120.103 Y-16.668
X-120.226 Y-16.754
X-120.314 Y-16.875
X-120.366 Y-17.015
X-120.378 Y-17.165
X-120.341 Y-17.256
X-120.279 Y-17.328
X-120.197 Y-17.378
X-120.183 Y-17.384
X-120.14 Y-17.396
X-119.92 Y-17.435
X-119.885 Y-17.434
X-119.853 Y-17.421
X-119.827 Y-17.397
X-119.811 Y-17.366
X-119.806 Y-17.332
X-119.828 Y-16.756
X-119.836 Y-16.721
X-119.855 Y-16.691
X-119.884 Y-16.67
X-119.929 Y-16.65
X-120.013 Y-16.607
X-120.082 Y-16.577
X-120.232 Y-16.571
X-120.366 Y-16.638
X-120.471 Y-16.745
X-120.544 Y-16.876
X-120.563 Y-16.935
X-120.57 Y-17.082
X-120.506 Y-17.215
X-120.387 Y-17.301
X-120.353 Y-17.307
X-120.319 Y-17.301
X-120.289 Y-17.284
X-120.267 Y-17.257
X-119.975 Y-16.744
X-119.962 Y-16.707
X-119.965 Y-16.667
X-119.983 Y-16.632
X-120.013 Y-16.607
X-120.183 Y-16.522
X-120.251 Y-16.491
X-120.401 Y-16.482
X-120.537 Y-16.544
X-120.649 Y-16.644
X-120.729 Y-16.771
X-120.778 Y-16.913
Y-16.935
X-120.757 Y-17.053
X-120.69 Y-17.154
X-120.59 Y-17.22
X-120.557 Y-17.226
X-120.523 Y-17.221
X-120.494 Y-17.204
X-120.471 Y-17.179
X-120.146 Y-16.662
X-120.134 Y-16.633
X-120.131 Y-16.6
X-120.139 Y-16.569
X-120.157 Y-16.542
X-120.183 Y-16.522
X-120.352 Y-16.436
X-120.419 Y-16.403
X-120.569 Y-16.388
X-120.708 Y-16.443
X-120.824 Y-16.538
X-120.915 Y-16.657
X-120.971 Y-16.796
X-120.974 Y-16.821
X-120.964 Y-16.944
X-120.905 Y-17.052
X-120.807 Y-17.128
X-120.775 Y-17.143
X-120.69 Y-17.18
X-120.197 Y-17.378
X-120.161 Y-17.384
X-120.125 Y-17.376
X-120.094 Y-17.356
X-120.072 Y-17.326
X-120.063 Y-17.29
X-120.068 Y-17.254
X-120.094 Y-17.171
X-120.308 Y-16.492
X-120.324 Y-16.46
X-120.352 Y-16.436
X-120.387 Y-16.417
X-120.503 Y-16.332
X-120.565 Y-16.291
X-120.714 Y-16.271
X-120.857 Y-16.317
X-120.981 Y-16.401
X-121.081 Y-16.513
X-121.152 Y-16.645
X-121.163 Y-16.691
X-121.165 Y-16.822
X-121.111 Y-16.942
X-121.01 Y-17.027
X-120.978 Y-17.036
X-120.944 Y-17.034
X-120.913 Y-17.021
X-120.888 Y-16.997
X-120.868 Y-16.971
X-120.485 Y-16.471
X-120.468 Y-16.437
X-120.465 Y-16.398
X-120.477 Y-16.361
X-120.503 Y-16.332
X-120.617 Y-16.248
X-120.639 Y-16.231
X-120.701 Y-16.188
X-120.846 Y-16.149
X-120.993 Y-16.18
X-121.124 Y-16.253
X-121.234 Y-16.354
X-121.319 Y-16.478
X-121.371 Y-16.619
Y-16.624
X-121.359 Y-16.735
X-121.306 Y-16.835
X-121.221 Y-16.908
X-121.19 Y-16.918
X-121.157
X-121.126 Y-16.907
X-121.101 Y-16.887
X-121.051 Y-16.834
X-120.629 Y-16.376
X-120.612 Y-16.349
X-120.603 Y-16.317
X-120.606 Y-16.285
X-120.618 Y-16.255
X-120.639 Y-16.231
X-120.809 Y-16.1
X-120.871 Y-16.058
X-121.018 Y-16.026
X-121.164 Y-16.057
X-121.297 Y-16.128
X-121.411 Y-16.225
X-121.502 Y-16.344
X-121.561 Y-16.482
X-121.563 Y-16.49
X-121.557 Y-16.61
X-121.505 Y-16.718
X-121.415 Y-16.797
X-121.384 Y-16.807
X-121.351
X-121.321 Y-16.797
X-121.295 Y-16.777
X-121.224 Y-16.701
X-120.8 Y-16.246
X-120.782 Y-16.219
X-120.773 Y-16.187
X-120.775 Y-16.155
X-120.788 Y-16.125
X-120.809 Y-16.1
X-120.859 Y-16.062
X-120.897 Y-16.031
X-120.934 Y-15.994
X-120.987 Y-15.942
X-121.127 Y-15.888
X-121.277 Y-15.902
X-121.416 Y-15.957
X-121.54 Y-16.042
X-121.643 Y-16.151
X-121.724 Y-16.277
X-121.729 Y-16.293
X-121.744 Y-16.398
X-121.721 Y-16.501
X-121.663 Y-16.59
X-121.634 Y-16.611
X-121.599 Y-16.619
X-121.563 Y-16.615
X-121.531 Y-16.598
X-121.438 Y-16.525
X-120.948 Y-16.137
X-120.926 Y-16.114
X-120.913 Y-16.085
X-120.91 Y-16.053
X-120.917 Y-16.022
X-120.934 Y-15.994
X-120.944 Y-15.983
X-120.997 Y-15.91
X-121.029 Y-15.861
X-121.07 Y-15.799
X-121.205 Y-15.732
X-121.354 Y-15.728
X-121.5 Y-15.765
X-121.633 Y-15.834
X-121.75 Y-15.928
X-121.85 Y-16.04
X-121.868 Y-16.074
X-121.902 Y-16.192
X-121.886 Y-16.314
X-121.823 Y-16.419
X-121.794 Y-16.439
X-121.761 Y-16.448
X-121.727 Y-16.445
X-121.695 Y-16.43
X-121.585 Y-16.354
X-121.059 Y-15.992
X-121.034 Y-15.966
X-121.019 Y-15.932
X-121.017 Y-15.896
X-121.029 Y-15.861
X-121.113 Y-15.72
X-121.155 Y-15.657
X-121.278 Y-15.571
X-121.426 Y-15.55
X-121.575 Y-15.571
X-121.715 Y-15.624
X-121.843 Y-15.703
X-121.955 Y-15.802
X-121.997 Y-15.861
X-122.046 Y-15.971
X-122.048 Y-16.091
X-122.002 Y-16.202
X-121.977 Y-16.226
X-121.944 Y-16.241
X-121.909 Y-16.242
X-121.875 Y-16.232
X-121.71 Y-16.146
X-121.155 Y-15.856
X-121.124 Y-15.831
X-121.105 Y-15.797
X-121.102 Y-15.757
X-121.113 Y-15.72
X-121.151 Y-15.656
X-121.194 Y-15.572
X-121.229 Y-15.505
X-121.34 Y-15.405
X-121.486 Y-15.368
X-121.636 Y-15.373
X-121.781 Y-15.41
X-121.917 Y-15.473
X-122.039 Y-15.56
X-122.142 Y-15.669
X-122.148 Y-15.68
X-122.185 Y-15.784
X-122.182 Y-15.895
X-122.139 Y-15.997
X-122.115 Y-16.021
X-122.084 Y-16.035
X-122.051 Y-16.039
X-122.018 Y-16.031
X-121.826 Y-15.949
X-121.247 Y-15.702
X-121.215 Y-15.68
X-121.194 Y-15.648
X-121.187 Y-15.61
X-121.194 Y-15.572
X-121.272 Y-15.403
X-121.306 Y-15.336
X-121.41 Y-15.228
X-121.553 Y-15.181
X-121.703 Y-15.175
X-121.851 Y-15.199
X-121.992 Y-15.251
X-122.121 Y-15.326
X-122.236 Y-15.422
X-122.258 Y-15.451
X-122.301 Y-15.532
X-122.318 Y-15.623
X-122.307 Y-15.714
X-122.288 Y-15.747
X-122.258 Y-15.771
X-122.222 Y-15.783
X-122.184 Y-15.779
X-121.929 Y-15.707
X-121.336 Y-15.538
X-121.306 Y-15.523
X-121.282 Y-15.499
X-121.268 Y-15.469
X-121.264 Y-15.436
X-121.272 Y-15.403
X-121.308 Y-15.318
X-121.339 Y-15.234
X-121.352 Y-15.188
X-121.362 Y-15.15
X-121.371 Y-15.129
X-121.394 Y-15.103
X-121.426 Y-15.09
X-121.46 Y-15.091
X-121.491 Y-15.106
X-121.513 Y-15.133
X-121.521 Y-15.166
X-121.515 Y-15.2
X-121.496 Y-15.229
X-121.466 Y-15.246
X-121.432 Y-15.25
X-121.399 Y-15.239
X-121.374 Y-15.215
X-121.361 Y-15.184
X-121.362 Y-15.15
X-121.367 Y-15.136
X-121.373 Y-15.124
X-121.382 Y-15.113
X-121.396 Y-15.099
X-121.409 Y-15.089
X-121.43 Y-15.075
X-121.441 Y-15.071
X-121.452 Y-15.067
X-121.462 Y-15.065
X-121.536 Y-15.064
X-121.875
X-122.024 Y-15.071
X-122.168 Y-15.114
X-122.228 Y-15.147
X-122.327 Y-15.236
X-122.377 Y-15.358
X-122.37 Y-15.491
X-122.352 Y-15.524
X-122.323 Y-15.548
X-122.287 Y-15.559
X-122.249 Y-15.557
X-122.215 Y-15.54
X-121.818 Y-15.244
X-121.794 Y-15.219
X-121.781 Y-15.186
X-121.779 Y-15.151
X-121.789 Y-15.118
X-121.811 Y-15.09
X-121.84 Y-15.071
X-121.875 Y-15.064
X-122.213
X-122.26
X-122.298
X-122.341 Y-15.067
X-122.401 Y-15.128
X-122.431 Y-15.21
X-122.426 Y-15.296
X-122.404 Y-15.337
X-122.371 Y-15.368
X-122.329 Y-15.388
X-122.283 Y-15.392
X-122.238 Y-15.381
G3 X-122.298 Y-15.064 I-0.065 J0.152
G1 X-122.365 Y-15.065
X-122.382 Y-15.069
X-122.395 Y-15.074
X-122.408 Y-15.082
X-122.424 Y-15.096
X-122.434 Y-15.109
X-122.44 Y-15.119
X-122.445 Y-15.129
X-122.453 Y-15.16
X-122.455 Y-15.171
Y-15.181
X-122.454 Y-15.192
X-122.443 Y-15.234
X-122.298 Y-15.744
X-122.288 Y-15.764
X-122.276 Y-15.785
X-122.128 Y-16.013
X-121.959 Y-16.266
X-121.903 Y-16.332
X-121.589 Y-16.67
X-121.536 Y-16.726
X-121.525 Y-16.734
X-121.029 Y-17.017
X-120.944 Y-17.062
X-120.807 Y-17.128
X-120.779 Y-17.135
X-120.751
X-120.723 Y-17.116 Z-0.983
X-120.699 Y-17.1 Z-0.966
X-120.681 Y-17.087 Z-0.939
X-120.676 Y-17.079 Z-0.915
X-120.675 Y-17.076 Z-0.89
G0 Z2
X-112.22 Y-15.044
Z0.5
G3 X-111.735 Y-15.169 Z0.29 I0.242 J-0.062 F333.3
X-112.22 Y-15.044 Z0.079 I-0.242 J0.062
X-111.735 Y-15.169 Z-0.131 I0.242 J-0.062
X-112.22 Y-15.044 Z-0.342 I-0.242 J0.062
X-111.735 Y-15.169 Z-0.552 I0.242 J-0.062
X-112.22 Y-15.044 Z-0.763 I-0.242 J0.062
X-112.009 Y-15.355 Z-0.876 I0.242 J-0.062
X-111.728 Y-15.107 Z-0.99 I0.031 J0.248
X-112.228 I-0.25
X-111.728 I0.25
G1 X-111.69 Y-14.961 F1000
X-111.703 Y-14.887
X-111.74 Y-14.822
X-111.847 Y-14.717
X-111.992 Y-14.677
X-112.14 Y-14.699
X-112.271 Y-14.773
X-112.367 Y-14.887
X-112.42 Y-15.028
X-112.422 Y-15.178
X-112.374 Y-15.32
X-112.282 Y-15.439
X-112.156 Y-15.52
X-112.011 Y-15.556
X-111.861 Y-15.542
X-111.725 Y-15.48
X-111.616 Y-15.377
X-111.538 Y-15.249
X-111.488 Y-15.107
X-111.477 Y-14.958
X-111.512 Y-14.812
X-111.583 Y-14.68
X-111.692 Y-14.576
X-111.822 Y-14.502
X-111.969 Y-14.469
X-112.118 Y-14.476
X-112.263 Y-14.517
X-112.392 Y-14.593
X-112.499 Y-14.699
X-112.511 Y-14.717
X-112.543 Y-14.783
X-112.558 Y-14.855
X-112.556 Y-14.929
X-112.534 Y-15.065
X-112.519 Y-15.15
X-112.497 Y-15.266
X-112.475 Y-15.318
X-112.418 Y-15.449
X-112.351 Y-15.584
X-112.24 Y-15.684
X-112.102 Y-15.743
X-111.953 Y-15.765
X-111.804 Y-15.748
X-111.664 Y-15.694
X-111.539 Y-15.612
X-111.433 Y-15.506
X-111.414 Y-15.48
X-111.374 Y-15.395
X-111.361 Y-15.302
X-111.378 Y-15.21
X-111.428 Y-15.065
X-111.5 Y-14.812
X-111.541 Y-14.643
X-111.548 Y-14.612
X-111.587 Y-14.467
X-111.693 Y-14.361
X-111.826 Y-14.291
X-111.972 Y-14.255
X-112.122 Y-14.252
X-112.269 Y-14.28
X-112.408 Y-14.335
X-112.454 Y-14.363
X-112.537 Y-14.44
X-112.586 Y-14.542
X-112.594 Y-14.656
X-112.574 Y-14.812
X-112.556 Y-14.929
X-112.544 Y-14.962
X-112.522 Y-14.989
X-112.492 Y-15.006
X-112.458 Y-15.013
X-112.424 Y-15.007
X-112.393 Y-14.99
X-112.371 Y-14.963
X-112.359 Y-14.93
X-112.317 Y-14.7
X-112.318 Y-14.661
X-112.334 Y-14.624
X-112.363 Y-14.597
X-112.401 Y-14.584
X-112.44 Y-14.586
X-112.476 Y-14.603
X-112.502 Y-14.632
X-112.515 Y-14.67
G3 X-112.418 Y-15.449 I1.57 J-0.2
G1 X-112.315 Y-15.687
X-112.301 Y-15.716
X-112.23 Y-15.849
X-112.104 Y-15.93
X-111.958 Y-15.968
X-111.808
X-111.662 Y-15.935
X-111.524 Y-15.877
X-111.397 Y-15.797
X-111.355 Y-15.757
X-111.284 Y-15.65
X-111.264 Y-15.523
X-111.3 Y-15.4
X-111.34 Y-15.318
X-111.378 Y-15.21
X-111.395 Y-15.18
X-111.422 Y-15.159
X-111.454 Y-15.147
X-111.489 Y-15.148
X-111.521 Y-15.16
X-111.706 Y-15.268
X-112.259 Y-15.59
X-112.287 Y-15.614
X-112.304 Y-15.646
X-112.309 Y-15.681
X-112.301 Y-15.716
X-112.289 Y-15.741
X-112.191 Y-15.935
X-112.153 Y-16
X-112.048 Y-16.107
X-111.907 Y-16.159
X-111.758 Y-16.171
X-111.609 Y-16.153
X-111.466 Y-16.108
X-111.333 Y-16.038
X-111.217 Y-15.943
X-111.2 Y-15.92
X-111.15 Y-15.813
X-111.146 Y-15.694
X-111.188 Y-15.583
X-111.21 Y-15.56
X-111.237 Y-15.545
X-111.269 Y-15.54
X-111.3 Y-15.544
X-111.542 Y-15.618
X-112.129 Y-15.797
X-112.16 Y-15.813
X-112.183 Y-15.837
X-112.197 Y-15.868
X-112.2 Y-15.902
X-112.191 Y-15.935
X-112.161 Y-15.994
X-112.057 Y-16.163
X-112.014 Y-16.225
X-111.898 Y-16.32
X-111.755 Y-16.364
X-111.605 Y-16.37
X-111.457 Y-16.345
X-111.316 Y-16.294
X-111.185 Y-16.221
X-111.075 Y-16.119
X-111.069 Y-16.11
X-111.024 Y-16.004
X-111.022 Y-15.889
X-111.063 Y-15.782
X-111.248 Y-15.487
X-111.3 Y-15.4
X-111.324 Y-15.371
X-111.358 Y-15.354
X-111.395 Y-15.351
X-111.431 Y-15.361
X-111.461 Y-15.384
X-111.608 Y-15.551
X-112.045 Y-16.048
X-112.061 Y-16.074
X-112.069 Y-16.104
X-112.068 Y-16.134
X-112.057 Y-16.163
X-111.937 Y-16.358
X-111.917 Y-16.39
X-111.901 Y-16.417
X-111.881 Y-16.443
X-111.865 Y-16.461
X-111.848 Y-16.478
X-111.815 Y-16.495
X-111.778 Y-16.5
X-111.742 Y-16.491
X-111.712 Y-16.469
X-111.692 Y-16.438
X-111.684 Y-16.402
X-111.691 Y-16.365
X-111.71 Y-16.334
X-111.739 Y-16.301
X-111.768 Y-16.278
X-111.803 Y-16.268
X-111.839 Y-16.27
X-111.872 Y-16.286
X-111.898 Y-16.312
X-111.912 Y-16.346
X-111.913 Y-16.382
X-111.901 Y-16.417
X-111.892 Y-16.431
X-111.877 Y-16.451
X-111.856 Y-16.47
X-111.821 Y-16.501
X-111.762 Y-16.548
X-111.615 Y-16.577
X-111.465 Y-16.574
X-111.318 Y-16.543
X-111.179 Y-16.489
X-111.049 Y-16.413
X-110.941 Y-16.309
X-110.93 Y-16.292
X-110.885 Y-16.172
X-110.894 Y-16.044
X-110.956 Y-15.932
X-110.983 Y-15.911
X-111.015 Y-15.901
X-111.048 Y-15.902
X-111.08 Y-15.914
X-111.287 Y-16.036
X-111.804 Y-16.342
X-111.831 Y-16.366
X-111.848 Y-16.399
X-111.852 Y-16.436
X-111.843 Y-16.471
X-111.821 Y-16.501
X-111.676 Y-16.628
X-111.558 Y-16.722
X-111.412 Y-16.754
X-111.262 Y-16.746
X-111.117 Y-16.709
X-110.982 Y-16.644
X-110.86 Y-16.556
X-110.764 Y-16.441
X-110.756 Y-16.425
X-110.728 Y-16.308
X-110.748 Y-16.19
X-110.812 Y-16.089
X-110.838 Y-16.071
X-110.868 Y-16.062
X-110.899 Y-16.063
X-110.929 Y-16.073
X-111.131 Y-16.183
X-111.655 Y-16.468
X-111.684 Y-16.492
X-111.702 Y-16.524
X-111.707 Y-16.562
X-111.698 Y-16.598
X-111.676 Y-16.628
X-111.531 Y-16.754
X-111.469 Y-16.806
X-111.447 Y-16.824
X-111.43 Y-16.839
X-111.299 Y-16.912
X-111.149 Y-16.92
X-111.002 Y-16.892
X-110.863 Y-16.835
X-110.738 Y-16.753
X-110.634 Y-16.645
X-110.61 Y-16.604
X-110.57 Y-16.476
X-110.59 Y-16.343
X-110.666 Y-16.232
X-110.694 Y-16.215
X-110.726 Y-16.208
X-110.759 Y-16.212
X-110.789 Y-16.227
X-110.929 Y-16.328
X-111.422 Y-16.683
X-111.446 Y-16.709
X-111.46 Y-16.741
X-111.462 Y-16.777
X-111.452 Y-16.811
X-111.43 Y-16.839
X-111.183 Y-16.992
X-111.117 Y-17.028
X-110.97 Y-17.056
X-110.822 Y-17.034
X-110.683 Y-16.976
X-110.56 Y-16.891
X-110.461 Y-16.778
X-110.443 Y-16.743
X-110.406 Y-16.598
X-110.44 Y-16.452
X-110.538 Y-16.338
X-110.568 Y-16.325
X-110.601 Y-16.322
X-110.633 Y-16.33
X-110.661 Y-16.347
X-110.749 Y-16.428
X-111.195 Y-16.835
X-111.217 Y-16.863
X-111.227 Y-16.898
X-111.224 Y-16.934
X-111.209 Y-16.967
X-111.183 Y-16.992
X-110.991 Y-17.11
X-110.961 Y-17.122
X-110.877 Y-17.146
X-110.73 Y-17.178
X-110.584 Y-17.146
X-110.451 Y-17.075
X-110.339 Y-16.976
X-110.256 Y-16.851
X-110.232 Y-16.781
X-110.22 Y-16.636
X-110.278 Y-16.502
X-110.392 Y-16.412
X-110.424 Y-16.405
X-110.456 Y-16.408
X-110.486 Y-16.421
X-110.51 Y-16.444
X-110.566 Y-16.517
X-110.926 Y-16.99
X-110.943 Y-17.024
X-110.946 Y-17.062
X-110.934 Y-17.098
X-110.91 Y-17.127
X-110.877 Y-17.146
X-110.623 Y-17.215
X-110.476 Y-17.246
X-110.331 Y-17.209
X-110.205 Y-17.127
X-110.105 Y-17.015
X-110.039 Y-16.88
X-110.028 Y-16.831
X-110.031 Y-16.694
X-110.094 Y-16.572
X-110.205 Y-16.491
X-110.238 Y-16.485
X-110.272 Y-16.49
X-110.301 Y-16.505
X-110.324 Y-16.53
X-110.346 Y-16.563
X-110.676 Y-17.065
X-110.691 Y-17.099
X-110.692 Y-17.136
X-110.679 Y-17.17
X-110.655 Y-17.198
X-110.623 Y-17.215
X-110.538 Y-17.238
X-110.322 Y-17.274
X-110.248 Y-17.283
X-110.102 Y-17.249
X-109.98 Y-17.162
X-109.886 Y-17.045
X-109.831 Y-16.905
X-109.827 Y-16.869
X-109.843 Y-16.738
X-109.913 Y-16.626
X-110.026 Y-16.555
X-110.061 Y-16.551
X-110.096 Y-16.559
X-110.126 Y-16.579
X-110.146 Y-16.608
X-110.393 Y-17.133
X-110.402 Y-17.168
X-110.398 Y-17.204
X-110.382 Y-17.236
X-110.356 Y-17.26
X-110.322 Y-17.274
X-110.284 Y-17.28
X-110.2 Y-17.291
X-110.069 Y-17.306
X-109.994 Y-17.31
X-109.851 Y-17.263
X-109.738 Y-17.164
X-109.659 Y-17.037
X-109.622 Y-16.891
X-109.623 Y-16.874
X-109.66 Y-16.747
X-109.748 Y-16.649
X-109.871 Y-16.597
X-109.905 Y-16.599
X-109.937 Y-16.612
X-109.963 Y-16.635
X-109.979 Y-16.665
X-110.149 Y-17.175
X-110.154 Y-17.209
X-110.147 Y-17.243
X-110.129 Y-17.273
X-110.102 Y-17.295
X-110.069 Y-17.306
X-109.946 Y-17.319
X-109.861 Y-17.327
X-109.711 Y-17.32
X-109.581 Y-17.246
X-109.487 Y-17.129
X-109.432 Y-16.989
X-109.429 Y-16.945
X-109.456 Y-16.801
X-109.547 Y-16.687
X-109.681 Y-16.63
X-109.715 Y-16.631
X-109.747 Y-16.645
X-109.773 Y-16.668
X-109.789 Y-16.699
X-109.944 Y-17.198
X-109.948 Y-17.232
X-109.941 Y-17.266
X-109.922 Y-17.295
X-109.894 Y-17.316
X-109.861 Y-17.327
X-109.777
X-109.692 Y-17.322
X-109.561 Y-17.307
X-109.487 Y-17.294
X-109.358 Y-17.218
X-109.271 Y-17.096
X-109.235 Y-16.95
X-109.236 Y-16.93
X-109.276 Y-16.805
X-109.366 Y-16.709
X-109.488 Y-16.66
X-109.526 Y-16.663
X-109.561 Y-16.68
X-109.586 Y-16.708
X-109.599 Y-16.744
X-109.668 Y-17.192
X-109.667 Y-17.228
X-109.654 Y-17.261
X-109.629 Y-17.288
X-109.597 Y-17.303
X-109.561 Y-17.307
X-109.354 Y-17.281
X-109.28 Y-17.267
X-109.151 Y-17.191
X-109.07 Y-17.064
X-109.064 Y-17.023
X-109.072 Y-16.897
X-109.131 Y-16.786
X-109.231 Y-16.709
X-109.354 Y-16.679
X-109.387 Y-16.682
X-109.417 Y-16.695
X-109.442 Y-16.717
X-109.458 Y-16.746
X-109.463 Y-16.779
Y-17.181
X-109.458 Y-17.214
X-109.442 Y-17.243
X-109.417 Y-17.265
X-109.387 Y-17.279
X-109.354 Y-17.281
X-109.269 Y-17.269
X-109.184 Y-17.255
X-109.142 Y-17.245
X-109.005 Y-17.184
X-108.914 Y-17.065
X-108.888 Y-16.917
X-108.952 Y-16.782
X-109.071 Y-16.695
X-109.217 Y-16.675
X-109.252 Y-16.688
X-109.281 Y-16.713
X-109.298 Y-16.747
X-109.301 Y-16.785
X-109.261 Y-17.158
X-109.252 Y-17.189
X-109.233 Y-17.217
X-109.207 Y-17.236
X-109.175 Y-17.246
X-109.142 Y-17.245
X-109.1 Y-17.229
X-108.982 Y-17.177
X-108.905 Y-17.141
X-108.839 Y-17.104
X-108.791 Y-17.047
X-108.738 Y-16.907
X-108.775 Y-16.8
X-108.85 Y-16.715
X-108.951 Y-16.664
X-109.064 Y-16.657
X-109.097 Y-16.668
X-109.124 Y-16.69
X-109.141 Y-16.72
X-109.148 Y-16.754
X-109.142 Y-16.788
X-109.04 Y-17.082
X-109.024 Y-17.111
X-109 Y-17.133
X-108.97 Y-17.146
X-108.937 Y-17.149
X-108.905 Y-17.141
X-108.736 Y-17.057
X-108.703 Y-17.039
X-108.651 Y-16.985
X-108.626 Y-16.914
X-108.645 Y-16.8
X-108.711 Y-16.705
X-108.811 Y-16.648
X-108.926 Y-16.639
X-108.962 Y-16.653
X-108.99 Y-16.679
X-109.006 Y-16.713
X-109.008 Y-16.751
X-108.996 Y-16.787
X-108.864 Y-17.016
X-108.84 Y-17.044
X-108.808 Y-17.062
X-108.772 Y-17.066
X-108.736 Y-17.057
X-108.638 Y-17.008
X-108.613 Y-16.994
X-108.575 Y-16.969
X-108.534 Y-16.907
X-108.54 Y-16.784
X-108.606 Y-16.681
X-108.714 Y-16.623
X-108.837 Y-16.625
X-108.87 Y-16.643
X-108.895 Y-16.673
X-108.906 Y-16.71
X-108.902 Y-16.748
X-108.885 Y-16.782
X-108.737 Y-16.967
X-108.712 Y-16.99
X-108.68 Y-17.003
X-108.646 Y-17.004
X-108.613 Y-16.994
X-108.553 Y-16.958
X-108.533 Y-16.942
X-108.508 Y-16.918
X-108.486 Y-16.894
X-108.462 Y-16.865
X-108.46 Y-16.751
X-108.515 Y-16.651
X-108.614 Y-16.594
X-108.728
X-108.758 Y-16.608
X-108.784 Y-16.629
X-108.804 Y-16.656
G3 X-108.486 Y-16.894 I0.175 J-0.098
G1 X-108.436 Y-16.839
X-108.423 Y-16.824
X-108.391 Y-16.786
X-108.365 Y-16.754
X-108.347 Y-16.73
X-108.396 Y-16.625
X-108.494 Y-16.563
X-108.61 Y-16.562
X-108.641 Y-16.58
X-108.662 Y-16.609
X-108.668 Y-16.644
G3 X-108.365 Y-16.754 I0.174 J0.006
G1 X-108.338 Y-16.723
X-108.316 Y-16.696
X-108.305 Y-16.683
X-108.295 Y-16.664
X-108.288 Y-16.649
X-108.294 Y-16.641
X-108.319 Y-16.616
X-108.352 Y-16.601
X-108.388 Y-16.599
X-108.423 Y-16.61
X-108.979 Y-16.908
X-109.038 Y-16.939
X-109.067 Y-16.963
X-109.085 Y-16.995
X-109.09 Y-17.032
X-109.082 Y-17.068
X-109.061 Y-17.099
X-109.03 Y-17.119
X-108.994 Y-17.128
X-108.957 Y-17.122
G3 X-108.305 Y-16.683 I-0.531 J1.491
G1 X-108.297 Y-16.67
X-108.292 Y-16.659
X-108.288 Y-16.649
X-108.286 Y-16.638
X-108.285 Y-16.628
Y-16.617
X-108.288 Y-16.599
X-108.293 Y-16.585
X-108.299 Y-16.571
X-108.321 Y-16.552
X-108.348 Y-16.543
X-108.377 Y-16.546
X-108.404 Y-16.561
X-108.422 Y-16.587
X-108.427 Y-16.617
X-108.419 Y-16.647
X-108.4 Y-16.671
X-108.372 Y-16.684
X-108.341
X-108.313 Y-16.671
X-108.293 Y-16.647
X-108.285 Y-16.617
X-108.286 Y-16.607
X-108.288 Y-16.596
X-108.292 Y-16.585
X-108.299 Y-16.571
X-108.31 Y-16.556
X-108.338 Y-16.526
X-108.349 Y-16.519
X-108.36 Y-16.513
X-108.37 Y-16.509
X-108.381 Y-16.506
X-108.391 Y-16.505
X-108.402 Y-16.504
X-108.413 Y-16.505
X-108.423 Y-16.507
X-108.508 Y-16.532
X-108.695 Y-16.585
X-108.846 Y-16.627
X-108.931 Y-16.64
X-109.184 Y-16.672
X-109.269 Y-16.681
X-109.354 Y-16.679
X-109.438 Y-16.668
X-109.692 Y-16.628
X-109.939 Y-16.585
X-110.2 Y-16.494
X-110.382 Y-16.417
X-110.454 Y-16.384
X-110.538 Y-16.338
X-110.623 Y-16.272
X-110.74 Y-16.163
X-110.877 Y-16.022
X-110.975 Y-15.91
X-111.036 Y-15.825
X-111.063 Y-15.782
X-111.08 Y-15.762
X-111.101 Y-15.747
X-111.554 Y-15.516
X-111.582 Y-15.494
X-111.601 Y-15.465
X-111.608 Y-15.43
X-111.603 Y-15.395
G3 X-111.548 Y-14.612 I-1.502 J0.5
G1 X-111.553 Y-14.586
X-111.577 Y-14.389
X-111.59 Y-14.315
X-111.668 Y-14.187
X-111.79 Y-14.1
X-111.93 Y-14.047
X-112.079 Y-14.027
X-112.229 Y-14.035
X-112.375 Y-14.068
X-112.449 Y-14.1
X-112.551 Y-14.175
X-112.614 Y-14.286
X-112.625 Y-14.412
X-112.594 Y-14.656
X-112.583 Y-14.688
X-112.562 Y-14.714
X-112.533 Y-14.732
X-112.5 Y-14.74
X-112.467 Y-14.736
X-112.271 Y-14.678
X-111.649 Y-14.494
X-111.618 Y-14.479
X-111.594 Y-14.454
X-111.58 Y-14.423
X-111.577 Y-14.389
X-111.587 Y-14.305
X-111.596 Y-14.22
X-111.598 Y-14.174
X-111.606 Y-14.099
X-111.687 Y-13.973
X-111.808 Y-13.885
X-111.947 Y-13.83
X-112.095 Y-13.804
X-112.245 Y-13.802
X-112.393 Y-13.83
X-112.461 Y-13.856
X-112.567 Y-13.926
X-112.634 Y-14.033
X-112.651 Y-14.158
X-112.647 Y-14.22
X-112.638 Y-14.305
X-112.625 Y-14.412
X-112.614 Y-14.444
X-112.593 Y-14.47
X-112.565 Y-14.488
X-112.533 Y-14.496
X-112.5 Y-14.493
X-112.303 Y-14.44
X-111.672 Y-14.272
X-111.642 Y-14.258
X-111.618 Y-14.236
X-111.603 Y-14.207
X-111.598 Y-14.174
X-111.606 Y-14.005
X-111.614 Y-13.93
X-111.67 Y-13.791
X-111.781 Y-13.69
X-111.914 Y-13.622
X-112.059 Y-13.582
X-112.208 Y-13.568
X-112.358 Y-13.581
X-112.502 Y-13.622
X-112.51 Y-13.627
X-112.59 Y-13.692
X-112.642 Y-13.78
X-112.663 Y-13.88
X-112.665 Y-13.967
X-112.651 Y-14.158
X-112.643 Y-14.189
X-112.625 Y-14.216
X-112.599 Y-14.235
X-112.568 Y-14.246
X-112.536
X-112.325 Y-14.211
X-111.69 Y-14.105
X-111.657 Y-14.093
X-111.63 Y-14.071
X-111.612 Y-14.04
X-111.606 Y-14.005
X-111.608 Y-13.967
X-111.607 Y-13.798
X-111.609 Y-13.723
X-111.666 Y-13.584
X-111.773 Y-13.479
X-111.903 Y-13.405
X-112.045 Y-13.358
X-112.194 Y-13.336
X-112.344 Y-13.34
X-112.42 Y-13.357
X-112.532 Y-13.409
X-112.614 Y-13.502
X-112.651 Y-13.62
X-112.653 Y-13.641
X-112.658 Y-13.714
X-112.663 Y-13.88
X-112.657 Y-13.913
X-112.641 Y-13.942
X-112.616 Y-13.964
X-112.586 Y-13.977
X-112.553 Y-13.979
X-112.336 Y-13.957
X-111.696 Y-13.893
X-111.662 Y-13.883
X-111.634 Y-13.862
X-111.614 Y-13.833
X-111.607 Y-13.798
X-111.606 Y-13.714
X-111.599 Y-13.583
Y-13.508
X-111.656 Y-13.369
X-111.761 Y-13.262
X-111.889 Y-13.183
X-112.03 Y-13.132
X-112.177 Y-13.104
X-112.327 Y-13.105
X-112.387 Y-13.116
X-112.501 Y-13.165
X-112.585 Y-13.255
X-112.626 Y-13.372
X-112.651 Y-13.62
X-112.647 Y-13.654
X-112.633 Y-13.684
X-112.609 Y-13.708
X-112.579 Y-13.722
X-112.545 Y-13.726
X-112.335 Y-13.713
X-111.693 Y-13.673
X-111.659 Y-13.665
X-111.629 Y-13.645
X-111.609 Y-13.617
X-111.599 Y-13.583
X-111.593 Y-13.46
X-111.586 Y-13.376
X-111.583 Y-13.301
X-111.635 Y-13.16
X-111.735 Y-13.049
X-111.86 Y-12.965
X-111.998 Y-12.907
X-112.144 Y-12.874
X-112.294 Y-12.87
X-112.349 Y-12.879
X-112.466 Y-12.926
X-112.554 Y-13.018
X-112.596 Y-13.137
X-112.626 Y-13.372
X-112.623 Y-13.406
X-112.61 Y-13.437
X-112.587 Y-13.461
X-112.557 Y-13.477
X-112.524 Y-13.482
X-112.327 Y-13.477
X-111.683 Y-13.462
X-111.649 Y-13.455
X-111.619 Y-13.437
X-111.597 Y-13.409
X-111.586 Y-13.376
X-111.564 Y-13.16
X-111.56 Y-13.085
X-111.611 Y-12.944
X-111.708 Y-12.83
X-111.83 Y-12.743
X-111.967 Y-12.682
X-112.113 Y-12.645
X-112.262 Y-12.639
X-112.315 Y-12.647
X-112.434 Y-12.693
X-112.523 Y-12.785
X-112.566 Y-12.905
X-112.596 Y-13.137
X-112.593 Y-13.17
X-112.58 Y-13.2
X-112.558 Y-13.225
X-112.529 Y-13.241
X-112.496 Y-13.246
X-112.306
X-111.663
X-111.628 Y-13.24
X-111.598 Y-13.222
X-111.576 Y-13.194
X-111.564 Y-13.16
X-111.56 Y-13.122
X-111.553 Y-13.081
X-111.534 Y-12.991
X-111.522 Y-12.917
X-111.549 Y-12.77
X-111.634 Y-12.646
X-111.748 Y-12.548
X-111.878 Y-12.475
X-112.02 Y-12.427
X-112.169 Y-12.406
X-112.318 Y-12.416
X-112.323 Y-12.417
X-112.417 Y-12.469
X-112.487 Y-12.549
X-112.525 Y-12.65
X-112.549 Y-12.784
X-112.561 Y-12.869
X-112.566 Y-12.905
X-112.562 Y-12.945
X-112.542 Y-12.979
X-112.511 Y-13.004
X-112.473 Y-13.014
X-112.283 Y-13.026
X-111.637 Y-13.066
X-111.603 Y-13.063
X-111.572 Y-13.047
X-111.548 Y-13.023
X-111.534 Y-12.991
X-111.507 Y-12.869
X-111.485 Y-12.784
X-111.47 Y-12.711
X-111.498 Y-12.564
X-111.579 Y-12.438
X-111.689 Y-12.336
X-111.818 Y-12.258
X-111.958 Y-12.204
X-112.105 Y-12.175
X-112.175 Y-12.176
X-112.289 Y-12.199
X-112.386 Y-12.265
X-112.45 Y-12.362
X-112.484 Y-12.447
X-112.491 Y-12.468
X-112.496 Y-12.489
X-112.525 Y-12.65
X-112.524 Y-12.682
X-112.513 Y-12.712
X-112.494 Y-12.737
X-112.467 Y-12.755
X-112.436 Y-12.763
X-112.234 Y-12.785
X-111.592 Y-12.855
X-111.557 Y-12.853
X-111.526 Y-12.839
X-111.501 Y-12.815
X-111.485 Y-12.784
X-111.441 Y-12.616
X-111.428 Y-12.569
X-111.41 Y-12.496
X-111.441 Y-12.349
X-111.521 Y-12.223
X-111.63 Y-12.119
X-111.756 Y-12.039
X-111.894 Y-11.98
X-112.041 Y-11.949
X-112.077
X-112.193 Y-11.971
X-112.292 Y-12.037
X-112.357 Y-12.136
X-112.45 Y-12.362
X-112.456 Y-12.397
X-112.45 Y-12.431
X-112.432 Y-12.461
X-112.405 Y-12.484
X-112.372 Y-12.495
X-112.174 Y-12.529
X-111.539 Y-12.636
X-111.504
X-111.471 Y-12.623
X-111.444 Y-12.6
X-111.428 Y-12.569
X-111.384 Y-12.429
X-111.373 Y-12.392
X-111.354 Y-12.32
X-111.366 Y-12.17
X-111.436 Y-12.037
X-111.536 Y-11.926
X-111.657 Y-11.837
X-111.791 Y-11.77
X-111.936 Y-11.732
X-111.971 Y-11.73
X-112.086 Y-11.747
X-112.185 Y-11.805
X-112.256 Y-11.898
X-112.276 Y-11.94
X-112.315 Y-12.031
X-112.357 Y-12.136
X-112.363 Y-12.169
X-112.358 Y-12.202
X-112.342 Y-12.232
X-112.317 Y-12.255
X-112.287 Y-12.268
X-112.112 Y-12.309
X-111.49 Y-12.456
X-111.454 Y-12.458
X-111.419 Y-12.447
X-111.391 Y-12.424
X-111.373 Y-12.392
X-111.35 Y-12.32
X-111.339 Y-12.299
X-111.312 Y-12.249
X-111.28 Y-12.181
X-111.262 Y-12.033
X-111.312 Y-11.891
X-111.398 Y-11.768
X-111.508 Y-11.666
X-111.635 Y-11.586
X-111.774 Y-11.531
X-111.833 Y-11.521
X-111.955 Y-11.526
X-112.065 Y-11.579
X-112.144 Y-11.671
X-112.256 Y-11.898
X-112.264 Y-11.93
X-112.261 Y-11.963
X-112.248 Y-11.993
X-112.226 Y-12.017
X-112.196 Y-12.033
X-112.045 Y-12.085
X-111.431 Y-12.293
X-111.397 Y-12.298
X-111.364 Y-12.292
X-111.334 Y-12.275
X-111.312 Y-12.249
X-111.282 Y-12.193
X-111.215 Y-12.081
X-111.179 Y-12.015
X-111.156 Y-11.867
X-111.197 Y-11.723
X-111.275 Y-11.595
X-111.378 Y-11.486
X-111.499 Y-11.397
X-111.635 Y-11.333
X-111.697 Y-11.318
X-111.825 Y-11.316
X-111.943 Y-11.367
X-112.028 Y-11.463
X-112.144 Y-11.671
X-112.154 Y-11.703
X-112.153 Y-11.736
X-112.142 Y-11.766
X-112.121 Y-11.792
X-112.093 Y-11.809
X-111.935 Y-11.874
X-111.337 Y-12.119
X-111.303 Y-12.127
X-111.269 Y-12.122
X-111.238 Y-12.106
X-111.215 Y-12.081
X-111.114 Y-11.914
X-111.078 Y-11.848
X-111.044 Y-11.702
X-111.077 Y-11.556
X-111.148 Y-11.424
X-111.244 Y-11.308
X-111.359 Y-11.212
X-111.491 Y-11.141
X-111.565 Y-11.119
X-111.676 Y-11.107
X-111.783 Y-11.137
X-111.872 Y-11.203
X-111.89 Y-11.235
X-111.896 Y-11.272
X-111.887 Y-11.309
X-111.866 Y-11.339
X-111.701 Y-11.503
X-111.267 Y-11.93
X-111.238 Y-11.95
X-111.204 Y-11.959
X-111.169 Y-11.955
X-111.138 Y-11.94
X-111.114 Y-11.914
X-111.026 Y-11.771
X-111.012 Y-11.752
X-110.996 Y-11.733
X-110.948 Y-11.675
X-110.921 Y-11.528
X-110.951 Y-11.381
X-111.018 Y-11.246
X-111.11 Y-11.128
X-111.221 Y-11.028
X-111.35 Y-10.951
X-111.373 Y-10.943
X-111.484 Y-10.926
X-111.593 Y-10.951
X-111.686 Y-11.014
X-111.706 Y-11.046
X-111.713 Y-11.083
X-111.706 Y-11.119
X-111.686 Y-11.151
X-111.567 Y-11.276
X-111.14 Y-11.731
X-111.115 Y-11.751
X-111.084 Y-11.762
X-111.052
X-111.022 Y-11.752
X-110.996 Y-11.733
X-110.877 Y-11.603
X-110.829 Y-11.545
X-110.783 Y-11.402
X-110.799 Y-11.253
X-110.853 Y-11.113
X-110.934 Y-10.987
X-111.037 Y-10.878
X-111.159 Y-10.791
X-111.185 Y-10.78
X-111.302 Y-10.755
X-111.418 Y-10.778
X-111.517 Y-10.844
X-111.85 Y-11.18
X-111.892 Y-11.225
X-111.905 Y-11.244
X-112.028 Y-11.463
X-112.038 Y-11.495
X-112.037 Y-11.529
X-112.025 Y-11.56
X-112.003 Y-11.585
X-111.974 Y-11.602
X-111.941 Y-11.609
X-111.654 Y-11.616
X-110.95 Y-11.633
X-110.923 Y-11.63
X-110.898 Y-11.619
X-110.877 Y-11.603
X-110.792 Y-11.51
X-110.738 Y-11.457
X-110.687 Y-11.402
X-110.638 Y-11.261
X-110.647 Y-11.111
X-110.694 Y-10.968
X-110.768 Y-10.838
X-110.864 Y-10.723
X-110.93 Y-10.673
X-111.043 Y-10.619
X-111.168 Y-10.616
X-111.283 Y-10.664
X-111.308 Y-10.692
X-111.322 Y-10.727
X-111.321 Y-10.764
X-111.307 Y-10.799
X-111.224 Y-10.926
X-110.889 Y-11.438
X-110.865 Y-11.463
X-110.835 Y-11.479
X-110.801 Y-11.483
X-110.767 Y-11.476
X-110.738 Y-11.457
X-110.707 Y-11.428
X-110.612 Y-11.338
X-110.559 Y-11.285
X-110.488 Y-11.153
X-110.481 Y-11.003
X-110.515 Y-10.857
X-110.577 Y-10.721
X-110.667 Y-10.6
X-110.721 Y-10.553
X-110.836 Y-10.489
X-110.967 Y-10.481
X-111.09 Y-10.53
X-111.114 Y-10.556
X-111.128 Y-10.589
X-111.129 Y-10.625
X-111.118 Y-10.658
X-111.055 Y-10.775
X-110.764 Y-11.309
X-110.742 Y-11.337
X-110.712 Y-11.355
X-110.677 Y-11.361
X-110.643 Y-11.355
X-110.612 Y-11.338
X-110.602 Y-11.328
X-110.502 Y-11.264
X-110.475 Y-11.249
X-110.412 Y-11.208
X-110.326 Y-11.085
X-110.301 Y-10.937
X-110.317 Y-10.788
X-110.365 Y-10.646
X-110.441 Y-10.517
X-110.473 Y-10.483
X-110.562 Y-10.417
X-110.669 Y-10.388
X-110.779 Y-10.4
X-110.812 Y-10.419
X-110.836 Y-10.45
X-110.846 Y-10.487
X-110.841 Y-10.526
X-110.812 Y-10.613
X-110.617 Y-11.192
X-110.601 Y-11.223
X-110.575 Y-11.246
X-110.543 Y-11.258
X-110.508 Y-11.259
X-110.475 Y-11.249
X-110.454 Y-11.236
X-110.32 Y-11.18
X-110.252 Y-11.147
X-110.154 Y-11.034
X-110.113 Y-10.889
Y-10.739
X-110.146 Y-10.593
X-110.21 Y-10.457
X-110.226 Y-10.436
X-110.307 Y-10.364
X-110.408 Y-10.325
X-110.517
X-110.552 Y-10.34
X-110.579 Y-10.368
X-110.594 Y-10.404
X-110.593 Y-10.443
X-110.58 Y-10.507
X-110.453 Y-11.107
X-110.441 Y-11.139
X-110.418 Y-11.164
X-110.388 Y-11.181
X-110.354 Y-11.186
X-110.32 Y-11.18
X-110.2 Y-11.129
X-110.153 Y-11.112
X-110.084 Y-11.083
X-109.975 Y-10.98
X-109.923 Y-10.84
X-109.91 Y-10.69
X-109.931 Y-10.541
X-109.961 Y-10.467
X-110.036 Y-10.359
X-110.15 Y-10.293
X-110.28 Y-10.282
X-110.316 Y-10.295
X-110.344 Y-10.321
X-110.36 Y-10.355
X-110.363 Y-10.393
X-110.359 Y-10.425
X-110.283 Y-11.03
X-110.273 Y-11.063
X-110.252 Y-11.091
X-110.222 Y-11.11
X-110.188 Y-11.117
X-110.153 Y-11.112
X-110.106 Y-11.095
X-110.031 Y-11.07
X-109.984 Y-11.055
X-109.914 Y-11.029
X-109.794 Y-10.938
X-109.73 Y-10.803
X-109.705 Y-10.655
X-109.72 Y-10.506
X-109.738 Y-10.454
X-109.809 Y-10.34
X-109.923 Y-10.269
X-110.057 Y-10.254
X-110.091 Y-10.266
X-110.119 Y-10.29
X-110.137 Y-10.322
X-110.141 Y-10.358
X-110.11 Y-10.964
X-110.102 Y-10.998
X-110.083 Y-11.028
X-110.054 Y-11.049
X-110.019 Y-11.058
X-109.984 Y-11.055
X-109.946 Y-11.043
X-109.815 Y-11.02
X-109.742 Y-11.004
X-109.614 Y-10.925
X-109.536 Y-10.797
X-109.5 Y-10.651
X-109.505 Y-10.501
X-109.52 Y-10.447
X-109.584 Y-10.33
X-109.693 Y-10.252
X-109.825 Y-10.229
X-109.86 Y-10.239
X-109.889 Y-10.26
X-109.909 Y-10.291
X-109.916 Y-10.327
X-109.928 Y-10.919
X-109.923 Y-10.953
X-109.906 Y-10.983
X-109.881 Y-11.006
X-109.849 Y-11.018
X-109.815 Y-11.02
X-109.607 Y-10.985
X-109.534 Y-10.969
X-109.409 Y-10.886
X-109.332 Y-10.758
X-109.295 Y-10.612
X-109.301 Y-10.463
X-109.304 Y-10.454
X-109.36 Y-10.349
X-109.451 Y-10.274
X-109.565 Y-10.241
X-109.603 Y-10.246
X-109.636 Y-10.265
X-109.659 Y-10.295
X-109.67 Y-10.331
X-109.72 Y-10.877
X-109.717 Y-10.913
X-109.701 Y-10.945
X-109.676 Y-10.969
X-109.643 Y-10.984
X-109.607 Y-10.985
X-109.438 Y-10.958
X-109.392 Y-10.953
X-109.318 Y-10.94
X-109.199 Y-10.849
X-109.124 Y-10.719
X-109.089 Y-10.573
X-109.091 Y-10.541
X-109.126 Y-10.424
X-109.204 Y-10.33
X-109.313 Y-10.275
X-109.346 Y-10.273
X-109.378 Y-10.282
X-109.405 Y-10.301
X-109.425 Y-10.328
X-109.435 Y-10.359
X-109.499 Y-10.84
X-109.497 Y-10.875
X-109.483 Y-10.908
X-109.459 Y-10.933
X-109.427 Y-10.949
X-109.392 Y-10.953
X-109.354 Y-10.948
X-109.269 Y-10.95
X-109.223 Y-10.955
X-109.185 Y-10.957
X-109.047 Y-10.898
X-108.951 Y-10.783
X-108.899 Y-10.642
Y-10.627
X-108.924 Y-10.495
X-109.003 Y-10.388
X-109.122 Y-10.326
X-109.154 Y-10.324
X-109.186 Y-10.333
X-109.213 Y-10.351
X-109.233 Y-10.377
X-109.243 Y-10.409
X-109.307 Y-10.841
X-109.305 Y-10.88
X-109.288 Y-10.916
X-109.259 Y-10.942
X-109.223 Y-10.955
X-109.053 Y-10.975
X-109.016 Y-10.978
X-108.872 Y-10.934
X-108.768 Y-10.826
X-108.756 Y-10.793
X-108.738 Y-10.659
X-108.782 Y-10.53
X-108.877 Y-10.434
X-108.911 Y-10.422
X-108.947
X-108.98 Y-10.435
X-109.006 Y-10.459
X-109.023 Y-10.491
X-109.133 Y-10.847
X-109.138 Y-10.88
X-109.13 Y-10.914
X-109.112 Y-10.943
X-109.086 Y-10.964
X-109.053 Y-10.975
X-108.931 Y-10.99
X-108.884 Y-10.997
X-108.809 Y-11.003
X-108.739 Y-10.977
X-108.656 Y-10.868
X-108.632 Y-10.733
X-108.672 Y-10.602
X-108.768 Y-10.503
X-108.804 Y-10.491
X-108.843 Y-10.493
X-108.878 Y-10.509
X-108.904 Y-10.538
X-108.917 Y-10.574
X-108.966 Y-10.883
X-108.964 Y-10.921
X-108.948 Y-10.956
X-108.92 Y-10.983
X-108.884 Y-10.997
X-108.846 Y-11.002
X-108.761 Y-11.026
X-108.725 Y-11.034
X-108.651 Y-11.019
X-108.566 Y-10.925
X-108.535 Y-10.801
X-108.566 Y-10.678
X-108.65 Y-10.583
X-108.681 Y-10.57
X-108.715 Y-10.568
X-108.747 Y-10.578
X-108.775 Y-10.597
X-108.794 Y-10.625
X-108.803 Y-10.657
X-108.831 Y-10.92
X-108.828 Y-10.954
X-108.815 Y-10.985
X-108.792 Y-11.01
X-108.761 Y-11.026
X-108.677 Y-11.049
X-108.604 Y-11.066
X-108.532 Y-11.044
X-108.463 Y-10.956
X-108.44 Y-10.845
X-108.47 Y-10.737
X-108.546 Y-10.654
X-108.582 Y-10.64
X-108.62 Y-10.641
X-108.655 Y-10.655
X-108.682 Y-10.682
X-108.697 Y-10.717
X-108.744 Y-10.933
X-108.745 Y-10.97
X-108.733 Y-11.004
X-108.709 Y-11.032
X-108.677 Y-11.049
X-108.55 Y-11.085
X-108.516 Y-11.095
X-108.508 Y-11.098
X-108.471 Y-11.107
X-108.399 Y-11.042
X-108.36 Y-10.953
X-108.363 Y-10.856
X-108.408 Y-10.769
X-108.436 Y-10.748
X-108.47 Y-10.739
X-108.505 Y-10.743
G3 X-108.508 Y-11.098 I0.058 J-0.178
G1 X-108.461 Y-11.112
X-108.423 Y-11.124
X-108.381 Y-11.141
X-108.356 Y-11.148
X-108.349 Y-11.149
X-108.343 Y-11.143
X-108.321 Y-11.11
X-108.314 Y-11.071
X-108.322 Y-11.033
X-108.344 Y-11.001
X-108.788 Y-10.571
X-108.843 Y-10.517
X-108.874 Y-10.497
X-108.91 Y-10.489
X-108.947 Y-10.495
X-108.979 Y-10.514
X-109.002 Y-10.543
X-109.012 Y-10.579
X-109.009 Y-10.616
X-108.993 Y-10.649
G3 X-108.381 Y-11.141 I1.267 J0.949
G1 X-108.37 Y-11.145
X-108.36 Y-11.148
X-108.349 Y-11.149
X-108.338 Y-11.15
X-108.328 Y-11.149
X-108.317 Y-11.147
X-108.293 Y-11.137
X-108.286 Y-11.133
X-108.268 Y-11.111
X-108.262 Y-11.084
X-108.267 Y-11.056
X-108.287 Y-11.031
X-108.316 Y-11.018
X-108.348 Y-11.02
X-108.375 Y-11.037
X-108.39 Y-11.065
X-108.391 Y-11.097
X-108.376 Y-11.126
X-108.349 Y-11.144
X-108.317 Y-11.147
X-108.307 Y-11.144
X-108.296 Y-11.139
X-108.286 Y-11.133
X-108.275 Y-11.125
X-108.263 Y-11.113
X-108.254 Y-11.101
X-108.24 Y-11.08
X-108.237 Y-11.074
X-108.232 Y-11.044
X-108.237 Y-11.013
X-108.252 Y-10.986
X-108.274 Y-10.966
X-108.31 Y-10.952
X-108.347 Y-10.954
X-108.381 Y-10.971
X-108.405 Y-11.001
X-108.415 Y-11.037
X-108.409 Y-11.074
X-108.389 Y-11.106
X-108.357 Y-11.127
X-108.32 Y-11.133
X-108.284 Y-11.124
X-108.254 Y-11.101
X-108.242 Y-11.085
X-108.237 Y-11.074
X-108.233 Y-11.063
X-108.23 Y-11.053
X-108.228 Y-11.042
Y-11.032
X-108.229 Y-11.021
X-108.23 Y-11.011
X-108.234 Y-10.999
X-108.239 Y-10.988
X-108.245 Y-10.977
X-108.348 Y-10.842
X-108.423 Y-10.751
X-108.444 Y-10.729
X-108.465 Y-10.711
X-108.518 Y-10.673
X-108.767 Y-10.504
X-108.931 Y-10.401
X-108.973 Y-10.377
X-108.994 Y-10.366
X-109.015 Y-10.357
X-109.1 Y-10.332
X-109.354 Y-10.264
X-109.438 Y-10.252
X-109.692 Y-10.23
X-109.777 Y-10.226
X-109.861 Y-10.231
X-110.2 Y-10.271
X-110.284 Y-10.282
X-110.538 Y-10.328
X-110.563 Y-10.335
X-110.982 Y-10.461
X-110.993 Y-10.466
X-111.003 Y-10.472
X-111.13 Y-10.558
X-111.417 Y-10.757
X-111.469 Y-10.796
X-111.517 Y-10.844
X-111.533 Y-10.867
X-111.542 Y-10.894
X-111.543 Y-10.912 Z-0.988
X-111.531 Y-10.941 Z-0.976
X-111.52 Y-10.964 Z-0.953
X-111.514 Y-10.98 Z-0.924
X-111.511 Y-10.985 Z-0.89
G0 Z2
X-106.987 Y-15.681
Z0.5
G3 X-106.503 Y-15.806 Z0.29 I0.242 J-0.062 F333.3
X-106.987 Y-15.681 Z0.079 I-0.242 J0.062
X-106.503 Y-15.806 Z-0.131 I0.242 J-0.062
X-106.987 Y-15.681 Z-0.342 I-0.242 J0.062
X-106.503 Y-15.806 Z-0.552 I0.242 J-0.062
X-106.987 Y-15.681 Z-0.763 I-0.242 J0.062
X-106.776 Y-15.991 Z-0.876 I0.242 J-0.062
X-106.495 Y-15.743 Z-0.99 I0.031 J0.248
X-106.995 I-0.25
X-106.495 I0.25
G1 X-106.458 Y-15.598 F1000
X-106.471 Y-15.524
X-106.508 Y-15.459
X-106.615 Y-15.354
X-106.759 Y-15.314
X-106.908 Y-15.335
X-107.038 Y-15.409
X-107.135 Y-15.524
X-107.187 Y-15.665
X-107.189 Y-15.815
X-107.141 Y-15.957
X-107.049 Y-16.075
X-106.924 Y-16.157
X-106.778 Y-16.193
X-106.629 Y-16.179
X-106.492 Y-16.117
X-106.384 Y-16.013
X-106.306 Y-15.885
X-106.255 Y-15.744
X-106.245 Y-15.594
X-106.28 Y-15.448
X-106.351 Y-15.316
X-106.459 Y-15.212
X-106.59 Y-15.139
X-106.736 Y-15.106
X-106.886 Y-15.113
X-107.03 Y-15.154
X-107.159 Y-15.23
X-107.266 Y-15.335
X-107.348 Y-15.461
X-107.398 Y-15.602
X-107.412 Y-15.752
X-107.396 Y-15.901
X-107.345 Y-16.042
X-107.263 Y-16.167
X-107.156 Y-16.273
X-107.029 Y-16.352
X-106.886 Y-16.398
X-106.737 Y-16.414
X-106.588 Y-16.397
X-106.448 Y-16.344
X-106.321 Y-16.264
X-106.212 Y-16.16
X-106.124 Y-16.039
X-106.095 Y-15.974
X-106.08 Y-15.934
X-106.07 Y-15.892
X-106.067 Y-15.849
Y-15.61
X-106.075 Y-15.46
X-106.111 Y-15.315
X-106.183 Y-15.183
X-106.282 Y-15.071
X-106.404 Y-14.982
X-106.539 Y-14.918
X-106.685 Y-14.883
X-106.835 Y-14.876
X-106.983 Y-14.897
X-107.004 Y-14.904
X-107.083 Y-14.943
X-107.147 Y-15.002
X-107.191 Y-15.078
X-107.289 Y-15.318
X-107.331 Y-15.403
X-107.422 Y-15.572
X-107.47 Y-15.656
X-107.492 Y-15.695
X-107.508 Y-15.72
X-107.52 Y-15.741
X-107.555 Y-15.807
X-107.557 Y-15.821
X-107.543 Y-15.95
X-107.475 Y-16.061
X-107.367 Y-16.133
X-107.33 Y-16.139
X-107.293 Y-16.13
X-107.262 Y-16.107
X-107.241 Y-16.075
X-107.234 Y-16.038
X-107.242 Y-16
X-107.344 Y-15.757
X-107.363 Y-15.726
X-107.392 Y-15.705
X-107.427 Y-15.696
X-107.463 Y-15.699
X-107.495 Y-15.715
X-107.52 Y-15.741
X-107.577 Y-15.836
X-107.623 Y-15.91
X-107.638 Y-15.931
X-107.643 Y-15.941
X-107.647 Y-15.952
X-107.65 Y-15.963
X-107.651 Y-15.973
Y-15.984
X-107.65 Y-15.994
X-107.648 Y-16.005
X-107.645 Y-16.015
X-107.64 Y-16.026
X-107.634 Y-16.036
X-107.623 Y-16.049
X-107.609 Y-16.062
X-107.596 Y-16.071
X-107.584 Y-16.079
X-107.566 Y-16.086
X-107.556 Y-16.088
X-107.492 Y-16.096
X-107.408 Y-16.117
X-107.366 Y-16.134
X-107.323 Y-16.154
X-107.308 Y-16.163
X-107.239 Y-16.211
X-107.197 Y-16.248
X-107.154 Y-16.295
X-107.127 Y-16.332
X-107.101 Y-16.374
X-107.08 Y-16.417
X-107.046 Y-16.483
X-106.924 Y-16.57
X-106.78 Y-16.614
X-106.63 Y-16.621
X-106.482 Y-16.597
X-106.341 Y-16.547
X-106.21 Y-16.474
X-106.18 Y-16.449
X-106.119 Y-16.384
X-106.081 Y-16.304
X-106.067 Y-16.215
Y-15.849
X-106.075 Y-15.814
X-106.093 Y-15.785
X-106.121 Y-15.763
X-106.154 Y-15.753
X-106.189 Y-15.755
X-106.222 Y-15.768
X-106.493 Y-15.945
X-107.04 Y-16.299
X-107.065 Y-16.322
X-107.081 Y-16.351
X-107.086 Y-16.384
X-107.08 Y-16.417
X-107.069 Y-16.443
X-107.051 Y-16.501
X-107.042 Y-16.543
X-107.026 Y-16.616
X-106.933 Y-16.734
X-106.799 Y-16.802
X-106.652 Y-16.832
X-106.502 Y-16.829
X-106.355 Y-16.8
X-106.212 Y-16.747
X-106.135 Y-16.68
X-106.085 Y-16.591
X-106.067 Y-16.491
Y-16.215
X-106.076 Y-16.178
X-106.098 Y-16.147
X-106.13 Y-16.126
X-106.167 Y-16.119
X-106.205 Y-16.126
X-106.372 Y-16.194
X-106.98 Y-16.439
X-107.008 Y-16.456
X-107.028 Y-16.481
X-107.04 Y-16.511
X-107.042 Y-16.543
X-107.035 Y-16.585
X-107.033 Y-16.67
Y-16.716
X-107.031 Y-16.754
X-106.966 Y-16.889
X-106.847 Y-16.98
X-106.707 Y-17.033
X-106.558 Y-17.054
X-106.408 Y-17.048
X-106.261 Y-17.018
X-106.244 Y-17.011
X-106.151 Y-16.945
X-106.089 Y-16.849
X-106.067 Y-16.737
Y-16.491
X-106.075 Y-16.455
X-106.095 Y-16.425
X-106.124 Y-16.404
X-106.159 Y-16.394
X-106.195 Y-16.398
X-106.328 Y-16.437
X-106.961 Y-16.624
X-106.989 Y-16.637
X-107.012 Y-16.659
X-107.027 Y-16.686
X-107.033 Y-16.716
Y-16.885
X-107.029 Y-16.96
X-106.96 Y-17.093
X-106.842 Y-17.187
X-106.705 Y-17.246
X-106.558 Y-17.277
X-106.408 Y-17.283
X-106.261 Y-17.255
X-106.249 Y-17.25
X-106.153 Y-17.184
X-106.09 Y-17.088
X-106.067 Y-16.974
Y-16.737
X-106.074 Y-16.703
X-106.092 Y-16.674
X-106.119 Y-16.653
X-106.152 Y-16.642
X-106.186
X-106.313 Y-16.667
X-106.952 Y-16.791
X-106.983 Y-16.802
X-107.009 Y-16.824
X-107.026 Y-16.853
X-107.033 Y-16.885
Y-17.092
X-107.03 Y-17.167
X-106.96 Y-17.3
X-106.846 Y-17.397
X-106.711 Y-17.463
X-106.566 Y-17.502
X-106.417 Y-17.513
X-106.269 Y-17.49
X-106.255 Y-17.485
X-106.156 Y-17.42
X-106.09 Y-17.322
X-106.067 Y-17.206
Y-16.974
X-106.074 Y-16.941
X-106.091 Y-16.912
X-106.117 Y-16.891
X-106.149 Y-16.879
X-106.183
X-106.308 Y-16.898
X-106.948 Y-16.998
X-106.981 Y-17.009
X-107.008 Y-17.03
X-107.026 Y-17.059
X-107.033 Y-17.092
X-107.035 Y-17.308
X-107.031 Y-17.383
X-106.962 Y-17.515
X-106.85 Y-17.615
X-106.717 Y-17.685
X-106.573 Y-17.728
X-106.424 Y-17.743
X-106.275 Y-17.722
X-106.262 Y-17.717
X-106.163 Y-17.654
X-106.095 Y-17.558
X-106.069 Y-17.444
X-106.067 Y-17.346
Y-17.206
X-106.074 Y-17.174
X-106.091 Y-17.145
X-106.116 Y-17.124
X-106.147 Y-17.112
X-106.18 Y-17.111
X-106.308 Y-17.128
X-106.948 Y-17.213
X-106.981 Y-17.223
X-107.009 Y-17.244
X-107.027 Y-17.274
X-107.035 Y-17.308
X-107.038 Y-17.515
X-107.036 Y-17.59
X-106.972 Y-17.725
X-106.864 Y-17.829
X-106.734 Y-17.904
X-106.592 Y-17.952
X-106.443 Y-17.971
X-106.294 Y-17.955
X-106.278 Y-17.95
X-106.178 Y-17.891
X-106.108 Y-17.799
X-106.077 Y-17.687
X-106.073 Y-17.599
X-106.069 Y-17.444
X-106.075 Y-17.411
X-106.091 Y-17.382
X-106.116 Y-17.36
X-106.146 Y-17.348
X-106.179 Y-17.345
X-106.308 Y-17.358
X-106.948 Y-17.421
X-106.982 Y-17.43
X-107.011 Y-17.451
X-107.03 Y-17.48
X-107.038 Y-17.515
X-107.04 Y-17.599
X-107.045 Y-17.683
X-107.049 Y-17.73
X-107.051 Y-17.805
X-106.988 Y-17.941
X-106.882 Y-18.047
X-106.754 Y-18.125
X-106.613 Y-18.176
X-106.465 Y-18.199
X-106.315 Y-18.187
X-106.301 Y-18.182
X-106.198 Y-18.125
X-106.125 Y-18.032
X-106.093 Y-17.918
X-106.077 Y-17.687
X-106.082 Y-17.653
X-106.097 Y-17.624
X-106.121 Y-17.601
X-106.152 Y-17.587
X-106.185 Y-17.584
X-106.311 Y-17.593
X-106.957 Y-17.642
X-106.99 Y-17.65
X-107.019 Y-17.669
X-107.039 Y-17.697
X-107.049 Y-17.73
X-107.058 Y-17.852
X-107.063 Y-17.899
X-107.067 Y-17.974
X-107.032 Y-18.12
X-106.939 Y-18.237
X-106.818 Y-18.326
X-106.682 Y-18.388
X-106.536 Y-18.422
X-106.386 Y-18.425
X-106.347 Y-18.417
X-106.231 Y-18.364
X-106.148 Y-18.269
X-106.111 Y-18.148
X-106.093 Y-17.918
X-106.097 Y-17.886
X-106.111 Y-17.857
X-106.133 Y-17.834
X-106.161 Y-17.819
X-106.193 Y-17.814
X-106.322
X-106.964 Y-17.812
X-106.999 Y-17.819
X-107.03 Y-17.837
X-107.052 Y-17.865
X-107.063 Y-17.899
X-107.069 Y-17.955
X-107.09 Y-18.106
X-107.097 Y-18.18
X-107.064 Y-18.327
X-106.975 Y-18.448
X-106.857 Y-18.54
X-106.723 Y-18.607
X-106.578 Y-18.647
X-106.428 Y-18.654
X-106.383 Y-18.646
X-106.265 Y-18.598
X-106.177 Y-18.505
X-106.136 Y-18.384
X-106.115 Y-18.19
X-106.111 Y-18.148
X-106.118 Y-18.108
X-106.138 Y-18.075
X-106.17 Y-18.052
X-106.209 Y-18.043
X-106.345 Y-18.04
X-106.989 Y-18.024
X-107.024 Y-18.029
X-107.055 Y-18.046
X-107.078 Y-18.073
X-107.09 Y-18.106
X-107.102 Y-18.19
X-107.13 Y-18.321
X-107.143 Y-18.395
X-107.105 Y-18.541
X-107.017 Y-18.662
X-106.901 Y-18.757
X-106.768 Y-18.827
X-106.625 Y-18.871
X-106.475 Y-18.882
X-106.443 Y-18.877
X-106.336 Y-18.841
X-106.25 Y-18.768
X-106.197 Y-18.669
X-106.154 Y-18.528
X-106.139 Y-18.408
X-106.136 Y-18.384
X-106.139 Y-18.352
X-106.151 Y-18.322
X-106.173 Y-18.298
X-106.201 Y-18.282
X-106.232 Y-18.276
X-106.381 Y-18.27
X-107.03 Y-18.246
X-107.063 Y-18.25
X-107.093 Y-18.266
X-107.117 Y-18.29
X-107.13 Y-18.321
X-107.157 Y-18.444
X-107.17 Y-18.49
X-107.187 Y-18.563
X-107.174 Y-18.713
X-107.099 Y-18.842
X-106.991 Y-18.947
X-106.865 Y-19.028
X-106.725 Y-19.082
X-106.578 Y-19.108
X-106.55 Y-19.107
X-106.438 Y-19.08
X-106.344 Y-19.012
X-106.283 Y-18.914
X-106.233 Y-18.782
X-106.197 Y-18.669
X-106.193 Y-18.636
X-106.201 Y-18.603
X-106.219 Y-18.575
X-106.246 Y-18.554
X-106.278 Y-18.544
X-106.423 Y-18.521
X-107.059 Y-18.422
X-107.095 Y-18.423
X-107.127 Y-18.436
X-107.153 Y-18.459
X-107.17 Y-18.49
X-107.23 Y-18.697
X-107.248 Y-18.77
X-107.233 Y-18.919
X-107.16 Y-19.05
X-107.055 Y-19.158
X-106.931 Y-19.242
X-106.793 Y-19.302
X-106.646 Y-19.328
X-106.635
X-106.525 Y-19.301
X-106.432 Y-19.236
X-106.37 Y-19.14
X-106.308 Y-18.98
X-106.283 Y-18.914
X-106.278 Y-18.881
X-106.284 Y-18.848
X-106.3 Y-18.818
X-106.326 Y-18.796
X-106.358 Y-18.784
X-106.488 Y-18.758
X-107.115 Y-18.63
X-107.151
X-107.185 Y-18.642
X-107.213 Y-18.665
X-107.23 Y-18.697
X-107.239 Y-18.726
X-107.301 Y-18.912
X-107.321 Y-18.985
X-107.299 Y-19.133
X-107.225 Y-19.264
X-107.122 Y-19.372
X-106.998 Y-19.458
X-106.862 Y-19.519
X-106.712 Y-19.545
X-106.647 Y-19.534
X-106.586 Y-19.508
X-106.533 Y-19.47
X-106.518 Y-19.457
X-106.493 Y-19.43
X-106.484 Y-19.416
X-106.464 Y-19.373
X-106.37 Y-19.14
X-106.364 Y-19.106
X-106.37 Y-19.073
X-106.386 Y-19.043
X-106.412 Y-19.021
X-106.443 Y-19.008
X-106.557 Y-18.984
X-107.186 Y-18.85
X-107.221 Y-18.848
X-107.255 Y-18.86
X-107.283 Y-18.882
X-107.301 Y-18.912
X-107.323 Y-18.98
X-107.347 Y-19.035
X-107.372 Y-19.077
X-107.392 Y-19.109
X-107.408 Y-19.259
X-107.357 Y-19.4
X-107.27 Y-19.522
X-107.158 Y-19.622
X-107.027 Y-19.699
X-106.921 Y-19.717
X-106.816 Y-19.697
X-106.724 Y-19.641
X-106.533 Y-19.47
X-106.513 Y-19.443
X-106.503 Y-19.411
X-106.504 Y-19.378
X-106.516 Y-19.347
X-106.537 Y-19.321
X-106.566 Y-19.304
X-106.643 Y-19.276
X-107.257 Y-19.044
X-107.289 Y-19.038
X-107.32 Y-19.041
X-107.349 Y-19.055
X-107.372 Y-19.077
X-107.402 Y-19.119
X-107.444 Y-19.169
X-107.489 Y-19.229
X-107.531 Y-19.373
X-107.501 Y-19.52
X-107.431 Y-19.652
X-107.333 Y-19.766
X-107.27 Y-19.811
X-107.146 Y-19.864
X-107.012 Y-19.857
X-106.894 Y-19.792
X-106.724 Y-19.641
X-106.703 Y-19.611
X-106.694 Y-19.575
X-106.698 Y-19.539
X-106.715 Y-19.506
X-106.743 Y-19.482
X-106.757 Y-19.474
X-107.319 Y-19.149
X-107.351 Y-19.138
X-107.385 Y-19.137
X-107.417 Y-19.148
X-107.444 Y-19.169
X-107.562 Y-19.31
X-107.608 Y-19.369
X-107.66 Y-19.51
X-107.641 Y-19.659
X-107.581 Y-19.796
X-107.487 Y-19.913
X-107.44 Y-19.95
X-107.335 Y-20.003
X-107.217 Y-20.011
X-107.105 Y-19.973
X-107.089 Y-19.964
X-107.069 Y-19.948
X-106.894 Y-19.792
X-106.873 Y-19.763
X-106.864 Y-19.729
X-106.867 Y-19.693
X-106.882 Y-19.661
X-106.908 Y-19.636
X-107.433 Y-19.293
X-107.466 Y-19.28
X-107.501 Y-19.278
X-107.534 Y-19.288
X-107.562 Y-19.31
X-107.615 Y-19.373
X-107.69 Y-19.457
X-107.737 Y-19.515
X-107.795 Y-19.654
X-107.783 Y-19.803
X-107.727 Y-19.943
X-107.635 Y-20.061
X-107.528 Y-20.115
X-107.412 Y-20.123
X-107.301 Y-20.086
X-107.105 Y-19.973
X-107.077 Y-19.947
X-107.061 Y-19.913
X-107.059 Y-19.875
X-107.071 Y-19.839
X-107.096 Y-19.81
X-107.556 Y-19.448
X-107.589 Y-19.431
X-107.625 Y-19.427
X-107.66 Y-19.436
X-107.69 Y-19.457
X-107.746 Y-19.52
X-107.767 Y-19.542
X-107.831 Y-19.592
X-107.888 Y-19.641
X-107.945 Y-19.78
X-107.938 Y-19.93
X-107.888 Y-20.071
X-107.86 Y-20.108
X-107.749 Y-20.196
X-107.61 Y-20.223
X-107.474 Y-20.184
X-107.301 Y-20.086
X-107.273 Y-20.06
X-107.257 Y-20.025
X-107.255 Y-19.987
X-107.267 Y-19.951
X-107.292 Y-19.922
X-107.711 Y-19.595
X-107.739 Y-19.579
X-107.77 Y-19.573
X-107.802 Y-19.578
X-107.831 Y-19.592
X-107.983 Y-19.711
X-108.04 Y-19.76
X-108.101 Y-19.897
Y-20.047
X-108.044 Y-20.185
X-108.026 Y-20.207
X-107.915 Y-20.293
X-107.778 Y-20.32
X-107.643 Y-20.28
X-107.474 Y-20.184
X-107.446 Y-20.158
X-107.43 Y-20.123
X-107.428 Y-20.085
X-107.44 Y-20.049
X-107.466 Y-20.02
X-107.863 Y-19.713
X-107.891 Y-19.697
X-107.923 Y-19.692
X-107.954 Y-19.696
X-107.983 Y-19.711
X-108 Y-19.724
X-108.085 Y-19.785
X-108.138 Y-19.819
X-108.2 Y-19.862
X-108.266 Y-19.996
X-108.265 Y-20.146
X-108.244 Y-20.199
X-108.163 Y-20.311
X-108.042 Y-20.375
X-107.904 Y-20.379
X-107.789 Y-20.354
X-107.757 Y-20.344
X-107.681 Y-20.302
X-107.643 Y-20.28
X-107.615 Y-20.254
X-107.598 Y-20.219
X-107.597 Y-20.18
X-107.61 Y-20.144
X-107.636 Y-20.115
X-108.029 Y-19.825
X-108.064 Y-19.809
X-108.102 Y-19.806
X-108.138 Y-19.819
X-108.169 Y-19.838
X-108.247 Y-19.88
X-108.254 Y-19.883
X-108.323 Y-19.913
X-108.369 Y-19.971
X-108.43 Y-20.109
X-108.426 Y-20.15
X-108.388 Y-20.269
X-108.304 Y-20.361
X-108.191 Y-20.412
X-108.066 Y-20.413
X-108.035 Y-20.399
X-108.01 Y-20.376
X-107.994 Y-20.346
