%
(111-115)
(T1  D=1 CR=0 - ZMIN=-2 - flat end mill)
G90 G94
G17
G21
G28 G91 Z0
G90

(Clear 19)
M9
T1 M6
S5000 M3
G54
M8
G0 X-122.058 Y-12.659
Z12
Z2
Z0.5
G3 X-121.574 Y-12.783 Z0.29 I0.242 J-0.062 F333.3
X-122.058 Y-12.659 Z0.079 I-0.242 J0.062
X-121.574 Y-12.783 Z-0.131 I0.242 J-0.062
X-122.058 Y-12.659 Z-0.342 I-0.242 J0.062
X-121.574 Y-12.783 Z-0.552 I0.242 J-0.062
X-122.058 Y-12.659 Z-0.763 I-0.242 J0.062
X-121.847 Y-12.969 Z-0.876 I0.242 J-0.062
X-121.566 Y-12.721 Z-0.99 I0.031 J0.248
X-122.066 I-0.25
X-121.566 I0.25
G1 X-121.528 Y-12.576 F1000
X-121.541 Y-12.502
X-121.578 Y-12.437
X-121.685 Y-12.332
X-121.83 Y-12.292
X-121.978 Y-12.313
X-122.109 Y-12.387
X-122.206 Y-12.502
X-122.258 Y-12.642
X-122.26 Y-12.792
X-122.212 Y-12.935
X-122.12 Y-13.053
X-121.994 Y-13.135
X-121.849 Y-13.171
X-121.699 Y-13.157
X-121.563 Y-13.095
X-121.454 Y-12.991
X-121.376 Y-12.863
X-121.326 Y-12.722
X-121.315 Y-12.572
X-121.351 Y-12.426
X-121.421 Y-12.294
X-121.53 Y-12.19
X-121.66 Y-12.117
X-121.807 Y-12.084
X-121.957 Y-12.091
X-122.101 Y-12.132
X-122.23 Y-12.208
X-122.337 Y-12.313
X-122.419 Y-12.439
X-122.469 Y-12.58
X-122.483 Y-12.73
X-122.467 Y-12.879
X-122.416 Y-13.02
X-122.333 Y-13.145
X-122.227 Y-13.251
X-122.1 Y-13.33
X-121.957 Y-13.376
X-121.808 Y-13.392
X-121.659 Y-13.375
X-121.518 Y-13.322
X-121.392 Y-13.242
X-121.283 Y-13.138
X-121.195 Y-13.017
X-121.133 Y-12.88
X-121.094 Y-12.735
X-121.086 Y-12.585
X-121.109 Y-12.437
X-121.119 Y-12.406
X-121.142 Y-12.356
X-121.173 Y-12.312
X-121.212 Y-12.273
X-121.282 Y-12.215
X-121.303 Y-12.193
X-121.338 Y-12.151
X-121.353 Y-12.128
X-121.443 Y-12.008
X-121.569 Y-11.926
X-121.711 Y-11.878
X-121.86 Y-11.86
X-122.01 Y-11.869
X-122.155 Y-11.906
X-122.291 Y-11.971
X-122.412 Y-12.059
X-122.461 Y-12.108
X-122.509 Y-12.17
X-122.539 Y-12.242
X-122.549 Y-12.32
Y-13
X-122.542 Y-13.15
X-122.478 Y-13.286
X-122.383 Y-13.402
X-122.265 Y-13.494
X-122.131 Y-13.562
X-121.988 Y-13.607
X-121.839 Y-13.626
X-121.69 Y-13.618
X-121.619 Y-13.602
X-121.528 Y-13.565
X-121.454 Y-13.5
X-121.405 Y-13.415
X-121.39 Y-13.376
X-121.367 Y-13.333
X-121.339 Y-13.291
X-121.282 Y-13.225
X-121.264 Y-13.207
X-121.231 Y-13.179
X-121.198 Y-13.155
X-121.166 Y-13.137
X-121.04 Y-13.057
X-120.948 Y-12.938
X-120.89 Y-12.8
X-120.863 Y-12.652
Y-12.627
X-120.89 Y-12.506
X-120.963 Y-12.407
X-121.069 Y-12.345
X-121.102 Y-12.341
X-121.135 Y-12.348
X-121.163 Y-12.366
X-121.184 Y-12.391
X-121.195 Y-12.422
X-121.206 Y-12.478
X-121.311 Y-13.03
Y-13.067
X-121.297 Y-13.101
X-121.272 Y-13.129
X-121.239 Y-13.145
X-121.202 Y-13.148
X-121.166 Y-13.137
X-121.14 Y-13.122
X-121.113 Y-13.109
X-121.029 Y-13.081
X-120.982 Y-13.073
X-120.909 Y-13.056
X-120.785 Y-12.972
X-120.702 Y-12.846
X-120.672 Y-12.736
X-120.667 Y-12.607
X-120.719 Y-12.488
X-120.818 Y-12.405
X-120.944 Y-12.373
X-121.013 Y-12.362
X-121.029 Y-12.358
X-121.069 Y-12.345
X-121.103 Y-12.341
X-121.136 Y-12.349
X-121.164 Y-12.367
X-121.185 Y-12.394
X-121.196 Y-12.426
X-121.195 Y-12.46
X-121.094 Y-12.992
X-121.08 Y-13.027
X-121.054 Y-13.055
X-121.02 Y-13.071
X-120.982 Y-13.073
X-120.944 Y-13.066
X-120.813 Y-13.064
X-120.738 Y-13.06
X-120.604 Y-12.993
X-120.515 Y-12.872
X-120.467 Y-12.73
X-120.468 Y-12.579
X-120.53 Y-12.473
X-120.63 Y-12.401
X-120.75 Y-12.375
X-120.906 Y-12.374
X-120.944 Y-12.373
X-120.979 Y-12.38
X-121.01 Y-12.4
X-121.032 Y-12.428
X-121.042 Y-12.463
X-121.039 Y-12.499
X-120.907 Y-12.99
X-120.894 Y-13.019
X-120.872 Y-13.043
X-120.844 Y-13.058
X-120.813 Y-13.064
X-120.606 Y-13.063
X-120.531 Y-13.059
X-120.4 Y-12.985
X-120.311 Y-12.865
X-120.263 Y-12.723
X-120.265 Y-12.667
X-120.29 Y-12.555
X-120.355 Y-12.461
X-120.452 Y-12.398
X-120.564 Y-12.376
X-120.75 Y-12.375
X-120.786 Y-12.383
X-120.816 Y-12.403
X-120.837 Y-12.432
X-120.847 Y-12.468
X-120.843 Y-12.504
X-120.698 Y-12.992
X-120.685 Y-13.02
X-120.663 Y-13.042
X-120.636 Y-13.057
X-120.606 Y-13.063
X-120.436
X-120.362 Y-13.059
X-120.221 Y-13.007
X-120.122 Y-12.894
X-120.073 Y-12.752
X-120.069 Y-12.602
X-120.071 Y-12.594
X-120.132 Y-12.481
X-120.234 Y-12.403
X-120.36 Y-12.376
X-120.564
X-120.599 Y-12.384
X-120.629 Y-12.403
X-120.651 Y-12.431
X-120.66 Y-12.466
X-120.658 Y-12.501
X-120.53 Y-12.989
X-120.517 Y-13.018
X-120.495 Y-13.041
X-120.468 Y-13.057
X-120.436 Y-13.063
X-120.221
X-120.146 Y-13.059
X-120.01 Y-12.996
X-119.919 Y-12.877
X-119.869 Y-12.735
X-119.871 Y-12.585
X-119.872 Y-12.583
X-119.934 Y-12.475
X-120.035 Y-12.402
X-120.157 Y-12.376
X-120.36
X-120.395 Y-12.384
X-120.425 Y-12.403
X-120.446 Y-12.433
X-120.456 Y-12.467
X-120.452 Y-12.503
X-120.313 Y-12.991
X-120.3 Y-13.019
X-120.279 Y-13.042
X-120.251 Y-13.057
X-120.221 Y-13.063
X-120.013
X-119.938 Y-13.059
X-119.806 Y-12.989
X-119.715 Y-12.87
X-119.667 Y-12.728
X-119.668 Y-12.669
X-119.693 Y-12.556
X-119.759 Y-12.461
X-119.855 Y-12.398
X-119.968 Y-12.376
X-120.157
X-120.192 Y-12.384
X-120.223 Y-12.404
X-120.244 Y-12.433
X-120.253 Y-12.468
X-120.249 Y-12.504
X-120.106 Y-12.991
X-120.093 Y-13.019
X-120.071 Y-13.042
X-120.044 Y-13.057
X-120.013 Y-13.063
X-119.798
X-119.723 Y-13.059
X-119.595 Y-12.981
X-119.508 Y-12.859
X-119.471 Y-12.713
X-119.475 Y-12.656
X-119.503 Y-12.548
X-119.569 Y-12.457
X-119.664 Y-12.397
X-119.774 Y-12.376
X-119.968
X-120.004 Y-12.384
X-120.035 Y-12.405
X-120.056 Y-12.436
X-120.064 Y-12.472
X-120.059 Y-12.509
X-119.889 Y-12.996
X-119.868 Y-13.03
X-119.836 Y-13.054
X-119.798 Y-13.063
X-119.628
X-119.554 Y-13.059
X-119.415 Y-13.001
X-119.322 Y-12.884
X-119.279 Y-12.74
Y-12.59
X-119.281 Y-12.586
X-119.343 Y-12.476
X-119.444 Y-12.402
X-119.567 Y-12.376
X-119.774
X-119.81 Y-12.384
X-119.84 Y-12.404
X-119.861 Y-12.433
X-119.871 Y-12.468
X-119.867 Y-12.505
X-119.721 Y-12.992
X-119.707 Y-13.02
X-119.686 Y-13.042
X-119.659 Y-13.057
X-119.628 Y-13.063
X-119.421
X-119.346 Y-13.059
X-119.211 Y-12.994
X-119.123 Y-12.873
X-119.075 Y-12.731
X-119.078 Y-12.581
X-119.141 Y-12.474
X-119.242 Y-12.402
X-119.363 Y-12.376
X-119.567
X-119.602 Y-12.384
X-119.632 Y-12.404
X-119.654 Y-12.433
X-119.663 Y-12.468
X-119.659 Y-12.505
X-119.514 Y-12.992
X-119.5 Y-13.02
X-119.479 Y-13.042
X-119.452 Y-13.057
X-119.421 Y-13.063
X-119.205
X-119.131 Y-13.059
X-119.002 Y-12.981
X-118.916 Y-12.859
X-118.871 Y-12.716
X-118.874 Y-12.661
X-118.901 Y-12.551
X-118.967 Y-12.459
X-119.062 Y-12.397
X-119.174 Y-12.376
X-119.363
X-119.399 Y-12.384
X-119.429 Y-12.404
X-119.45 Y-12.435
X-119.459 Y-12.47
X-119.455 Y-12.507
X-119.297 Y-12.994
X-119.283 Y-13.021
X-119.262 Y-13.043
X-119.235 Y-13.057
X-119.205 Y-13.063
X-119.036
X-118.961 Y-13.059
X-118.823 Y-13.002
X-118.727 Y-12.887
X-118.681 Y-12.744
X-118.679 Y-12.594
X-118.681 Y-12.588
X-118.742 Y-12.478
X-118.844 Y-12.403
X-118.968 Y-12.376
X-119.174
X-119.209 Y-12.384
X-119.239 Y-12.403
X-119.26 Y-12.432
X-119.27 Y-12.467
X-119.266 Y-12.503
X-119.129 Y-12.99
X-119.116 Y-13.019
X-119.095 Y-13.042
X-119.067 Y-13.057
X-119.036 Y-13.063
X-118.829
X-118.754 Y-13.059
X-118.618 Y-12.997
X-118.527 Y-12.878
X-118.477 Y-12.736
X-118.479 Y-12.586
X-118.542 Y-12.476
X-118.643 Y-12.402
X-118.765 Y-12.376
X-118.968
X-119.003 Y-12.384
X-119.033 Y-12.403
X-119.054 Y-12.433
X-119.064 Y-12.467
X-119.06 Y-12.503
X-118.922 Y-12.991
X-118.908 Y-13.019
X-118.887 Y-13.042
X-118.86 Y-13.057
X-118.829 Y-13.063
X-118.613 Y-13.064
X-118.538 Y-13.061
X-118.408 Y-12.986
X-118.32 Y-12.865
X-118.289 Y-12.769
X-118.278 Y-12.629
X-118.331 Y-12.5
X-118.438 Y-12.409
X-118.574 Y-12.376
X-118.765
X-118.801 Y-12.384
X-118.831 Y-12.404
X-118.852 Y-12.434
X-118.861 Y-12.469
X-118.857 Y-12.506
X-118.704 Y-12.994
X-118.691 Y-13.021
X-118.67 Y-13.043
X-118.643 Y-13.058
X-118.613 Y-13.064
X-118.444 Y-13.066
X-118.369 Y-13.063
X-118.299 Y-13.035
X-118.179 Y-12.945
X-118.105 Y-12.815
X-118.081 Y-12.667
X-118.084 Y-12.637
X-118.137 Y-12.503
X-118.246 Y-12.408
X-118.386 Y-12.376
X-118.574
X-118.609 Y-12.384
X-118.639 Y-12.403
X-118.66 Y-12.432
X-118.67 Y-12.466
X-118.667 Y-12.502
X-118.536 Y-12.991
X-118.523 Y-13.02
X-118.502 Y-13.044
X-118.475 Y-13.059
X-118.444 Y-13.066
X-118.237 Y-13.069
X-118.162 Y-13.068
X-118.027 Y-13.003
X-117.936 Y-12.884
X-117.888 Y-12.741
Y-12.591
X-117.893 Y-12.576
X-117.957 Y-12.469
X-118.059 Y-12.397
X-118.181 Y-12.373
X-118.386 Y-12.376
X-118.421 Y-12.384
X-118.451 Y-12.404
X-118.472 Y-12.434
X-118.481 Y-12.469
X-118.477 Y-12.505
X-118.325 Y-12.999
X-118.306 Y-13.034
X-118.275 Y-13.058
X-118.237 Y-13.069
X-118.152 Y-13.072
X-118.068 Y-13.083
X-117.993 Y-13.089
X-117.852 Y-13.037
X-117.751 Y-12.926
X-117.693 Y-12.788
X-117.677 Y-12.638
X-117.684 Y-12.604
X-117.744 Y-12.476
X-117.856 Y-12.39
X-117.995 Y-12.364
X-118.152 Y-12.372
X-118.181 Y-12.373
X-118.215 Y-12.381
X-118.245 Y-12.4
X-118.266 Y-12.428
X-118.276 Y-12.461
X-118.273 Y-12.496
X-118.148 Y-13.008
X-118.132 Y-13.043
X-118.104 Y-13.069
X-118.068 Y-13.083
X-117.898 Y-13.105
X-117.824 Y-13.111
X-117.678 Y-13.076
X-117.569 Y-12.973
X-117.498 Y-12.84
X-117.47 Y-12.693
X-117.485 Y-12.544
X-117.492 Y-12.527
X-117.567 Y-12.424
X-117.678 Y-12.361
X-117.805 Y-12.35
X-117.898 Y-12.359
X-117.995 Y-12.364
X-118.027 Y-12.373
X-118.055 Y-12.391
X-118.075 Y-12.418
X-118.085 Y-12.45
X-118.084 Y-12.483
X-117.979 Y-13.025
X-117.969 Y-13.053
X-117.951 Y-13.077
X-117.927 Y-13.095
X-117.898 Y-13.105
X-117.729 Y-13.13
X-117.683 Y-13.144
X-117.646 Y-13.154
X-117.5 Y-13.123
X-117.384 Y-13.027
X-117.305 Y-12.9
X-117.263 Y-12.756
X-117.257 Y-12.606
X-117.272 Y-12.546
X-117.341 Y-12.418
X-117.463 Y-12.337
X-117.608 Y-12.324
X-117.645 Y-12.329
X-117.805 Y-12.35
X-117.836 Y-12.36
X-117.862 Y-12.38
X-117.88 Y-12.407
X-117.889 Y-12.439
X-117.886 Y-12.471
X-117.747 Y-13.073
X-117.734 Y-13.103
X-117.712 Y-13.128
X-117.683 Y-13.144
X-117.645 Y-13.156
X-117.56 Y-13.185
X-117.488 Y-13.207
X-117.339 Y-13.193
X-117.215 Y-13.108
X-117.123 Y-12.99
X-117.064 Y-12.852
X-117.036 Y-12.704
X-117.048 Y-12.555
X-117.093 Y-12.412
X-117.097 Y-12.406
X-117.181 Y-12.324
X-117.292 Y-12.28
X-117.41 Y-12.283
X-117.56 Y-12.316
X-117.608 Y-12.324
X-117.642 Y-12.337
X-117.669 Y-12.362
X-117.686 Y-12.395
X-117.689 Y-12.432
X-117.622 Y-13.102
X-117.612 Y-13.137
X-117.591 Y-13.166
X-117.56 Y-13.185
X-117.391 Y-13.247
X-117.32 Y-13.271
X-117.17 Y-13.266
X-117.04 Y-13.191
X-116.939 Y-13.08
X-116.866 Y-12.949
X-116.824 Y-12.805
X-116.81 Y-12.656
X-116.823 Y-12.506
X-116.874 Y-12.365
X-116.883 Y-12.352
X-116.974 Y-12.264
X-117.093 Y-12.222
X-117.219 Y-12.233
X-117.306 Y-12.26
X-117.41 Y-12.283
X-117.441 Y-12.297
X-117.465 Y-12.32
X-117.48 Y-12.35
X-117.485 Y-12.384
X-117.48 Y-12.486
X-117.45 Y-13.16
X-117.442 Y-13.195
X-117.421 Y-13.226
X-117.391 Y-13.247
X-117.306 Y-13.281
X-117.222 Y-13.326
X-117.154 Y-13.358
X-117.004 Y-13.355
X-116.87 Y-13.288
X-116.76 Y-13.186
X-116.675 Y-13.062
X-116.617 Y-12.923
X-116.584 Y-12.777
X-116.574 Y-12.628
X-116.589 Y-12.478
X-116.638 Y-12.336
X-116.663 Y-12.295
X-116.757 Y-12.2
X-116.883 Y-12.154
X-117.017 Y-12.169
X-117.052 Y-12.181
X-117.219 Y-12.233
X-117.247 Y-12.248
X-117.269 Y-12.27
X-117.282 Y-12.298
X-117.287 Y-12.329
X-117.283 Y-12.559
X-117.271 Y-13.241
X-117.265 Y-13.275
X-117.248 Y-13.304
X-117.222 Y-13.326
X-117.052 Y-13.416
X-116.985 Y-13.45
X-116.835 Y-13.451
X-116.698 Y-13.391
X-116.581 Y-13.296
X-116.487 Y-13.18
X-116.461 Y-13.131
X-116.431 Y-13.048
X-116.426 Y-12.961
X-116.446 Y-12.876
X-116.449 Y-12.869
X-116.46 Y-12.83
X-116.47 Y-12.784
X-116.479 Y-12.7
X-116.477 Y-12.658
X-116.473 Y-12.616
X-116.46 Y-12.552
X-116.431 Y-12.404
X-116.454 Y-12.303
X-116.515 Y-12.178
X-116.626 Y-12.095
X-116.762 Y-12.07
X-116.895 Y-12.109
X-116.968 Y-12.15
X-117.017 Y-12.169
X-117.048 Y-12.188
X-117.07 Y-12.218
X-117.08 Y-12.253
X-117.077 Y-12.29
X-117.06 Y-12.323
X-117.033 Y-12.348
X-116.608 Y-12.608
X-116.574 Y-12.621
X-116.538
X-116.504 Y-12.608
X-116.477 Y-12.584
X-116.46 Y-12.552
X-116.455 Y-12.531
X-116.44 Y-12.489
X-116.421 Y-12.447
X-116.396 Y-12.405
X-116.36 Y-12.339
X-116.348 Y-12.265
X-116.366 Y-12.116
X-116.369 Y-12.112
X-116.454 Y-12.028
X-116.565 Y-11.984
X-116.685 Y-11.986
X-116.794 Y-12.036
X-116.895 Y-12.109
X-116.918 Y-12.134
X-116.931 Y-12.165
X-116.933 Y-12.199
X-116.924 Y-12.232
X-116.904 Y-12.259
X-116.876 Y-12.279
X-116.521 Y-12.441
X-116.487 Y-12.45
X-116.452 Y-12.447
X-116.42 Y-12.431
X-116.396 Y-12.405
X-116.376 Y-12.372
X-116.369 Y-12.362
X-116.333 Y-12.32
X-116.31 Y-12.297
X-116.261 Y-12.24
X-116.239 Y-12.169
X-116.275 Y-12.053
X-116.355 Y-11.962
X-116.466 Y-11.913
X-116.587
X-116.697 Y-11.964
X-116.794 Y-12.036
X-116.818 Y-12.063
X-116.831 Y-12.096
Y-12.132
X-116.818 Y-12.166
X-116.794 Y-12.193
X-116.762 Y-12.21
X-116.409 Y-12.32
X-116.374 Y-12.324
X-116.34 Y-12.316
X-116.31 Y-12.297
X-116.291 Y-12.277
X-116.238 Y-12.236
X-116.228 Y-12.23
X-116.195 Y-12.211
X-116.158 Y-12.146
X-116.15 Y-12.071
X-116.174 Y-11.923
X-116.261 Y-11.849
X-116.37 Y-11.815
X-116.484 Y-11.825
X-116.586 Y-11.878
X-116.629 Y-11.913
X-116.697 Y-11.964
X-116.721 Y-11.992
X-116.733 Y-12.026
Y-12.062
X-116.719 Y-12.096
X-116.694 Y-12.123
X-116.661 Y-12.138
X-116.297 Y-12.237
X-116.262 Y-12.24
X-116.228 Y-12.23
X-116.122 Y-12.175
X-116.089 Y-12.157
X-116.049 Y-12.094
X-116.025 Y-12.022
X-116.026 Y-11.947
X-116.066 Y-11.803
X-116.162 Y-11.736
X-116.275 Y-11.71
X-116.39 Y-11.73
X-116.489 Y-11.792
X-116.545 Y-11.845
X-116.586 Y-11.878
X-116.607 Y-11.904
X-116.619 Y-11.937
Y-11.971
X-116.607 Y-12.004
X-116.584 Y-12.03
X-116.554 Y-12.047
X-116.196 Y-12.177
X-116.158 Y-12.183
X-116.122 Y-12.175
X-116.007 Y-12.12
X-115.974 Y-12.103
X-115.927 Y-12.044
X-115.875 Y-11.903
X-115.897 Y-11.755
X-115.982 Y-11.632
X-115.989 Y-11.627
X-116.121 Y-11.578
X-116.261 Y-11.595
X-116.378 Y-11.674
X-116.467 Y-11.771
X-116.489 Y-11.792
X-116.51 Y-11.824
X-116.518 Y-11.861
X-116.511 Y-11.899
X-116.49 Y-11.931
X-116.459 Y-11.953
X-116.087 Y-12.12
X-116.061 Y-12.127
X-116.033
X-116.007 Y-12.12
X-115.953 Y-12.095
X-115.868 Y-12.051
X-115.804 Y-12.012
X-115.726 Y-11.884
X-115.722 Y-11.734
X-115.769 Y-11.592
X-115.87 Y-11.48
X-115.89 Y-11.469
X-116.025 Y-11.43
X-116.163 Y-11.457
X-116.273 Y-11.544
X-116.318 Y-11.602
X-116.378 Y-11.674
X-116.396 Y-11.704
X-116.402 Y-11.738
X-116.396 Y-11.773
X-116.378 Y-11.803
X-116.351 Y-11.825
X-115.96 Y-12.048
X-115.93 Y-12.059
X-115.899 Y-12.06
X-115.868 Y-12.051
X-115.699 Y-11.961
X-115.635 Y-11.921
X-115.561 Y-11.791
X-115.552 Y-11.641
X-115.597 Y-11.498
X-115.683 Y-11.375
X-115.803 Y-11.285
X-115.83 Y-11.276
X-115.964 Y-11.263
X-116.09 Y-11.31
X-116.183 Y-11.407
X-116.206 Y-11.447
X-116.252 Y-11.517
X-116.273 Y-11.544
X-116.288 Y-11.574
X-116.292 Y-11.607
X-116.286 Y-11.639
X-116.269 Y-11.668
X-116.243 Y-11.689
X-115.794 Y-11.957
X-115.763 Y-11.969
X-115.73 Y-11.97
X-115.699 Y-11.961
X-115.614 Y-11.913
X-115.53 Y-11.858
X-115.527 Y-11.855
X-115.429 Y-11.742
X-115.391 Y-11.596
X-115.411 Y-11.448
X-115.473 Y-11.311
X-115.566 Y-11.194
X-115.691 Y-11.11
X-115.833 Y-11.061
X-115.957 Y-11.084
X-116.06 Y-11.154
X-116.125 Y-11.26
X-116.173 Y-11.391
X-116.183 Y-11.407
X-116.194 Y-11.442
X-116.192 Y-11.48
X-116.176 Y-11.514
X-116.149 Y-11.539
X-115.642 Y-11.861
X-115.614 Y-11.873
X-115.584 Y-11.877
X-115.553 Y-11.87
X-115.527 Y-11.855
X-115.445 Y-11.769
X-115.331 Y-11.631
X-115.286 Y-11.571
X-115.252 Y-11.425
X-115.277 Y-11.277
X-115.34 Y-11.141
X-115.435 Y-11.025
X-115.554 Y-10.933
X-115.691 Y-10.872
X-115.733 Y-10.866
X-115.874 Y-10.88
X-115.993 Y-10.957
X-116.063 Y-11.08
X-116.068 Y-11.095
X-116.096 Y-11.18
X-116.125 Y-11.26
X-116.13 Y-11.296
X-116.121 Y-11.331
X-116.101 Y-11.361
X-116.07 Y-11.382
X-116.049 Y-11.391
X-115.446 Y-11.656
X-115.415 Y-11.664
X-115.384 Y-11.663
X-115.355 Y-11.651
X-115.331 Y-11.631
X-115.236 Y-11.517
X-115.212 Y-11.485
X-115.169 Y-11.423
X-115.119 Y-11.282
X-115.135 Y-11.133
X-115.192 Y-10.994
X-115.279 Y-10.872
X-115.391 Y-10.772
X-115.52 Y-10.696
X-115.665 Y-10.656
X-115.718 Y-10.655
X-115.857 Y-10.685
X-115.966 Y-10.775
X-116.022 Y-10.906
X-116.037 Y-10.99
X-116.063 Y-11.08
X-116.066 Y-11.114
X-116.057 Y-11.147
X-116.037 Y-11.175
X-116.009 Y-11.195
X-115.923 Y-11.235
X-115.331 Y-11.512
X-115.3 Y-11.521
X-115.267 Y-11.519
X-115.236 Y-11.507
X-115.212 Y-11.485
X-115.173 Y-11.433
X-115.143 Y-11.391
X-115.129 Y-11.37
X-115.118 Y-11.349
X-115.047 Y-11.18
X-115.024 Y-11.108
Y-10.958
X-115.074 Y-10.817
X-115.158 Y-10.693
X-115.265 Y-10.587
X-115.391 Y-10.506
X-115.531 Y-10.453
X-115.68 Y-10.433
X-115.732 Y-10.439
X-115.859 Y-10.484
X-115.954 Y-10.579
X-115.998 Y-10.706
X-116.012 Y-10.842
X-116.022 Y-10.906
X-116.02 Y-10.941
X-116.006 Y-10.974
X-115.982 Y-11
X-115.95 Y-11.015
X-115.786 Y-11.061
X-115.165 Y-11.234
X-115.13 Y-11.238
X-115.096 Y-11.229
X-115.067 Y-11.208
X-115.047 Y-11.18
X-114.964 Y-10.964
X-114.916 Y-10.822
X-114.946 Y-10.675
X-115.015 Y-10.542
X-115.112 Y-10.428
X-115.23 Y-10.335
X-115.363 Y-10.266
X-115.506 Y-10.221
X-115.656 Y-10.209
X-115.715 Y-10.216
X-115.846 Y-10.265
X-115.94 Y-10.369
X-115.977 Y-10.504
X-115.998 Y-10.706
X-115.994 Y-10.741
X-115.979 Y-10.772
X-115.954 Y-10.796
X-115.922 Y-10.81
X-115.705 Y-10.865
X-115.08 Y-11.022
X-115.045 Y-11.024
X-115.011 Y-11.014
X-114.983 Y-10.994
X-114.964 Y-10.964
X-114.937 Y-10.896
X-114.894 Y-10.757
X-114.878 Y-10.673
X-114.861 Y-10.524
X-114.908 Y-10.381
X-114.993 Y-10.257
X-115.102 Y-10.154
X-115.228 Y-10.073
X-115.367 Y-10.016
X-115.513 Y-9.982
X-115.663 Y-9.981
X-115.81 Y-10.008
X-115.815 Y-10.011
X-115.909 Y-10.083
X-115.967 Y-10.187
X-115.981 Y-10.304
X-115.979 Y-10.335
X-115.974 Y-10.419
X-115.977 Y-10.504
X-115.97 Y-10.538
X-115.953 Y-10.568
X-115.926 Y-10.59
X-115.893 Y-10.602
X-115.618 Y-10.647
X-114.992 Y-10.749
X-114.954 Y-10.748
X-114.92 Y-10.734
X-114.893 Y-10.707
X-114.878 Y-10.673
X-114.864 Y-10.588
X-114.836 Y-10.373
X-114.83 Y-10.298
X-114.865 Y-10.152
X-114.947 Y-10.026
X-115.056 Y-9.924
X-115.183 Y-9.844
X-115.321 Y-9.786
X-115.467 Y-9.751
X-115.617 Y-9.74
X-115.766 Y-9.758
X-115.804 Y-9.772
X-115.913 Y-9.843
X-115.982 Y-9.953
X-116 Y-10.082
X-115.981 Y-10.304
X-115.971 Y-10.337
X-115.951 Y-10.365
X-115.922 Y-10.384
X-115.889 Y-10.392
X-115.578 Y-10.413
X-114.942 Y-10.456
X-114.905 Y-10.452
X-114.873 Y-10.435
X-114.849 Y-10.407
X-114.836 Y-10.373
X-114.831 Y-10.335
X-114.814 Y-10.166
Y-10.082
X-114.825 Y-9.932
X-114.903 Y-9.804
X-115.01 Y-9.699
X-115.136 Y-9.617
X-115.273 Y-9.556
X-115.417 Y-9.516
X-115.566 Y-9.499
X-115.716 Y-9.509
X-115.86 Y-9.55
X-115.885 Y-9.564
X-115.976 Y-9.648
X-116.026 Y-9.762
Y-9.886
X-116.02 Y-9.913
X-116.009 Y-9.997
X-116 Y-10.082
X-115.988 Y-10.115
X-115.966 Y-10.143
X-115.936 Y-10.161
X-115.902 Y-10.167
X-115.546 Y-10.171
X-114.915 Y-10.178
X-114.878 Y-10.171
X-114.845 Y-10.15
X-114.823 Y-10.119
X-114.814 Y-10.082
X-114.816 Y-9.997
X-114.834 Y-9.782
X-114.837 Y-9.744
X-114.873 Y-9.598
X-114.971 Y-9.485
X-115.092 Y-9.396
X-115.226 Y-9.329
X-115.369 Y-9.284
X-115.518 Y-9.261
X-115.668 Y-9.262
X-115.815 Y-9.287
X-115.954 Y-9.345
X-115.97 Y-9.358
X-116.05 Y-9.449
X-116.088 Y-9.563
X-116.077 Y-9.684
X-116.06 Y-9.744
X-116.037 Y-9.834
X-116.026 Y-9.886
X-116.011 Y-9.919
X-115.985 Y-9.945
X-115.951 Y-9.959
X-115.915 Y-9.961
X-115.55 Y-9.907
X-114.93 Y-9.817
X-114.893 Y-9.804
X-114.864 Y-9.777
X-114.847 Y-9.742
X-114.845 Y-9.702
X-114.854 Y-9.659
X-114.892 Y-9.49
X-114.903 Y-9.444
X-114.946 Y-9.3
X-115.052 Y-9.194
X-115.18 Y-9.115
X-115.319 Y-9.06
X-115.466 Y-9.027
X-115.615 Y-9.017
X-115.765 Y-9.031
X-115.91 Y-9.067
X-116.043 Y-9.136
X-116.062 Y-9.152
X-116.136 Y-9.25
X-116.162 Y-9.37
X-116.136 Y-9.49
X-116.077 Y-9.684
X-116.06 Y-9.715
X-116.033 Y-9.738
X-116 Y-9.751
X-115.964 Y-9.75
X-115.598 Y-9.68
X-114.982 Y-9.562
X-114.946 Y-9.548
X-114.918 Y-9.52
X-114.903 Y-9.483
Y-9.444
X-114.912 Y-9.406
X-114.937 Y-9.32
X-114.998 Y-9.152
X-115.008 Y-9.128
X-115.09 Y-9.003
X-115.203 Y-8.904
X-115.338 Y-8.838
X-115.482 Y-8.799
X-115.632 Y-8.784
X-115.781 Y-8.79
X-115.928 Y-8.822
X-116.067 Y-8.879
X-116.189 Y-8.965
X-116.2 Y-8.978
X-116.258 Y-9.088
X-116.265 Y-9.212
X-116.222 Y-9.329
X-116.175 Y-9.406
X-116.136 Y-9.49
X-116.115 Y-9.518
X-116.086 Y-9.537
X-116.052 Y-9.545
X-116.017 Y-9.541
X-115.661 Y-9.429
X-115.08 Y-9.247
X-115.049 Y-9.23
X-115.026 Y-9.204
X-115.012 Y-9.172
X-115.011 Y-9.137
X-115.022 Y-9.104
X-115.191 Y-8.816
X-115.276 Y-8.693
X-115.405 Y-8.616
X-115.548 Y-8.572
X-115.697 Y-8.555
X-115.847 Y-8.563
X-115.994 Y-8.593
X-116.134 Y-8.646
X-116.261 Y-8.726
X-116.31 Y-8.775
X-116.382 Y-8.895
X-116.392 Y-9.034
X-116.338 Y-9.163
X-116.284 Y-9.237
X-116.222 Y-9.329
X-116.198 Y-9.354
X-116.166 Y-9.369
X-116.131 Y-9.372
X-116.097 Y-9.363
X-115.798 Y-9.222
X-115.236 Y-8.955
X-115.209 Y-8.936
X-115.19 Y-8.91
X-115.18 Y-8.88
Y-8.847
X-115.191 Y-8.816
X-115.351 Y-8.561
X-115.443 Y-8.443
X-115.577 Y-8.375
X-115.723 Y-8.342
X-115.873 Y-8.337
X-116.022 Y-8.356
X-116.165 Y-8.399
X-116.3 Y-8.465
X-116.418 Y-8.558
X-116.515 Y-8.672
X-116.517 Y-8.676
X-116.545 Y-8.792
X-116.526 Y-8.91
X-116.461 Y-9.011
X-116.411 Y-9.068
X-116.376 Y-9.111
X-116.338 Y-9.163
X-116.311 Y-9.187
X-116.278 Y-9.199
X-116.242
X-116.208 Y-9.187
X-115.927 Y-9.019
X-115.386 Y-8.697
X-115.357 Y-8.671
X-115.34 Y-8.636
X-115.338 Y-8.598
X-115.351 Y-8.561
X-115.412 Y-8.477
X-115.445 Y-8.438
X-115.53 Y-8.352
X-115.598 Y-8.289
X-115.713 Y-8.193
X-115.855 Y-8.146
X-116.005 Y-8.136
X-116.153 Y-8.157
X-116.296 Y-8.202
X-116.43 Y-8.27
X-116.552 Y-8.358
X-116.651 Y-8.47
X-116.673 Y-8.51
X-116.709 Y-8.64
X-116.684 Y-8.772
X-116.605 Y-8.88
X-116.545 Y-8.932
X-116.488 Y-8.983
X-116.461 Y-9.011
X-116.431 Y-9.031
X-116.396 Y-9.04
X-116.361 Y-9.035
X-116.329 Y-9.018
X-116.087 Y-8.824
X-115.605 Y-8.438
X-115.583 Y-8.413
X-115.57 Y-8.382
X-115.569 Y-8.348
X-115.578 Y-8.316
X-115.598 Y-8.289
X-115.765 Y-8.139
X-115.783 Y-8.122
X-115.868 Y-8.061
X-115.999 Y-7.988
X-116.147 Y-7.963
X-116.296 Y-7.977
X-116.44 Y-8.02
X-116.575 Y-8.086
X-116.697 Y-8.173
X-116.799 Y-8.283
X-116.875 Y-8.412
X-116.877 Y-8.421
X-116.886 Y-8.533
X-116.853 Y-8.64
X-116.783 Y-8.727
X-116.605 Y-8.88
X-116.572 Y-8.898
X-116.535 Y-8.902
X-116.499 Y-8.892
X-116.469 Y-8.87
X-116.277 Y-8.663
X-115.856 Y-8.207
X-115.838 Y-8.18
X-115.83 Y-8.148
X-115.833 Y-8.115
X-115.846 Y-8.085
X-115.868 Y-8.061
X-115.953 Y-8.011
X-116.122 Y-7.917
X-116.181 Y-7.885
X-116.206 Y-7.872
X-116.249 Y-7.85
X-116.308 Y-7.829
X-116.316 Y-7.834
X-116.343 Y-7.857
X-116.36 Y-7.889
X-116.365 Y-7.924
X-116.357 Y-7.959
X-116.338 Y-7.988
X-115.93 Y-8.425
X-115.843 Y-8.517
X-115.814 Y-8.539
X-115.778 Y-8.549
X-115.742 Y-8.545
X-115.709 Y-8.529
X-115.685 Y-8.501
X-115.672 Y-8.467
Y-8.431
X-115.685 Y-8.397
G3 X-116.249 Y-7.85 I-1.349 J-0.827
G1 X-116.27 Y-7.841
X-116.337 Y-7.821
X-116.41 Y-7.803
X-116.557 Y-7.835
X-116.696 Y-7.892
X-116.822 Y-7.973
X-116.932 Y-8.075
X-117.022 Y-8.195
X-117.047 Y-8.253
X-117.071 Y-8.364
X-117.051 Y-8.477
X-116.991 Y-8.574
X-116.9 Y-8.641
X-116.868 Y-8.649
X-116.835 Y-8.646
X-116.805 Y-8.633
X-116.781 Y-8.611
X-116.654 Y-8.447
X-116.29 Y-7.977
X-116.273 Y-7.943
X-116.27 Y-7.905
X-116.281 Y-7.869
X-116.304 Y-7.839
X-116.337 Y-7.821
X-116.404 Y-7.801
X-116.591 Y-7.753
X-116.738 Y-7.723
X-116.881 Y-7.77
X-117.009 Y-7.847
X-117.121 Y-7.947
X-117.207 Y-8.07
X-117.265 Y-8.208
X-117.27 Y-8.246
X-117.257 Y-8.382
X-117.185 Y-8.498
X-117.069 Y-8.571
X-117.052 Y-8.576
X-116.968 Y-8.609
X-116.9 Y-8.641
X-116.868 Y-8.649
X-116.835 Y-8.646
X-116.805 Y-8.633
X-116.781 Y-8.611
X-116.765 Y-8.582
X-116.727 Y-8.471
X-116.525 Y-7.881
X-116.52 Y-7.849
X-116.524 Y-7.818
X-116.539 Y-7.789
X-116.562 Y-7.767
X-116.591 Y-7.753
X-116.736 Y-7.717
X-116.845 Y-7.691
X-116.993 Y-7.665
X-117.136 Y-7.709
X-117.26 Y-7.793
X-117.362 Y-7.903
X-117.438 Y-8.032
X-117.479 Y-8.177
X-117.48 Y-8.208
X-117.457 Y-8.332
X-117.385 Y-8.436
X-117.276 Y-8.501
X-117.069 Y-8.571
X-117.037 Y-8.575
X-117.005 Y-8.569
X-116.977 Y-8.553
X-116.956 Y-8.528
X-116.943 Y-8.499
X-116.925 Y-8.424
X-116.774 Y-7.812
X-116.772 Y-7.773
X-116.785 Y-7.737
X-116.811 Y-7.708
X-116.845 Y-7.691
X-116.968 Y-7.663
X-117.052 Y-7.653
X-117.137 Y-7.645
X-117.287 Y-7.638
X-117.424 Y-7.699
X-117.538 Y-7.796
X-117.624 Y-7.919
X-117.678 Y-8.059
X-117.696 Y-8.208
X-117.654 Y-8.318
X-117.575 Y-8.402
X-117.47 Y-8.451
X-117.306 Y-8.491
X-117.276 Y-8.501
X-117.242 Y-8.505
X-117.209 Y-8.497
X-117.18 Y-8.479
X-117.159 Y-8.452
X-117.149 Y-8.42
X-117.143 Y-8.379
X-117.051 Y-7.759
X-117.053 Y-7.72
X-117.07 Y-7.684
X-117.1 Y-7.658
X-117.137 Y-7.645
X-117.274 Y-7.632
X-117.437 Y-7.621
X-117.512 Y-7.619
X-117.652 Y-7.674
X-117.763 Y-7.775
X-117.845 Y-7.9
X-117.898 Y-8.041
X-117.901 Y-8.1
X-117.874 Y-8.245
X-117.781 Y-8.36
X-117.645 Y-8.417
X-117.56 Y-8.429
X-117.47 Y-8.451
X-117.435
X-117.402 Y-8.44
X-117.375 Y-8.418
X-117.357 Y-8.388
X-117.35 Y-8.353
X-117.348 Y-7.72
X-117.354 Y-7.685
X-117.373 Y-7.653
X-117.402 Y-7.631
X-117.437 Y-7.621
X-117.56 Y-7.612
X-117.645 Y-7.609
X-117.72
X-117.863 Y-7.654
X-117.977 Y-7.751
X-118.06 Y-7.876
X-118.102 Y-8.02
X-118.108 Y-8.17
X-118.107 Y-8.176
X-118.053 Y-8.281
X-117.963 Y-8.358
X-117.85 Y-8.393
X-117.645 Y-8.417
X-117.611 Y-8.414
X-117.581 Y-8.4
X-117.557 Y-8.377
X-117.541 Y-8.347
X-117.537 Y-8.314
X-117.552 Y-7.706
X-117.56 Y-7.67
X-117.58 Y-7.639
X-117.609 Y-7.618
X-117.645 Y-7.609
X-117.814 Y-7.602
X-117.898 Y-7.601
X-117.973 Y-7.604
X-118.112 Y-7.662
X-118.216 Y-7.77
X-118.285 Y-7.903
X-118.322 Y-8.048
X-118.319 Y-8.102
X-118.275 Y-8.24
X-118.173 Y-8.342
X-118.034 Y-8.383
X-117.85 Y-8.393
X-117.816 Y-8.39
X-117.784 Y-8.375
X-117.76 Y-8.35
X-117.746 Y-8.318
X-117.743 Y-8.283
X-117.804 Y-7.69
X-117.814 Y-7.656
X-117.834 Y-7.628
X-117.864 Y-7.609
X-117.898 Y-7.601
X-118.114
X-118.189 Y-7.604
X-118.328 Y-7.662
X-118.431 Y-7.77
X-118.501 Y-7.903
X-118.526 Y-8.051
X-118.521 Y-8.103
X-118.474 Y-8.241
X-118.367 Y-8.34
X-118.226 Y-8.378
X-118.152
X-118.034 Y-8.383
X-118 Y-8.378
X-117.97 Y-8.361
X-117.947 Y-8.336
X-117.935 Y-8.303
X-117.934 Y-8.269
X-118.019 Y-7.686
X-118.029 Y-7.653
X-118.051 Y-7.626
X-118.08 Y-7.608
X-118.114 Y-7.601
X-118.321
X-118.396 Y-7.604
X-118.537 Y-7.657
X-118.641 Y-7.765
X-118.708 Y-7.899
X-118.73 Y-8.048
X-118.725 Y-8.103
X-118.677 Y-8.241
X-118.568 Y-8.34
X-118.427 Y-8.376
X-118.226 Y-8.378
X-118.192 Y-8.371
X-118.163 Y-8.354
X-118.141 Y-8.327
X-118.13 Y-8.295
X-118.129 Y-8.261
X-118.226 Y-7.684
X-118.238 Y-7.652
X-118.259 Y-7.625
X-118.288 Y-7.608
X-118.321 Y-7.601
X-118.537
X-118.612 Y-7.604
X-118.751 Y-7.66
X-118.852 Y-7.771
X-118.916 Y-7.907
X-118.935 Y-8.056
X-118.929 Y-8.109
X-118.879 Y-8.245
X-118.771 Y-8.341
X-118.631 Y-8.376
X-118.427
X-118.393 Y-8.369
X-118.364 Y-8.351
X-118.342 Y-8.324
X-118.331 Y-8.291
X-118.332 Y-8.257
X-118.442 Y-7.682
X-118.454 Y-7.65
X-118.476 Y-7.625
X-118.504 Y-7.607
X-118.537 Y-7.601
X-118.744
X-118.819 Y-7.604
X-118.959 Y-7.66
X-119.059 Y-7.771
X-119.122 Y-7.907
X-119.141 Y-8.056
X-119.135 Y-8.11
X-119.084 Y-8.245
X-118.977 Y-8.341
X-118.837 Y-8.376
X-118.631
X-118.597 Y-8.368
X-118.568 Y-8.35
X-118.547 Y-8.323
X-118.536 Y-8.291
X-118.537 Y-8.256
X-118.65 Y-7.681
X-118.662 Y-7.65
X-118.683 Y-7.624
X-118.712 Y-7.607
X-118.744 Y-7.601
X-118.96
X-119.035 Y-7.604
X-119.172 Y-7.665
X-119.27 Y-7.779
X-119.33 Y-7.916
X-119.347 Y-8.065
X-119.34 Y-8.116
X-119.288 Y-8.248
X-119.181 Y-8.342
X-119.042 Y-8.376
X-118.837
X-118.803 Y-8.368
X-118.773 Y-8.35
X-118.752 Y-8.322
X-118.741 Y-8.289
X-118.742 Y-8.255
X-118.866 Y-7.68
X-118.878 Y-7.649
X-118.899 Y-7.624
X-118.928 Y-7.607
X-118.96 Y-7.601
X-119.167
X-119.242 Y-7.604
X-119.379 Y-7.666
X-119.477 Y-7.78
X-119.537 Y-7.917
X-119.553 Y-8.066
X-119.546 Y-8.117
X-119.494 Y-8.249
X-119.387 Y-8.342
X-119.249 Y-8.376
X-119.042
X-119.008 Y-8.368
X-118.979 Y-8.35
X-118.958 Y-8.322
X-118.947 Y-8.289
X-118.948 Y-8.254
X-119.073 Y-7.679
X-119.085 Y-7.649
X-119.107 Y-7.624
X-119.135 Y-7.607
X-119.167 Y-7.601
X-119.383
X-119.458 Y-7.604
X-119.592 Y-7.671
X-119.687 Y-7.787
X-119.745 Y-7.926
X-119.759 Y-8.075
X-119.751 Y-8.122
X-119.698 Y-8.251
X-119.592 Y-8.343
X-119.455 Y-8.376
X-119.249
X-119.214 Y-8.368
X-119.185 Y-8.349
X-119.163 Y-8.322
X-119.153 Y-8.288
X-119.155 Y-8.253
X-119.289 Y-7.678
X-119.302 Y-7.648
X-119.323 Y-7.623
X-119.351 Y-7.607
X-119.383 Y-7.601
X-119.59
X-119.665 Y-7.604
X-119.799 Y-7.672
X-119.894 Y-7.788
X-119.952 Y-7.926
X-119.965 Y-8.076
X-119.958 Y-8.122
X-119.905 Y-8.252
X-119.798 Y-8.343
X-119.662 Y-8.376
X-119.455
X-119.421 Y-8.368
X-119.391 Y-8.349
X-119.37 Y-8.321
X-119.359 Y-8.288
X-119.361 Y-8.253
X-119.497 Y-7.678
X-119.509 Y-7.648
X-119.53 Y-7.623
X-119.559 Y-7.607
X-119.59 Y-7.601
X-119.806
X-119.881 Y-7.604
X-120.012 Y-7.677
X-120.105 Y-7.795
X-120.161 Y-7.934
X-120.172 Y-8.084
X-120.164 Y-8.127
X-120.11 Y-8.254
X-120.004 Y-8.344
X-119.869 Y-8.376
X-119.662
X-119.627 Y-8.368
X-119.597 Y-8.349
X-119.576 Y-8.321
X-119.566 Y-8.287
X-119.568 Y-8.251
X-119.713 Y-7.676
X-119.725 Y-7.647
X-119.747 Y-7.623
X-119.775 Y-7.607
X-119.806 Y-7.601
X-119.975
X-120.05 Y-7.604
X-120.192 Y-7.653
X-120.296 Y-7.762
X-120.359 Y-7.897
X-120.382 Y-8.046
X-120.366 Y-8.195
X-120.299 Y-8.291
X-120.203 Y-8.354
X-120.09 Y-8.376
X-119.869
X-119.835 Y-8.369
X-119.806 Y-8.351
X-119.785 Y-8.324
X-119.774 Y-8.292
Y-8.257
X-119.881 Y-7.682
X-119.892 Y-7.651
X-119.914 Y-7.625
X-119.942 Y-7.607
X-119.975 Y-7.601
X-120.229
X-120.304 Y-7.604
X-120.434 Y-7.679
X-120.524 Y-7.799
X-120.577 Y-7.94
X-120.596 Y-8.088
X-120.589 Y-8.13
X-120.534 Y-8.256
X-120.428 Y-8.344
X-120.294 Y-8.376
X-120.09
X-120.056 Y-8.368
X-120.026 Y-8.349
X-120.005 Y-8.321
X-119.995 Y-8.287
X-119.997 Y-8.252
X-120.135 Y-7.677
X-120.148 Y-7.647
X-120.169 Y-7.623
X-120.197 Y-7.607
X-120.229 Y-7.601
X-120.398
X-120.473 Y-7.604
X-120.614 Y-7.657
X-120.715 Y-7.768
X-120.781 Y-7.902
X-120.804 Y-8.051
X-120.798 Y-8.108
X-120.748 Y-8.244
X-120.64 Y-8.341
X-120.5 Y-8.376
X-120.294
X-120.26 Y-8.369
X-120.231 Y-8.351
X-120.21 Y-8.324
X-120.198 Y-8.292
X-120.199 Y-8.258
X-120.303 Y-7.683
X-120.315 Y-7.651
X-120.336 Y-7.625
X-120.365 Y-7.607
X-120.398 Y-7.601
X-120.606
X-120.681 Y-7.604
X-120.821 Y-7.658
X-120.923 Y-7.767
X-120.988 Y-7.902
X-121.009 Y-8.051
X-121.003 Y-8.107
X-120.953 Y-8.243
X-120.845 Y-8.341
X-120.705 Y-8.376
X-120.5
X-120.466 Y-8.369
X-120.437 Y-8.351
X-120.416 Y-8.324
X-120.404 Y-8.292
X-120.405 Y-8.258
X-120.511 Y-7.682
X-120.522 Y-7.651
X-120.544 Y-7.625
X-120.573 Y-7.607
X-120.606 Y-7.601
X-120.821
X-120.896 Y-7.604
X-121.035 Y-7.662
X-121.134 Y-7.774
X-121.196 Y-7.911
X-121.214 Y-8.06
X-121.207 Y-8.114
X-121.155 Y-8.25
X-121.044 Y-8.344
X-120.902 Y-8.376
X-120.705
X-120.671 Y-8.368
X-120.641 Y-8.35
X-120.62 Y-8.323
X-120.609 Y-8.29
X-120.61 Y-8.256
X-120.727 Y-7.681
X-120.739 Y-7.65
X-120.76 Y-7.624
X-120.789 Y-7.607
X-120.821 Y-7.601
X-121.029
X-121.104 Y-7.604
X-121.242 Y-7.663
X-121.341 Y-7.775
X-121.403 Y-7.912
X-121.42 Y-8.061
X-121.401 Y-8.21
X-121.386 Y-8.242
X-121.301 Y-8.349
X-121.178 Y-8.407
X-121.042 Y-8.405
X-120.933 Y-8.378
X-120.923 Y-8.376
X-120.902
X-120.869 Y-8.368
X-120.84 Y-8.349
X-120.819 Y-8.322
X-120.809 Y-8.289
X-120.811 Y-8.255
X-120.934 Y-7.679
X-120.946 Y-7.649
X-120.968 Y-7.624
X-120.996 Y-7.607
X-121.029 Y-7.601
X-121.244
X-121.319 Y-7.604
X-121.455 Y-7.668
X-121.552 Y-7.783
X-121.611 Y-7.921
X-121.636 Y-8.069
X-121.619 Y-8.218
X-121.598 Y-8.272
X-121.525 Y-8.383
X-121.413 Y-8.456
X-121.282 Y-8.476
X-121.153 Y-8.441
X-121.124 Y-8.417
X-121.107 Y-8.384
X-121.102 Y-8.347
X-121.103 Y-8.331
X-121.148 Y-7.693
X-121.157 Y-7.658
X-121.178 Y-7.629
X-121.209 Y-7.608
X-121.244 Y-7.601
X-121.452
X-121.527 Y-7.604
X-121.662 Y-7.669
X-121.76 Y-7.783
X-121.823 Y-7.919
X-121.851 Y-8.066
X-121.842 Y-8.216
X-121.799 Y-8.359
X-121.718 Y-8.486
X-121.608 Y-8.588
X-121.601 Y-8.591
X-121.479 Y-8.624
X-121.354 Y-8.604
X-121.248 Y-8.534
X-121.232 Y-8.509
X-121.223 Y-8.48
X-121.224 Y-8.449
X-121.246 Y-8.323
X-121.357 Y-7.683
X-121.368 Y-7.651
X-121.389 Y-7.625
X-121.418 Y-7.608
X-121.452 Y-7.601
X-121.667
X-121.742 Y-7.604
X-121.876 Y-7.672
X-121.974 Y-7.786
X-122.037 Y-7.922
X-122.069 Y-8.069
Y-8.219
X-122.038 Y-8.365
X-121.979 Y-8.503
X-121.897 Y-8.629
X-121.815 Y-8.703
X-121.712 Y-8.765
X-121.593 Y-8.781
X-121.477 Y-8.749
X-121.383 Y-8.674
X-121.367 Y-8.656
X-121.248 Y-8.534
X-121.229 Y-8.501
X-121.223 Y-8.463
X-121.231 Y-8.425
X-121.301 Y-8.273
X-121.58 Y-7.659
X-121.601 Y-7.629
X-121.631 Y-7.609
X-121.667 Y-7.601
X-121.875
X-121.95 Y-7.604
X-122.085 Y-7.669
X-122.185 Y-7.781
X-122.252 Y-7.915
X-122.29 Y-8.06
X-122.299 Y-8.21
X-122.281 Y-8.359
X-122.24 Y-8.503
X-122.177 Y-8.639
X-122.091 Y-8.762
X-121.984 Y-8.867
X-121.855 Y-8.943
X-121.711 Y-8.986
X-121.577 Y-8.958
X-121.47 Y-8.873
X-121.413 Y-8.749
X-121.412 Y-8.723
X-121.417 Y-8.699
X-121.561 Y-8.295
X-121.784 Y-7.667
X-121.804 Y-7.633
X-121.836 Y-7.61
X-121.875 Y-7.601
X-122.09
X-122.165 Y-7.604
X-122.3 Y-7.67
X-122.402 Y-7.78
X-122.472 Y-7.913
X-122.514 Y-8.057
X-122.531 Y-8.206
X-122.524 Y-8.356
X-122.496 Y-8.503
X-122.446 Y-8.644
X-122.378 Y-8.778
X-122.293 Y-8.901
X-122.188 Y-9.009
X-122.067 Y-9.097
X-121.934 Y-9.166
X-121.787 Y-9.198
X-121.733 Y-9.197
X-121.623 Y-9.174
X-121.531 Y-9.112
X-121.468 Y-9.019
X-121.444 Y-8.91
X-121.418 Y-8.772
X-121.413 Y-8.749
Y-8.715
X-121.424 Y-8.683
X-121.671 Y-8.246
X-122.007 Y-7.651
X-122.028 Y-7.625
X-122.057 Y-7.607
X-122.09 Y-7.601
X-122.298
X-122.344
X-122.382
X-122.424 Y-7.603
X-122.491 Y-7.664
X-122.534 Y-7.744
X-122.549 Y-7.834
G3 X-122.274 Y-7.973 I0.176 J0.006
X-122.382 Y-7.601 I-0.116 J0.169
G1 X-122.446
X-122.456 Y-7.602
X-122.467 Y-7.605
X-122.478 Y-7.609
X-122.488 Y-7.615
X-122.499 Y-7.622
X-122.51 Y-7.632
X-122.534 Y-7.664
X-122.54 Y-7.674
X-122.544 Y-7.685
X-122.547 Y-7.695
X-122.549 Y-7.706
Y-7.717
Y-8.692
X-122.542 Y-8.842
X-122.488 Y-8.982
X-122.404 Y-9.106
X-122.3 Y-9.215
X-122.181 Y-9.305
X-122.047 Y-9.374
X-121.903 Y-9.415
X-121.753 Y-9.425
X-121.689 Y-9.413
X-121.563 Y-9.357
X-121.476 Y-9.252
X-121.445 Y-9.118
X-121.444 Y-8.91
X-121.45 Y-8.877
X-121.466 Y-8.849
X-121.491 Y-8.827
X-121.521 Y-8.814
X-121.834 Y-8.739
X-122.426 Y-8.598
X-122.461 Y-8.596
X-122.495 Y-8.607
X-122.523 Y-8.628
X-122.542 Y-8.658
X-122.549 Y-8.692
Y-9.03
X-122.542 Y-9.18
X-122.475 Y-9.314
X-122.377 Y-9.428
X-122.259 Y-9.52
X-122.126 Y-9.591
X-121.984 Y-9.638
X-121.835 Y-9.657
X-121.686 Y-9.643
X-121.649 Y-9.631
X-121.543 Y-9.568
X-121.47 Y-9.468
X-121.445 Y-9.347
Y-9.118
X-121.452 Y-9.083
X-121.472 Y-9.053
X-121.501 Y-9.032
X-121.535 Y-9.022
X-121.821 Y-8.994
X-122.44 Y-8.934
X-122.472 Y-8.936
X-122.502 Y-8.949
X-122.527 Y-8.97
X-122.543 Y-8.998
X-122.549 Y-9.03
Y-9.321
X-122.542 Y-9.471
X-122.466 Y-9.6
X-122.36 Y-9.706
X-122.235 Y-9.79
X-122.097 Y-9.849
X-121.951 Y-9.882
X-121.801 Y-9.892
X-121.653 Y-9.868
X-121.633 Y-9.859
X-121.534 Y-9.795
X-121.468 Y-9.697
X-121.445 Y-9.581
Y-9.347
X-121.453 Y-9.31
X-121.474 Y-9.279
X-121.505 Y-9.258
X-121.542 Y-9.25
X-121.818 Y-9.243
X-122.447 Y-9.225
X-122.485 Y-9.231
X-122.518 Y-9.252
X-122.54 Y-9.284
X-122.549 Y-9.321
Y-9.575
X-122.542 Y-9.725
X-122.467 Y-9.855
X-122.359 Y-9.958
X-122.231 Y-10.036
X-122.091 Y-10.09
X-121.944 Y-10.121
X-121.794 Y-10.128
X-121.646 Y-10.101
X-121.63 Y-10.095
X-121.533 Y-10.03
X-121.468 Y-9.932
X-121.445 Y-9.818
Y-9.581
X-121.453 Y-9.544
X-121.475 Y-9.513
X-121.507 Y-9.492
X-121.544 Y-9.485
X-121.818 Y-9.483
X-122.449 Y-9.478
X-122.486 Y-9.485
X-122.519 Y-9.506
X-122.541 Y-9.537
X-122.549 Y-9.575
Y-9.828
X-122.542 Y-9.978
X-122.464 Y-10.106
X-122.352 Y-10.207
X-122.222 Y-10.281
X-122.081 Y-10.332
X-121.934 Y-10.36
X-121.784 Y-10.364
X-121.637 Y-10.336
X-121.624 Y-10.33
X-121.53 Y-10.265
X-121.467 Y-10.168
X-121.445 Y-10.055
Y-9.818
X-121.453 Y-9.78
X-121.476 Y-9.749
X-121.508 Y-9.728
X-121.546 Y-9.721
X-121.818 Y-9.724
X-122.451 Y-9.732
X-122.488 Y-9.739
X-122.519 Y-9.76
X-122.541 Y-9.791
X-122.549 Y-9.828
Y-10.082
X-122.546 Y-10.156
X-122.494 Y-10.297
X-122.393 Y-10.409
X-122.27 Y-10.493
X-122.132 Y-10.554
X-121.987 Y-10.591
X-121.837 Y-10.603
X-121.688 Y-10.588
X-121.649 Y-10.575
X-121.543 Y-10.512
X-121.47 Y-10.412
X-121.445 Y-10.29
Y-10.055
X-121.454 Y-10.018
X-121.476 Y-9.986
X-121.509 Y-9.965
X-121.548 Y-9.959
X-121.818 Y-9.967
X-122.452 Y-9.985
X-122.489 Y-9.993
X-122.52 Y-10.014
X-122.541 Y-10.045
X-122.549 Y-10.082
Y-10.335
X-122.546 Y-10.41
X-122.486 Y-10.547
X-122.383 Y-10.657
X-122.258 Y-10.739
X-122.119 Y-10.796
X-121.973 Y-10.83
X-121.823 Y-10.841
X-121.675 Y-10.819
X-121.643 Y-10.808
X-121.539 Y-10.744
X-121.469 Y-10.645
X-121.445 Y-10.526
Y-10.29
X-121.454 Y-10.252
X-121.477 Y-10.22
X-121.511 Y-10.2
X-121.55 Y-10.194
X-121.818 Y-10.207
X-122.454 Y-10.239
X-122.49 Y-10.247
X-122.521 Y-10.268
X-122.541 Y-10.299
X-122.549 Y-10.335
Y-10.55
X-122.542 Y-10.7
X-122.461 Y-10.827
X-122.349 Y-10.926
X-122.218 Y-10.999
X-122.076 Y-11.049
X-121.928 Y-11.074
X-121.778 Y-11.075
X-121.632 Y-11.044
X-121.619 Y-11.039
X-121.527 Y-10.973
X-121.466 Y-10.877
X-121.445 Y-10.766
Y-10.526
X-121.454 Y-10.488
X-121.476 Y-10.456
X-121.509 Y-10.436
X-121.547 Y-10.429
X-121.818 Y-10.437
X-122.452 Y-10.454
X-122.489 Y-10.462
X-122.52 Y-10.483
X-122.541 Y-10.514
X-122.549 Y-10.55
Y-10.804
X-122.546 Y-10.879
X-122.491 Y-11.018
X-122.455 Y-11.104
X-122.445 Y-11.197
X-122.461 Y-11.382
X-122.531 Y-11.576
X-122.541 Y-11.61
X-122.547 Y-11.644
X-122.549 Y-11.679
X-122.541 Y-11.716
X-122.518 Y-11.748
X-122.486 Y-11.768
X-122.448 Y-11.775
X-122.41 Y-11.767
X-122.378 Y-11.745
X-122.357 Y-11.713
X-122.349 Y-11.675
Y-11.282
Y-10.807
X-122.357 Y-10.769
X-122.378 Y-10.737
X-122.41 Y-10.715
X-122.448 Y-10.707
X-122.486 Y-10.714
X-122.518 Y-10.735
X-122.541 Y-10.766
X-122.549 Y-10.804
Y-12.32
X-122.543 Y-12.352
X-122.526 Y-12.381
X-122.5 Y-12.402
X-122.469 Y-12.414
X-122.436 Y-12.416
X-122.005 Y-12.358
X-121.425 Y-12.28
X-121.387 Y-12.267
X-121.358 Y-12.24
X-121.341 Y-12.204
X-121.339 Y-12.165
X-121.353 Y-12.128
X-121.367 Y-12.107
X-121.407 Y-12.024
X-121.422 Y-11.982
X-121.432 Y-11.94
X-121.444 Y-11.855
X-121.445 Y-11.686
Y-10.766
X-121.454 Y-10.729
X-121.476 Y-10.697
X-121.509 Y-10.677
X-121.547 Y-10.67
X-121.584 Y-10.678
X-121.616 Y-10.7
X-121.637 Y-10.732
X-121.83 Y-11.208
X-122.26 Y-12.27
X-122.542 Y-12.966
X-122.549 Y-13
Y-13.291
X-122.542 Y-13.441
X-122.469 Y-13.572
X-122.363 Y-13.678
X-122.237 Y-13.76
X-122.099 Y-13.819
X-121.953 Y-13.853
X-121.804 Y-13.866
X-121.654 Y-13.852
X-121.65 Y-13.851
X-121.544 Y-13.791
X-121.471 Y-13.695
X-121.441 Y-13.577
X-121.446 Y-13.546
X-121.46 Y-13.518
X-121.483 Y-13.495
X-121.512 Y-13.481
X-121.845 Y-13.378
X-122.42 Y-13.199
X-122.456 Y-13.195
X-122.491 Y-13.204
X-122.521 Y-13.225
X-122.541 Y-13.256
X-122.549 Y-13.291
Y-13.545
X-122.542 Y-13.694
X-122.468 Y-13.825
X-122.36 Y-13.929
X-122.232 Y-14.007
X-122.092 Y-14.062
X-121.946 Y-14.095
X-121.796 Y-14.106
X-121.648 Y-14.084
X-121.632 Y-14.077
X-121.534 Y-14.012
X-121.468 Y-13.915
X-121.445 Y-13.799
Y-13.714
X-121.443 Y-13.629
X-121.441 Y-13.577
X-121.448 Y-13.539
X-121.469 Y-13.507
X-121.501 Y-13.485
X-121.538 Y-13.477
X-121.818 Y-13.468
X-122.446 Y-13.448
X-122.485 Y-13.455
X-122.518 Y-13.475
X-122.54 Y-13.507
X-122.549 Y-13.545
Y-13.798
X-122.542 Y-13.948
X-122.464 Y-14.076
X-122.353 Y-14.177
X-122.224 Y-14.253
X-122.084 Y-14.306
X-121.937 Y-14.336
X-121.787 Y-14.343
X-121.639 Y-14.316
X-121.627 Y-14.311
X-121.531 Y-14.245
X-121.467 Y-14.149
X-121.445 Y-14.035
Y-13.799
X-121.453 Y-13.762
X-121.475 Y-13.731
X-121.507 Y-13.71
X-121.545 Y-13.703
X-121.818 Y-13.702
X-122.449
X-122.487 Y-13.709
X-122.519 Y-13.73
X-122.541 Y-13.761
X-122.549 Y-13.798
Y-14.051
X-122.546 Y-14.126
X-122.495 Y-14.267
X-122.395 Y-14.38
X-122.272 Y-14.466
X-122.136 Y-14.528
X-121.991 Y-14.567
X-121.842 Y-14.581
X-121.692 Y-14.567
X-121.652 Y-14.554
X-121.544 Y-14.492
X-121.471 Y-14.391
X-121.445 Y-14.269
Y-14.035
X-121.454 Y-13.997
X-121.476 Y-13.966
X-121.509 Y-13.945
X-121.547 Y-13.938
X-121.818 Y-13.943
X-122.451 Y-13.955
X-122.488 Y-13.963
X-122.52 Y-13.984
X-122.541 Y-14.015
X-122.549 Y-14.051
Y-14.305
X-122.546 Y-14.38
X-122.488 Y-14.518
X-122.386 Y-14.628
X-122.262 Y-14.712
X-122.124 Y-14.771
X-121.978 Y-14.806
X-121.828 Y-14.818
X-121.68 Y-14.798
X-121.646 Y-14.786
X-121.541 Y-14.723
X-121.47 Y-14.623
X-121.445 Y-14.503
Y-14.269
X-121.454 Y-14.231
X-121.477 Y-14.199
X-121.51 Y-14.178
X-121.549 Y-14.172
X-121.818 Y-14.183
X-122.453 Y-14.208
X-122.49 Y-14.217
X-122.52 Y-14.238
X-122.541 Y-14.269
X-122.549 Y-14.305
Y-14.52
X-122.542 Y-14.67
X-122.464 Y-14.798
X-122.352 Y-14.898
X-122.222 Y-14.973
X-122.081 Y-15.024
X-121.933 Y-15.05
X-121.783 Y-15.053
X-121.636 Y-15.023
X-121.621 Y-15.017
X-121.528 Y-14.951
X-121.466 Y-14.855
X-121.445 Y-14.743
Y-14.503
X-121.454 Y-14.466
X-121.476 Y-14.434
X-121.509 Y-14.414
X-121.547 Y-14.407
X-121.818 Y-14.412
X-122.451 Y-14.424
X-122.488 Y-14.432
X-122.52 Y-14.452
X-122.541 Y-14.483
X-122.549 Y-14.52
Y-14.774
X-122.546 Y-14.849
X-122.493 Y-14.989
X-122.393 Y-15.101
X-122.269 Y-15.185
X-122.131 Y-15.245
X-121.986 Y-15.281
X-121.836 Y-15.292
X-121.713 Y-15.279
X-121.577 Y-15.229
X-121.48 Y-15.121
X-121.445 Y-14.981
Y-14.743
X-121.454 Y-14.705
X-121.476 Y-14.673
X-121.51 Y-14.653
X-121.548 Y-14.647
X-121.818 Y-14.656
X-122.453 Y-14.677
X-122.489 Y-14.685
X-122.52 Y-14.706
X-122.541 Y-14.737
X-122.549 Y-14.774
Y-15.027
X-122.546 Y-15.102
X-122.486 Y-15.239
X-122.382 Y-15.348
X-122.257 Y-15.43
X-122.118 Y-15.487
X-121.971 Y-15.52
X-121.822 Y-15.527
X-121.673 Y-15.509
X-121.635 Y-15.495
X-121.535 Y-15.43
X-121.468 Y-15.332
X-121.445 Y-15.215
Y-14.981
X-121.454 Y-14.942
X-121.477 Y-14.911
X-121.511 Y-14.89
X-121.55 Y-14.884
X-121.818 Y-14.898
X-122.455 Y-14.931
X-122.49 Y-14.939
X-122.521 Y-14.96
X-122.541 Y-14.991
X-122.549 Y-15.027
Y-15.234
X-122.542 Y-15.384
X-122.464 Y-15.512
X-122.353 Y-15.612
X-122.222 Y-15.687
X-122.081 Y-15.736
X-121.933 Y-15.762
X-121.783 Y-15.765
X-121.636 Y-15.735
X-121.623 Y-15.729
X-121.529 Y-15.663
X-121.467 Y-15.567
X-121.445 Y-15.455
Y-15.215
X-121.454 Y-15.178
X-121.476 Y-15.146
X-121.509 Y-15.126
X-121.547 Y-15.119
X-121.818 Y-15.124
X-122.451 Y-15.137
X-122.488 Y-15.145
X-122.52 Y-15.166
X-122.541 Y-15.197
X-122.549 Y-15.234
Y-15.487
X-122.546 Y-15.562
X-122.494 Y-15.703
X-122.393 Y-15.814
X-122.269 Y-15.898
X-122.131 Y-15.957
X-121.985 Y-15.993
X-121.835 Y-16.004
X-121.686 Y-15.988
X-121.648 Y-15.975
X-121.542 Y-15.912
X-121.47 Y-15.811
X-121.445 Y-15.691
Y-15.455
X-121.454 Y-15.417
X-121.477 Y-15.385
X-121.51 Y-15.365
X-121.548 Y-15.358
X-121.818 Y-15.368
X-122.453 Y-15.391
X-122.489 Y-15.399
X-122.52 Y-15.42
X-122.541 Y-15.451
X-122.549 Y-15.487
Y-15.741
X-122.546 Y-15.816
X-122.485 Y-15.953
X-122.381 Y-16.061
X-122.255 Y-16.143
X-122.116 Y-16.199
X-121.97 Y-16.232
X-121.82 Y-16.242
X-121.672 Y-16.22
X-121.641 Y-16.208
X-121.538 Y-16.144
X-121.469 Y-16.045
X-121.445 Y-15.927
Y-15.691
X-121.454 Y-15.652
X-121.477 Y-15.62
X-121.511 Y-15.6
X-121.55 Y-15.594
X-121.819 Y-15.609
X-122.455 Y-15.644
X-122.491 Y-15.653
X-122.521 Y-15.674
X-122.541 Y-15.705
X-122.549 Y-15.741
Y-15.956
X-122.546 Y-16.031
X-122.494 Y-16.172
X-122.395 Y-16.284
X-122.271 Y-16.369
X-122.134 Y-16.429
X-121.988 Y-16.466
X-121.839 Y-16.478
X-121.69 Y-16.461
X-121.65 Y-16.447
X-121.543 Y-16.384
X-121.47 Y-16.284
X-121.445 Y-16.162
Y-15.927
X-121.454 Y-15.889
X-121.476 Y-15.857
X-121.51 Y-15.837
X-121.548 Y-15.83
X-121.818 Y-15.839
X-122.453 Y-15.86
X-122.489 Y-15.868
X-122.52 Y-15.889
X-122.541 Y-15.92
X-122.549 Y-15.956
Y-16.21
X-122.546 Y-16.284
X-122.487 Y-16.422
X-122.384 Y-16.532
X-122.259 Y-16.614
X-122.12 Y-16.671
X-121.974 Y-16.704
X-121.824 Y-16.714
X-121.676 Y-16.693
X-121.643 Y-16.681
X-121.539 Y-16.617
X-121.469 Y-16.518
X-121.445 Y-16.399
Y-16.162
X-121.454 Y-16.124
X-121.477 Y-16.092
X-121.511 Y-16.072
X-121.55 Y-16.066
X-121.818 Y-16.08
X-122.455 Y-16.113
X-122.49 Y-16.122
X-122.521 Y-16.143
X-122.541 Y-16.174
X-122.549 Y-16.21
Y-16.416
X-122.542 Y-16.566
X-122.465 Y-16.695
X-122.354 Y-16.796
X-122.224 Y-16.871
X-122.083 Y-16.921
X-121.935 Y-16.947
X-121.785 Y-16.949
X-121.638 Y-16.919
X-121.623 Y-16.913
X-121.529 Y-16.847
X-121.467 Y-16.751
X-121.445 Y-16.639
Y-16.399
X-121.454 Y-16.361
X-121.476 Y-16.33
X-121.509 Y-16.309
X-121.547 Y-16.302
X-121.818 Y-16.307
X-122.451 Y-16.32
X-122.488 Y-16.328
X-122.52 Y-16.349
X-122.541 Y-16.38
X-122.549 Y-16.416
Y-16.67
X-122.546 Y-16.745
X-122.495 Y-16.886
X-122.395 Y-16.998
X-122.271 Y-17.082
X-122.133 Y-17.141
X-121.987 Y-17.178
X-121.838 Y-17.189
X-121.689 Y-17.173
X-121.648 Y-17.159
X-121.542 Y-17.096
X-121.47 Y-16.996
X-121.445 Y-16.875
Y-16.639
X-121.454 Y-16.601
X-121.476 Y-16.569
X-121.51 Y-16.548
X-121.548 Y-16.542
X-121.818 Y-16.551
X-122.453 Y-16.573
X-122.489 Y-16.582
X-122.52 Y-16.603
X-122.541 Y-16.633
X-122.549 Y-16.67
Y-16.923
Y-16.97
Y-17.008
X-122.547 Y-17.045
X-122.468 Y-17.172
X-122.412 Y-17.221
X-122.353 Y-17.262
X-122.285 Y-17.288
X-122.213 Y-17.297
X-122.179 Y-17.289
X-122.15 Y-17.271
X-122.129 Y-17.244
X-122.118 Y-17.211
X-122.119 Y-17.176
X-122.132 Y-17.144
X-122.154 Y-17.118
X-122.387 Y-16.933
X-122.419 Y-16.916
X-122.456 Y-16.911
X-122.491 Y-16.92
X-122.521 Y-16.942
X-122.541 Y-16.972
X-122.549 Y-17.008
Y-17.139
Y-17.177
X-122.548 Y-17.198
X-122.538 Y-17.223
X-122.524 Y-17.247
X-122.507 Y-17.268
X-122.477 Y-17.287
X-122.443 Y-17.294
X-122.408 Y-17.29
X-122.377 Y-17.273
X-122.354 Y-17.247
X-122.341 Y-17.215
X-122.225 Y-16.653
X-122.193 Y-16.496
X-122.192 Y-16.46
X-122.204 Y-16.426
X-122.227 Y-16.399
X-122.258 Y-16.381
X-122.293 Y-16.375
X-122.328 Y-16.383
X-122.359 Y-16.402
X-122.38 Y-16.431
G3 X-122.548 Y-17.198 I1.414 J-0.711
G1 X-122.545 Y-17.208
X-122.542 Y-17.219
X-122.537 Y-17.229
X-122.53 Y-17.24
X-122.513 Y-17.261
X-122.502 Y-17.273
X-122.49 Y-17.281
X-122.478 Y-17.288
X-122.467 Y-17.292
X-122.456 Y-17.295
X-122.446 Y-17.296
X-121.659 Y-17.297
X-121.621
X-121.579
X-121.541 Y-17.295
X-121.506 Y-17.279
X-121.481 Y-17.25
X-121.469 Y-17.213
X-121.473 Y-17.175
X-121.491 Y-17.142
X-121.522 Y-17.119
X-121.56 Y-17.11
X-121.573
X-121.609 Y-17.116
X-121.64 Y-17.136
X-121.661 Y-17.165
X-121.669 Y-17.201
X-121.663 Y-17.236
X-121.643 Y-17.267
X-121.614 Y-17.288
X-121.579 Y-17.297
X-121.557
X-121.547 Y-17.296
X-121.536 Y-17.294
X-121.523 Y-17.289
X-121.51 Y-17.283
X-121.497 Y-17.274
X-121.483 Y-17.261
X-121.464 Y-17.239
X-121.457 Y-17.228
X-121.452 Y-17.217
X-121.448 Y-17.207
X-121.446 Y-17.197
X-121.445 Y-17.177
Y-16.875
X-121.454 Y-16.837
X-121.476 Y-16.805
X-121.51 Y-16.785
X-121.548 Y-16.778
X-121.586 Y-16.78 Z-0.982
X-121.619 Y-16.781 Z-0.961
X-121.641 Y-16.782 Z-0.928
X-121.648 Z-0.89
G0 Z2
X-117.652 Y-12.768
Z-0.79
G1 Z-0.89 F1000
X-117.648 Y-12.775 Z-0.928
X-117.637 Y-12.794 Z-0.961
X-117.621 Y-12.822 Z-0.982
X-117.602 Y-12.855 Z-0.99
G3 X-117.052 Y-13.416 I1.37 J0.792
G1 X-116.968 Y-13.464
X-116.883 Y-13.517
X-116.852 Y-13.538
X-116.704 Y-13.565
X-116.56 Y-13.523
X-116.433 Y-13.443
X-116.394 Y-13.403
X-116.324 Y-13.284
X-116.315 Y-13.147
X-116.368 Y-13.02
X-116.392 Y-12.997
X-116.423 Y-12.984
X-116.457 Y-12.982
X-116.489 Y-12.991
X-116.516 Y-13.009
X-116.888 Y-13.37
X-116.908 Y-13.396
X-116.917 Y-13.428
X-116.916 Y-13.461
X-116.904 Y-13.492
X-116.883 Y-13.517
X-116.849 Y-13.545
X-116.799 Y-13.594
X-116.745 Y-13.647
X-116.604 Y-13.698
X-116.455 Y-13.678
X-116.322 Y-13.609
X-116.212 Y-13.507
X-116.203 Y-13.49
X-116.167 Y-13.358
X-116.194 Y-13.223
X-116.278 Y-13.114
X-116.309 Y-13.098
X-116.343 Y-13.094
X-116.377 Y-13.101
X-116.406 Y-13.12
X-116.783 Y-13.465
X-116.804 Y-13.493
X-116.815 Y-13.527
X-116.813 Y-13.562
X-116.799 Y-13.594
X-116.743 Y-13.676
X-116.718 Y-13.714
X-116.673 Y-13.774
X-116.541 Y-13.846
X-116.391 Y-13.847
X-116.249 Y-13.8
X-116.124 Y-13.717
X-116.031 Y-13.6
X-116.016 Y-13.562
X-115.998 Y-13.419
X-116.049 Y-13.285
X-116.156 Y-13.189
X-116.206 Y-13.163
X-116.267 Y-13.122
X-116.278 Y-13.114
X-116.307 Y-13.099
X-116.34 Y-13.094
X-116.372 Y-13.1
X-116.401 Y-13.116
X-116.423 Y-13.14
X-116.717 Y-13.607
X-116.731 Y-13.642
Y-13.679
X-116.718 Y-13.714
X-116.645 Y-13.831
X-116.629 Y-13.858
X-116.588 Y-13.921
X-116.463 Y-14.004
X-116.314 Y-14.019
X-116.167 Y-13.987
X-116.035 Y-13.916
X-115.922 Y-13.818
X-115.842 Y-13.69
X-115.827 Y-13.645
X-115.816 Y-13.506
X-115.868 Y-13.377
X-115.973 Y-13.286
X-116.156 Y-13.189
X-116.191 Y-13.18
X-116.227 Y-13.183
X-116.259 Y-13.199
X-116.284 Y-13.225
X-116.626 Y-13.756
X-116.639 Y-13.789
X-116.641 Y-13.824
X-116.629 Y-13.858
X-116.545 Y-14
X-116.531 Y-14.029
X-116.495 Y-14.094
X-116.368 Y-14.175
X-116.219 Y-14.194
X-116.071 Y-14.169
X-115.933 Y-14.111
X-115.813 Y-14.022
X-115.712 Y-13.91
X-115.642 Y-13.778
X-115.631 Y-13.736
X-115.625 Y-13.608
X-115.673 Y-13.489
X-115.767 Y-13.401
X-115.809 Y-13.376
X-115.868 Y-13.342
X-115.973 Y-13.286
X-116.007 Y-13.276
X-116.042 Y-13.279
X-116.074 Y-13.294
X-116.098 Y-13.319
X-116.133 Y-13.369
X-116.522 Y-13.931
X-116.536 Y-13.962
X-116.539 Y-13.996
X-116.531 Y-14.029
X-116.52 Y-14.051
X-116.472 Y-14.171
X-116.44 Y-14.239
X-116.329 Y-14.339
X-116.184 Y-14.378
X-116.034 Y-14.373
X-115.889 Y-14.332
X-115.756 Y-14.263
X-115.637 Y-14.172
X-115.536 Y-14.062
X-115.46 Y-13.932
X-115.456 Y-13.92
X-115.441 Y-13.819
X-115.461 Y-13.719
X-115.513 Y-13.632
X-115.588 Y-13.545
X-115.614 Y-13.517
X-115.671 Y-13.46
X-115.699 Y-13.442
X-115.767 Y-13.401
X-115.799 Y-13.39
X-115.833
X-115.864 Y-13.402
X-115.891 Y-13.423
X-116.008 Y-13.559
X-116.453 Y-14.072
X-116.471 Y-14.102
X-116.478 Y-14.136
X-116.472 Y-14.171
X-116.418 Y-14.305
X-116.401 Y-14.351
X-116.37 Y-14.42
X-116.26 Y-14.522
X-116.117 Y-14.567
X-115.967 Y-14.571
X-115.82 Y-14.542
X-115.681 Y-14.487
X-115.552 Y-14.409
X-115.439 Y-14.311
X-115.34 Y-14.198
X-115.333 Y-14.185
X-115.304 Y-14.107
X-115.298 Y-14.023
X-115.315 Y-13.942
X-115.336 Y-13.883
X-115.36 Y-13.819
X-115.374 Y-13.798
X-115.445 Y-13.711
X-115.513 Y-13.632
X-115.544 Y-13.609
X-115.581 Y-13.599
X-115.619 Y-13.604
X-115.652 Y-13.623
X-115.866 Y-13.808
X-116.371 Y-14.243
X-116.396 Y-14.274
X-116.406 Y-14.312
X-116.401 Y-14.351
X-116.376 Y-14.417
X-116.359 Y-14.474
X-116.351 Y-14.52
X-116.334 Y-14.593
X-116.231 Y-14.703
X-116.093 Y-14.761
X-115.944 Y-14.78
X-115.795 Y-14.767
X-115.65 Y-14.728
X-115.513 Y-14.666
X-115.386 Y-14.586
X-115.321 Y-14.532
X-115.247 Y-14.44
X-115.214 Y-14.327
X-115.228 Y-14.21
X-115.247 Y-14.178
X-115.276 Y-14.155
X-115.312 Y-14.144
X-115.349 Y-14.148
X-115.662 Y-14.236
X-116.279 Y-14.409
X-116.311 Y-14.425
X-116.336 Y-14.451
X-116.35 Y-14.484
X-116.351 Y-14.52
X-116.344 Y-14.558
X-116.325 Y-14.689
X-116.311 Y-14.763
X-116.221 Y-14.883
X-116.089 Y-14.955
X-115.943 Y-14.99
X-115.793 Y-14.994
X-115.645 Y-14.972
X-115.502 Y-14.927
X-115.366 Y-14.864
X-115.24 Y-14.779
X-115.184 Y-14.704
X-115.154 Y-14.616
X-115.153 Y-14.523
X-115.16 Y-14.474
X-115.176 Y-14.389
X-115.199 Y-14.305
X-115.224 Y-14.22
X-115.305 Y-13.967
X-115.315 Y-13.942
X-115.335 Y-13.91
X-115.366 Y-13.888
X-115.402 Y-13.878
X-115.44 Y-13.884
X-115.473 Y-13.902
X-115.768 Y-14.155
X-116.291 Y-14.602
X-116.311 Y-14.627
X-116.323 Y-14.657
X-116.325 Y-14.689
X-116.307 Y-14.812
X-116.304 Y-14.858
X-116.294 Y-14.932
X-116.221 Y-15.063
X-116.098 Y-15.149
X-115.956 Y-15.199
X-115.808 Y-15.219
X-115.658 Y-15.213
X-115.51 Y-15.185
X-115.368 Y-15.138
X-115.295 Y-15.101
X-115.203 Y-15.031
X-115.144 Y-14.931
X-115.128 Y-14.816
X-115.148 Y-14.558
X-115.153 Y-14.523
X-115.164 Y-14.491
X-115.186 Y-14.465
X-115.215 Y-14.447
X-115.249 Y-14.441
X-115.283 Y-14.446
X-115.612 Y-14.554
X-116.235 Y-14.759
X-116.264 Y-14.774
X-116.286 Y-14.797
X-116.3 Y-14.826
X-116.304 Y-14.858
X-116.291 Y-15.036
X-116.282 Y-15.111
X-116.224 Y-15.249
X-116.11 Y-15.346
X-115.973 Y-15.408
X-115.827 Y-15.442
X-115.677 Y-15.451
X-115.528 Y-15.437
X-115.382 Y-15.404
X-115.299 Y-15.37
X-115.2 Y-15.303
X-115.134 Y-15.203
X-115.114 Y-15.085
X-115.119 Y-14.981
X-115.128 Y-14.816
X-115.137 Y-14.783
X-115.156 Y-14.755
X-115.183 Y-14.735
X-115.215 Y-14.726
X-115.249 Y-14.727
X-115.58 Y-14.799
X-116.212 Y-14.935
X-116.244 Y-14.948
X-116.27 Y-14.972
X-116.286 Y-15.002
X-116.291 Y-15.036
X-116.289 Y-15.065
X-116.285 Y-15.15
X-116.283 Y-15.234
X-116.277 Y-15.309
X-116.224 Y-15.449
X-116.115 Y-15.552
X-115.982 Y-15.622
X-115.839 Y-15.666
X-115.69 Y-15.685
X-115.54 Y-15.683
X-115.392 Y-15.659
X-115.312 Y-15.631
X-115.206 Y-15.568
X-115.134 Y-15.467
X-115.11 Y-15.345
X-115.113 Y-15.114
X-115.114 Y-15.085
X-115.121 Y-15.052
X-115.139 Y-15.025
X-115.164 Y-15.004
X-115.195 Y-14.992
X-115.228
X-115.561 Y-15.041
X-116.198 Y-15.136
X-116.231 Y-15.147
X-116.258 Y-15.169
X-116.277 Y-15.199
X-116.283 Y-15.234
X-116.278 Y-15.449
X-116.273 Y-15.524
X-116.218 Y-15.664
X-116.112 Y-15.77
X-115.982 Y-15.845
X-115.841 Y-15.894
X-115.693 Y-15.92
X-115.543 Y-15.926
X-115.394 Y-15.906
X-115.32 Y-15.883
X-115.21 Y-15.821
X-115.136 Y-15.72
X-115.109 Y-15.597
X-115.11 Y-15.345
X-115.116 Y-15.314
X-115.133 Y-15.286
X-115.158 Y-15.264
X-115.188 Y-15.252
X-115.22 Y-15.25
X-115.551 Y-15.285
X-116.189 Y-15.352
X-116.223 Y-15.362
X-116.252 Y-15.384
X-116.271 Y-15.414
X-116.278 Y-15.449
X-116.274 Y-15.703
X-116.27 Y-15.778
X-116.2 Y-15.911
X-116.09 Y-16.012
X-115.959 Y-16.086
X-115.817 Y-16.135
X-115.67 Y-16.161
X-115.52 Y-16.165
X-115.371 Y-16.144
X-115.316 Y-16.126
X-115.208 Y-16.063
X-115.135 Y-15.962
X-115.109 Y-15.841
Y-15.597
X-115.116 Y-15.565
X-115.132 Y-15.536
X-115.157 Y-15.515
X-115.187 Y-15.503
X-115.22 Y-15.501
X-115.548 Y-15.536
X-116.185 Y-15.605
X-116.22 Y-15.616
X-116.248 Y-15.637
X-116.267 Y-15.668
X-116.274 Y-15.703
X-116.271 Y-15.91
X-116.267 Y-15.985
X-116.208 Y-16.122
X-116.103 Y-16.23
X-115.976 Y-16.309
X-115.836 Y-16.364
X-115.689 Y-16.396
X-115.54 Y-16.407
X-115.391 Y-16.391
X-115.324 Y-16.371
X-115.212 Y-16.31
X-115.136 Y-16.208
X-115.109 Y-16.083
Y-15.841
X-115.116 Y-15.809
X-115.131 Y-15.782
X-115.155 Y-15.76
X-115.184 Y-15.747
X-115.216 Y-15.744
X-115.543 Y-15.767
X-116.178 Y-15.812
X-116.214 Y-15.821
X-116.244 Y-15.843
X-116.264 Y-15.874
X-116.271 Y-15.91
X-116.268 Y-16.125
X-116.259 Y-16.275
X-116.176 Y-16.4
X-116.062 Y-16.497
X-115.93 Y-16.569
X-115.788 Y-16.617
X-115.64 Y-16.643
X-115.49 Y-16.646
X-115.342 Y-16.621
X-115.301 Y-16.605
X-115.197 Y-16.539
X-115.128 Y-16.437
X-115.106 Y-16.315
X-115.108 Y-16.248
X-115.109 Y-16.083
X-115.118 Y-16.045
X-115.141 Y-16.013
X-115.175 Y-15.993
X-115.213 Y-15.987
X-115.538 Y-16.001
X-116.172 Y-16.027
X-116.209 Y-16.036
X-116.24 Y-16.057
X-116.26 Y-16.088
X-116.268 Y-16.125
X-116.266 Y-16.248
X-116.261 Y-16.378
X-116.247 Y-16.528
X-116.161 Y-16.651
X-116.045 Y-16.746
X-115.912 Y-16.815
X-115.769 Y-16.861
X-115.621 Y-16.884
X-115.471 Y-16.885
X-115.324 Y-16.857
X-115.285 Y-16.841
X-115.18 Y-16.771
X-115.114 Y-16.663
X-115.098 Y-16.538
X-115.101 Y-16.501
X-115.106 Y-16.315
X-115.116 Y-16.278
X-115.14 Y-16.247
X-115.173 Y-16.227
X-115.212 Y-16.222
X-115.534 Y-16.241
X-116.166 Y-16.278
X-116.203 Y-16.287
X-116.233 Y-16.31
X-116.254 Y-16.341
X-116.261 Y-16.378
X-116.255 Y-16.501
X-116.242 Y-16.632
X-116.22 Y-16.78
X-116.133 Y-16.903
X-116.016 Y-16.996
X-115.881 Y-17.062
X-115.738 Y-17.105
X-115.589 Y-17.125
X-115.439 Y-17.122
X-115.293 Y-17.089
X-115.255 Y-17.073
X-115.153 Y-16.999
X-115.091 Y-16.89
X-115.079 Y-16.764
X-115.098 Y-16.538
X-115.109 Y-16.502
X-115.133 Y-16.473
X-115.167 Y-16.455
X-115.205 Y-16.45
X-115.523 Y-16.476
X-116.151 Y-16.526
X-116.188 Y-16.536
X-116.218 Y-16.56
X-116.237 Y-16.594
X-116.242 Y-16.632
X-116.221 Y-16.839
X-116.216 Y-16.885
X-116.211 Y-16.923
X-116.206 Y-16.966
X-116.194 Y-17.04
X-116.102 Y-17.158
X-115.982 Y-17.248
X-115.935 Y-17.269
X-115.895 Y-17.284
X-115.853 Y-17.293
X-115.81 Y-17.297
X-115.776 Y-17.289
X-115.747 Y-17.271
X-115.725 Y-17.244
X-115.714 Y-17.212
X-115.715 Y-17.177
X-115.728 Y-17.145
X-115.75 Y-17.119
X-116.044 Y-16.88
X-116.078 Y-16.862
X-116.116 Y-16.858
X-116.153 Y-16.869
X-116.183 Y-16.894
X-116.202 Y-16.928
X-116.206 Y-16.966
X-116.191 Y-17.092
X-116.177 Y-17.177
X-116.172 Y-17.198
X-116.166 Y-17.219
X-116.156 Y-17.236
X-116.132 Y-17.257
X-116.101 Y-17.264
X-116.07 Y-17.256
X-116.047 Y-17.233
X-116.038 Y-17.203
X-116.044 Y-17.172
X-116.064 Y-17.147
X-116.093 Y-17.135
X-116.125 Y-17.138
X-116.151 Y-17.156
X-116.166 Y-17.184
X-116.168 Y-17.201
X-116.166 Y-17.219
X-116.161 Y-17.229
X-116.154 Y-17.24
X-116.145 Y-17.251
X-116.122 Y-17.271
X-116.111 Y-17.279
X-116.101 Y-17.286
X-116.09 Y-17.29
X-116.079 Y-17.294
X-116.069 Y-17.296
X-116.058
X-115.445 Y-17.297
X-115.398
X-115.36
X-115.211 Y-17.289
X-115.201 Y-17.284
X-115.112 Y-17.207
X-115.06 Y-17.102
X-115.051 Y-16.985
X-115.063 Y-16.951
X-115.087 Y-16.924
X-115.118 Y-16.906
X-115.154 Y-16.901
X-115.189 Y-16.909
X-115.219 Y-16.928
X-115.426 Y-17.124
X-115.448 Y-17.156
X-115.457 Y-17.194
X-115.45 Y-17.232
X-115.43 Y-17.265
X-115.398 Y-17.288
X-115.36 Y-17.297
X-115.149
X-115.128
X-115.117 Y-17.296
X-115.093 Y-17.289
X-115.074 Y-17.273
X-115.064 Y-17.25
X-115.065 Y-17.225
X-115.078 Y-17.2
X-115.102 Y-17.185
X-115.13 Y-17.184
X-115.155 Y-17.195
X-115.172 Y-17.218
X-115.176 Y-17.246
X-115.166 Y-17.272
X-115.145 Y-17.29
X-115.117 Y-17.296
X-115.107 Y-17.294
X-115.093 Y-17.289
X-115.08 Y-17.283
X-115.066 Y-17.273
X-115.053 Y-17.261
X-115.034 Y-17.242
X-115.022 Y-17.222
X-115.018 Y-17.211
X-115.015 Y-17.2
X-115.013 Y-17.188
Y-17.177
X-115.014 Y-17.167
X-115.016 Y-17.156
X-115.034 Y-17.092
X-115.049 Y-17.008
X-115.075 Y-16.798
X-115.079 Y-16.764
X-115.087 Y-16.737
X-115.102 Y-16.713
X-115.132 Y-16.7 Z-0.984
X-115.158 Y-16.688 Z-0.967
X-115.177 Y-16.679 Z-0.943
X-115.189 Y-16.68 Z-0.917
X-115.192 Z-0.89
G0 Z2
X-111.975 Y-15.045
Z0.5
G3 X-111.49 Y-15.169 Z0.29 I0.242 J-0.062 F333.3
X-111.975 Y-15.045 Z0.079 I-0.242 J0.062
X-111.49 Y-15.169 Z-0.131 I0.242 J-0.062
X-111.975 Y-15.045 Z-0.342 I-0.242 J0.062
X-111.49 Y-15.169 Z-0.552 I0.242 J-0.062
X-111.975 Y-15.045 Z-0.763 I-0.242 J0.062
X-111.764 Y-15.355 Z-0.876 I0.242 J-0.062
X-111.482 Y-15.107 Z-0.99 I0.031 J0.248
X-111.982 I-0.25
X-111.482 I0.25
G1 X-111.445 Y-14.962 F1000
X-111.458 Y-14.888
X-111.495 Y-14.823
X-111.602 Y-14.718
X-111.747 Y-14.678
X-111.895 Y-14.699
X-112.026 Y-14.773
X-112.122 Y-14.888
X-112.174 Y-15.028
X-112.177 Y-15.178
X-112.129 Y-15.321
X-112.037 Y-15.439
X-111.911 Y-15.521
X-111.766 Y-15.557
X-111.616 Y-15.543
X-111.48 Y-15.481
X-111.371 Y-15.377
X-111.293 Y-15.249
X-111.243 Y-15.108
X-111.232 Y-14.958
X-111.267 Y-14.812
X-111.338 Y-14.68
X-111.446 Y-14.576
X-111.577 Y-14.503
X-111.724 Y-14.47
X-111.873 Y-14.477
X-112.018 Y-14.518
X-112.147 Y-14.594
X-112.254 Y-14.699
X-112.268 Y-14.721
X-112.301 Y-14.788
X-112.316 Y-14.86
X-112.313 Y-14.934
X-112.29 Y-15.065
X-112.254 Y-15.255
X-112.252 Y-15.265
X-112.248 Y-15.276
X-112.173 Y-15.449
X-112.106 Y-15.584
X-111.995 Y-15.684
X-111.857 Y-15.743
X-111.708 Y-15.765
X-111.559 Y-15.749
X-111.419 Y-15.695
X-111.294 Y-15.612
X-111.188 Y-15.507
X-111.169 Y-15.48
X-111.128 Y-15.396
X-111.116 Y-15.303
X-111.132 Y-15.21
X-111.183 Y-15.065
X-111.254 Y-14.812
X-111.275 Y-14.727
X-111.3 Y-14.605
X-111.318 Y-14.532
X-111.398 Y-14.405
X-111.519 Y-14.318
X-111.661 Y-14.268
X-111.81 Y-14.252
X-111.959 Y-14.266
X-112.104 Y-14.307
X-112.237 Y-14.376
X-112.239 Y-14.378
X-112.307 Y-14.454
X-112.345 Y-14.548
X-112.349 Y-14.65
X-112.313 Y-14.934
X-112.299 Y-14.971
X-112.271 Y-15
X-112.235 Y-15.016
X-112.195
X-112.159 Y-15.001
X-112.131 Y-14.973
X-112.116 Y-14.936
X-112.072 Y-14.701
X-112.073 Y-14.661
X-112.089 Y-14.625
X-112.118 Y-14.598
X-112.155 Y-14.584
X-112.195 Y-14.586
X-112.231 Y-14.603
X-112.257 Y-14.632
X-112.27 Y-14.67
G3 X-112.173 Y-15.449 I1.57 J-0.2
G1 X-112.061 Y-15.707
X-111.994 Y-15.841
X-111.87 Y-15.926
X-111.726 Y-15.967
X-111.576 Y-15.969
X-111.429 Y-15.939
X-111.29 Y-15.884
X-111.162 Y-15.805
X-111.113 Y-15.759
X-111.038 Y-15.65
X-111.018 Y-15.519
X-111.057 Y-15.392
X-111.078 Y-15.368
X-111.105 Y-15.352
X-111.136 Y-15.345
X-111.168 Y-15.348
X-111.399 Y-15.411
X-111.994 Y-15.574
X-112.025 Y-15.588
X-112.049 Y-15.611
X-112.063 Y-15.641
X-112.068 Y-15.674
X-112.061 Y-15.707
X-112.046 Y-15.741
X-112.006 Y-15.825
X-111.93 Y-15.968
X-111.891 Y-16.032
X-111.771 Y-16.122
X-111.627 Y-16.164
X-111.477 Y-16.168
X-111.329 Y-16.142
X-111.188 Y-16.093
X-111.059 Y-16.016
X-110.947 Y-15.916
X-110.943 Y-15.909
X-110.9 Y-15.804
Y-15.692
X-110.941 Y-15.587
X-110.963 Y-15.563
X-110.992 Y-15.548
X-111.024 Y-15.543
X-111.056 Y-15.548
X-111.291 Y-15.629
X-111.873 Y-15.829
X-111.902 Y-15.845
X-111.925 Y-15.87
X-111.938 Y-15.901
X-111.939 Y-15.935
X-111.93 Y-15.968
X-111.915 Y-15.994
X-111.812 Y-16.163
X-111.769 Y-16.225
X-111.652 Y-16.318
X-111.508 Y-16.36
X-111.358 Y-16.366
X-111.21 Y-16.341
X-111.069 Y-16.291
X-110.937 Y-16.218
X-110.826 Y-16.117
X-110.823 Y-16.112
X-110.777 Y-16.006
X-110.775 Y-15.89
X-110.817 Y-15.783
X-110.961 Y-15.554
X-111.003 Y-15.487
X-111.086 Y-15.34
X-111.095 Y-15.318
X-111.132 Y-15.21
X-111.152 Y-15.179
X-111.182 Y-15.156
X-111.218 Y-15.147
X-111.255 Y-15.151
X-111.288 Y-15.168
X-111.312 Y-15.197
X-111.471 Y-15.473
X-111.811 Y-16.064
X-111.823 Y-16.096
Y-16.131
X-111.812 Y-16.163
X-111.692 Y-16.358
X-111.672 Y-16.39
X-111.656 Y-16.416
X-111.623 Y-16.457
X-111.611 Y-16.47
X-111.598 Y-16.482
X-111.565 Y-16.5
X-111.528 Y-16.504
X-111.492 Y-16.495
X-111.462 Y-16.473
X-111.442 Y-16.442
X-111.435 Y-16.405
X-111.441 Y-16.368
X-111.461 Y-16.337
X-111.495 Y-16.299
X-111.524 Y-16.278
X-111.559 Y-16.268
X-111.595 Y-16.271
X-111.628 Y-16.286
X-111.653 Y-16.313
X-111.667 Y-16.346
X-111.668 Y-16.382
X-111.656 Y-16.416
X-111.638 Y-16.442
X-111.625 Y-16.458
X-111.576 Y-16.501
X-111.517 Y-16.548
X-111.37 Y-16.576
X-111.22 Y-16.572
X-111.073 Y-16.542
X-110.933 Y-16.488
X-110.803 Y-16.412
X-110.695 Y-16.309
X-110.685 Y-16.294
X-110.64 Y-16.173
X-110.649 Y-16.044
X-110.712 Y-15.932
X-110.739 Y-15.912
X-110.771 Y-15.901
X-110.804 Y-15.902
X-110.836 Y-15.914
X-111.042 Y-16.036
X-111.558 Y-16.342
X-111.586 Y-16.366
X-111.603 Y-16.399
X-111.607 Y-16.436
X-111.598 Y-16.471
X-111.576 Y-16.501
X-111.469 Y-16.595
X-111.422 Y-16.635
X-111.303 Y-16.726
X-111.156 Y-16.753
X-111.006 Y-16.743
X-110.861 Y-16.705
X-110.726 Y-16.638
X-110.607 Y-16.548
X-110.512 Y-16.432
X-110.507 Y-16.42
X-110.481 Y-16.305
X-110.502 Y-16.189
X-110.566 Y-16.09
X-110.592 Y-16.072
X-110.623 Y-16.063
X-110.654 Y-16.064
X-110.684 Y-16.075
X-110.882 Y-16.185
X-111.403 Y-16.473
X-111.432 Y-16.497
X-111.45 Y-16.531
X-111.455 Y-16.568
X-111.445 Y-16.604
X-111.422 Y-16.635
X-111.278 Y-16.754
X-111.215 Y-16.806
X-111.193 Y-16.824
X-111.176 Y-16.839
X-111.069 Y-16.911
X-111.06 Y-16.909
X-111.026 Y-16.892
X-111.001 Y-16.864
X-110.988 Y-16.829
X-110.989 Y-16.791
X-111.003 Y-16.757
X-111.328 Y-16.267
X-111.439 Y-16.1
X-111.464 Y-16.074
X-111.496 Y-16.058
X-111.532 Y-16.055
X-111.567 Y-16.065
X-111.596 Y-16.087
X-111.615 Y-16.118
X-111.622 Y-16.153
X-111.616 Y-16.189
G3 X-111.176 Y-16.839 I1.489 J0.535
G1 X-111.13 Y-16.873
X-111.049 Y-16.923
X-111.016 Y-16.941
X-110.866 Y-16.93
X-110.722 Y-16.889
X-110.587 Y-16.823
X-110.466 Y-16.735
X-110.368 Y-16.621
X-110.354 Y-16.593
X-110.321 Y-16.465
X-110.347 Y-16.335
X-110.426 Y-16.228
X-110.458 Y-16.211
X-110.495 Y-16.207
X-110.531 Y-16.216
X-110.561 Y-16.238
X-110.646 Y-16.327
X-111.066 Y-16.771
X-111.085 Y-16.8
X-111.093 Y-16.834
X-111.089 Y-16.868
X-111.074 Y-16.899
X-111.049 Y-16.923
X-110.934 Y-16.994
X-110.803 Y-17.066
X-110.653 Y-17.064
X-110.509 Y-17.022
X-110.378 Y-16.948
X-110.264 Y-16.851
X-110.205 Y-16.766
X-110.157 Y-16.657
X-110.155 Y-16.537
X-110.2 Y-16.427
X-110.284 Y-16.342
X-110.3 Y-16.332
X-110.369 Y-16.277
X-110.454 Y-16.205
X-110.578 Y-16.079
X-110.623 Y-16.032
X-110.732 Y-15.91
X-110.792 Y-15.822
X-110.817 Y-15.783
X-110.843 Y-15.757
X-110.876 Y-15.742
X-110.912 Y-15.74
X-110.947 Y-15.751
X-110.975 Y-15.774
X-110.994 Y-15.805
X-111 Y-15.841
X-110.992 Y-16.224
X-110.979 Y-16.913
X-110.973 Y-16.944
X-110.957 Y-16.972
X-110.934 Y-16.994
X-110.775 Y-17.092
X-110.741 Y-17.112
X-110.707 Y-17.125
X-110.623 Y-17.148
X-110.476 Y-17.18
X-110.33 Y-17.146
X-110.198 Y-17.075
X-110.087 Y-16.974
X-110.001 Y-16.851
X-109.95 Y-16.71
X-109.969 Y-16.59
X-110.033 Y-16.487
X-110.133 Y-16.418
X-110.164 Y-16.412
X-110.195 Y-16.415
X-110.224 Y-16.428
X-110.247 Y-16.45
X-110.306 Y-16.525
X-110.672 Y-16.991
X-110.689 Y-17.025
X-110.692 Y-17.063
X-110.681 Y-17.1
X-110.656 Y-17.13
X-110.623 Y-17.148
X-110.369 Y-17.218
X-110.222 Y-17.25
X-110.078 Y-17.21
X-109.952 Y-17.129
X-109.851 Y-17.018
X-109.777 Y-16.887
X-109.766 Y-16.842
X-109.767 Y-16.704
X-109.831 Y-16.581
X-109.942 Y-16.499
X-109.975 Y-16.492
X-110.008 Y-16.497
X-110.037 Y-16.512
X-110.06 Y-16.536
X-110.084 Y-16.571
X-110.422 Y-17.066
X-110.437 Y-17.1
X-110.438 Y-17.137
X-110.426 Y-17.172
X-110.402 Y-17.2
X-110.369 Y-17.218
X-110.284 Y-17.241
X-110.2 Y-17.256
X-110.069 Y-17.275
X-109.994 Y-17.282
X-109.847 Y-17.25
X-109.723 Y-17.166
X-109.627 Y-17.05
X-109.597 Y-16.976
X-109.573 Y-16.854
X-109.599 Y-16.731
X-109.671 Y-16.629
X-109.777 Y-16.563
X-109.813 Y-16.558
X-109.848 Y-16.566
X-109.878 Y-16.586
X-109.899 Y-16.615
X-110.141 Y-17.135
X-110.15 Y-17.17
X-110.146 Y-17.206
X-110.13 Y-17.238
X-110.103 Y-17.262
X-110.069 Y-17.275
X-109.946 Y-17.292
X-109.815 Y-17.306
X-109.74 Y-17.311
X-109.596 Y-17.268
X-109.482 Y-17.17
X-109.405 Y-17.042
X-109.371 Y-16.896
X-109.373 Y-16.874
X-109.409 Y-16.75
X-109.495 Y-16.653
X-109.613 Y-16.601
X-109.648 Y-16.602
X-109.681 Y-16.614
X-109.707 Y-16.637
X-109.724 Y-16.668
X-109.895 Y-17.176
X-109.9 Y-17.21
X-109.893 Y-17.244
X-109.875 Y-17.274
X-109.848 Y-17.296
X-109.815 Y-17.306
X-109.692 Y-17.32
X-109.607 Y-17.324
X-109.561 Y-17.326
X-109.523 Y-17.327
X-109.449 Y-17.317
X-109.32 Y-17.24
X-109.228 Y-17.121
X-109.178 Y-16.98
X-109.176 Y-16.939
X-109.205 Y-16.798
X-109.297 Y-16.687
X-109.429 Y-16.631
X-109.468 Y-16.633
X-109.502 Y-16.65
X-109.528 Y-16.679
X-109.54 Y-16.715
X-109.615 Y-17.212
Y-17.245
X-109.604 Y-17.276
X-109.583 Y-17.302
X-109.555 Y-17.319
X-109.523 Y-17.327
X-109.438 Y-17.32
X-109.354 Y-17.311
X-109.307 Y-17.306
X-109.233 Y-17.293
X-109.104 Y-17.217
X-109.018 Y-17.094
X-108.983 Y-16.948
X-108.984 Y-16.93
X-109.025 Y-16.805
X-109.115 Y-16.708
X-109.238 Y-16.66
X-109.276 Y-16.663
X-109.31 Y-16.68
X-109.335 Y-16.709
X-109.348 Y-16.745
X-109.415 Y-17.191
X-109.414 Y-17.227
X-109.4 Y-17.26
X-109.375 Y-17.287
X-109.343 Y-17.302
X-109.307 Y-17.306
X-109.1 Y-17.28
X-109.026 Y-17.265
X-108.988 Y-17.243
X-108.883 Y-17.138
X-108.839 Y-16.997
X-108.868 Y-16.851
X-108.963 Y-16.737
X-109.1 Y-16.681
X-109.133 Y-16.683
X-109.164 Y-16.696
X-109.189 Y-16.718
X-109.205 Y-16.747
X-109.21 Y-16.781
X-109.209 Y-17.181
X-109.203 Y-17.214
X-109.187 Y-17.243
X-109.163 Y-17.265
X-109.133 Y-17.278
X-109.1 Y-17.28
X-108.931 Y-17.253
X-108.888 Y-17.242
X-108.82 Y-17.211
X-108.764 Y-17.161
X-108.685 Y-17.033
X-108.683 Y-17.011
X-108.698 Y-16.879
X-108.768 Y-16.766
X-108.881 Y-16.695
X-109.013 Y-16.68
X-109.045 Y-16.69
X-109.071 Y-16.71
X-109.09 Y-16.737
X-109.098 Y-16.769
X-109.096 Y-16.802
X-109.008 Y-17.168
X-108.991 Y-17.203
X-108.963 Y-17.23
X-108.927 Y-17.243
X-108.888 Y-17.242
X-108.846 Y-17.225
X-108.761 Y-17.189
X-108.677 Y-17.149
X-108.611 Y-17.113
X-108.572 Y-17.049
X-108.526 Y-16.906
X-108.566 Y-16.801
X-108.643 Y-16.718
X-108.744 Y-16.669
X-108.856 Y-16.662
X-108.89 Y-16.674
X-108.918 Y-16.697
X-108.935 Y-16.728
X-108.94 Y-16.764
X-108.933 Y-16.799
X-108.809 Y-17.095
X-108.787 Y-17.128
X-108.754 Y-17.15
X-108.715 Y-17.157
X-108.677 Y-17.149
X-108.531 Y-17.078
X-108.466 Y-17.042
X-108.424 Y-16.98
X-108.405 Y-16.907
X-108.431 Y-16.796
X-108.501 Y-16.705
X-108.602 Y-16.65
X-108.716 Y-16.642
X-108.751 Y-16.655
X-108.778 Y-16.68
X-108.795 Y-16.714
X-108.798 Y-16.751
X-108.788 Y-16.786
X-108.661 Y-17.032
X-108.638 Y-17.062
X-108.605 Y-17.081
X-108.568 Y-17.087
X-108.531 Y-17.078
X-108.508 Y-17.066
X-108.395 Y-17.008
X-108.343 Y-16.976
X-108.307 Y-16.91
X-108.295 Y-16.835
X-108.326 Y-16.737
X-108.395 Y-16.661
X-108.49 Y-16.621
X-108.592 Y-16.625
X-108.624 Y-16.636
X-108.65 Y-16.657
X-108.667 Y-16.685
X-108.675 Y-16.717
X-108.671 Y-16.751
X-108.657 Y-16.781
X-108.52 Y-16.975
X-108.495 Y-17
X-108.463 Y-17.014
X-108.429 Y-17.017
X-108.395 Y-17.008
X-108.338 Y-16.977
X-108.303 Y-16.956
X-108.268 Y-16.923
X-108.22 Y-16.866
X-108.197 Y-16.795
X-108.225 Y-16.7
X-108.29 Y-16.627
X-108.381 Y-16.589
X-108.479 Y-16.595
X-108.516 Y-16.612
X-108.546 Y-16.638
G3 X-108.268 Y-16.923 I0.147 J-0.134
G1 X-108.191 Y-16.839
X-108.169 Y-16.813
X-108.142 Y-16.781
X-108.12 Y-16.754
X-108.101 Y-16.73
X-108.148 Y-16.624
X-108.244 Y-16.561
X-108.36 Y-16.56
X-108.389 Y-16.577
X-108.409 Y-16.604
X-108.416 Y-16.637
G3 X-108.12 Y-16.754 I0.17 J-0.003
G1 X-108.085 Y-16.712
X-108.067 Y-16.691
X-108.058 Y-16.68
X-108.046 Y-16.656
X-108.043 Y-16.649
X-108.048 Y-16.641
X-108.074 Y-16.615
X-108.108 Y-16.601
X-108.144 Y-16.599
X-108.179 Y-16.61
X-108.729 Y-16.914
X-108.787 Y-16.946
X-108.816 Y-16.97
X-108.834 Y-17.002
X-108.839 Y-17.039
X-108.83 Y-17.075
X-108.808 Y-17.106
X-108.777 Y-17.126
X-108.741 Y-17.134
X-108.704 Y-17.128
G3 X-108.058 Y-16.68 I-0.55 J1.484
G1 X-108.052 Y-16.67
X-108.047 Y-16.659
X-108.043 Y-16.649
X-108.041 Y-16.638
X-108.039 Y-16.628
Y-16.617
X-108.043 Y-16.599
X-108.047 Y-16.585
X-108.052 Y-16.572
X-108.074 Y-16.553
X-108.101 Y-16.543
X-108.13 Y-16.546
X-108.158 Y-16.561
X-108.176 Y-16.586
X-108.182 Y-16.616
X-108.174 Y-16.646
X-108.155 Y-16.67
X-108.127 Y-16.684
X-108.096
X-108.067 Y-16.671
X-108.047 Y-16.647
X-108.039 Y-16.617
X-108.04 Y-16.607
X-108.043 Y-16.596
X-108.046 Y-16.585
X-108.052 Y-16.572
X-108.061 Y-16.56
X-108.085 Y-16.534
X-108.095 Y-16.524
X-108.106 Y-16.517
X-108.116 Y-16.512
X-108.127 Y-16.508
X-108.138 Y-16.506
X-108.148 Y-16.504
X-108.159
X-108.169 Y-16.505
X-108.508 Y-16.603
X-108.592 Y-16.625
X-108.846 Y-16.66
X-108.931 Y-16.671
X-109.015 Y-16.68
X-109.1 Y-16.681
X-109.269 Y-16.656
X-109.607 Y-16.602
X-109.692 Y-16.585
X-109.777 Y-16.563
X-109.861 Y-16.531
X-109.946 Y-16.497
X-110.137 Y-16.416
X-110.2 Y-16.388
X-110.284 Y-16.342
X-110.309 Y-16.333
X-110.335 Y-16.33
X-110.371 Y-16.325
X-110.403 Y-16.306
X-110.902 Y-15.876
X-111.342 Y-15.496
X-111.366 Y-15.465
X-111.377 Y-15.427
X-111.371 Y-15.387
G3 X-111.3 Y-14.605 I-1.491 J0.531
G1 X-111.309 Y-14.558
X-111.322 Y-14.474
X-111.332 Y-14.389
X-111.345 Y-14.315
X-111.425 Y-14.189
X-111.548 Y-14.103
X-111.689 Y-14.052
X-111.838 Y-14.031
X-111.988 Y-14.037
X-112.134 Y-14.068
X-112.203 Y-14.099
X-112.306 Y-14.174
X-112.369 Y-14.284
X-112.38 Y-14.411
X-112.349 Y-14.65
X-112.338 Y-14.682
X-112.318 Y-14.708
X-112.289 Y-14.726
X-112.256 Y-14.734
X-112.223 Y-14.73
X-112.027 Y-14.673
X-111.404 Y-14.494
X-111.373 Y-14.479
X-111.349 Y-14.454
X-111.335 Y-14.423
X-111.332 Y-14.389
X-111.342 Y-14.305
X-111.351 Y-14.22
X-111.353 Y-14.174
X-111.361 Y-14.099
X-111.444 Y-13.975
X-111.566 Y-13.887
X-111.706 Y-13.833
X-111.853 Y-13.806
X-112.003 Y-13.804
X-112.151 Y-13.831
X-112.216 Y-13.856
X-112.321 Y-13.926
X-112.389 Y-14.033
X-112.406 Y-14.158
X-112.399 Y-14.252
X-112.38 Y-14.411
X-112.369 Y-14.442
X-112.349 Y-14.469
X-112.321 Y-14.487
X-112.288 Y-14.495
X-112.255 Y-14.492
X-112.058 Y-14.439
X-111.427 Y-14.272
X-111.397 Y-14.258
X-111.373 Y-14.236
X-111.358 Y-14.207
X-111.353 Y-14.174
X-111.361 Y-14.005
X-111.369 Y-13.93
X-111.427 Y-13.792
X-111.539 Y-13.692
X-111.672 Y-13.624
X-111.817 Y-13.583
X-111.966 Y-13.569
X-112.116 Y-13.582
X-112.26 Y-13.624
X-112.267 Y-13.628
X-112.345 Y-13.693
X-112.397 Y-13.78
X-112.417 Y-13.88
X-112.42 Y-13.967
X-112.406 Y-14.158
X-112.398 Y-14.189
X-112.379 Y-14.216
X-112.354 Y-14.235
X-112.323 Y-14.246
X-112.29
X-112.08 Y-14.21
X-111.445 Y-14.105
X-111.412 Y-14.093
X-111.385 Y-14.071
X-111.367 Y-14.04
X-111.361 Y-14.005
X-111.363 Y-13.967
X-111.361 Y-13.798
X-111.364 Y-13.723
X-111.422 Y-13.585
X-111.53 Y-13.48
X-111.66 Y-13.406
X-111.803 Y-13.359
X-111.951 Y-13.337
X-112.101 Y-13.341
X-112.175 Y-13.358
X-112.287 Y-13.41
X-112.369 Y-13.503
X-112.406 Y-13.621
X-112.413 Y-13.714
X-112.417 Y-13.88
X-112.412 Y-13.913
X-112.396 Y-13.942
X-112.371 Y-13.964
X-112.341 Y-13.977
X-112.307 Y-13.979
X-112.091 Y-13.957
X-111.451 Y-13.893
X-111.417 Y-13.883
X-111.389 Y-13.862
X-111.369 Y-13.833
X-111.361 Y-13.798
X-111.36 Y-13.714
X-111.354 Y-13.583
Y-13.508
X-111.413 Y-13.37
X-111.518 Y-13.263
X-111.646 Y-13.185
X-111.787 Y-13.133
X-111.934 Y-13.105
X-112.084 Y-13.106
X-112.142 Y-13.118
X-112.256 Y-13.166
X-112.34 Y-13.257
X-112.381 Y-13.374
X-112.406 Y-13.621
X-112.402 Y-13.655
X-112.388 Y-13.685
X-112.364 Y-13.709
X-112.334 Y-13.723
X-112.3 Y-13.727
X-112.09 Y-13.714
X-111.448 Y-13.673
X-111.413 Y-13.665
X-111.384 Y-13.645
X-111.364 Y-13.617
X-111.354 Y-13.583
X-111.348 Y-13.46
X-111.341 Y-13.376
X-111.337 Y-13.301
X-111.391 Y-13.161
X-111.492 Y-13.05
X-111.616 Y-12.966
X-111.755 Y-12.908
X-111.901 Y-12.875
X-112.051 Y-12.872
X-112.104 Y-12.881
X-112.221 Y-12.928
X-112.309 Y-13.019
X-112.351 Y-13.138
X-112.381 Y-13.374
X-112.379 Y-13.407
X-112.365 Y-13.438
X-112.342 Y-13.462
X-112.312 Y-13.478
X-112.279 Y-13.483
X-112.082 Y-13.478
X-111.438 Y-13.462
X-111.403 Y-13.455
X-111.374 Y-13.437
X-111.352 Y-13.409
X-111.341 Y-13.376
X-111.324 Y-13.207
X-111.319 Y-13.16
X-111.314 Y-13.086
X-111.366 Y-12.945
X-111.464 Y-12.831
X-111.586 Y-12.744
X-111.723 Y-12.683
X-111.868 Y-12.646
X-112.018 Y-12.64
X-112.07 Y-12.648
X-112.189 Y-12.695
X-112.278 Y-12.786
X-112.321 Y-12.906
X-112.351 Y-13.138
X-112.348 Y-13.171
X-112.335 Y-13.202
X-112.313 Y-13.226
X-112.284 Y-13.242
X-112.251 Y-13.248
X-112.061 Y-13.247
X-111.417 Y-13.245
X-111.383 Y-13.239
X-111.352 Y-13.221
X-111.33 Y-13.194
X-111.319 Y-13.16
X-111.314 Y-13.122
X-111.288 Y-12.991
X-111.276 Y-12.917
X-111.304 Y-12.77
X-111.39 Y-12.647
X-111.504 Y-12.549
X-111.634 Y-12.475
X-111.777 Y-12.428
X-111.925 Y-12.407
X-112.075 Y-12.417
X-112.079 Y-12.419
X-112.173 Y-12.47
X-112.243 Y-12.551
X-112.28 Y-12.651
X-112.303 Y-12.784
X-112.316 Y-12.869
X-112.321 Y-12.906
X-112.317 Y-12.946
X-112.298 Y-12.981
X-112.266 Y-13.005
X-112.228 Y-13.015
X-112.035 Y-13.028
X-111.391 Y-13.068
X-111.356 Y-13.064
X-111.325 Y-13.048
X-111.301 Y-13.023
X-111.288 Y-12.991
X-111.262 Y-12.869
X-111.24 Y-12.784
X-111.225 Y-12.711
X-111.253 Y-12.564
X-111.335 Y-12.438
X-111.445 Y-12.336
X-111.574 Y-12.259
X-111.714 Y-12.205
X-111.861 Y-12.176
X-111.931 Y-12.177
X-112.045 Y-12.201
X-112.141 Y-12.266
X-112.205 Y-12.364
X-112.239 Y-12.447
X-112.246 Y-12.468
X-112.25 Y-12.489
X-112.28 Y-12.651
X-112.279 Y-12.683
X-112.268 Y-12.713
X-112.249 Y-12.738
X-112.222 Y-12.756
X-112.191 Y-12.764
X-111.989 Y-12.786
X-111.347 Y-12.855
X-111.312 Y-12.853
X-111.281 Y-12.839
X-111.256 Y-12.815
X-111.24 Y-12.784
X-111.196 Y-12.616
X-111.182 Y-12.569
X-111.165 Y-12.496
X-111.196 Y-12.35
X-111.277 Y-12.223
X-111.386 Y-12.12
X-111.512 Y-12.039
X-111.65 Y-11.981
X-111.797 Y-11.951
X-111.832 Y-11.95
X-111.949 Y-11.973
X-112.047 Y-12.038
X-112.113 Y-12.137
X-112.205 Y-12.364
X-112.211 Y-12.398
X-112.205 Y-12.432
X-112.187 Y-12.463
X-112.16 Y-12.485
X-112.128 Y-12.497
X-111.929 Y-12.53
X-111.294 Y-12.636
X-111.259
X-111.226 Y-12.623
X-111.199 Y-12.6
X-111.182 Y-12.569
X-111.145 Y-12.447
X-111.13 Y-12.401
X-111.111 Y-12.329
X-111.118 Y-12.179
X-111.186 Y-12.045
X-111.285 Y-11.933
X-111.404 Y-11.842
X-111.538 Y-11.774
X-111.683 Y-11.734
X-111.725 Y-11.731
X-111.841 Y-11.747
X-111.943 Y-11.807
X-112.014 Y-11.901
X-112.032 Y-11.94
X-112.113 Y-12.137
X-112.119 Y-12.17
X-112.114 Y-12.203
X-112.098 Y-12.233
X-112.074 Y-12.255
X-112.043 Y-12.269
X-111.868 Y-12.312
X-111.249 Y-12.465
X-111.212 Y-12.467
X-111.177 Y-12.456
X-111.149 Y-12.433
X-111.13 Y-12.401
X-111.105 Y-12.32
X-111.082 Y-12.278
X-111.062 Y-12.242
X-111.029 Y-12.175
X-111.017 Y-12.025
X-111.071 Y-11.885
X-111.158 Y-11.764
X-111.269 Y-11.662
X-111.397 Y-11.583
X-111.537 Y-11.529
X-111.591 Y-11.521
X-111.714 Y-11.527
X-111.824 Y-11.583
X-111.903 Y-11.679
X-111.992 Y-11.855
X-112.014 Y-11.901
X-112.022 Y-11.934
X-112.019 Y-11.967
X-112.005 Y-11.997
X-111.983 Y-12.021
X-111.953 Y-12.037
X-111.799 Y-12.086
X-111.178 Y-12.286
X-111.145 Y-12.29
X-111.112 Y-12.284
X-111.084 Y-12.267
X-111.062 Y-12.242
X-110.986 Y-12.109
X-110.961 Y-12.067
X-110.926 Y-12.001
X-110.913 Y-11.851
X-110.96 Y-11.709
X-111.041 Y-11.583
X-111.147 Y-11.476
X-111.269 Y-11.389
X-111.406 Y-11.328
X-111.459 Y-11.317
X-111.585
X-111.7 Y-11.369
X-111.783 Y-11.464
X-111.892 Y-11.657
X-111.903 Y-11.679
X-111.912 Y-11.71
X-111.91 Y-11.743
X-111.898 Y-11.774
X-111.877 Y-11.799
X-111.848 Y-11.815
X-111.688 Y-11.876
X-111.08 Y-12.106
X-111.047 Y-12.112
X-111.014 Y-12.107
X-110.984 Y-12.091
X-110.961 Y-12.067
X-110.852 Y-11.888
X-110.817 Y-11.822
X-110.802 Y-11.673
X-110.845 Y-11.529
X-110.921 Y-11.4
X-111.022 Y-11.288
X-111.14 Y-11.197
X-111.275 Y-11.131
X-111.334 Y-11.117
X-111.439 Y-11.109
X-111.54 Y-11.138
X-111.625 Y-11.2
X-111.644 Y-11.234
X-111.65 Y-11.272
X-111.641 Y-11.309
X-111.618 Y-11.34
X-111.454 Y-11.492
X-111.004 Y-11.906
X-110.975 Y-11.925
X-110.941 Y-11.933
X-110.907 Y-11.929
X-110.876 Y-11.913
X-110.852 Y-11.888
X-110.781 Y-11.771
X-110.764 Y-11.748
X-110.722 Y-11.686
X-110.678 Y-11.542
X-110.703 Y-11.394
X-110.766 Y-11.258
X-110.856 Y-11.137
X-110.966 Y-11.036
X-111.093 Y-10.957
X-111.124 Y-10.945
X-111.236 Y-10.927
X-111.348 Y-10.951
X-111.442 Y-11.015
X-111.461 Y-11.046
X-111.468 Y-11.082
X-111.462 Y-11.118
X-111.444 Y-11.149
X-111.319 Y-11.291
X-110.917 Y-11.751
X-110.89 Y-11.772
X-110.857 Y-11.784
X-110.822 Y-11.783
X-110.79 Y-11.77
X-110.764 Y-11.748
X-110.749 Y-11.729
X-110.714 Y-11.686
X-110.634 Y-11.602
X-110.585 Y-11.545
X-110.54 Y-11.402
X-110.556 Y-11.253
X-110.61 Y-11.113
X-110.692 Y-10.987
X-110.794 Y-10.877
X-110.917 Y-10.791
X-110.942 Y-10.78
X-111.058 Y-10.756
X-111.174 Y-10.779
X-111.272 Y-10.845
X-111.605 Y-11.18
X-111.638 Y-11.214
X-111.657 Y-11.239
X-111.783 Y-11.464
X-111.793 Y-11.496
X-111.792 Y-11.529
X-111.78 Y-11.561
X-111.758 Y-11.586
X-111.729 Y-11.603
X-111.696 Y-11.61
X-111.412 Y-11.616
X-110.706 Y-11.631
X-110.667 Y-11.624
X-110.634 Y-11.602
X-110.538 Y-11.501
X-110.49 Y-11.454
X-110.439 Y-11.399
X-110.393 Y-11.257
X-110.404 Y-11.107
X-110.452 Y-10.965
X-110.527 Y-10.835
X-110.624 Y-10.72
X-110.688 Y-10.672
X-110.8 Y-10.619
X-110.924 Y-10.617
X-111.039 Y-10.665
X-111.064 Y-10.693
X-111.078 Y-10.728
X-111.077 Y-10.766
X-111.063 Y-10.801
X-110.98 Y-10.925
X-110.641 Y-11.436
X-110.617 Y-11.461
X-110.587 Y-11.476
X-110.553 Y-11.48
X-110.519 Y-11.473
X-110.49 Y-11.454
X-110.454 Y-11.419
X-110.369 Y-11.343
X-110.316 Y-11.29
X-110.243 Y-11.159
X-110.236 Y-11.009
X-110.268 Y-10.862
X-110.33 Y-10.726
X-110.419 Y-10.605
X-110.475 Y-10.554
X-110.591 Y-10.49
X-110.723 Y-10.482
X-110.845 Y-10.531
X-110.869 Y-10.557
X-110.883 Y-10.589
X-110.885 Y-10.625
X-110.874 Y-10.659
X-110.809 Y-10.778
X-110.521 Y-11.313
X-110.499 Y-11.341
X-110.469 Y-11.359
X-110.434 Y-11.366
X-110.4 Y-11.36
X-110.369 Y-11.343
X-110.337 Y-11.314
X-110.327 Y-11.307
X-110.225 Y-11.246
X-110.162 Y-11.205
X-110.079 Y-11.08
X-110.056 Y-10.932
X-110.074 Y-10.783
X-110.123 Y-10.641
X-110.2 Y-10.513
X-110.23 Y-10.481
X-110.318 Y-10.416
X-110.425 Y-10.388
X-110.534 Y-10.4
X-110.568 Y-10.419
X-110.592 Y-10.45
X-110.602 Y-10.488
X-110.596 Y-10.527
X-110.567 Y-10.612
X-110.367 Y-11.19
X-110.35 Y-11.22
X-110.324 Y-11.243
X-110.292 Y-11.256
X-110.258 Y-11.257
X-110.225 Y-11.246
X-110.2 Y-11.231
X-110.075 Y-11.18
X-110.008 Y-11.148
X-109.909 Y-11.034
X-109.869 Y-10.89
Y-10.74
X-109.902 Y-10.594
X-109.965 Y-10.457
X-109.983 Y-10.434
X-110.065 Y-10.362
X-110.167 Y-10.323
X-110.276
X-110.312 Y-10.339
X-110.339 Y-10.367
X-110.353 Y-10.403
X-110.352 Y-10.442
X-110.338 Y-10.507
X-110.208 Y-11.107
X-110.195 Y-11.139
X-110.172 Y-11.164
X-110.143 Y-11.181
X-110.109 Y-11.186
X-110.075 Y-11.18
X-109.946 Y-11.126
X-109.9 Y-11.109
X-109.831 Y-11.08
X-109.727 Y-10.972
X-109.677 Y-10.83
X-109.667 Y-10.68
X-109.69 Y-10.532
X-109.718 Y-10.464
X-109.795 Y-10.356
X-109.91 Y-10.292
X-110.042 Y-10.284
X-110.077 Y-10.298
X-110.104 Y-10.324
X-110.12 Y-10.359
X-110.122 Y-10.396
X-110.118 Y-10.424
X-110.03 Y-11.028
X-110.019 Y-11.061
X-109.998 Y-11.089
X-109.968 Y-11.107
X-109.934 Y-11.114
X-109.9 Y-11.109
X-109.777 Y-11.065
X-109.73 Y-11.052
X-109.659 Y-11.028
X-109.545 Y-10.931
X-109.483 Y-10.794
X-109.46 Y-10.646
X-109.478 Y-10.497
X-109.495 Y-10.45
X-109.567 Y-10.338
X-109.68 Y-10.268
X-109.812 Y-10.254
X-109.847 Y-10.266
X-109.875 Y-10.29
X-109.893 Y-10.323
X-109.897 Y-10.36
X-109.854 Y-10.962
X-109.845 Y-10.996
X-109.826 Y-11.024
X-109.798 Y-11.045
X-109.765 Y-11.054
X-109.73 Y-11.052
X-109.692 Y-11.041
X-109.607 Y-11.026
X-109.561 Y-11.018
X-109.488 Y-11.002
X-109.364 Y-10.918
X-109.289 Y-10.788
X-109.255 Y-10.642
X-109.262 Y-10.492
X-109.277 Y-10.443
X-109.343 Y-10.327
X-109.453 Y-10.251
X-109.584 Y-10.23
X-109.619 Y-10.24
X-109.648 Y-10.262
X-109.668 Y-10.293
X-109.674 Y-10.329
Y-10.919
X-109.668 Y-10.952
X-109.652 Y-10.982
X-109.626 Y-11.004
X-109.595 Y-11.017
X-109.561 Y-11.018
X-109.354 Y-10.984
X-109.28 Y-10.968
X-109.159 Y-10.88
X-109.084 Y-10.75
X-109.049 Y-10.604
X-109.058 Y-10.454
X-109.06 Y-10.45
X-109.115 Y-10.349
X-109.203 Y-10.276
X-109.313 Y-10.242
X-109.351 Y-10.247
X-109.385 Y-10.266
X-109.409 Y-10.296
X-109.42 Y-10.334
X-109.466 Y-10.876
X-109.463 Y-10.912
X-109.447 Y-10.944
X-109.422 Y-10.968
X-109.389 Y-10.982
X-109.354 Y-10.984
X-109.269 Y-10.97
X-109.184 Y-10.958
X-109.111 Y-10.944
X-108.977 Y-10.875
X-108.891 Y-10.753
X-108.847 Y-10.61
Y-10.558
X-108.877 Y-10.434
X-108.956 Y-10.333
X-109.07 Y-10.274
X-109.11 Y-10.273
X-109.146 Y-10.287
X-109.175 Y-10.314
X-109.19 Y-10.351
X-109.293 Y-10.838
Y-10.875
X-109.28 Y-10.91
X-109.255 Y-10.938
X-109.222 Y-10.955
X-109.184 Y-10.958
X-109.121 Y-10.949
X-109.11 Y-10.948
X-109.015 Y-10.956
X-108.94 Y-10.958
X-108.801 Y-10.901
X-108.704 Y-10.787
X-108.656 Y-10.645
X-108.655 Y-10.628
X-108.679 Y-10.497
X-108.758 Y-10.389
X-108.876 Y-10.326
X-108.915 Y-10.325
X-108.951 Y-10.339
X-108.979 Y-10.365
X-108.996 Y-10.4
X-109.101 Y-10.833
X-109.103 Y-10.866
X-109.094 Y-10.899
X-109.075 Y-10.927
X-109.048 Y-10.946
X-109.015 Y-10.956
X-108.846 Y-10.97
X-108.771 Y-10.977
X-108.699 Y-10.956
X-108.573 Y-10.875
X-108.552 Y-10.843
X-108.509 Y-10.734
X-108.511 Y-10.616
X-108.557 Y-10.508
X-108.642 Y-10.427
X-108.674 Y-10.414
X-108.709
X-108.742 Y-10.426
X-108.769 Y-10.447
X-108.786 Y-10.477
X-108.923 Y-10.836
X-108.929 Y-10.871
X-108.923 Y-10.905
X-108.906 Y-10.936
X-108.879 Y-10.958
X-108.846 Y-10.97
X-108.63 Y-11
X-108.593 Y-11.003
X-108.522 Y-10.979
X-108.399 Y-10.893
X-108.367 Y-10.76
X-108.401 Y-10.626
X-108.492 Y-10.524
X-108.528 Y-10.51
X-108.566
X-108.601 Y-10.524
X-108.628 Y-10.551
X-108.643 Y-10.586
X-108.711 Y-10.879
X-108.713 Y-10.911
X-108.704 Y-10.942
X-108.687 Y-10.969
X-108.661 Y-10.989
X-108.63 Y-11
X-108.592 Y-11.005
X-108.563 Y-11.011
X-108.532 Y-11.019
X-108.459 Y-11.037
X-108.385 Y-11.024
X-108.303 Y-10.932
X-108.272 Y-10.812
X-108.302 Y-10.691
X-108.384 Y-10.599
X-108.418 Y-10.585
X-108.456 Y-10.584
X-108.491 Y-10.598
X-108.518 Y-10.624
X-108.534 Y-10.657
X-108.598 Y-10.899
X-108.601 Y-10.936
X-108.589 Y-10.972
X-108.565 Y-11.001
X-108.532 Y-11.019
X-108.377 Y-11.065
X-108.34 Y-11.073
X-108.268 Y-11.051
X-108.2 Y-10.965
X-108.179 Y-10.857
X-108.207 Y-10.751
X-108.281 Y-10.67
X-108.313 Y-10.656
X-108.347 Y-10.655
X-108.38 Y-10.665
X-108.408 Y-10.686
X-108.427 Y-10.715
X-108.435 Y-10.749
X-108.445 Y-10.965
X-108.442 Y-10.997
X-108.428 Y-11.026
X-108.405 Y-11.05
X-108.377 Y-11.065
X-108.271 Y-11.095
X-108.254 Y-11.1
X-108.207 Y-11.115
X-108.175 Y-11.124
X-108.104 Y-11.024
X-108.093 Y-10.903
X-108.144 Y-10.792
X-108.169 Y-10.773
X-108.201 Y-10.764
X-108.233 Y-10.767
X-108.262 Y-10.782
G3 X-108.207 Y-11.115 I0.12 J-0.151
G1 X-108.169 Y-11.127
X-108.127 Y-11.145
X-108.116 Y-11.148
X-108.092 Y-11.151
X-108.085
X-108.058 Y-11.139
X-108.039 Y-11.117
X-108.031 Y-11.089
X-108.036 Y-11.061
X-108.054 Y-11.037
X-108.08 Y-11.024
X-108.109 Y-11.023
X-108.135 Y-11.036
X-108.154 Y-11.058
X-108.16 Y-11.086
X-108.154 Y-11.115
X-108.139 Y-11.135
X-108.116 Y-11.148
X-108.106 Y-11.15
X-108.095 Y-11.151
X-108.085
X-108.074 Y-11.149
X-108.064 Y-11.147
X-108.053 Y-11.143
X-108.03 Y-11.129
X-108.017 Y-11.107
X-108.014 Y-11.083
X-108.022 Y-11.059
X-108.042 Y-11.039
X-108.069 Y-11.031
X-108.097 Y-11.038
X-108.118 Y-11.056
X-108.128 Y-11.082
X-108.124 Y-11.11
X-108.107 Y-11.133
X-108.081 Y-11.145
X-108.053 Y-11.143
X-108.043 Y-11.137
X-108.03 Y-11.129
X-108.017 Y-11.116
X-108.001 Y-11.095
X-108 Y-11.094
X-107.988 Y-11.07
X-107.985 Y-11.063
X-107.986 Y-11.03
X-108 Y-11.001
X-108.026 Y-10.981
X-108.058 Y-10.973
X-108.091 Y-10.981
X-108.117 Y-11.001
X-108.131 Y-11.031
Y-11.064
X-108.117 Y-11.094
X-108.091 Y-11.115
X-108.058 Y-11.122
X-108.026 Y-11.115
X-108 Y-11.094
X-107.993 Y-11.084
X-107.989 Y-11.073
X-107.985 Y-11.063
X-107.983 Y-11.052
X-107.981 Y-11.042
Y-11.032
X-107.982 Y-11.021
X-107.984 Y-11.011
X-107.99 Y-10.994
X-108 Y-10.977
X-108.085 Y-10.864
X-108.173 Y-10.757
X-108.202 Y-10.726
X-108.213 Y-10.717
X-108.522 Y-10.504
X-108.653 Y-10.419
X-108.677 Y-10.406
X-108.761 Y-10.36
X-108.846 Y-10.335
X-109.1 Y-10.266
X-109.354 Y-10.238
X-109.438 Y-10.231
X-109.523 Y-10.226
X-109.607 Y-10.231
X-109.692 Y-10.24
X-109.946 Y-10.27
X-110.031 Y-10.282
X-110.2 Y-10.309
X-110.284 Y-10.325
X-110.707 Y-10.452
X-110.75 Y-10.467
X-110.806 Y-10.504
X-111.172 Y-10.757
X-111.215 Y-10.788
X-111.272 Y-10.845
X-111.289 Y-10.868
X-111.298 Y-10.895
X-111.299 Y-10.913 Z-0.988
X-111.286 Y-10.942 Z-0.976
X-111.276 Y-10.965 Z-0.953
X-111.269 Y-10.981 Z-0.924
X-111.267 Y-10.986 Z-0.89
G0 Z2
X-106.742 Y-15.681
Z0.5
G3 X-106.258 Y-15.805 Z0.29 I0.242 J-0.062 F333.3
X-106.742 Y-15.681 Z0.079 I-0.242 J0.062
X-106.258 Y-15.805 Z-0.131 I0.242 J-0.062
X-106.742 Y-15.681 Z-0.342 I-0.242 J0.062
X-106.258 Y-15.805 Z-0.552 I0.242 J-0.062
X-106.742 Y-15.681 Z-0.763 I-0.242 J0.062
X-106.531 Y-15.991 Z-0.876 I0.242 J-0.062
X-106.25 Y-15.743 Z-0.99 I0.031 J0.248
X-106.75 I-0.25
X-106.25 I0.25
G1 X-106.213 Y-15.598 F1000
X-106.226 Y-15.524
X-106.263 Y-15.459
X-106.37 Y-15.353
X-106.514 Y-15.314
X-106.663 Y-15.335
X-106.793 Y-15.409
X-106.89 Y-15.524
X-106.942 Y-15.664
X-106.944 Y-15.814
X-106.896 Y-15.957
X-106.805 Y-16.075
X-106.679 Y-16.157
X-106.533 Y-16.193
X-106.384 Y-16.179
X-106.247 Y-16.117
X-106.139 Y-16.013
X-106.061 Y-15.885
X-106.01 Y-15.744
X-106 Y-15.594
X-106.035 Y-15.448
X-106.106 Y-15.316
X-106.214 Y-15.212
X-106.345 Y-15.139
X-106.491 Y-15.106
X-106.641 Y-15.113
X-106.785 Y-15.154
X-106.915 Y-15.23
X-107.021 Y-15.335
X-107.103 Y-15.461
X-107.153 Y-15.602
X-107.167 Y-15.752
X-107.151 Y-15.901
X-107.1 Y-16.042
X-107.018 Y-16.167
X-106.911 Y-16.273
X-106.784 Y-16.352
X-106.641 Y-16.398
X-106.492 Y-16.414
X-106.343 Y-16.396
X-106.203 Y-16.344
X-106.076 Y-16.264
X-105.967 Y-16.16
X-105.88 Y-16.038
X-105.85 Y-15.973
X-105.834 Y-15.933
X-105.825 Y-15.891
X-105.822 Y-15.848
Y-15.61
X-105.83 Y-15.46
X-105.866 Y-15.315
X-105.938 Y-15.183
X-106.037 Y-15.07
X-106.158 Y-14.982
X-106.294 Y-14.918
X-106.44 Y-14.883
X-106.59 Y-14.876
X-106.738 Y-14.897
X-106.759 Y-14.904
X-106.837 Y-14.942
X-106.902 Y-15.002
X-106.946 Y-15.077
X-107.043 Y-15.318
X-107.069 Y-15.371
X-107.177 Y-15.572
X-107.239 Y-15.68
X-107.259 Y-15.713
X-107.275 Y-15.741
X-107.29 Y-15.765
X-107.325 Y-15.831
Y-15.841
X-107.306 Y-15.956
X-107.244 Y-16.055
X-107.149 Y-16.123
X-107.11 Y-16.13
X-107.071 Y-16.122
X-107.039 Y-16.1
X-107.018 Y-16.067
X-107.011 Y-16.028
X-107.02 Y-15.99
X-107.114 Y-15.778
X-107.135 Y-15.749
X-107.164 Y-15.729
X-107.198 Y-15.72
X-107.233 Y-15.723
X-107.265 Y-15.739
X-107.29 Y-15.765
X-107.326 Y-15.825
X-107.378 Y-15.91
X-107.393 Y-15.931
X-107.398 Y-15.941
X-107.402 Y-15.952
X-107.404 Y-15.962
X-107.405 Y-15.973
Y-15.984
X-107.404 Y-15.994
X-107.402 Y-16.005
X-107.399 Y-16.015
X-107.394 Y-16.026
X-107.387 Y-16.036
X-107.377 Y-16.049
X-107.364 Y-16.062
X-107.352 Y-16.072
X-107.34 Y-16.079
X-107.323 Y-16.085
X-107.239 Y-16.097
X-107.196 Y-16.107
X-107.154 Y-16.121
X-107.061 Y-16.163
X-107.023 Y-16.189
X-106.985 Y-16.218
X-106.952 Y-16.248
X-106.923 Y-16.277
X-106.9 Y-16.307
X-106.882 Y-16.332
X-106.856 Y-16.374
X-106.835 Y-16.416
X-106.801 Y-16.483
X-106.679 Y-16.57
X-106.535 Y-16.614
X-106.385 Y-16.62
X-106.237 Y-16.596
X-106.096 Y-16.547
X-105.965 Y-16.473
X-105.934 Y-16.449
X-105.874 Y-16.383
X-105.835 Y-16.303
X-105.822 Y-16.215
Y-15.848
X-105.829 Y-15.814
X-105.848 Y-15.784
X-105.876 Y-15.763
X-105.909 Y-15.752
X-105.944 Y-15.754
X-105.977 Y-15.768
X-106.249 Y-15.944
X-106.795 Y-16.299
X-106.82 Y-16.322
X-106.835 Y-16.351
X-106.841 Y-16.384
X-106.835 Y-16.416
X-106.816 Y-16.465
X-106.806 Y-16.501
X-106.797 Y-16.547
X-106.78 Y-16.62
X-106.685 Y-16.736
X-106.551 Y-16.803
X-106.403 Y-16.832
X-106.253 Y-16.829
X-106.106 Y-16.799
X-106.018 Y-16.766
X-105.915 Y-16.702
X-105.846 Y-16.603
X-105.822 Y-16.485
Y-16.215
X-105.831 Y-16.178
X-105.853 Y-16.147
X-105.885 Y-16.126
X-105.922 Y-16.118
X-105.96 Y-16.126
X-106.132 Y-16.195
X-106.736 Y-16.44
X-106.764 Y-16.457
X-106.785 Y-16.483
X-106.797 Y-16.514
Y-16.547
X-106.79 Y-16.585
X-106.788 Y-16.67
Y-16.716
X-106.786 Y-16.754
X-106.721 Y-16.889
X-106.602 Y-16.98
X-106.461 Y-17.033
X-106.313 Y-17.054
X-106.163 Y-17.048
X-106.017 Y-17.014
X-105.997 Y-17.005
X-105.905 Y-16.939
X-105.844 Y-16.844
X-105.822 Y-16.732
Y-16.485
X-105.83 Y-16.449
X-105.85 Y-16.419
X-105.88 Y-16.398
X-105.915 Y-16.389
X-105.951 Y-16.393
X-106.084 Y-16.433
X-106.717 Y-16.624
X-106.744 Y-16.638
X-106.767 Y-16.659
X-106.782 Y-16.686
X-106.788 Y-16.716
Y-16.885
X-106.784 Y-16.96
X-106.714 Y-17.093
X-106.597 Y-17.187
X-106.459 Y-17.246
X-106.313 Y-17.277
X-106.163 Y-17.281
X-106.015 Y-17.252
X-106.003 Y-17.246
X-105.908 Y-17.181
X-105.844 Y-17.085
X-105.822 Y-16.971
Y-16.732
X-105.829 Y-16.699
X-105.847 Y-16.669
X-105.875 Y-16.648
X-105.907 Y-16.637
X-105.942 Y-16.638
X-106.068 Y-16.663
X-106.707 Y-16.791
X-106.738 Y-16.803
X-106.764 Y-16.824
X-106.781 Y-16.853
X-106.788 Y-16.885
Y-17.092
X-106.785 Y-17.167
X-106.715 Y-17.3
X-106.601 Y-17.397
X-106.466 Y-17.463
X-106.321 Y-17.501
X-106.171 Y-17.512
X-106.023 Y-17.488
X-106.009 Y-17.482
X-105.911 Y-17.417
X-105.845 Y-17.32
X-105.822 Y-17.204
Y-16.971
X-105.829 Y-16.938
X-105.846 Y-16.909
X-105.872 Y-16.888
X-105.904 Y-16.876
X-105.938
X-106.063 Y-16.896
X-106.704 Y-16.998
X-106.736 Y-17.009
X-106.763 Y-17.03
X-106.781 Y-17.059
X-106.788 Y-17.092
X-106.79 Y-17.308
X-106.786 Y-17.383
X-106.716 Y-17.515
X-106.604 Y-17.615
X-106.471 Y-17.684
X-106.327 Y-17.726
X-106.178 Y-17.741
X-106.029 Y-17.72
X-106.016 Y-17.715
X-105.917 Y-17.652
X-105.85 Y-17.556
X-105.824 Y-17.442
X-105.822 Y-17.346
Y-17.204
X-105.829 Y-17.172
X-105.846 Y-17.143
X-105.871 Y-17.122
X-105.902 Y-17.11
X-105.936 Y-17.109
X-106.063 Y-17.126
X-106.703 Y-17.213
X-106.736 Y-17.223
X-106.764 Y-17.245
X-106.782 Y-17.274
X-106.79 Y-17.308
X-106.792 Y-17.477
X-106.79 Y-17.552
X-106.749 Y-17.696
X-106.648 Y-17.807
X-106.523 Y-17.889
X-106.383 Y-17.943
X-106.235 Y-17.968
X-106.12 Y-17.963
X-105.98 Y-17.922
X-105.877 Y-17.821
X-105.832 Y-17.684
X-105.828 Y-17.599
X-105.824 Y-17.442
X-105.83 Y-17.41
X-105.845 Y-17.382
X-105.868 Y-17.36
X-105.897 Y-17.347
X-105.929 Y-17.343
X-106.06 Y-17.35
X-106.698 Y-17.382
X-106.733 Y-17.391
X-106.763 Y-17.411
X-106.784 Y-17.441
X-106.792 Y-17.477
X-106.795 Y-17.599
X-106.8 Y-17.683
X-106.804 Y-17.73
X-106.806 Y-17.805
X-106.744 Y-17.942
X-106.639 Y-18.049
X-106.51 Y-18.126
X-106.368 Y-18.175
X-106.22 Y-18.194
X-106.07 Y-18.185
X-106.048 Y-18.177
X-105.948 Y-18.119
X-105.878 Y-18.027
X-105.848 Y-17.915
X-105.832 Y-17.684
X-105.837 Y-17.65
X-105.852 Y-17.621
X-105.876 Y-17.597
X-105.907 Y-17.584
X-105.94 Y-17.581
X-106.067 Y-17.591
X-106.712 Y-17.642
X-106.745 Y-17.65
X-106.774 Y-17.669
X-106.794 Y-17.697
X-106.804 Y-17.73
X-106.816 Y-17.881
X-106.819 Y-17.912
X-106.824 Y-17.987
X-106.782 Y-18.131
X-106.685 Y-18.245
X-106.562 Y-18.331
X-106.424 Y-18.39
X-106.277 Y-18.421
X-106.127
X-106.095 Y-18.414
X-105.983 Y-18.36
X-105.902 Y-18.265
X-105.866 Y-18.146
X-105.848 Y-17.915
X-105.852 Y-17.883
X-105.866 Y-17.854
X-105.889 Y-17.831
X-105.918 Y-17.816
X-105.95 Y-17.812
X-106.077 Y-17.814
X-106.722 Y-17.827
X-106.756 Y-17.833
X-106.786 Y-17.851
X-106.808 Y-17.879
X-106.819 Y-17.912
X-106.845 Y-18.106
X-106.852 Y-18.18
X-106.82 Y-18.327
X-106.73 Y-18.447
X-106.611 Y-18.539
X-106.477 Y-18.606
X-106.332 Y-18.645
X-106.182 Y-18.653
X-106.137 Y-18.645
X-106.019 Y-18.596
X-105.932 Y-18.503
X-105.891 Y-18.383
X-105.87 Y-18.19
X-105.866 Y-18.146
X-105.872 Y-18.107
X-105.893 Y-18.073
X-105.925 Y-18.05
X-105.964 Y-18.042
X-106.1 Y-18.038
X-106.744 Y-18.024
X-106.779 Y-18.029
X-106.81 Y-18.046
X-106.833 Y-18.073
X-106.845 Y-18.106
X-106.857 Y-18.19
X-106.885 Y-18.321
X-106.897 Y-18.395
X-106.86 Y-18.54
X-106.771 Y-18.661
X-106.655 Y-18.756
X-106.522 Y-18.826
X-106.378 Y-18.87
X-106.229 Y-18.881
X-106.198 Y-18.876
X-106.091 Y-18.841
X-106.006 Y-18.768
X-105.952 Y-18.67
X-105.934 Y-18.613
X-105.909 Y-18.528
X-105.894 Y-18.41
X-105.891 Y-18.383
X-105.894 Y-18.351
X-105.906 Y-18.321
X-105.928 Y-18.297
X-105.955 Y-18.281
X-105.987 Y-18.275
X-106.136 Y-18.269
X-106.785 Y-18.246
X-106.818 Y-18.25
X-106.848 Y-18.266
X-106.872 Y-18.29
X-106.885 Y-18.321
X-106.912 Y-18.444
X-106.924 Y-18.49
X-106.94 Y-18.563
X-106.928 Y-18.713
X-106.852 Y-18.842
X-106.744 Y-18.947
X-106.618 Y-19.028
X-106.478 Y-19.082
X-106.33 Y-19.107
X-106.303 Y-19.106
X-106.191 Y-19.079
X-106.098 Y-19.011
X-106.037 Y-18.913
X-105.988 Y-18.782
X-105.952 Y-18.67
X-105.949 Y-18.637
X-105.957 Y-18.604
X-105.975 Y-18.576
X-106.001 Y-18.555
X-106.033 Y-18.544
X-106.178 Y-18.521
X-106.813 Y-18.421
X-106.848
X-106.881 Y-18.435
X-106.908 Y-18.458
X-106.924 Y-18.49
X-106.958 Y-18.613
X-106.984 Y-18.697
X-107.003 Y-18.77
X-106.987 Y-18.919
X-106.914 Y-19.05
X-106.809 Y-19.157
X-106.685 Y-19.241
X-106.547 Y-19.301
X-106.4 Y-19.327
X-106.389
X-106.278 Y-19.3
X-106.186 Y-19.234
X-106.124 Y-19.138
X-106.052 Y-18.95
X-106.037 Y-18.913
X-106.032 Y-18.88
X-106.038 Y-18.846
X-106.055 Y-18.817
X-106.081 Y-18.795
X-106.113 Y-18.783
X-106.24 Y-18.757
X-106.871 Y-18.633
X-106.906 Y-18.632
X-106.939 Y-18.644
X-106.967 Y-18.666
X-106.984 Y-18.697
X-107.055 Y-18.912
X-107.076 Y-18.985
X-107.053 Y-19.133
X-106.979 Y-19.264
X-106.875 Y-19.372
X-106.752 Y-19.457
X-106.615 Y-19.518
X-106.466 Y-19.544
X-106.401 Y-19.533
X-106.34 Y-19.507
X-106.286 Y-19.469
X-106.273 Y-19.457
X-106.256 Y-19.439
X-106.242 Y-19.42
X-106.232 Y-19.402
X-106.219 Y-19.373
X-106.184 Y-19.288
X-106.124 Y-19.138
X-106.118 Y-19.105
X-106.124 Y-19.071
X-106.14 Y-19.042
X-106.166 Y-19.019
X-106.198 Y-19.007
X-106.312 Y-18.982
X-106.941 Y-18.85
X-106.976 Y-18.848
X-107.01 Y-18.86
X-107.037 Y-18.882
X-107.055 Y-18.912
X-107.069 Y-18.954
X-107.102 Y-19.035
X-107.125 Y-19.075
X-107.144 Y-19.107
X-107.162 Y-19.256
X-107.112 Y-19.397
X-107.025 Y-19.519
X-106.913 Y-19.62
X-106.784 Y-19.696
X-106.781 Y-19.697
X-106.675 Y-19.716
X-106.57 Y-19.696
X-106.478 Y-19.64
X-106.286 Y-19.469
X-106.266 Y-19.442
X-106.256 Y-19.41
X-106.257 Y-19.377
X-106.269 Y-19.346
X-106.291 Y-19.32
X-106.32 Y-19.303
X-106.395 Y-19.275
X-107.011 Y-19.043
X-107.042 Y-19.036
X-107.073 Y-19.04
X-107.102 Y-19.053
X-107.125 Y-19.075
X-107.158 Y-19.119
X-107.228 Y-19.204
X-107.25 Y-19.234
X-107.286 Y-19.379
X-107.253 Y-19.526
X-107.181 Y-19.657
X-107.082 Y-19.77
X-107.021 Y-19.813
X-106.898 Y-19.863
X-106.765 Y-19.856
X-106.648 Y-19.792
X-106.478 Y-19.64
X-106.456 Y-19.609
X-106.447 Y-19.571
X-106.453 Y-19.534
X-106.472 Y-19.501
X-106.503 Y-19.478
X-106.52 Y-19.469
X-107.11 Y-19.181
X-107.14 Y-19.172
X-107.172 Y-19.173
X-107.202 Y-19.184
X-107.228 Y-19.204
X-107.323 Y-19.316
X-107.369 Y-19.375
X-107.415 Y-19.518
