%
(116-118)
(T1  D=1 CR=0 - ZMIN=-2 - flat end mill)
G90 G94
G17
G21
G28 G91 Z0
G90

(Clear 20)
M9
T1 M6
S5000 M3
G54
M8
G0 X-70.559 Y-16.751
Z12
Z2
Z0.5
G3 X-70.075 Y-16.875 Z0.29 I0.242 J-0.062 F333.3
X-70.559 Y-16.751 Z0.079 I-0.242 J0.062
X-70.075 Y-16.875 Z-0.131 I0.242 J-0.062
X-70.559 Y-16.751 Z-0.342 I-0.242 J0.062
X-70.075 Y-16.875 Z-0.552 I0.242 J-0.062
X-70.559 Y-16.751 Z-0.763 I-0.242 J0.062
X-70.349 Y-17.061 Z-0.876 I0.242 J-0.062
X-70.067 Y-16.813 Z-0.99 I0.031 J0.248
X-70.567 I-0.25
X-70.067 I0.25
G1 X-70.03 Y-16.668 F1000
X-70.043 Y-16.594
X-70.08 Y-16.529
X-70.187 Y-16.423
X-70.332 Y-16.384
X-70.48 Y-16.405
X-70.611 Y-16.479
X-70.707 Y-16.594
X-70.759 Y-16.734
X-70.761 Y-16.884
X-70.714 Y-17.027
X-70.622 Y-17.145
X-70.496 Y-17.227
X-70.35 Y-17.263
X-70.201 Y-17.249
X-70.065 Y-17.187
X-69.956 Y-17.083
X-69.878 Y-16.955
X-69.828 Y-16.814
X-69.817 Y-16.664
X-69.852 Y-16.518
X-69.923 Y-16.386
X-70.031 Y-16.282
X-70.162 Y-16.209
X-70.308 Y-16.176
X-70.458 Y-16.183
X-70.603 Y-16.224
X-70.732 Y-16.3
X-70.839 Y-16.405
X-70.92 Y-16.531
X-70.97 Y-16.672
X-70.985 Y-16.822
X-70.968 Y-16.971
X-70.918 Y-17.112
X-70.835 Y-17.237
X-70.729 Y-17.343
X-70.601 Y-17.422
X-70.459 Y-17.468
X-70.309 Y-17.484
X-70.16 Y-17.466
X-70.02 Y-17.414
X-69.893 Y-17.334
X-69.785 Y-17.23
X-69.697 Y-17.108
X-69.634 Y-16.972
X-69.596 Y-16.827
X-69.588 Y-16.677
X-69.605 Y-16.614
X-69.636 Y-16.556
X-69.679 Y-16.506
X-69.685 Y-16.501
X-69.728 Y-16.454
X-69.756 Y-16.416
X-69.781 Y-16.374
X-69.801 Y-16.332
X-69.813 Y-16.302
X-69.869 Y-16.163
X-69.983 Y-16.066
X-70.116 Y-15.996
X-70.261 Y-15.958
X-70.411 Y-15.95
X-70.559 Y-15.97
X-70.702 Y-16.016
X-70.834 Y-16.088
X-70.894 Y-16.137
X-70.954 Y-16.202
X-70.992 Y-16.282
X-71.005 Y-16.37
Y-17.139
Y-17.177
Y-17.223
X-71.001 Y-17.298
X-70.972 Y-17.35
X-70.905 Y-17.43
X-70.814 Y-17.483
X-70.711 Y-17.501
X-70.673 Y-17.492
X-70.641 Y-17.469
X-70.621 Y-17.436
X-70.615 Y-17.397
X-70.624 Y-17.359
X-70.647 Y-17.327
X-70.837 Y-17.153
X-70.87 Y-17.133
X-70.907 Y-17.127
X-70.944 Y-17.134
X-70.975 Y-17.155
X-70.997 Y-17.186
X-71.005 Y-17.223
Y-17.387
Y-17.397
X-71.003 Y-17.408
X-71.001 Y-17.418
X-70.996 Y-17.43
X-70.989 Y-17.443
X-70.979 Y-17.455
X-70.968 Y-17.468
X-70.954 Y-17.481
X-70.944 Y-17.488
X-70.933 Y-17.493
X-70.923 Y-17.497
X-70.912 Y-17.499
X-70.902 Y-17.501
X-69.982
X-69.832 Y-17.494
X-69.699 Y-17.424
X-69.586 Y-17.326
X-69.494 Y-17.207
X-69.423 Y-17.075
X-69.376 Y-16.933
X-69.373 Y-16.913
X-69.383 Y-16.788
X-69.444 Y-16.677
X-69.544 Y-16.601
X-69.58 Y-16.593
X-69.616 Y-16.599
X-69.647 Y-16.617
X-69.67 Y-16.645
X-69.783 Y-16.845
X-70.066 Y-17.352
X-70.077 Y-17.384
Y-17.418
X-70.066 Y-17.45
X-70.044 Y-17.477
X-70.015 Y-17.494
X-69.982 Y-17.501
X-69.682
X-69.532 Y-17.494
X-69.406 Y-17.413
X-69.302 Y-17.304
X-69.22 Y-17.178
X-69.171 Y-17.037
X-69.164 Y-16.981
X-69.181 Y-16.838
X-69.263 Y-16.719
X-69.39 Y-16.652
X-69.475 Y-16.63
X-69.517 Y-16.614
X-69.544 Y-16.601
X-69.58 Y-16.593
X-69.616 Y-16.599
X-69.648 Y-16.617
X-69.671 Y-16.645
X-69.682 Y-16.68
X-69.695 Y-16.775
X-69.777 Y-17.388
X-69.776 Y-17.421
X-69.764 Y-17.452
X-69.743 Y-17.477
X-69.714 Y-17.494
X-69.682 Y-17.501
X-69.428
X-69.278 Y-17.494
X-69.151 Y-17.414
X-69.052 Y-17.301
X-68.983 Y-17.168
X-68.95 Y-17.022
X-68.956 Y-16.871
X-69.018 Y-16.761
X-69.119 Y-16.687
X-69.242 Y-16.66
X-69.305
X-69.348 Y-16.657
X-69.39 Y-16.652
X-69.422 Y-16.654
X-69.452 Y-16.667
X-69.476 Y-16.688
X-69.492 Y-16.716
X-69.499 Y-16.747
X-69.5 Y-16.77
X-69.524 Y-17.397
X-69.518 Y-17.436
X-69.498 Y-17.469
X-69.466 Y-17.492
X-69.428 Y-17.501
X-69.174
X-69.099 Y-17.497
X-68.96 Y-17.442
X-68.853 Y-17.337
X-68.778 Y-17.208
X-68.736 Y-17.063
X-68.734 Y-16.913
X-68.741 Y-16.887
X-68.8 Y-16.77
X-68.904 Y-16.689
X-69.032 Y-16.66
X-69.242
X-69.275 Y-16.666
X-69.303 Y-16.683
X-69.324 Y-16.707
X-69.337 Y-16.738
X-69.339 Y-16.77
X-69.338 Y-16.773
X-69.27 Y-17.412
X-69.26 Y-17.446
X-69.239 Y-17.474
X-69.209 Y-17.494
X-69.174 Y-17.501
X-68.967
X-68.817 Y-17.494
X-68.691 Y-17.413
X-68.598 Y-17.296
X-68.539 Y-17.157
X-68.513 Y-17.01
X-68.528 Y-16.86
X-68.532 Y-16.849
X-68.597 Y-16.75
X-68.695 Y-16.684
X-68.811 Y-16.66
X-69.032
X-69.064 Y-16.667
X-69.092 Y-16.683
X-69.113 Y-16.707
X-69.126 Y-16.738
X-69.128 Y-16.77
Y-16.773
X-69.063 Y-17.411
X-69.053 Y-17.445
X-69.032 Y-17.474
X-69.002 Y-17.493
X-68.967 Y-17.501
X-68.713
X-68.639 Y-17.497
X-68.502 Y-17.436
X-68.4 Y-17.326
X-68.332 Y-17.192
X-68.298 Y-17.046
X-68.301 Y-16.896
X-68.308 Y-16.875
X-68.369 Y-16.763
X-68.471 Y-16.687
X-68.595 Y-16.66
X-68.811
X-68.844 Y-16.667
X-68.873 Y-16.684
X-68.894 Y-16.71
X-68.906 Y-16.742
Y-16.775
Y-16.777
X-68.809 Y-17.416
X-68.798 Y-17.449
X-68.776 Y-17.476
X-68.747 Y-17.494
X-68.713 Y-17.501
X-68.498
X-68.423 Y-17.497
X-68.286 Y-17.435
X-68.184 Y-17.325
X-68.116 Y-17.192
X-68.08 Y-17.046
X-68.086 Y-16.896
X-68.093 Y-16.874
X-68.154 Y-16.763
X-68.256 Y-16.687
X-68.38 Y-16.66
X-68.595
X-68.628 Y-16.667
X-68.657 Y-16.684
X-68.678 Y-16.71
X-68.69 Y-16.742
X-68.691 Y-16.775
X-68.69 Y-16.777
X-68.593 Y-17.416
X-68.582 Y-17.449
X-68.561 Y-17.476
X-68.532 Y-17.494
X-68.498 Y-17.501
X-68.291
X-68.216 Y-17.497
X-68.077 Y-17.44
X-67.973 Y-17.332
X-67.902 Y-17.2
X-67.865 Y-17.054
X-67.869 Y-16.904
X-67.877 Y-16.879
X-67.937 Y-16.765
X-68.04 Y-16.688
X-68.165 Y-16.66
X-68.38
X-68.413 Y-16.667
X-68.442 Y-16.684
X-68.463 Y-16.709
X-68.475 Y-16.741
X-68.476 Y-16.774
Y-16.775
X-68.386 Y-17.415
X-68.375 Y-17.448
X-68.354 Y-17.475
X-68.325 Y-17.494
X-68.291 Y-17.501
X-68.075
X-68 Y-17.497
X-67.861 Y-17.44
X-67.757 Y-17.332
X-67.687 Y-17.2
X-67.65 Y-17.054
X-67.654 Y-16.905
X-67.662 Y-16.879
X-67.722 Y-16.765
X-67.825 Y-16.688
X-67.95 Y-16.66
X-68.165
X-68.198 Y-16.667
X-68.227 Y-16.684
X-68.248 Y-16.709
X-68.26 Y-16.741
X-68.261 Y-16.774
Y-16.776
X-68.171 Y-17.415
X-68.16 Y-17.448
X-68.138 Y-17.475
X-68.109 Y-17.494
X-68.075 Y-17.501
X-67.868
X-67.793 Y-17.497
X-67.652 Y-17.445
X-67.546 Y-17.339
X-67.474 Y-17.208
X-67.435 Y-17.063
X-67.438 Y-16.913
X-67.446 Y-16.883
X-67.505 Y-16.768
X-67.608 Y-16.688
X-67.735 Y-16.66
X-67.95
X-67.983 Y-16.667
X-68.011 Y-16.684
X-68.033 Y-16.709
X-68.045 Y-16.74
X-68.046 Y-16.773
Y-16.775
X-67.963 Y-17.414
X-67.953 Y-17.447
X-67.932 Y-17.475
X-67.902 Y-17.494
X-67.868 Y-17.501
X-67.652
X-67.577 Y-17.497
X-67.437 Y-17.445
X-67.33 Y-17.339
X-67.259 Y-17.207
X-67.22 Y-17.063
X-67.223 Y-16.913
X-67.231 Y-16.883
X-67.291 Y-16.767
X-67.394 Y-16.688
X-67.521 Y-16.66
X-67.735
X-67.768 Y-16.667
X-67.796 Y-16.684
X-67.818 Y-16.709
X-67.83 Y-16.74
X-67.831 Y-16.773
Y-16.775
X-67.748 Y-17.414
X-67.737 Y-17.447
X-67.716 Y-17.475
X-67.686 Y-17.494
X-67.652 Y-17.501
X-67.398
X-67.324 Y-17.497
X-67.191 Y-17.426
X-67.094 Y-17.312
X-67.031 Y-17.176
X-67.002 Y-17.029
X-67.013 Y-16.879
X-67.019 Y-16.862
X-67.082 Y-16.757
X-67.182 Y-16.685
X-67.302 Y-16.66
X-67.521
X-67.554 Y-16.667
X-67.583 Y-16.685
X-67.605 Y-16.712
X-67.616 Y-16.744
X-67.615 Y-16.779
Y-16.781
X-67.493 Y-17.42
X-67.481 Y-17.451
X-67.46 Y-17.477
X-67.431 Y-17.494
X-67.398 Y-17.501
X-67.191
X-67.116 Y-17.497
X-66.982 Y-17.43
X-66.883 Y-17.318
X-66.818 Y-17.183
X-66.785 Y-17.036
X-66.794 Y-16.887
X-66.8 Y-16.869
X-66.862 Y-16.76
X-66.963 Y-16.686
X-67.085 Y-16.66
X-67.302
X-67.336 Y-16.667
X-67.365 Y-16.685
X-67.386 Y-16.711
X-67.397 Y-16.743
Y-16.777
Y-16.779
X-67.286 Y-17.418
X-67.275 Y-17.45
X-67.253 Y-17.476
X-67.224 Y-17.494
X-67.191 Y-17.501
X-66.976
X-66.901 Y-17.497
X-66.767 Y-17.43
X-66.667 Y-17.317
X-66.602 Y-17.183
X-66.569 Y-17.036
X-66.578 Y-16.887
X-66.583 Y-16.869
X-66.645 Y-16.76
X-66.747 Y-16.686
X-66.869 Y-16.66
X-67.085
X-67.119 Y-16.667
X-67.148 Y-16.685
X-67.169 Y-16.711
X-67.181 Y-16.743
Y-16.777
X-67.18 Y-16.779
X-67.071 Y-17.418
X-67.059 Y-17.45
X-67.038 Y-17.476
X-67.009 Y-17.494
X-66.976 Y-17.501
X-66.768
X-66.694 Y-17.497
X-66.557 Y-17.434
X-66.456 Y-17.324
X-66.388 Y-17.19
X-66.353 Y-17.044
X-66.36 Y-16.895
X-66.366 Y-16.873
X-66.428 Y-16.763
X-66.529 Y-16.687
X-66.653 Y-16.66
X-66.869
X-66.902 Y-16.667
X-66.931 Y-16.684
X-66.952 Y-16.71
X-66.964 Y-16.742
Y-16.776
Y-16.777
X-66.864 Y-17.417
X-66.853 Y-17.449
X-66.831 Y-17.476
X-66.802 Y-17.494
X-66.768 Y-17.501
X-66.553
X-66.478 Y-17.497
X-66.342 Y-17.435
X-66.24 Y-17.324
X-66.172 Y-17.191
X-66.137 Y-17.045
X-66.144 Y-16.895
X-66.15 Y-16.873
X-66.212 Y-16.762
X-66.314 Y-16.687
X-66.438 Y-16.66
X-66.653
X-66.686 Y-16.667
X-66.715 Y-16.684
X-66.737 Y-16.71
X-66.748 Y-16.742
X-66.749 Y-16.776
X-66.748 Y-16.777
X-66.648 Y-17.417
X-66.637 Y-17.449
X-66.616 Y-17.476
X-66.586 Y-17.494
X-66.553 Y-17.501
X-66.346
X-66.271 Y-17.497
X-66.132 Y-17.439
X-66.029 Y-17.331
X-65.959 Y-17.198
X-65.922 Y-17.053
X-65.927 Y-16.903
X-65.934 Y-16.878
X-65.994 Y-16.765
X-66.097 Y-16.688
X-66.222 Y-16.66
X-66.438
X-66.47 Y-16.667
X-66.499 Y-16.684
X-66.52 Y-16.71
X-66.532 Y-16.741
X-66.533 Y-16.774
Y-16.776
X-66.441 Y-17.415
X-66.43 Y-17.448
X-66.409 Y-17.476
X-66.379 Y-17.494
X-66.346 Y-17.501
X-66.13
X-66.055 Y-17.497
X-65.917 Y-17.439
X-65.813 Y-17.331
X-65.743 Y-17.198
X-65.706 Y-17.053
X-65.711 Y-16.903
X-65.719 Y-16.878
X-65.779 Y-16.765
X-65.882 Y-16.688
X-66.007 Y-16.66
X-66.222
X-66.255 Y-16.667
X-66.284 Y-16.684
X-66.305 Y-16.71
X-66.317 Y-16.741
X-66.318 Y-16.774
Y-16.776
X-66.225 Y-17.415
X-66.215 Y-17.448
X-66.193 Y-17.476
X-66.164 Y-17.494
X-66.13 Y-17.501
X-65.923
X-65.848 Y-17.497
X-65.708 Y-17.444
X-65.602 Y-17.338
X-65.53 Y-17.206
X-65.492 Y-17.061
X-65.495 Y-16.911
X-65.502 Y-16.882
X-65.562 Y-16.767
X-65.665 Y-16.688
X-65.792 Y-16.66
X-66.007
X-66.039 Y-16.667
X-66.068 Y-16.684
X-66.089 Y-16.709
X-66.101 Y-16.74
X-66.103 Y-16.773
X-66.102 Y-16.775
X-66.018 Y-17.414
X-66.008 Y-17.447
X-65.986 Y-17.475
X-65.957 Y-17.494
X-65.923 Y-17.501
X-65.707
X-65.632 Y-17.497
X-65.492 Y-17.444
X-65.386 Y-17.338
X-65.315 Y-17.206
X-65.276 Y-17.061
X-65.28 Y-16.911
X-65.287 Y-16.882
X-65.348 Y-16.767
X-65.45 Y-16.688
X-65.577 Y-16.66
X-65.792
X-65.825 Y-16.667
X-65.853 Y-16.684
X-65.875 Y-16.709
X-65.887 Y-16.74
X-65.888 Y-16.773
X-65.887 Y-16.775
X-65.803 Y-17.414
X-65.792 Y-17.448
X-65.771 Y-17.475
X-65.741 Y-17.494
X-65.707 Y-17.501
X-65.5
X-65.425 Y-17.497
X-65.283 Y-17.449
X-65.176 Y-17.344
X-65.102 Y-17.214
X-65.062 Y-17.069
X-65.063 Y-16.919
X-65.072 Y-16.886
X-65.131 Y-16.769
X-65.234 Y-16.689
X-65.362 Y-16.66
X-65.577
X-65.609 Y-16.667
X-65.638 Y-16.683
X-65.659 Y-16.708
X-65.671 Y-16.739
X-65.673 Y-16.772
Y-16.774
X-65.596 Y-17.413
X-65.585 Y-17.447
X-65.564 Y-17.475
X-65.534 Y-17.494
X-65.5 Y-17.501
X-65.246
X-65.171 Y-17.497
X-65.037 Y-17.43
X-64.938 Y-17.317
X-64.875 Y-17.181
X-64.844 Y-17.035
X-64.853 Y-16.885
X-64.86 Y-16.865
X-64.923 Y-16.758
X-65.023 Y-16.686
X-65.145 Y-16.66
X-65.362
X-65.396 Y-16.667
X-65.425 Y-16.685
X-65.446 Y-16.712
X-65.458 Y-16.744
X-65.457 Y-16.778
Y-16.78
X-65.341 Y-17.419
X-65.33 Y-17.451
X-65.308 Y-17.477
X-65.279 Y-17.494
X-65.246 Y-17.501
X-65.031
X-64.956 Y-17.497
X-64.822 Y-17.429
X-64.724 Y-17.316
X-64.659 Y-17.181
X-64.627 Y-17.034
X-64.637 Y-16.884
X-64.642 Y-16.867
X-64.705 Y-16.759
X-64.805 Y-16.686
X-64.927 Y-16.66
X-65.145
X-65.178 Y-16.667
X-65.207 Y-16.685
X-65.228 Y-16.711
X-65.24 Y-16.744
Y-16.778
X-65.239 Y-16.779
X-65.126 Y-17.419
X-65.114 Y-17.45
X-65.093 Y-17.477
X-65.064 Y-17.494
X-65.031 Y-17.501
X-64.823
X-64.777
X-64.739
X-64.701 Y-17.499
X-64.578 Y-17.414
X-64.562 Y-17.392
X-64.529 Y-17.337
X-64.509 Y-17.276
X-64.502 Y-17.213
X-64.51 Y-17.178
X-64.529 Y-17.149
X-64.557 Y-17.127
X-64.591 Y-17.117
X-64.626 Y-17.119
X-64.658 Y-17.133
X-64.684 Y-17.158
X-64.816 Y-17.343
X-64.832 Y-17.375
X-64.835 Y-17.411
X-64.825 Y-17.445
X-64.804 Y-17.474
X-64.774 Y-17.493
X-64.739 Y-17.501
X-64.612
X-64.601 Y-17.5
X-64.591 Y-17.498
X-64.58 Y-17.494
X-64.57 Y-17.49
X-64.551 Y-17.477
X-64.532 Y-17.46
X-64.52 Y-17.445
X-64.511 Y-17.43
X-64.507 Y-17.42
X-64.505 Y-17.409
X-64.503 Y-17.398
X-64.502 Y-16.877
Y-16.839
X-64.531 Y-16.749
X-64.599 Y-16.684
X-64.69 Y-16.66
G3 X-64.85 Y-16.887 I0.006 J-0.174
X-64.502 Y-16.839 I0.17 J0.054
G1 X-64.503 Y-16.765
X-64.504 Y-16.754
X-64.507 Y-16.744
X-64.511 Y-16.734
X-64.516 Y-16.723
X-64.523 Y-16.713
X-64.546 Y-16.688
X-64.558 Y-16.679
X-64.573 Y-16.67
X-64.583 Y-16.666
X-64.593 Y-16.663
X-64.603 Y-16.661
X-64.614 Y-16.66
X-64.927
X-64.953 Y-16.664
X-64.977 Y-16.674
X-64.997 Y-16.682
X-65.017 Y-16.686
X-65.704 Y-16.759
X-69.558 Y-17.166
X-69.598 Y-17.162
X-69.633 Y-17.144
X-69.658 Y-17.113
X-69.669 Y-17.074
G3 X-69.813 Y-16.302 I-3.635 J-0.279
G1 X-69.831 Y-16.248
X-69.841 Y-16.205
X-69.846 Y-16.163
X-69.848 Y-16.117
X-69.854 Y-16.042
X-69.927 Y-15.911
X-70.044 Y-15.817
X-70.181 Y-15.757
X-70.328 Y-15.727
X-70.478 Y-15.724
X-70.627 Y-15.744
X-70.771 Y-15.786
X-70.837 Y-15.818
X-70.926 Y-15.884
X-70.984 Y-15.978
X-71.005 Y-16.087
Y-16.37
X-70.997 Y-16.404
X-70.978 Y-16.434
X-70.95 Y-16.456
X-70.915 Y-16.466
X-70.88 Y-16.463
X-70.555 Y-16.378
X-69.923 Y-16.213
X-69.893 Y-16.2
X-69.869 Y-16.178
X-69.853 Y-16.149
X-69.848 Y-16.117
X-69.849 Y-16.079
Y-15.948
X-69.853 Y-15.873
X-69.901 Y-15.731
X-70.008 Y-15.625
X-70.139 Y-15.552
X-70.282 Y-15.508
X-70.431 Y-15.488
X-70.581 Y-15.492
X-70.728 Y-15.518
X-70.807 Y-15.546
X-70.91 Y-15.61
X-70.98 Y-15.709
X-71.005 Y-15.828
Y-16.087
X-70.998 Y-16.12
X-70.981 Y-16.149
X-70.955 Y-16.17
X-70.924 Y-16.182
X-70.891 Y-16.183
X-70.574 Y-16.136
X-69.935 Y-16.043
X-69.902 Y-16.032
X-69.875 Y-16.011
X-69.856 Y-15.982
X-69.849 Y-15.948
Y-15.694
X-69.853 Y-15.619
X-69.922 Y-15.486
X-70.034 Y-15.386
X-70.166 Y-15.316
X-70.31 Y-15.272
X-70.458 Y-15.252
X-70.608 Y-15.253
X-70.756 Y-15.279
X-70.807 Y-15.298
X-70.911 Y-15.361
X-70.98 Y-15.461
X-71.005 Y-15.58
Y-15.828
X-70.998 Y-15.861
X-70.981 Y-15.89
X-70.956 Y-15.911
X-70.925 Y-15.923
X-70.891 Y-15.924
X-70.575 Y-15.88
X-69.935 Y-15.79
X-69.902 Y-15.779
X-69.875 Y-15.758
X-69.856 Y-15.728
X-69.849 Y-15.694
Y-15.487
X-69.853 Y-15.412
X-69.915 Y-15.276
X-70.022 Y-15.171
X-70.151 Y-15.095
X-70.293 Y-15.045
X-70.44 Y-15.016
X-70.59 Y-15.01
X-70.739 Y-15.03
X-70.798 Y-15.049
X-70.906 Y-15.112
X-70.979 Y-15.213
X-71.005 Y-15.335
Y-15.58
X-70.999 Y-15.612
X-70.982 Y-15.64
X-70.958 Y-15.661
X-70.928 Y-15.674
X-70.895 Y-15.676
X-70.578 Y-15.645
X-69.939 Y-15.583
X-69.905 Y-15.574
X-69.876 Y-15.552
X-69.857 Y-15.522
X-69.849 Y-15.487
Y-15.272
X-69.853 Y-15.197
X-69.91 Y-15.058
X-70.014 Y-14.95
X-70.14 Y-14.87
X-70.279 Y-14.814
X-70.426 Y-14.781
X-70.575 Y-14.77
X-70.725 Y-14.785
X-70.79 Y-14.805
X-70.902 Y-14.866
X-70.978 Y-14.968
X-71.005 Y-15.092
Y-15.335
X-70.996 Y-15.373
X-70.972 Y-15.405
X-70.938 Y-15.426
X-70.899 Y-15.431
X-70.58 Y-15.41
X-69.943 Y-15.368
X-69.907 Y-15.359
X-69.877 Y-15.338
X-69.857 Y-15.308
X-69.849 Y-15.272
Y-15.065
X-69.857 Y-14.915
X-69.934 Y-14.787
X-70.046 Y-14.687
X-70.177 Y-14.613
X-70.318 Y-14.563
X-70.466 Y-14.536
X-70.615 Y-14.531
X-70.764 Y-14.554
X-70.806 Y-14.569
X-70.91 Y-14.633
X-70.98 Y-14.732
X-71.005 Y-14.852
Y-15.092
X-70.996 Y-15.13
X-70.973 Y-15.162
X-70.941 Y-15.182
X-70.902 Y-15.189
X-70.581 Y-15.18
X-69.946 Y-15.162
X-69.91 Y-15.153
X-69.879 Y-15.132
X-69.857 Y-15.102
X-69.849 Y-15.065
Y-14.812
X-69.853 Y-14.737
X-69.905 Y-14.596
X-70.006 Y-14.485
X-70.13 Y-14.401
X-70.268 Y-14.341
X-70.413 Y-14.304
X-70.562 Y-14.29
X-70.712 Y-14.301
X-70.785 Y-14.321
X-70.899 Y-14.381
X-70.977 Y-14.484
X-71.005 Y-14.61
Y-14.852
X-70.996 Y-14.89
X-70.973 Y-14.921
X-70.94 Y-14.942
X-70.901 Y-14.948
X-70.58 Y-14.935
X-69.945 Y-14.908
X-69.909 Y-14.9
X-69.878 Y-14.879
X-69.857 Y-14.848
X-69.849 Y-14.812
Y-14.558
X-69.853 Y-14.483
X-69.914 Y-14.346
X-70.017 Y-14.237
X-70.142 Y-14.155
X-70.281 Y-14.098
X-70.427 Y-14.063
X-70.576 Y-14.05
X-70.725 Y-14.065
X-70.788 Y-14.083
X-70.9 Y-14.144
X-70.978 Y-14.246
X-71.005 Y-14.371
Y-14.61
X-70.996 Y-14.649
X-70.973 Y-14.68
X-70.939 Y-14.701
X-70.9 Y-14.707
X-70.58 Y-14.689
X-69.944 Y-14.655
X-69.908 Y-14.646
X-69.878 Y-14.625
X-69.857 Y-14.594
X-69.849 Y-14.558
Y-14.343
X-69.857 Y-14.193
X-69.938 Y-14.067
X-70.051 Y-13.968
X-70.181 Y-13.894
X-70.323 Y-13.844
X-70.47 Y-13.816
X-70.62 Y-13.811
X-70.768 Y-13.835
X-70.808 Y-13.849
X-70.911 Y-13.913
X-70.98 Y-14.012
X-71.005 Y-14.131
Y-14.371
X-70.996 Y-14.409
X-70.973 Y-14.441
X-70.94 Y-14.461
X-70.902 Y-14.468
X-70.581 Y-14.458
X-69.946 Y-14.439
X-69.91 Y-14.431
X-69.879 Y-14.41
X-69.857 Y-14.379
X-69.849 Y-14.343
Y-14.089
X-69.853 Y-14.015
X-69.908 Y-13.875
X-70.01 Y-13.765
X-70.134 Y-13.681
X-70.272 Y-13.622
X-70.417 Y-13.584
X-70.567 Y-13.57
X-70.716 Y-13.582
X-70.786 Y-13.601
X-70.9 Y-13.662
X-70.977 Y-13.765
X-71.005 Y-13.89
Y-14.131
X-70.996 Y-14.169
X-70.973 Y-14.201
X-70.939 Y-14.221
X-70.901 Y-14.227
X-70.58 Y-14.214
X-69.945 Y-14.186
X-69.909 Y-14.177
X-69.878 Y-14.156
X-69.857 Y-14.126
X-69.849 Y-14.089
Y-13.836
X-69.853 Y-13.761
X-69.916 Y-13.625
X-70.02 Y-13.517
X-70.146 Y-13.435
X-70.284 Y-13.378
X-70.43 Y-13.343
X-70.58 Y-13.331
X-70.729 Y-13.346
X-70.789 Y-13.363
X-70.901 Y-13.424
X-70.978 Y-13.527
X-71.005 Y-13.651
Y-13.89
X-70.996 Y-13.929
X-70.972 Y-13.961
X-70.939 Y-13.981
X-70.899 Y-13.987
X-70.58 Y-13.968
X-69.943 Y-13.932
X-69.908 Y-13.924
X-69.878 Y-13.903
X-69.857 Y-13.872
X-69.849 Y-13.836
Y-13.629
X-69.857 Y-13.479
X-69.936 Y-13.352
X-70.048 Y-13.252
X-70.178 Y-13.177
X-70.319 Y-13.126
X-70.466 Y-13.098
X-70.616 Y-13.092
X-70.764 Y-13.114
X-70.806 Y-13.129
X-70.91 Y-13.192
X-70.98 Y-13.292
X-71.005 Y-13.412
Y-13.651
X-70.996 Y-13.689
X-70.974 Y-13.721
X-70.941 Y-13.741
X-70.903 Y-13.748
X-70.581 Y-13.74
X-69.947 Y-13.726
X-69.91 Y-13.718
X-69.879 Y-13.697
X-69.857 Y-13.666
X-69.849 Y-13.629
Y-13.376
X-69.853 Y-13.301
X-69.906 Y-13.161
X-70.007 Y-13.049
X-70.131 Y-12.965
X-70.268 Y-12.904
X-70.413 Y-12.866
X-70.562 Y-12.851
X-70.712 Y-12.862
X-70.784 Y-12.882
X-70.899 Y-12.942
X-70.977 Y-13.045
X-71.005 Y-13.171
Y-13.412
X-70.996 Y-13.45
X-70.973 Y-13.481
X-70.94 Y-13.502
X-70.901 Y-13.508
X-70.58 Y-13.496
X-69.945 Y-13.472
X-69.909 Y-13.464
X-69.878 Y-13.443
X-69.857 Y-13.412
X-69.849 Y-13.376
Y-13.122
X-69.853 Y-13.047
X-69.913 Y-12.91
X-70.017 Y-12.801
X-70.142 Y-12.718
X-70.28 Y-12.66
X-70.426 Y-12.625
X-70.575 Y-12.612
X-70.724 Y-12.626
X-70.787 Y-12.644
X-70.9 Y-12.704
X-70.977 Y-12.807
X-71.005 Y-12.932
Y-13.171
X-70.996 Y-13.209
X-70.973 Y-13.241
X-70.939 Y-13.262
X-70.9 Y-13.267
X-70.58 Y-13.251
X-69.944 Y-13.219
X-69.908 Y-13.21
X-69.878 Y-13.189
X-69.857 Y-13.158
X-69.849 Y-13.122
Y-12.907
X-69.857 Y-12.757
X-69.937 Y-12.631
X-70.05 Y-12.532
X-70.18 Y-12.457
X-70.321 Y-12.406
X-70.469 Y-12.378
X-70.619 Y-12.373
X-70.767 Y-12.396
X-70.807 Y-12.41
X-70.911 Y-12.474
X-70.98 Y-12.573
X-71.005 Y-12.692
Y-12.932
X-70.996 Y-12.97
X-70.974 Y-13.002
X-70.941 Y-13.022
X-70.902 Y-13.029
X-70.581 Y-13.02
X-69.946 Y-13.003
X-69.91 Y-12.995
X-69.879 Y-12.974
X-69.857 Y-12.944
X-69.849 Y-12.907
Y-12.654
X-69.853 Y-12.579
X-69.908 Y-12.439
X-70.009 Y-12.328
X-70.133 Y-12.244
X-70.271 Y-12.184
X-70.416 Y-12.146
X-70.565 Y-12.132
X-70.715 Y-12.143
X-70.786 Y-12.163
X-70.899 Y-12.223
X-70.977 Y-12.326
X-71.005 Y-12.452
Y-12.692
X-70.996 Y-12.731
X-70.973 Y-12.762
X-70.94 Y-12.783
X-70.901 Y-12.789
X-70.58 Y-12.776
X-69.945 Y-12.75
X-69.909 Y-12.742
X-69.878 Y-12.721
X-69.857 Y-12.69
X-69.849 Y-12.654
Y-12.4
X-69.853 Y-12.325
X-69.915 Y-12.189
X-70.018 Y-12.08
X-70.144 Y-11.998
X-70.282 Y-11.94
X-70.428 Y-11.905
X-70.578 Y-11.892
X-70.727 Y-11.907
X-70.788 Y-11.925
X-70.901 Y-11.986
X-70.978 Y-12.088
X-71.005 Y-12.213
Y-12.452
X-70.996 Y-12.49
X-70.973 Y-12.522
X-70.939 Y-12.542
X-70.9 Y-12.548
X-70.58 Y-12.531
X-69.944 Y-12.497
X-69.908 Y-12.488
X-69.878 Y-12.467
X-69.857 Y-12.436
X-69.849 Y-12.4
Y-12.193
X-69.857 Y-12.043
X-69.935 Y-11.916
X-70.047 Y-11.815
X-70.176 Y-11.74
X-70.317 Y-11.688
X-70.464 Y-11.66
X-70.614 Y-11.654
X-70.763 Y-11.676
X-70.805 Y-11.691
X-70.909 Y-11.754
X-70.98 Y-11.854
X-71.005 Y-11.974
Y-12.213
X-70.996 Y-12.251
X-70.974 Y-12.282
X-70.941 Y-12.303
X-70.903 Y-12.31
X-70.581 Y-12.303
X-69.947 Y-12.29
X-69.91 Y-12.282
X-69.879 Y-12.261
X-69.858 Y-12.23
X-69.849 Y-12.193
Y-11.94
X-69.853 Y-11.865
X-69.905 Y-11.724
X-70.005 Y-11.613
X-70.129 Y-11.528
X-70.266 Y-11.467
X-70.411 Y-11.428
X-70.56 Y-11.413
X-70.71 Y-11.423
X-70.784 Y-11.443
X-70.898 Y-11.503
X-70.977 Y-11.606
X-71.005 Y-11.733
Y-11.974
X-70.996 Y-12.011
X-70.973 Y-12.043
X-70.94 Y-12.064
X-70.902 Y-12.07
X-70.58 Y-12.059
X-69.946 Y-12.036
X-69.909 Y-12.028
X-69.878 Y-12.007
X-69.857 Y-11.976
X-69.849 Y-11.94
Y-11.686
X-69.853 Y-11.612
X-69.913 Y-11.474
X-70.015 Y-11.364
X-70.14 Y-11.281
X-70.278 Y-11.223
X-70.424 Y-11.187
X-70.573 Y-11.174
X-70.723 Y-11.188
X-70.786 Y-11.205
X-70.9 Y-11.266
X-70.977 Y-11.369
X-71.005 Y-11.494
Y-11.733
X-70.996 Y-11.771
X-70.973 Y-11.803
X-70.939 Y-11.823
X-70.9 Y-11.829
X-70.58 Y-11.814
X-69.944 Y-11.783
X-69.908 Y-11.774
X-69.878 Y-11.753
X-69.857 Y-11.722
X-69.849 Y-11.686
Y-11.471
X-69.857 Y-11.321
X-69.937 Y-11.194
X-70.049 Y-11.095
X-70.179 Y-11.02
X-70.32 Y-10.968
X-70.467 Y-10.94
X-70.617 Y-10.935
X-70.765 Y-10.957
X-70.806 Y-10.972
X-70.91 Y-11.036
X-70.98 Y-11.135
X-71.005 Y-11.254
Y-11.494
X-70.996 Y-11.532
X-70.974 Y-11.564
X-70.941 Y-11.584
X-70.903 Y-11.591
X-70.581 Y-11.583
X-69.947 Y-11.568
X-69.91 Y-11.56
X-69.879 Y-11.539
X-69.857 Y-11.508
X-69.849 Y-11.471
Y-11.218
X-69.853 Y-11.143
X-69.907 Y-11.003
X-70.007 Y-10.892
X-70.131 Y-10.807
X-70.269 Y-10.747
X-70.414 Y-10.709
X-70.563 Y-10.694
X-70.713 Y-10.705
X-70.785 Y-10.725
X-70.899 Y-10.785
X-70.977 Y-10.888
X-71.005 Y-11.014
Y-11.254
X-70.996 Y-11.293
X-70.973 Y-11.324
X-70.94 Y-11.345
X-70.901 Y-11.351
X-70.58 Y-11.339
X-69.945 Y-11.314
X-69.909 Y-11.306
X-69.878 Y-11.285
X-69.857 Y-11.254
X-69.849 Y-11.218
Y-10.964
X-69.853 Y-10.889
X-69.914 Y-10.752
X-70.017 Y-10.643
X-70.142 Y-10.561
X-70.281 Y-10.503
X-70.426 Y-10.468
X-70.576 Y-10.454
X-70.725 Y-10.469
X-70.787 Y-10.487
X-70.9 Y-10.547
X-70.978 Y-10.65
X-71.005 Y-10.775
Y-11.014
X-70.996 Y-11.052
X-70.973 Y-11.084
X-70.939 Y-11.104
X-70.9 Y-11.11
X-70.58 Y-11.094
X-69.944 Y-11.061
X-69.908 Y-11.052
X-69.878 Y-11.031
X-69.857 Y-11
X-69.849 Y-10.964
Y-10.757
X-69.857 Y-10.607
X-69.934 Y-10.479
X-70.045 Y-10.378
X-70.175 Y-10.303
X-70.316 Y-10.251
X-70.463 Y-10.222
X-70.613 Y-10.216
X-70.761 Y-10.237
X-70.804 Y-10.252
X-70.909 Y-10.316
X-70.98 Y-10.416
X-71.005 Y-10.536
Y-10.775
X-70.996 Y-10.813
X-70.974 Y-10.844
X-70.941 Y-10.865
X-70.903 Y-10.872
X-70.581 Y-10.866
X-69.947 Y-10.854
X-69.91 Y-10.846
X-69.879 Y-10.825
X-69.858 Y-10.794
X-69.849 Y-10.757
Y-10.504
X-69.853 Y-10.429
X-69.904 Y-10.288
X-70.004 Y-10.176
X-70.127 Y-10.091
X-70.264 Y-10.03
X-70.409 Y-9.991
X-70.558 Y-9.975
X-70.708 Y-9.985
X-70.783 Y-10.005
X-70.898 Y-10.065
X-70.977 Y-10.168
X-71.005 Y-10.295
Y-10.536
X-70.996 Y-10.574
X-70.973 Y-10.605
X-70.94 Y-10.626
X-70.902 Y-10.632
X-70.581 Y-10.621
X-69.946 Y-10.6
X-69.909 Y-10.592
X-69.878 Y-10.571
X-69.857 Y-10.54
X-69.849 Y-10.504
Y-10.25
X-69.853 Y-10.176
X-69.912 Y-10.038
X-70.014 Y-9.928
X-70.138 Y-9.844
X-70.276 Y-9.785
X-70.422 Y-9.75
X-70.571 Y-9.736
X-70.721 Y-9.749
X-70.785 Y-9.767
X-70.899 Y-9.828
X-70.977 Y-9.93
X-71.005 Y-10.056
Y-10.295
X-70.996 Y-10.333
X-70.973 Y-10.365
X-70.939 Y-10.385
X-70.9 Y-10.391
X-70.58 Y-10.376
X-69.944 Y-10.347
X-69.908 Y-10.338
X-69.878 Y-10.317
X-69.857 Y-10.287
X-69.849 Y-10.25
Y-10.035
X-69.857 Y-9.885
X-69.936 Y-9.758
X-70.048 Y-9.658
X-70.178 Y-9.583
X-70.318 Y-9.531
X-70.466 Y-9.503
X-70.615 Y-9.497
X-70.764 Y-9.519
X-70.806 Y-9.534
X-70.91 Y-9.597
X-70.98 Y-9.697
X-71.005 Y-9.817
Y-10.056
X-70.996 Y-10.094
X-70.974 Y-10.126
X-70.941 Y-10.146
X-70.903 Y-10.153
X-70.581 Y-10.146
X-69.947 Y-10.132
X-69.91 Y-10.124
X-69.879 Y-10.103
X-69.857 Y-10.072
X-69.849 Y-10.035
Y-9.782
X-69.853 Y-9.707
X-69.906 Y-9.566
X-70.006 Y-9.455
X-70.13 Y-9.37
X-70.267 Y-9.31
X-70.412 Y-9.271
X-70.561 Y-9.256
X-70.711 Y-9.267
X-70.784 Y-9.287
X-70.899 Y-9.347
X-70.977 Y-9.45
X-71.005 Y-9.576
Y-9.817
X-70.996 Y-9.855
X-70.973 Y-9.886
X-70.94 Y-9.907
X-70.901 Y-9.913
X-70.58 Y-9.901
X-69.945 Y-9.878
X-69.909 Y-9.87
X-69.878 Y-9.849
X-69.857 Y-9.818
X-69.849 Y-9.782
Y-9.528
X-69.853 Y-9.453
X-69.913 Y-9.316
X-70.016 Y-9.207
X-70.141 Y-9.124
X-70.279 Y-9.066
X-70.425 Y-9.03
X-70.574 Y-9.017
X-70.724 Y-9.031
X-70.786 Y-9.049
X-70.9 Y-9.109
X-70.977 Y-9.212
X-71.005 Y-9.337
Y-9.576
X-70.996 Y-9.614
X-70.973 Y-9.646
X-70.939 Y-9.666
X-70.9 Y-9.672
X-70.58 Y-9.656
X-69.944 Y-9.625
X-69.908 Y-9.616
X-69.878 Y-9.595
X-69.857 Y-9.564
X-69.849 Y-9.528
Y-9.321
X-69.857 Y-9.172
X-69.934 Y-9.043
X-70.044 Y-8.942
X-70.174 Y-8.866
X-70.314 Y-8.813
X-70.461 Y-8.785
X-70.611 Y-8.778
X-70.76 Y-8.799
X-70.803 Y-8.815
X-70.909 Y-8.878
X-70.98 Y-8.978
X-71.005 Y-9.098
Y-9.337
X-70.996 Y-9.375
X-70.974 Y-9.406
X-70.941 Y-9.427
X-70.903 Y-9.434
X-70.581 Y-9.428
X-69.947 Y-9.418
X-69.91 Y-9.41
X-69.879 Y-9.389
X-69.858 Y-9.358
X-69.849 Y-9.321
Y-9.068
X-69.853 Y-8.993
X-69.903 Y-8.852
X-70.003 Y-8.739
X-70.126 Y-8.654
X-70.263 Y-8.592
X-70.408 Y-8.553
X-70.557 Y-8.537
X-70.706 Y-8.547
X-70.782 Y-8.567
X-70.898 Y-8.627
X-70.977 Y-8.73
X-71.005 Y-8.857
Y-9.098
X-70.996 Y-9.136
X-70.973 Y-9.167
X-70.94 Y-9.188
X-70.902 Y-9.194
X-70.581 Y-9.184
X-69.946 Y-9.164
X-69.909 Y-9.156
X-69.878 Y-9.135
X-69.857 Y-9.104
X-69.849 Y-9.068
Y-8.815
X-69.853 Y-8.74
X-69.911 Y-8.601
X-70.013 Y-8.491
X-70.137 Y-8.407
X-70.275 Y-8.348
X-70.421 Y-8.312
X-70.57 Y-8.298
X-70.719 Y-8.312
X-70.785 Y-8.329
X-70.899 Y-8.39
X-70.977 Y-8.493
X-71.005 Y-8.619
Y-8.857
X-70.996 Y-8.895
X-70.973 Y-8.927
X-70.939 Y-8.948
X-70.901 Y-8.954
X-70.58 Y-8.939
X-69.945 Y-8.911
X-69.909 Y-8.903
X-69.878 Y-8.881
X-69.857 Y-8.851
X-69.849 Y-8.815
Y-8.599
X-69.857 Y-8.449
X-69.935 Y-8.322
X-70.047 Y-8.221
X-70.176 Y-8.146
X-70.317 Y-8.094
X-70.464 Y-8.065
X-70.614 Y-8.059
X-70.762 Y-8.081
X-70.805 Y-8.096
X-70.909 Y-8.16
X-70.98 Y-8.259
X-71.005 Y-8.379
Y-8.619
X-70.996 Y-8.656
X-70.974 Y-8.688
X-70.941 Y-8.709
X-70.903 Y-8.715
X-70.581 Y-8.709
X-69.947 Y-8.696
X-69.91 Y-8.688
X-69.879 Y-8.667
X-69.858 Y-8.636
X-69.849 Y-8.599
Y-8.346
X-69.853 Y-8.271
X-69.905 Y-8.13
X-70.005 Y-8.018
X-70.129 Y-7.933
X-70.266 Y-7.873
X-70.411 Y-7.834
X-70.56 Y-7.819
X-70.71 Y-7.829
X-70.784 Y-7.849
X-70.898 Y-7.909
X-70.977 Y-8.012
X-71.005 Y-8.138
Y-8.379
X-70.996 Y-8.417
X-70.973 Y-8.449
X-70.94 Y-8.469
X-70.902 Y-8.476
X-70.58 Y-8.464
X-69.946 Y-8.442
X-69.909 Y-8.434
X-69.878 Y-8.413
X-69.857 Y-8.382
X-69.849 Y-8.346
Y-8.092
Y-8.054
Y-8.008
X-69.851 Y-7.978
X-69.866 Y-7.952
X-69.933 Y-7.874
X-70.023 Y-7.823
X-70.124 Y-7.805
G3 X-70.294 Y-8.131 I0.007 J-0.211
X-69.849 Y-8.008 I0.203 J0.131
G1 Y-7.928
X-69.851 Y-7.907
X-69.853 Y-7.896
X-69.857 Y-7.885
X-69.864 Y-7.871
X-69.884 Y-7.843
X-69.897 Y-7.829
X-69.908 Y-7.821
X-69.919 Y-7.815
X-69.929 Y-7.811
X-69.94 Y-7.808
X-69.95 Y-7.806
X-69.982 Y-7.805
X-70.87
X-70.891
X-70.902
X-70.926 Y-7.811
X-70.933 Y-7.813
X-70.955 Y-7.832
X-70.966 Y-7.858
Y-7.887
X-70.953 Y-7.912
X-70.93 Y-7.93
X-70.901 Y-7.936
X-70.873 Y-7.93
X-70.851 Y-7.911
X-70.838 Y-7.885
Y-7.856
X-70.851 Y-7.83
X-70.873 Y-7.812
X-70.902 Y-7.805
X-70.912 Y-7.807
X-70.923 Y-7.809
X-70.933 Y-7.813
X-70.944 Y-7.819
X-70.955 Y-7.826
X-70.97 Y-7.84
X-70.98 Y-7.855
X-70.998 Y-7.885
X-71.001 Y-7.896
X-71.004 Y-7.907
X-71.005 Y-7.928
Y-8.138
X-71 Y-8.166
X-70.987 Y-8.192
X-70.958 Y-8.209 Z-0.983
X-70.933 Y-8.223 Z-0.966
X-70.914 Y-8.234 Z-0.939
X-70.905 Y-8.235 Z-0.916
X-70.902 Z-0.89
G0 Z2
X-62.057 Y-11.082
Z0.5
G3 X-61.573 Y-11.207 Z0.29 I0.242 J-0.062 F333.3
X-62.057 Y-11.082 Z0.079 I-0.242 J0.062
X-61.573 Y-11.207 Z-0.131 I0.242 J-0.062
X-62.057 Y-11.082 Z-0.342 I-0.242 J0.062
X-61.573 Y-11.207 Z-0.552 I0.242 J-0.062
X-62.057 Y-11.082 Z-0.763 I-0.242 J0.062
X-61.846 Y-11.392 Z-0.876 I0.242 J-0.062
X-61.565 Y-11.144 Z-0.99 I0.031 J0.248
X-62.065 I-0.25
X-61.565 I0.25
G1 X-61.528 Y-10.999 F1000
X-61.541 Y-10.925
X-61.578 Y-10.86
X-61.685 Y-10.755
X-61.829 Y-10.715
X-61.978 Y-10.736
X-62.108 Y-10.81
X-62.205 Y-10.925
X-62.257 Y-11.066
X-62.259 Y-11.216
X-62.212 Y-11.358
X-62.12 Y-11.476
X-61.994 Y-11.558
X-61.848 Y-11.594
X-61.699 Y-11.58
X-61.562 Y-11.518
X-61.454 Y-11.414
X-61.376 Y-11.286
X-61.326 Y-11.145
X-61.315 Y-10.995
X-61.342 Y-10.882
X-61.354 Y-10.842
X-61.356 Y-10.833
X-61.368 Y-10.792
X-61.387 Y-10.735
X-61.415 Y-10.707
X-61.477 Y-10.658
X-61.55 Y-10.628
X-61.628 Y-10.618
G3 X-61.768 Y-11.052 I0.008 J-0.242
X-61.368 Y-10.792 I0.155 J0.2
G1 X-61.389 Y-10.715
X-61.397 Y-10.694
X-61.403 Y-10.683
X-61.41 Y-10.673
X-61.441 Y-10.642
X-61.451 Y-10.634
X-61.462 Y-10.628
X-61.472 Y-10.623
X-61.483 Y-10.62
X-61.494 Y-10.618
X-61.525
X-61.995
X-62.144 Y-10.625
X-62.274 Y-10.7
X-62.375 Y-10.811
X-62.387 Y-10.835
X-62.413 Y-10.911
X-62.418 Y-10.991
X-62.401 Y-11.07
X-62.379 Y-11.103
X-62.347 Y-11.125
X-62.308 Y-11.133
X-62.269 Y-11.125
X-62.237 Y-11.103
X-61.927 Y-10.788
X-61.906 Y-10.756
X-61.898 Y-10.718
X-61.905 Y-10.681
X-61.926 Y-10.648
X-61.957 Y-10.626
X-61.995 Y-10.618
X-62.248
X-62.286
X-62.333
X-62.378 Y-10.62
X-62.448 Y-10.692
X-62.479 Y-10.786
X-62.467 Y-10.885
X-62.443 Y-10.926
X-62.407 Y-10.957
X-62.363 Y-10.976
X-62.316 Y-10.98
X-62.269 Y-10.969
G3 X-62.333 Y-10.618 I-0.07 J0.169
G1 X-62.403
X-62.413 Y-10.619
X-62.424 Y-10.622
X-62.434 Y-10.626
X-62.445 Y-10.631
X-62.455 Y-10.639
X-62.473 Y-10.655
X-62.491 Y-10.673
X-62.499 Y-10.683
X-62.505 Y-10.694
X-62.509 Y-10.704
X-62.512 Y-10.715
X-62.513 Y-10.726
X-62.514 Y-10.736
Y-10.747
X-62.512 Y-10.757
X-62.452 Y-10.926
X-62.254 Y-11.479
X-62.196 Y-11.618
X-62.085 Y-11.719
X-61.948 Y-11.779
X-61.8 Y-11.803
X-61.65 Y-11.788
X-61.51 Y-11.736
X-61.384 Y-11.655
X-61.276 Y-11.551
X-61.271 Y-11.544
X-61.231 Y-11.465
X-61.216 Y-11.378
X-61.227 Y-11.29
X-61.342 Y-10.882
X-61.361 Y-10.848
X-61.39 Y-10.824
X-61.426 Y-10.813
X-61.463 Y-10.815
X-61.497 Y-10.832
X-61.688 Y-10.974
X-62.218 Y-11.369
X-62.24 Y-11.391
X-62.254 Y-11.418
X-62.259 Y-11.449
X-62.254 Y-11.479
X-62.163 Y-11.733
X-62.134 Y-11.802
X-62.036 Y-11.916
X-61.901 Y-11.982
X-61.754 Y-12.009
X-61.604 Y-12
X-61.459 Y-11.961
X-61.324 Y-11.895
X-61.272 Y-11.858
X-61.19 Y-11.768
X-61.15 Y-11.654
X-61.159 Y-11.533
X-61.227 Y-11.29
X-61.243 Y-11.259
X-61.269 Y-11.236
X-61.301 Y-11.223
X-61.335 Y-11.221
X-61.368 Y-11.231
X-61.54 Y-11.319
X-62.113 Y-11.613
X-62.141 Y-11.635
X-62.16 Y-11.664
X-62.168 Y-11.698
X-62.163 Y-11.733
X-62.089 Y-11.94
X-62.06 Y-12.009
X-61.962 Y-12.123
X-61.827 Y-12.189
X-61.68 Y-12.215
X-61.53 Y-12.209
X-61.383 Y-12.177
X-61.246 Y-12.116
X-61.21 Y-12.091
X-61.126 Y-12.002
X-61.085 Y-11.886
X-61.093 Y-11.764
X-61.159 Y-11.533
X-61.174 Y-11.503
X-61.199 Y-11.48
X-61.23 Y-11.466
X-61.264 Y-11.464
X-61.296 Y-11.473
X-61.455 Y-11.547
X-62.036 Y-11.819
X-62.065 Y-11.84
X-62.085 Y-11.869
X-62.093 Y-11.904
X-62.089 Y-11.94
X-62.011 Y-12.155
X-61.983 Y-12.224
X-61.881 Y-12.335
X-61.746 Y-12.399
X-61.598 Y-12.426
X-61.448 Y-12.422
X-61.301 Y-12.392
X-61.164 Y-12.33
X-61.141 Y-12.313
X-61.06 Y-12.224
X-61.021 Y-12.11
X-61.03 Y-11.99
X-61.093 Y-11.764
X-61.109 Y-11.734
X-61.133 Y-11.711
X-61.164 Y-11.697
X-61.198 Y-11.695
X-61.23 Y-11.703
X-61.375 Y-11.769
X-61.958 Y-12.034
X-61.987 Y-12.054
X-62.008 Y-12.084
X-62.016 Y-12.119
X-62.011 Y-12.155
X-61.937 Y-12.362
X-61.908 Y-12.431
X-61.808 Y-12.543
X-61.673 Y-12.608
X-61.526 Y-12.638
X-61.376 Y-12.637
X-61.229 Y-12.608
X-61.092 Y-12.547
X-61.075 Y-12.534
X-60.996 Y-12.445
X-60.958 Y-12.332
X-60.967 Y-12.213
X-61.03 Y-11.99
X-61.045 Y-11.96
X-61.069 Y-11.937
X-61.099 Y-11.923
X-61.132 Y-11.92
X-61.165 Y-11.928
X-61.296 Y-11.985
X-61.882 Y-12.24
X-61.912 Y-12.26
X-61.933 Y-12.29
X-61.942 Y-12.326
X-61.937 Y-12.362
X-61.863 Y-12.567
X-61.835 Y-12.637
X-61.737 Y-12.751
X-61.604 Y-12.819
X-61.457 Y-12.851
X-61.307 Y-12.852
X-61.159 Y-12.825
X-61.023 Y-12.763
X-61.011 Y-12.754
X-60.932 Y-12.665
X-60.895 Y-12.553
X-60.904 Y-12.434
X-60.967 Y-12.213
X-60.982 Y-12.184
X-61.005 Y-12.161
X-61.035 Y-12.147
X-61.068 Y-12.144
X-61.1 Y-12.151
X-61.219 Y-12.2
X-61.807 Y-12.445
X-61.838 Y-12.465
X-61.859 Y-12.495
X-61.868 Y-12.531
X-61.863 Y-12.567
X-61.786 Y-12.784
X-61.757 Y-12.854
X-61.658 Y-12.967
X-61.524 Y-13.034
X-61.377 Y-13.066
X-61.227 Y-13.065
X-61.08 Y-13.037
X-60.945 Y-12.973
X-60.94 Y-12.969
X-60.867 Y-12.881
X-60.832 Y-12.771
X-60.842 Y-12.656
X-60.904 Y-12.434
X-60.919 Y-12.405
X-60.943 Y-12.382
X-60.973 Y-12.368
X-61.006 Y-12.365
X-61.038 Y-12.373
X-61.141 Y-12.416
X-61.729 Y-12.662
X-61.76 Y-12.682
X-61.781 Y-12.712
X-61.79 Y-12.748
X-61.786 Y-12.784
X-61.708 Y-13
X-61.68 Y-13.069
X-61.58 Y-13.182
X-61.446 Y-13.249
X-61.299 Y-13.279
X-61.149 Y-13.278
X-61.002 Y-13.249
X-60.938 Y-13.217
X-60.832 Y-13.13
X-60.776 Y-13.004
X-60.782 Y-12.867
X-60.842 Y-12.656
X-60.857 Y-12.626
X-60.88 Y-12.604
X-60.91 Y-12.59
X-60.943 Y-12.587
X-60.975 Y-12.594
X-61.064 Y-12.631
X-61.652 Y-12.877
X-61.683 Y-12.897
X-61.704 Y-12.927
X-61.713 Y-12.963
X-61.708 Y-13
X-61.634 Y-13.207
X-61.605 Y-13.276
X-61.509 Y-13.391
X-61.376 Y-13.46
X-61.229 Y-13.492
X-61.079
X-60.934 Y-13.456
X-60.879 Y-13.429
X-60.772 Y-13.341
X-60.716 Y-13.215
X-60.722 Y-13.078
X-60.782 Y-12.867
X-60.797 Y-12.837
X-60.821 Y-12.814
X-60.851 Y-12.801
X-60.884 Y-12.797
X-60.916 Y-12.805
X-60.991 Y-12.836
X-61.578 Y-13.084
X-61.608 Y-13.105
X-61.63 Y-13.135
X-61.639 Y-13.17
X-61.634 Y-13.207
X-61.557 Y-13.422
X-61.528 Y-13.491
X-61.431 Y-13.606
X-61.297 Y-13.674
X-61.15 Y-13.703
X-61 Y-13.699
X-60.856 Y-13.659
X-60.81 Y-13.635
X-60.709 Y-13.547
X-60.656 Y-13.423
X-60.663 Y-13.289
X-60.722 Y-13.078
X-60.738 Y-13.048
X-60.762 Y-13.025
X-60.792 Y-13.012
X-60.826 Y-13.009
X-60.858 Y-13.017
X-60.917 Y-13.043
X-61.502 Y-13.3
X-61.532 Y-13.321
X-61.553 Y-13.351
X-61.561 Y-13.386
X-61.557 Y-13.422
X-61.483 Y-13.629
X-61.454 Y-13.698
X-61.359 Y-13.814
X-61.225 Y-13.882
X-61.078 Y-13.911
X-60.928 Y-13.906
X-60.784 Y-13.864
X-60.745 Y-13.842
X-60.647 Y-13.753
X-60.597 Y-13.631
X-60.604 Y-13.499
X-60.663 Y-13.289
X-60.678 Y-13.259
X-60.703 Y-13.236
X-60.733 Y-13.222
X-60.766 Y-13.219
X-60.799 Y-13.228
X-60.844 Y-13.248
X-61.428 Y-13.507
X-61.458 Y-13.528
X-61.479 Y-13.558
X-61.487 Y-13.593
X-61.483 Y-13.629
X-61.405 Y-13.845
X-61.377 Y-13.914
X-61.278 Y-14.027
X-61.143 Y-14.093
X-60.996 Y-14.118
X-60.846 Y-14.11
X-60.703 Y-14.063
X-60.675 Y-14.046
X-60.583 Y-13.957
X-60.537 Y-13.837
X-60.544 Y-13.709
X-60.604 Y-13.499
X-60.619 Y-13.469
X-60.644 Y-13.446
X-60.675 Y-13.432
X-60.708 Y-13.43
X-60.741 Y-13.439
X-60.771 Y-13.453
X-61.352 Y-13.723
X-61.382 Y-13.744
X-61.402 Y-13.774
X-61.41 Y-13.809
X-61.405 Y-13.845
X-61.331 Y-14.051
X-61.302 Y-14.121
X-61.204 Y-14.234
X-61.069 Y-14.299
X-60.921 Y-14.324
X-60.771 Y-14.315
X-60.63 Y-14.265
X-60.61 Y-14.252
X-60.521 Y-14.163
X-60.477 Y-14.045
X-60.485 Y-13.919
X-60.544 Y-13.709
X-60.56 Y-13.679
X-60.585 Y-13.656
X-60.616 Y-13.643
X-60.649 Y-13.64
X-60.682 Y-13.649
X-60.698 Y-13.657
X-61.279 Y-13.931
X-61.308 Y-13.951
X-61.328 Y-13.981
X-61.336 Y-14.016
X-61.331 Y-14.051
X-61.254 Y-14.267
X-61.225 Y-14.336
X-61.123 Y-14.446
X-60.986 Y-14.507
X-60.838 Y-14.529
X-60.688 Y-14.516
X-60.548 Y-14.462
X-60.538 Y-14.455
X-60.456 Y-14.365
X-60.417 Y-14.251
X-60.425 Y-14.13
X-60.485 Y-13.919
X-60.501 Y-13.889
X-60.526 Y-13.866
X-60.557 Y-13.852
X-60.592 Y-13.85
X-60.624 Y-13.86
X-60.627 Y-13.861
X-61.203 Y-14.147
X-61.231 Y-14.168
X-61.251 Y-14.197
X-61.259 Y-14.232
X-61.254 Y-14.267
X-61.187 Y-14.453
X-61.158 Y-14.523
X-61.065 Y-14.64
X-60.931 Y-14.707
X-60.783 Y-14.733
X-60.633 Y-14.724
X-60.492 Y-14.672
X-60.484 Y-14.666
X-60.399 Y-14.577
X-60.358 Y-14.461
X-60.367 Y-14.338
X-60.425 Y-14.13
X-60.441 Y-14.1
X-60.465 Y-14.077
X-60.496 Y-14.064
X-60.53 Y-14.061
X-60.562 Y-14.07
X-61.133 Y-14.332
X-61.163 Y-14.353
X-61.183 Y-14.383
X-61.192 Y-14.418
X-61.187 Y-14.453
X-61.102 Y-14.689
X-61.074 Y-14.758
X-60.967 Y-14.864
X-60.828 Y-14.921
X-60.679 Y-14.937
X-60.53 Y-14.918
X-60.476 Y-14.894
X-60.365 Y-14.807
X-60.305 Y-14.68
X-60.31 Y-14.538
X-60.367 Y-14.338
X-60.383 Y-14.307
X-60.409 Y-14.284
X-60.441 Y-14.271
X-60.476 Y-14.27
X-60.509 Y-14.28
X-61.054 Y-14.57
X-61.081 Y-14.592
X-61.1 Y-14.621
X-61.107 Y-14.655
X-61.102 Y-14.689
X-61.028 Y-14.896
X-60.999 Y-14.965
X-60.891 Y-15.069
X-60.751 Y-15.124
X-60.602 Y-15.139
X-60.455 Y-15.11
X-60.414 Y-15.09
X-60.306 Y-15.003
X-60.248 Y-14.877
X-60.254 Y-14.738
X-60.31 Y-14.538
X-60.327 Y-14.507
X-60.353 Y-14.484
X-60.386 Y-14.471
X-60.421 Y-14.47
X-60.454 Y-14.482
X-60.982 Y-14.778
X-61.008 Y-14.8
X-61.026 Y-14.829
X-61.033 Y-14.862
X-61.028 Y-14.896
X-60.968 Y-15.065
X-60.939 Y-15.134
X-60.847 Y-15.253
X-60.712 Y-15.318
X-60.564 Y-15.339
X-60.416 Y-15.315
X-60.367 Y-15.294
X-60.253 Y-15.208
X-60.192 Y-15.079
X-60.197 Y-14.937
X-60.254 Y-14.738
X-60.27 Y-14.707
X-60.295 Y-14.684
X-60.327 Y-14.671
X-60.361 Y-14.669
X-60.394 Y-14.679
X-60.918 Y-14.945
X-60.946 Y-14.967
X-60.965 Y-14.996
X-60.972 Y-15.03
X-60.968 Y-15.065
X-60.89 Y-15.28
X-60.861 Y-15.35
X-60.761 Y-15.461
X-60.623 Y-15.519
X-60.473 Y-15.533
X-60.327 Y-15.501
X-60.294 Y-15.484
X-60.19 Y-15.396
X-60.135 Y-15.271
X-60.142 Y-15.135
X-60.197 Y-14.937
X-60.214 Y-14.906
X-60.24 Y-14.882
X-60.273 Y-14.87
X-60.308 Y-14.869
X-60.342 Y-14.88
X-60.844 Y-15.163
X-60.87 Y-15.184
X-60.888 Y-15.213
X-60.895 Y-15.247
X-60.89 Y-15.28
X-60.816 Y-15.487
X-60.787 Y-15.557
X-60.681 Y-15.663
X-60.541 Y-15.716
X-60.391 Y-15.725
X-60.246 Y-15.688
X-60.225 Y-15.675
X-60.128 Y-15.586
X-60.078 Y-15.465
X-60.086 Y-15.334
X-60.142 Y-15.135
X-60.158 Y-15.103
X-60.185 Y-15.08
X-60.219 Y-15.067
X-60.255
X-60.288 Y-15.08
X-60.772 Y-15.371
X-60.798 Y-15.393
X-60.814 Y-15.422
X-60.821 Y-15.454
X-60.816 Y-15.487
X-60.739 Y-15.703
X-60.71 Y-15.772
X-60.595 Y-15.869
X-60.452 Y-15.914
X-60.302 Y-15.916
X-60.159 Y-15.871
X-60.15 Y-15.865
X-60.063 Y-15.775
X-60.021 Y-15.658
X-60.029 Y-15.534
X-60.086 Y-15.334
X-60.103 Y-15.301
X-60.131 Y-15.277
X-60.166 Y-15.265
X-60.202 Y-15.266
X-60.236 Y-15.281
X-60.699 Y-15.589
X-60.723 Y-15.611
X-60.738 Y-15.639
X-60.744 Y-15.671
X-60.739 Y-15.703
X-60.68 Y-15.868
X-60.651 Y-15.937
X-60.551 Y-16.049
X-60.411 Y-16.105
X-60.262 Y-16.114
X-60.117 Y-16.075
X-60.107 Y-16.069
X-60.013 Y-15.98
X-59.966 Y-15.86
X-59.973 Y-15.731
X-60.029 Y-15.534
X-60.046 Y-15.503
X-60.072 Y-15.479
X-60.106 Y-15.466
X-60.142
X-60.175 Y-15.479
X-60.635 Y-15.751
X-60.661 Y-15.773
X-60.678 Y-15.802
X-60.684 Y-15.835
X-60.68 Y-15.868
X-60.604 Y-16.079
X-60.575 Y-16.148
X-60.466 Y-16.251
X-60.324 Y-16.299
X-60.174 Y-16.303
X-60.116 Y-16.283
X-60.015 Y-16.227
X-59.943 Y-16.137
X-59.911 Y-16.026
X-59.922 Y-15.912
X-59.973 Y-15.731
X-59.991 Y-15.699
X-60.018 Y-15.675
X-60.053 Y-15.662
X-60.089 Y-15.663
X-60.123 Y-15.677
X-60.563 Y-15.964
X-60.587 Y-15.986
X-60.603 Y-16.015
X-60.609 Y-16.047
X-60.604 Y-16.079
X-60.543 Y-16.248
X-60.515 Y-16.317
X-60.418 Y-16.432
X-60.28 Y-16.489
X-60.13 Y-16.49
X-59.986 Y-16.447
X-59.981 Y-16.444
X-59.893 Y-16.352
X-59.851 Y-16.233
X-59.862 Y-16.107
X-59.922 Y-15.912
X-59.94 Y-15.88
X-59.967 Y-15.857
X-60.001 Y-15.845
X-60.037 Y-15.846
X-60.07 Y-15.859
X-60.502 Y-16.133
X-60.526 Y-16.154
X-60.542 Y-16.183
X-60.548 Y-16.215
X-60.543 Y-16.248
X-60.466 Y-16.463
X-60.437 Y-16.532
X-60.327 Y-16.634
X-60.183 Y-16.677
X-60.033 Y-16.675
X-59.893 Y-16.622
X-59.883 Y-16.614
X-59.799 Y-16.505
X-59.773 Y-16.369
X-59.81 Y-16.236
X-59.832 Y-16.211
X-59.86 Y-16.194
X-59.892 Y-16.188
X-59.925 Y-16.192
X-60.4 Y-16.337
X-60.435 Y-16.356
X-60.459 Y-16.386
X-60.471 Y-16.424
X-60.466 Y-16.463
X-60.406 Y-16.632
X-60.377 Y-16.701
X-60.276 Y-16.813
X-60.136 Y-16.866
X-59.986 Y-16.869
X-59.843 Y-16.824
X-59.793 Y-16.79
X-59.705 Y-16.695
X-59.663 Y-16.573
X-59.675 Y-16.444
X-59.739 Y-16.332
X-59.771 Y-16.31
X-59.81 Y-16.301
X-59.848 Y-16.309
X-60.347 Y-16.509
X-60.379 Y-16.529
X-60.401 Y-16.559
X-60.41 Y-16.595
X-60.406 Y-16.632
X-60.331 Y-16.839
X-60.302 Y-16.908
X-60.193 Y-17.01
X-60.05 Y-17.056
X-59.9
X-59.757 Y-17.009
X-59.631 Y-16.928
X-59.534 Y-16.814
X-59.52 Y-16.783
X-59.498 Y-16.646
X-59.54 Y-16.514
X-59.638 Y-16.416
X-59.665 Y-16.397
X-59.739 Y-16.332
X-59.77 Y-16.315
X-59.805 Y-16.31
X-59.84 Y-16.317
X-59.87 Y-16.336
X-60.304 Y-16.735
X-60.326 Y-16.765
X-60.336 Y-16.801
X-60.331 Y-16.839
X-60.271 Y-17.008
X-60.242 Y-17.077
X-60.143 Y-17.19
X-60.004 Y-17.245
X-59.854 Y-17.252
X-59.707 Y-17.22
X-59.572 Y-17.155
X-59.453 Y-17.065
X-59.363 Y-16.944
X-59.304 Y-16.806
X-59.303 Y-16.79
X-59.319 Y-16.661
X-59.388 Y-16.551
X-59.498 Y-16.48
X-59.58 Y-16.45
X-59.609 Y-16.434
X-59.638 Y-16.416
X-59.668 Y-16.406
X-59.7 Y-16.405
X-59.731 Y-16.414
X-59.757 Y-16.432
X-59.761 Y-16.436
X-60.245 Y-16.906
X-60.266 Y-16.936
X-60.275 Y-16.971
X-60.271 Y-17.008
X-60.193 Y-17.223
X-60.165 Y-17.292
X-60.053 Y-17.393
X-59.911 Y-17.44
X-59.761 Y-17.445
X-59.613 Y-17.417
X-59.474 Y-17.361
X-59.35 Y-17.277
X-59.244 Y-17.171
X-59.157 Y-17.049
X-59.106 Y-16.908
X-59.097 Y-16.838
X-59.108 Y-16.719
X-59.163 Y-16.614
X-59.255 Y-16.538
X-59.369 Y-16.504
X-59.406 Y-16.509
X-59.438 Y-16.527
X-59.645 Y-16.695
X-60.161 Y-17.115
X-60.186 Y-17.146
X-60.198 Y-17.184
X-60.193 Y-17.223
X-60.133 Y-17.392
X-60.119 Y-17.43
X-60.114 Y-17.441
X-60.091 Y-17.468
X-60.059 Y-17.489
X-60.022 Y-17.497
X-59.984 Y-17.49
X-59.951 Y-17.469
X-59.929 Y-17.437
X-59.921 Y-17.399
X-59.927 Y-17.361
X-59.948 Y-17.328
X-59.979 Y-17.306
X-60.017 Y-17.297
X-60.055 Y-17.303
X-60.088 Y-17.323
X-60.09 Y-17.325
X-60.11 Y-17.35
X-60.121 Y-17.379
X-60.122 Y-17.41
X-60.114 Y-17.441
X-60.107 Y-17.451
X-60.088 Y-17.472
X-60.077 Y-17.481
X-60.066 Y-17.488
X-60.056 Y-17.493
X-60.045 Y-17.497
X-60.035 Y-17.499
X-60.024 Y-17.501
X-59.534
X-59.384 Y-17.494
X-59.243 Y-17.441
X-59.12 Y-17.355
X-59.019 Y-17.245
X-58.94 Y-17.117
X-58.892 Y-16.975
X-58.874 Y-16.826
X-58.884 Y-16.757
X-58.925 Y-16.642
X-59.008 Y-16.552
X-59.12 Y-16.501
X-59.242 Y-16.497
X-59.273 Y-16.509
X-59.298 Y-16.53
X-59.315 Y-16.559
X-59.411 Y-16.809
X-59.624 Y-17.365
X-59.63 Y-17.403
X-59.622 Y-17.44
X-59.602 Y-17.471
X-59.57 Y-17.493
X-59.534 Y-17.501
X-59.195
X-59.046 Y-17.494
X-58.916 Y-17.418
X-58.81 Y-17.311
X-58.73 Y-17.185
X-58.674 Y-17.046
X-58.65 Y-16.898
X-58.657 Y-16.748
X-58.703 Y-16.605
X-58.725 Y-16.569
X-58.83 Y-16.467
X-58.971 Y-16.427
X-59.114 Y-16.458
X-59.139 Y-16.477
X-59.156 Y-16.502
X-59.165 Y-16.531
X-59.201 Y-16.776
X-59.291 Y-17.387
X-59.29 Y-17.42
X-59.278 Y-17.451
X-59.257 Y-17.477
X-59.228 Y-17.494
X-59.195 Y-17.501
X-58.942
X-58.904
X-58.857
X-58.782 Y-17.497
X-58.655 Y-17.416
X-58.631 Y-17.386
X-58.612 Y-17.353
X-58.596 Y-17.318
X-58.592 Y-17.283
X-58.6 Y-17.248
X-58.619 Y-17.218
X-58.648 Y-17.197
X-58.682 Y-17.188
X-58.717 Y-17.19
X-58.749 Y-17.205
X-58.911 Y-17.319
X-58.936 Y-17.345
X-58.951 Y-17.377
X-58.953 Y-17.412
X-58.943 Y-17.446
X-58.922 Y-17.474
X-58.892 Y-17.494
X-58.857 Y-17.501
X-58.734
X-58.724 Y-17.499
X-58.713 Y-17.496
X-58.703 Y-17.492
X-58.692 Y-17.487
X-58.66 Y-17.462
X-58.65 Y-17.451
X-58.643 Y-17.44
X-58.637 Y-17.43
X-58.498 Y-17.046
X-58.455 Y-16.902
X-58.445 Y-16.753
X-58.471 Y-16.605
X-58.534 Y-16.469
X-58.57 Y-16.427
X-58.66 Y-16.355
X-58.77 Y-16.321
X-58.884 Y-16.329
X-58.988 Y-16.379
X-59.038 Y-16.416
X-59.073 Y-16.437
X-59.114 Y-16.458
X-59.143 Y-16.481
X-59.161 Y-16.514
X-59.166 Y-16.551
X-59.158 Y-16.587
X-59.136 Y-16.617
X-59.083 Y-16.669
X-58.661 Y-17.08
X-58.628 Y-17.101
X-58.59 Y-17.109
X-58.552 Y-17.1
X-58.52 Y-17.078
X-58.498 Y-17.046
X-58.377 Y-16.708
X-58.333 Y-16.564
X-58.357 Y-16.416
X-58.432 Y-16.287
X-58.547 Y-16.188
X-58.678 Y-16.166
X-58.805 Y-16.203
X-58.904 Y-16.292
X-58.921 Y-16.325
X-58.925 Y-16.363
X-58.914 Y-16.399
X-58.892 Y-16.429
X-58.536 Y-16.745
X-58.503 Y-16.765
X-58.465 Y-16.771
X-58.428 Y-16.762
X-58.397 Y-16.74
X-58.377 Y-16.708
X-58.285 Y-16.455
X-58.263 Y-16.383
X-58.277 Y-16.233
X-58.352 Y-16.103
X-58.473 Y-16.015
X-58.482 Y-16.012
X-58.627 Y-16.008
X-58.757 Y-16.071
X-58.842 Y-16.188
X-58.848 Y-16.223
X-58.841 Y-16.258
X-58.822 Y-16.289
X-58.794 Y-16.311
X-58.425 Y-16.506
X-58.393 Y-16.516
X-58.36
X-58.328 Y-16.504
X-58.303 Y-16.483
X-58.285 Y-16.455
X-58.211 Y-16.248
X-58.189 Y-16.176
X-58.214 Y-16.028
X-58.302 Y-15.906
X-58.433 Y-15.833
X-58.457 Y-15.829
X-58.598 Y-15.84
X-58.719 Y-15.914
X-58.792 Y-16.036
X-58.832 Y-16.163
X-58.842 Y-16.188
X-58.848 Y-16.226
X-58.839 Y-16.264
X-58.816 Y-16.295
X-58.783 Y-16.316
X-58.745 Y-16.322
X-58.301 Y-16.31
X-58.263 Y-16.302
X-58.232 Y-16.28
X-58.211 Y-16.248
X-58.15 Y-16.079
X-58.128 Y-16.007
X-58.134 Y-15.932
X-58.192 Y-15.794
X-58.301 Y-15.691
X-58.442 Y-15.639
X-58.448
X-58.573 Y-15.666
X-58.676 Y-15.743
X-58.737 Y-15.855
X-58.752 Y-15.91
X-58.792 Y-16.036
X-58.795 Y-16.073
X-58.784 Y-16.109
X-58.76 Y-16.138
X-58.728 Y-16.157
X-58.691 Y-16.162
X-58.238 Y-16.141
X-58.201 Y-16.132
X-58.17 Y-16.111
X-58.15 Y-16.079
X-58.089 Y-15.91
X-58.067 Y-15.838
X-58.085 Y-15.689
X-58.172 Y-15.567
X-58.294 Y-15.48
X-58.33 Y-15.472
X-58.443 Y-15.467
X-58.55 Y-15.505
X-58.635 Y-15.58
X-58.686 Y-15.681
X-58.737 Y-15.855
X-58.739 Y-15.892
X-58.728 Y-15.927
X-58.705 Y-15.955
X-58.674 Y-15.974
X-58.638 Y-15.98
X-58.18 Y-15.973
X-58.142 Y-15.964
X-58.11 Y-15.942
X-58.089 Y-15.91
X-58.028 Y-15.741
X-58.006 Y-15.669
X-58.014 Y-15.519
X-58.094 Y-15.392
X-58.218 Y-15.308
X-58.268 Y-15.295
X-58.383 Y-15.287
X-58.493 Y-15.323
X-58.581 Y-15.398
X-58.634 Y-15.501
X-58.686 Y-15.681
X-58.689 Y-15.717
X-58.678 Y-15.751
X-58.656 Y-15.78
X-58.625 Y-15.799
X-58.589 Y-15.805
X-58.12 Y-15.804
X-58.082 Y-15.796
X-58.049 Y-15.774
X-58.028 Y-15.741
X-57.95 Y-15.525
X-57.939 Y-15.49
X-57.942 Y-15.415
X-57.992 Y-15.273
X-58.096 Y-15.165
X-58.232 Y-15.101
X-58.26 Y-15.098
X-58.397 Y-15.116
X-58.512 Y-15.193
X-58.58 Y-15.313
X-58.634 Y-15.501
X-58.637 Y-15.539
X-58.625 Y-15.574
X-58.6 Y-15.603
X-58.567 Y-15.621
X-58.53 Y-15.625
X-58.035 Y-15.588
X-58 Y-15.578
X-57.97 Y-15.557
X-57.95 Y-15.525
X-57.897 Y-15.377
X-57.875 Y-15.305
X-57.892 Y-15.156
X-57.976 Y-15.032
X-58.097 Y-14.943
X-58.241 Y-14.901
X-58.249
X-58.369 Y-14.932
X-58.466 Y-15.009
X-58.524 Y-15.118
X-58.58 Y-15.313
X-58.583 Y-15.349
X-58.572 Y-15.384
X-58.55 Y-15.412
X-58.519 Y-15.431
X-58.484 Y-15.438
X-57.99 Y-15.439
X-57.951 Y-15.432
X-57.918 Y-15.41
X-57.897 Y-15.377
X-57.828 Y-15.188
X-57.806 Y-15.116
X-57.828 Y-14.967
X-57.912 Y-14.843
X-58.032 Y-14.753
X-58.175 Y-14.709
X-58.18
X-58.305 Y-14.736
X-58.407 Y-14.813
X-58.468 Y-14.926
X-58.524 Y-15.118
X-58.526 Y-15.154
X-58.516 Y-15.188
X-58.494 Y-15.216
X-58.464 Y-15.235
X-58.428 Y-15.242
X-57.923 Y-15.25
X-57.893 Y-15.246
X-57.866 Y-15.234
X-57.844 Y-15.213
X-57.828 Y-15.188
X-57.767 Y-15.019
X-57.746 Y-14.947
X-57.753 Y-14.797
X-57.831 Y-14.668
X-57.947 Y-14.573
X-58.087 Y-14.52
X-58.105 Y-14.519
X-58.238 Y-14.54
X-58.348 Y-14.618
X-58.413 Y-14.735
X-58.468 Y-14.926
X-58.471 Y-14.96
X-58.461 Y-14.994
X-58.44 Y-15.022
X-58.411 Y-15.042
X-58.377 Y-15.05
X-57.866 Y-15.081
X-57.835 Y-15.078
X-57.807 Y-15.066
X-57.783 Y-15.045
X-57.767 Y-15.019
X-57.693 Y-14.812
X-57.671 Y-14.74
X-57.694 Y-14.592
X-57.778 Y-14.467
X-57.896 Y-14.374
X-58.038 Y-14.326
X-58.057 Y-14.325
X-58.187 Y-14.349
X-58.294 Y-14.426
X-58.358 Y-14.542
X-58.413 Y-14.735
X-58.416 Y-14.771
X-58.406 Y-14.805
X-58.384 Y-14.833
X-58.354 Y-14.852
X-58.319 Y-14.859
X-57.789 Y-14.874
X-57.758 Y-14.871
X-57.731 Y-14.858
X-57.708 Y-14.838
X-57.693 Y-14.812
X-57.635 Y-14.651
X-57.613 Y-14.58
X-57.615 Y-14.43
X-57.688 Y-14.298
X-57.801 Y-14.199
X-57.938 Y-14.139
X-57.976 Y-14.135
X-58.115 Y-14.15
X-58.233 Y-14.227
X-58.302 Y-14.349
X-58.358 Y-14.542
X-58.36 Y-14.576
X-58.351 Y-14.609
X-58.331 Y-14.637
X-58.303 Y-14.657
X-58.27 Y-14.666
X-57.737 Y-14.714
X-57.705 Y-14.712
X-57.676 Y-14.7
X-57.652 Y-14.679
X-57.635 Y-14.651
X-57.56 Y-14.443
X-57.538 Y-14.371
X-57.555 Y-14.222
X-57.636 Y-14.095
X-57.75 Y-13.998
X-57.89 Y-13.944
X-57.925 Y-13.94
X-58.063 Y-13.957
X-58.178 Y-14.034
X-58.246 Y-14.155
X-58.302 Y-14.349
X-58.304 Y-14.384
X-58.295 Y-14.417
X-58.274 Y-14.446
X-58.245 Y-14.465
X-58.211 Y-14.473
X-57.658 Y-14.505
X-57.627 Y-14.502
X-57.599 Y-14.49
X-57.576 Y-14.469
X-57.56 Y-14.443
X-57.493 Y-14.258
X-57.472 Y-14.187
X-57.485 Y-14.037
X-57.562 Y-13.908
X-57.675 Y-13.81
X-57.813 Y-13.752
X-57.859 Y-13.745
X-58 Y-13.759
X-58.119 Y-13.836
X-58.189 Y-13.959
X-58.246 Y-14.155
X-58.248 Y-14.19
X-58.239 Y-14.223
X-58.219 Y-14.251
X-58.19 Y-14.27
X-58.156 Y-14.279
X-57.594 Y-14.321
X-57.562 Y-14.318
X-57.533 Y-14.306
X-57.51 Y-14.285
X-57.493 Y-14.258
X-57.419 Y-14.051
X-57.397 Y-13.98
X-57.422 Y-13.832
X-57.504 Y-13.706
X-57.619 Y-13.61
X-57.758 Y-13.554
X-57.804 Y-13.548
X-57.945 Y-13.562
X-58.063 Y-13.64
X-58.133 Y-13.762
X-58.189 Y-13.959
X-58.192 Y-13.994
X-58.182 Y-14.028
X-58.161 Y-14.056
X-58.132 Y-14.075
X-58.098 Y-14.083
X-57.517 Y-14.114
X-57.486 Y-14.111
X-57.458 Y-14.099
X-57.435 Y-14.078
X-57.419 Y-14.051
X-57.358 Y-13.883
X-57.336 Y-13.811
X-57.344 Y-13.661
X-57.418 Y-13.53
X-57.528 Y-13.429
X-57.663 Y-13.364
X-57.811 Y-13.335
X-57.819 Y-13.336
X-57.929 Y-13.372
X-58.018 Y-13.447
X-58.072 Y-13.551
X-58.133 Y-13.762
X-58.135 Y-13.796
X-58.126 Y-13.829
X-58.106 Y-13.857
X-58.079 Y-13.877
X-58.046 Y-13.886
X-57.461 Y-13.945
X-57.429 Y-13.943
X-57.399 Y-13.931
X-57.374 Y-13.91
X-57.358 Y-13.883
X-57.28 Y-13.667
X-57.258 Y-13.595
X-57.283 Y-13.447
X-57.364 Y-13.321
X-57.478 Y-13.223
X-57.611 Y-13.155
X-57.675 Y-13.143
X-57.82 Y-13.154
X-57.943 Y-13.23
X-58.015 Y-13.356
X-58.018 Y-13.39
X-58.008 Y-13.423
X-57.988 Y-13.451
X-57.96 Y-13.471
X-57.415 Y-13.721
X-57.384 Y-13.729
X-57.351 Y-13.727
X-57.321 Y-13.715
X-57.297 Y-13.695
X-57.28 Y-13.667
X-57.223 Y-13.508
X-57.201 Y-13.437
X-57.2 Y-13.287
X-57.269 Y-13.153
X-57.373 Y-13.045
X-57.503 Y-12.97
X-57.648 Y-12.932
X-57.677 Y-12.933
X-57.799 Y-12.963
X-57.897 Y-13.039
X-57.956 Y-13.149
X-57.958 Y-13.182
X-57.95 Y-13.214
X-57.933 Y-13.241
X-57.907 Y-13.261
X-57.904 Y-13.263
X-57.364 Y-13.559
X-57.332 Y-13.57
X-57.298
X-57.267 Y-13.558
X-57.241 Y-13.537
X-57.223 Y-13.508
X-57.145 Y-13.291
X-57.123 Y-13.22
X-57.138 Y-13.07
X-57.212 Y-12.94
X-57.32 Y-12.836
X-57.45 Y-12.761
X-57.596 Y-12.726
X-57.614 Y-12.727
X-57.737 Y-12.755
X-57.837 Y-12.832
X-57.896 Y-12.943
X-57.899 Y-12.977
X-57.89 Y-13.009
X-57.872 Y-13.037
X-57.845 Y-13.057
X-57.835 Y-13.062
X-57.283 Y-13.343
X-57.251 Y-13.353
X-57.218 Y-13.352
X-57.187 Y-13.341
X-57.162 Y-13.32
X-57.145 Y-13.291
X-57.067 Y-13.076
X-57.045 Y-13.004
X-57.072 Y-12.857
X-57.151 Y-12.729
X-57.261 Y-12.627
X-57.391 Y-12.553
X-57.537 Y-12.519
X-57.556 Y-12.52
X-57.678 Y-12.549
X-57.777 Y-12.626
X-57.837 Y-12.736
X-57.839 Y-12.77
X-57.83 Y-12.803
X-57.811 Y-12.831
X-57.783 Y-12.851
X-57.764 Y-12.86
X-57.203 Y-13.129
X-57.172 Y-13.138
X-57.139 Y-13.137
X-57.109 Y-13.125
X-57.084 Y-13.104
X-57.067 Y-13.076
X-57.006 Y-12.907
X-56.984 Y-12.835
X-56.991 Y-12.685
X-57.06 Y-12.552
X-57.162 Y-12.443
X-57.289 Y-12.362
X-57.432 Y-12.316
X-57.472 Y-12.314
X-57.604 Y-12.336
X-57.713 Y-12.414
X-57.777 Y-12.53
X-57.78 Y-12.563
X-57.772 Y-12.595
X-57.754 Y-12.623
X-57.728 Y-12.643
X-57.689 Y-12.664
X-57.147 Y-12.958
X-57.115 Y-12.968
X-57.081
X-57.05 Y-12.957
X-57.024 Y-12.936
X-57.006 Y-12.907
X-56.932 Y-12.7
X-56.91 Y-12.628
X-56.921 Y-12.479
X-56.991 Y-12.346
X-57.095 Y-12.238
X-57.221 Y-12.156
X-57.364 Y-12.111
X-57.408 Y-12.108
X-57.542 Y-12.129
X-57.652 Y-12.206
X-57.718 Y-12.324
X-57.72 Y-12.357
X-57.712 Y-12.389
X-57.694 Y-12.417
X-57.667 Y-12.437
X-57.618 Y-12.463
X-57.071 Y-12.751
X-57.039 Y-12.762
X-57.006 Y-12.761
X-56.975 Y-12.75
X-56.949 Y-12.728
X-56.932 Y-12.7
X-56.854 Y-12.485
X-56.832 Y-12.413
X-56.852 Y-12.264
X-56.926 Y-12.133
X-57.032 Y-12.027
X-57.159 Y-11.947
X-57.302 Y-11.904
X-57.349 Y-11.9
X-57.482 Y-11.922
X-57.592 Y-11.999
X-57.658 Y-12.116
X-57.66 Y-12.15
X-57.652 Y-12.183
X-57.633 Y-12.21
X-57.605 Y-12.23
X-57.546 Y-12.26
X-56.991 Y-12.537
X-56.96 Y-12.547
X-56.927 Y-12.545
X-56.896 Y-12.534
X-56.871 Y-12.513
X-56.854 Y-12.485
X-56.789 Y-12.306
X-56.768 Y-12.234
X-56.772 Y-12.084
X-56.839 Y-11.95
X-56.939 Y-11.838
X-57.062 Y-11.753
X-57.203 Y-11.701
X-57.352 Y-11.682
X-57.355
X-57.46 Y-11.721
X-57.543 Y-11.795
X-57.594 Y-11.895
X-57.597 Y-11.927
X-57.589 Y-11.959
X-57.571 Y-11.986
X-57.546 Y-12.006
X-57.466 Y-12.052
X-56.932 Y-12.356
X-56.9 Y-12.367
X-56.866
X-56.834 Y-12.356
X-56.807 Y-12.335
X-56.789 Y-12.306
X-56.718 Y-12.109
X-56.696 Y-12.037
X-56.698 Y-11.887
X-56.762 Y-11.751
X-56.861 Y-11.638
X-56.982 Y-11.551
X-57.12 Y-11.49
X-57.268 Y-11.465
X-57.272 Y-11.466
X-57.385 Y-11.5
X-57.477 Y-11.576
X-57.532 Y-11.681
X-57.535 Y-11.713
X-57.527 Y-11.744
X-57.51 Y-11.772
X-57.486 Y-11.792
X-57.391 Y-11.848
X-56.862 Y-12.158
X-56.83 Y-12.17
X-56.795
X-56.763 Y-12.159
X-56.736 Y-12.138
X-56.718 Y-12.109
X-56.641 Y-11.893
X-56.619 Y-11.822
X-56.628 Y-11.672
X-56.694 Y-11.537
X-56.794 Y-11.426
X-56.916 Y-11.338
X-57.052 Y-11.276
X-57.2 Y-11.251
X-57.208 Y-11.252
X-57.323 Y-11.286
X-57.415 Y-11.362
X-57.471 Y-11.468
X-57.473 Y-11.5
X-57.465 Y-11.531
X-57.448 Y-11.559
X-57.423 Y-11.579
X-57.317 Y-11.639
X-56.783 Y-11.943
X-56.751 Y-11.955
X-56.717
X-56.685 Y-11.944
X-56.658 Y-11.922
X-56.641 Y-11.893
X-56.566 Y-11.686
X-56.544 Y-11.615
X-56.554 Y-11.465
X-56.621 Y-11.33
X-56.719 Y-11.218
X-56.839 Y-11.128
X-56.975 Y-11.064
X-57.123 Y-11.037
X-57.139 Y-11.038
X-57.256 Y-11.07
X-57.352 Y-11.146
X-57.409 Y-11.254
X-57.412 Y-11.286
X-57.404 Y-11.318
X-57.386 Y-11.345
X-57.361 Y-11.365
X-57.243 Y-11.433
X-56.708 Y-11.736
X-56.676 Y-11.748
X-56.642
X-56.61 Y-11.737
X-56.584 Y-11.715
X-56.566 Y-11.686
X-56.488 Y-11.471
X-56.467 Y-11.399
X-56.481 Y-11.25
X-56.549 Y-11.116
X-56.648 Y-11.004
X-56.768 Y-10.914
X-56.904 Y-10.85
X-57.051 Y-10.822
X-57.073 Y-10.823
X-57.192 Y-10.854
X-57.289 Y-10.931
X-57.347 Y-11.04
X-57.35 Y-11.072
X-57.342 Y-11.104
X-57.324 Y-11.131
X-57.298 Y-11.152
X-57.169 Y-11.223
X-56.63 Y-11.521
X-56.598 Y-11.532
X-56.564
X-56.532 Y-11.521
X-56.506 Y-11.5
X-56.488 Y-11.471
X-56.414 Y-11.264
X-56.392 Y-11.192
X-56.405 Y-11.043
X-56.472 Y-10.908
X-56.57 Y-10.795
X-56.689 Y-10.704
X-56.824 Y-10.638
X-56.891 Y-10.624
X-56.912 Y-10.621
X-56.933 Y-10.618
X-56.953
X-56.99 Y-10.626
X-57.021 Y-10.647
X-57.042 Y-10.678
X-57.05 Y-10.714
X-57.044 Y-10.751
X-57.025 Y-10.783
X-56.963 Y-10.854
X-56.582 Y-11.293
X-56.556 Y-11.314
X-56.524 Y-11.325
X-56.49 Y-11.326
X-56.458 Y-11.314
X-56.432 Y-11.293
X-56.414 Y-11.264
X-56.336 Y-11.049
X-56.314 Y-10.977
X-56.33 Y-10.828
X-56.353 Y-10.783
X-56.419 Y-10.695
X-56.513 Y-10.638
X-56.621 Y-10.618
X-56.655 Y-10.625
X-56.684 Y-10.644
X-56.706 Y-10.671
X-56.716 Y-10.704
X-56.715 Y-10.739
X-56.701 Y-10.772
X-56.513 Y-11.065
X-56.488 Y-11.092
X-56.456 Y-11.108
X-56.42 Y-11.111
X-56.385 Y-11.101
X-56.356 Y-11.079
X-56.336 Y-11.049
X-56.271 Y-10.867
X-56.262 Y-10.842
X-56.245 Y-10.795
X-56.238 Y-10.77
X-56.275 Y-10.691
X-56.343 Y-10.637
X-56.428 Y-10.618
X-56.468 Y-10.626
X-56.503 Y-10.647
X-56.53 Y-10.678
X-56.545 Y-10.716
X-56.547 Y-10.758
G3 X-56.245 Y-10.795 I0.156 J0.019
G1 X-56.232 Y-10.757
X-56.23 Y-10.747
Y-10.736
Y-10.726
X-56.232 Y-10.715
X-56.235 Y-10.704
X-56.239 Y-10.694
X-56.245 Y-10.683
X-56.266 Y-10.656
X-56.282 Y-10.64
X-56.293 Y-10.632
X-56.303 Y-10.627
X-56.314 Y-10.622
X-56.324 Y-10.62
X-56.335 Y-10.618
X-57.005
X-57.043
X-57.09
X-57.168 Y-10.622
X-57.193 Y-10.635
X-57.211 Y-10.657
X-57.218 Y-10.685
X-57.214 Y-10.713
X-57.199 Y-10.737
X-57.175 Y-10.753
X-57.147 Y-10.758
X-57.091 Y-10.757
X-57.061 Y-10.75
X-57.037 Y-10.73
X-57.024 Y-10.703
Y-10.672
X-57.037 Y-10.645
X-57.06 Y-10.625
X-57.09 Y-10.618
X-57.149
X-57.159 Y-10.619
X-57.17 Y-10.622
X-57.181 Y-10.626
X-57.191 Y-10.631
X-57.202 Y-10.639
X-57.212 Y-10.648
X-57.233 Y-10.673
X-57.24 Y-10.683
X-57.246 Y-10.694
X-57.253 Y-10.715
X-58.072 Y-13.551
X-58.075 Y-13.579
X-58.069 Y-13.607
X-58.046 Y-13.632 Z-0.983
X-58.026 Y-13.653 Z-0.966
X-58.011 Y-13.668 Z-0.939
X-58.002 Y-13.671 Z-0.915
X-57.999 Y-13.672 Z-0.89
G0 Z2
X-42.25 Y-8.215
Z0.5
G3 X-41.766 Y-8.34 Z0.29 I0.242 J-0.062 F333.3
X-42.25 Y-8.215 Z0.079 I-0.242 J0.062
X-41.766 Y-8.34 Z-0.131 I0.242 J-0.062
X-42.25 Y-8.215 Z-0.342 I-0.242 J0.062
X-41.766 Y-8.34 Z-0.552 I0.242 J-0.062
X-42.25 Y-8.215 Z-0.763 I-0.242 J0.062
X-42.039 Y-8.526 Z-0.876 I0.242 J-0.062
X-41.758 Y-8.278 Z-0.99 I0.031 J0.248
X-42.258 I-0.25
X-41.758 I0.25
G1 X-41.721 Y-8.132 F1000
X-41.734 Y-8.058
X-41.771 Y-7.993
X-41.878 Y-7.888
X-42.022 Y-7.848
X-42.171 Y-7.87
X-42.301 Y-7.944
X-42.398 Y-8.058
X-42.45 Y-8.199
X-42.452 Y-8.349
X-42.404 Y-8.491
X-42.313 Y-8.61
X-42.187 Y-8.691
X-42.041 Y-8.727
X-41.892 Y-8.713
X-41.755 Y-8.651
X-41.647 Y-8.548
X-41.569 Y-8.42
X-41.518 Y-8.278
X-41.508 Y-8.129
X-41.543 Y-7.983
X-41.614 Y-7.85
X-41.722 Y-7.747
X-41.853 Y-7.673
X-41.999 Y-7.64
X-42.149 Y-7.647
X-42.293 Y-7.688
X-42.423 Y-7.764
X-42.529 Y-7.87
X-42.611 Y-7.995
X-42.661 Y-8.137
X-42.675 Y-8.286
X-42.659 Y-8.435
X-42.608 Y-8.576
X-42.526 Y-8.702
X-42.419 Y-8.807
X-42.292 Y-8.886
X-42.149 Y-8.933
X-42 Y-8.949
X-41.851 Y-8.931
X-41.711 Y-8.878
X-41.584 Y-8.798
X-41.475 Y-8.695
X-41.388 Y-8.573
X-41.325 Y-8.437
X-41.287 Y-8.292
X-41.279 Y-8.142
X-41.301 Y-7.994
X-41.35 Y-7.852
X-41.426 Y-7.723
X-41.527 Y-7.612
X-41.552 Y-7.593
X-41.607 Y-7.561
X-41.668 Y-7.541
X-41.731 Y-7.534
X-42.244
X-42.394 Y-7.542
X-42.533 Y-7.598
X-42.654 Y-7.686
X-42.753 Y-7.799
X-42.829 Y-7.928
X-42.881 Y-8.069
X-42.907 Y-8.217
Y-8.239
X-42.892 Y-8.329
X-42.851 Y-8.411
X-42.788 Y-8.476
X-42.759 Y-8.491
X-42.727 Y-8.495
X-42.695 Y-8.488
X-42.667 Y-8.472
X-42.646 Y-8.448
X-42.471 Y-8.173
X-42.163 Y-7.688
X-42.15 Y-7.655
X-42.148 Y-7.621
X-42.159 Y-7.587
X-42.18 Y-7.56
X-42.21 Y-7.541
X-42.244 Y-7.534
X-42.582
X-42.732 Y-7.542
X-42.859 Y-7.622
X-42.963 Y-7.73
X-43.043 Y-7.856
X-43.102 Y-7.994
X-43.115 Y-8.06
X-43.108 Y-8.198
X-43.039 Y-8.318
X-42.922 Y-8.392
X-42.884 Y-8.4
X-42.846 Y-8.394
X-42.813 Y-8.373
X-42.791 Y-8.341
X-42.734 Y-8.214
X-42.494 Y-7.675
X-42.486 Y-7.637
X-42.492 Y-7.599
X-42.513 Y-7.566
X-42.544 Y-7.543
X-42.582 Y-7.534
X-42.836
X-42.986 Y-7.542
X-43.113 Y-7.621
X-43.215 Y-7.731
X-43.289 Y-7.862
X-43.329 Y-8.006
X-43.33 Y-8.052
X-43.299 Y-8.188
X-43.21 Y-8.294
X-43.083 Y-8.35
X-43.05 Y-8.349
X-43.018 Y-8.337
X-42.992 Y-8.315
X-42.975 Y-8.286
X-42.954 Y-8.228
X-42.746 Y-7.669
X-42.739 Y-7.632
X-42.747 Y-7.595
X-42.768 Y-7.564
X-42.799 Y-7.543
X-42.836 Y-7.534
X-43.089
X-43.164 Y-7.538
X-43.305 Y-7.59
X-43.415 Y-7.691
X-43.495 Y-7.818
X-43.534 Y-7.963
X-43.537 Y-8.113
X-43.532 Y-8.131
X-43.47 Y-8.243
X-43.368 Y-8.319
X-43.244 Y-8.346
X-43.174
X-43.089 Y-8.349
X-43.005 Y-8.364
X-42.92 Y-8.393
X-42.836 Y-8.44
X-42.787 Y-8.477
X-42.751 Y-8.511
X-42.708 Y-8.561
X-42.667 Y-8.623
X-42.654 Y-8.646
X-42.635 Y-8.688
X-42.619 Y-8.73
X-42.608 Y-8.777
X-42.567 Y-8.921
X-42.46 Y-9.026
X-42.331 Y-9.103
X-42.19 Y-9.154
X-42.042 Y-9.178
X-41.892 Y-9.173
X-41.746 Y-9.142
X-41.605 Y-9.089
X-41.558 Y-9.062
X-41.491 Y-9.01
X-41.441 Y-8.94
X-41.413 Y-8.859
X-41.38 Y-8.688
X-41.376 Y-8.677
X-41.362 Y-8.646
X-41.34 Y-8.608
X-41.307 Y-8.561
X-41.272 Y-8.52
X-41.248 Y-8.497
X-41.146 Y-8.388
X-41.089 Y-8.249
X-41.07 Y-8.1
X-41.081 Y-7.95
X-41.119 Y-7.805
X-41.182 Y-7.669
X-41.184 Y-7.665
X-41.251 Y-7.595
X-41.337 Y-7.55
X-41.432 Y-7.534
X-41.465 Y-7.541
X-41.494 Y-7.558
X-41.515 Y-7.584
X-41.527 Y-7.615
X-41.528 Y-7.648
X-41.495 Y-7.873
X-41.414 Y-8.437
X-41.403 Y-8.47
X-41.38 Y-8.498
X-41.349 Y-8.516
X-41.314 Y-8.522
X-41.279 Y-8.515
X-41.248 Y-8.497
X-41.227 Y-8.477
X-41.186 Y-8.445
X-41.165 Y-8.43
X-41.144 Y-8.418
X-41.092 Y-8.392
X-41.025 Y-8.359
X-40.926 Y-8.246
X-40.876 Y-8.105
X-40.864 Y-7.955
X-40.882 Y-7.806
X-40.903 Y-7.741
X-40.965 Y-7.633
X-41.066 Y-7.56
X-41.188 Y-7.534
X-41.22 Y-7.541
X-41.248 Y-7.557
X-41.269 Y-7.581
X-41.282 Y-7.611
X-41.284 Y-7.643
X-41.279 Y-7.705
X-41.224 Y-8.307
X-41.214 Y-8.341
X-41.193 Y-8.371
X-41.163 Y-8.39
X-41.127 Y-8.398
X-41.092 Y-8.392
X-41.06 Y-8.38
X-40.975 Y-8.356
X-40.933 Y-8.349
X-40.896 Y-8.343
X-40.77 Y-8.262
X-40.693 Y-8.133
X-40.656 Y-7.988
X-40.653 Y-7.838
X-40.668 Y-7.771
X-40.725 Y-7.649
X-40.83 Y-7.564
X-40.961 Y-7.534
X-40.999 Y-7.543
X-41.031 Y-7.566
X-41.051 Y-7.599
X-41.058 Y-7.637
X-41.037 Y-8.253
X-41.028 Y-8.291
X-41.005 Y-8.322
X-40.972 Y-8.343
X-40.933 Y-8.349
X-40.891 Y-8.346
X-40.806
X-40.731 Y-8.342
X-40.596 Y-8.277
X-40.505 Y-8.158
X-40.451 Y-8.018
X-40.436 Y-7.869
X-40.456 Y-7.72
X-40.46 Y-7.712
X-40.525 Y-7.618
X-40.621 Y-7.556
X-40.733 Y-7.534
X-41.731
X-41.766 Y-7.542
X-41.796 Y-7.561
X-41.817 Y-7.59
X-41.827 Y-7.625
X-41.824 Y-7.66
X-41.809 Y-7.693
X-41.783 Y-7.717
X-41.467 Y-7.926
X-40.858 Y-8.329
X-40.833 Y-8.341
X-40.806 Y-8.346
X-40.591
X-40.516 Y-8.342
X-40.386 Y-8.267
X-40.295 Y-8.148
X-40.24 Y-8.008
X-40.218 Y-7.86
X-40.227 Y-7.793
X-40.279 Y-7.661
X-40.386 Y-7.568
X-40.524 Y-7.534
X-40.733
X-40.768 Y-7.542
X-40.797 Y-7.56
X-40.819 Y-7.588
X-40.829 Y-7.622
X-40.827 Y-7.657
X-40.684 Y-8.269
X-40.672 Y-8.299
X-40.651 Y-8.323
X-40.622 Y-8.339
X-40.591 Y-8.346
X-40.421
X-40.346 Y-8.342
X-40.206 Y-8.29
X-40.103 Y-8.18
X-40.036 Y-8.047
X-40.007 Y-7.899
X-40.017 Y-7.75
X-40.024 Y-7.729
X-40.088 Y-7.627
X-40.187 Y-7.558
X-40.305 Y-7.534
X-40.524
X-40.557 Y-7.541
X-40.586 Y-7.559
X-40.608 Y-7.585
X-40.619 Y-7.617
Y-7.651
X-40.517 Y-8.262
X-40.505 Y-8.295
X-40.484 Y-8.321
X-40.455 Y-8.339
X-40.421 Y-8.346
X-40.214
X-40.139 Y-8.342
X-39.998 Y-8.29
X-39.894 Y-8.182
X-39.827 Y-8.049
X-39.792 Y-7.903
X-39.801 Y-7.753
X-39.805 Y-7.74
X-39.868 Y-7.633
X-39.968 Y-7.56
X-40.09 Y-7.534
X-40.305
X-40.338 Y-7.541
X-40.367 Y-7.558
X-40.388 Y-7.584
X-40.4 Y-7.615
X-40.401 Y-7.649
X-40.31 Y-8.261
X-40.299 Y-8.293
X-40.277 Y-8.32
X-40.248 Y-8.339
X-40.214 Y-8.346
X-39.999
X-39.924 Y-8.342
X-39.784 Y-8.287
X-39.681 Y-8.178
X-39.612 Y-8.045
X-39.578 Y-7.899
X-39.588 Y-7.749
X-39.591 Y-7.738
X-39.654 Y-7.632
X-39.755 Y-7.56
X-39.876 Y-7.534
X-40.09
X-40.123 Y-7.541
X-40.152 Y-7.558
X-40.173 Y-7.584
X-40.185 Y-7.615
X-40.186 Y-7.649
X-40.094 Y-8.261
X-40.083 Y-8.293
X-40.062 Y-8.32
X-40.032 Y-8.339
X-39.999 Y-8.346
X-39.791
X-39.716 Y-8.342
X-39.576 Y-8.29
X-39.471 Y-8.183
X-39.4 Y-8.05
X-39.365 Y-7.905
X-39.372 Y-7.755
X-39.377 Y-7.742
X-39.439 Y-7.634
X-39.54 Y-7.56
X-39.662 Y-7.534
X-39.876
X-39.908 Y-7.541
X-39.937 Y-7.558
X-39.958 Y-7.583
X-39.97 Y-7.614
X-39.971 Y-7.648
X-39.887 Y-8.259
X-39.876 Y-8.293
X-39.855 Y-8.32
X-39.825 Y-8.339
X-39.791 Y-8.346
X-39.576
X-39.501 Y-8.342
X-39.361 Y-8.288
X-39.256 Y-8.181
X-39.186 Y-8.048
X-39.151 Y-7.902
X-39.159 Y-7.753
X-39.163 Y-7.74
X-39.226 Y-7.633
X-39.327 Y-7.56
X-39.448 Y-7.534
X-39.662
X-39.695 Y-7.541
X-39.723 Y-7.558
X-39.745 Y-7.584
X-39.757 Y-7.615
X-39.758 Y-7.648
X-39.671 Y-8.26
X-39.66 Y-8.293
X-39.639 Y-8.32
X-39.61 Y-8.339
X-39.576 Y-8.346
X-39.369
X-39.294 Y-8.342
X-39.152 Y-8.292
X-39.046 Y-8.186
X-38.974 Y-8.054
X-38.938 Y-7.909
X-38.944 Y-7.759
X-38.949 Y-7.744
X-39.011 Y-7.635
X-39.112 Y-7.561
X-39.235 Y-7.534
X-39.448
X-39.481 Y-7.541
X-39.509 Y-7.558
X-39.531 Y-7.583
X-39.543 Y-7.614
X-39.544 Y-7.647
X-39.464 Y-8.259
X-39.454 Y-8.292
X-39.432 Y-8.32
X-39.403 Y-8.338
X-39.369 Y-8.346
X-39.153
X-39.078 Y-8.342
X-38.937 Y-8.291
X-38.831 Y-8.185
X-38.76 Y-8.052
X-38.724 Y-7.907
X-38.731 Y-7.757
X-38.736 Y-7.743
X-38.798 Y-7.634
X-38.899 Y-7.56
X-39.022 Y-7.534
X-39.235
X-39.268 Y-7.541
X-39.296 Y-7.558
X-39.318 Y-7.583
X-39.33 Y-7.614
X-39.331 Y-7.647
X-39.248 Y-8.259
X-39.238 Y-8.292
X-39.217 Y-8.32
X-39.187 Y-8.338
X-39.153 Y-8.346
X-38.899
X-38.824 Y-8.342
X-38.692 Y-8.271
X-38.596 Y-8.156
X-38.535 Y-8.019
X-38.508 Y-7.871
X-38.524 Y-7.722
X-38.525 Y-7.72
X-38.59 Y-7.622
X-38.688 Y-7.557
X-38.803 Y-7.534
X-39.022
X-39.056 Y-7.541
X-39.085 Y-7.559
X-39.106 Y-7.587
X-39.117 Y-7.619
X-39.116 Y-7.654
X-38.994 Y-8.265
X-38.982 Y-8.297
X-38.96 Y-8.322
X-38.932 Y-8.339
X-38.899 Y-8.346
X-38.692
X-38.617 Y-8.342
X-38.483 Y-8.274
X-38.386 Y-8.16
X-38.322 Y-8.024
X-38.293 Y-7.877
X-38.307 Y-7.728
X-38.371 Y-7.626
X-38.47 Y-7.558
X-38.587 Y-7.534
X-38.803
X-38.836 Y-7.541
X-38.865 Y-7.559
X-38.887 Y-7.586
X-38.898 Y-7.618
Y-7.652
X-38.787 Y-8.264
X-38.775 Y-8.295
X-38.754 Y-8.321
X-38.725 Y-8.339
X-38.692 Y-8.346
X-38.476
X-38.438
X-38.392
X-38.361 Y-8.344
X-38.318 Y-8.314
X-38.251 Y-8.247
X-38.207 Y-8.163
X-38.192 Y-8.069
G3 X-38.518 Y-7.903 I-0.209 J-0.007
X-38.392 Y-8.346 I0.135 J-0.201
G1 X-38.311
X-38.29 Y-8.345
X-38.28 Y-8.343
X-38.269 Y-8.34
X-38.258 Y-8.335
X-38.247 Y-8.328
X-38.236 Y-8.319
X-38.215 Y-8.297
X-38.207 Y-8.287
X-38.202 Y-8.276
X-38.197 Y-8.266
X-38.194 Y-8.255
X-38.193 Y-8.244
X-38.192 Y-8.139
Y-7.755
Y-7.717
X-38.221 Y-7.625
X-38.291 Y-7.558
X-38.384 Y-7.534
G3 X-38.547 Y-7.765 I0.006 J-0.177
X-38.192 Y-7.717 I0.173 J0.055
G1 Y-7.643
X-38.194 Y-7.632
X-38.196 Y-7.622
X-38.2 Y-7.611
X-38.206 Y-7.6
X-38.228 Y-7.569
X-38.24 Y-7.556
X-38.253 Y-7.548
X-38.269 Y-7.54
X-38.28 Y-7.537
X-38.29 Y-7.535
X-38.311 Y-7.534
X-38.587
X-39.342 Y-7.75
X-41.925 Y-8.487
X-42.538 Y-8.661
X-42.571 Y-8.678
X-42.595 Y-8.705
X-42.608 Y-8.74
Y-8.777
X-42.599 Y-8.815
X-42.593 Y-8.899
Y-8.946
X-42.589 Y-9.02
X-42.534 Y-9.16
X-42.429 Y-9.267
X-42.299 Y-9.342
X-42.156 Y-9.389
X-42.008 Y-9.409
X-41.858 Y-9.407
X-41.71 Y-9.383
X-41.626 Y-9.355
X-41.519 Y-9.292
X-41.447 Y-9.192
X-41.422 Y-9.071
Y-8.91
X-41.421 Y-8.899
X-41.413 Y-8.859
X-41.414 Y-8.823
X-41.428 Y-8.789
X-41.453 Y-8.763
X-41.486 Y-8.747
X-41.523 Y-8.744
X-41.864 Y-8.781
X-42.503 Y-8.85
X-42.537 Y-8.86
X-42.566 Y-8.881
X-42.585 Y-8.911
X-42.593 Y-8.946
Y-9.152
X-42.585 Y-9.302
X-42.505 Y-9.429
X-42.389 Y-9.524
X-42.254 Y-9.59
X-42.11 Y-9.631
X-41.961 Y-9.649
X-41.811 Y-9.646
X-41.663 Y-9.618
X-41.616 Y-9.6
X-41.515 Y-9.536
X-41.446 Y-9.437
X-41.422 Y-9.319
Y-9.071
X-41.428 Y-9.039
X-41.444 Y-9.011
X-41.469 Y-8.99
X-41.498 Y-8.977
X-41.53 Y-8.975
X-41.863 Y-9.003
X-42.501 Y-9.056
X-42.536 Y-9.066
X-42.565 Y-9.087
X-42.585 Y-9.117
X-42.593 Y-9.152
Y-9.406
X-42.589 Y-9.481
X-42.53 Y-9.619
X-42.424 Y-9.725
X-42.295 Y-9.802
X-42.154 Y-9.854
X-42.007 Y-9.884
X-41.858 Y-9.892
X-41.708 Y-9.875
X-41.635 Y-9.853
X-41.524 Y-9.792
X-41.449 Y-9.69
X-41.422 Y-9.566
Y-9.319
X-41.428 Y-9.288
X-41.445 Y-9.26
X-41.469 Y-9.238
X-41.499 Y-9.226
X-41.531 Y-9.223
X-41.863 Y-9.253
X-42.501 Y-9.31
X-42.536 Y-9.319
X-42.565 Y-9.341
X-42.585 Y-9.371
X-42.593 Y-9.406
Y-9.621
X-42.589 Y-9.696
X-42.535 Y-9.836
X-42.432 Y-9.946
X-42.307 Y-10.028
X-42.168 Y-10.085
X-42.022 Y-10.119
X-41.873 Y-10.133
X-41.723 Y-10.12
X-41.578 Y-10.082
X-41.494 Y-10.013
X-41.441 Y-9.922
X-41.422 Y-9.818
Y-9.566
X-41.431 Y-9.528
X-41.455 Y-9.496
X-41.488 Y-9.475
X-41.528 Y-9.47
X-41.862 Y-9.489
X-42.498 Y-9.525
X-42.534 Y-9.534
X-42.564 Y-9.555
X-42.585 Y-9.585
X-42.593 Y-9.621
Y-9.875
X-42.589 Y-9.95
X-42.525 Y-10.085
X-42.42 Y-10.192
X-42.293 Y-10.272
X-42.154 Y-10.328
X-42.007 Y-10.361
X-41.858 Y-10.373
X-41.708 Y-10.363
X-41.639 Y-10.344
X-41.526 Y-10.283
X-41.449 Y-10.18
X-41.422 Y-10.055
Y-9.818
X-41.431 Y-9.78
X-41.455 Y-9.748
X-41.489 Y-9.727
X-41.528 Y-9.722
X-41.862 Y-9.741
X-42.498 Y-9.778
X-42.534 Y-9.787
X-42.564 Y-9.808
X-42.585 Y-9.839
X-42.593 Y-9.875
Y-10.082
X-42.585 Y-10.231
X-42.504 Y-10.357
X-42.391 Y-10.456
X-42.26 Y-10.529
X-42.118 Y-10.58
X-41.971 Y-10.609
X-41.821 Y-10.616
X-41.673 Y-10.595
X-41.626 Y-10.579
X-41.52 Y-10.516
X-41.448 Y-10.416
X-41.422 Y-10.295
Y-10.055
X-41.431 Y-10.017
X-41.453 Y-9.986
X-41.486 Y-9.965
X-41.525 Y-9.959
X-41.861 Y-9.968
X-42.495 Y-9.985
X-42.532 Y-9.993
X-42.563 Y-10.014
X-42.584 Y-10.045
X-42.593 Y-10.082
Y-10.335
X-42.589 Y-10.41
X-42.533 Y-10.549
X-42.431 Y-10.659
X-42.307 Y-10.743
X-42.169 Y-10.803
X-42.024 Y-10.841
X-41.875 Y-10.857
X-41.725 Y-10.847
X-41.58 Y-10.809
X-41.495 Y-10.741
X-41.441 Y-10.65
X-41.422 Y-10.545
Y-10.295
X-41.431 Y-10.257
X-41.454 Y-10.225
X-41.487 Y-10.205
X-41.526 Y-10.199
X-41.861 Y-10.212
X-42.497 Y-10.239
X-42.533 Y-10.247
X-42.564 Y-10.268
X-42.584 Y-10.299
X-42.593 Y-10.335
Y-10.55
X-42.585 Y-10.7
X-42.507 Y-10.828
X-42.396 Y-10.929
X-42.267 Y-11.006
X-42.127 Y-11.059
X-41.98 Y-11.09
X-41.83 Y-11.098
X-41.681 Y-11.084
X-41.629 Y-11.067
X-41.521 Y-11.005
X-41.448 Y-10.904
X-41.422 Y-10.782
Y-10.545
X-41.431 Y-10.508
X-41.453 Y-10.477
X-41.485 Y-10.456
X-41.523 Y-10.449
X-41.861 Y-10.45
X-42.493 Y-10.454
X-42.53 Y-10.461
X-42.562 Y-10.482
X-42.584 Y-10.513
X-42.593 Y-10.55
Y-10.804
X-42.589 Y-10.879
X-42.538 Y-11.02
X-42.439 Y-11.132
X-42.316 Y-11.218
X-42.179 Y-11.281
X-42.035 Y-11.321
X-41.886 Y-11.34
X-41.736 Y-11.334
X-41.59 Y-11.299
X-41.583 Y-11.295
X-41.498 Y-11.229
X-41.442 Y-11.136
X-41.422 Y-11.029
Y-10.782
X-41.431 Y-10.745
X-41.453 Y-10.713
X-41.486 Y-10.692
X-41.524 Y-10.686
X-41.861 Y-10.693
X-42.495 Y-10.707
X-42.532 Y-10.715
X-42.563 Y-10.736
X-42.584 Y-10.767
X-42.593 Y-10.804
Y-11.057
X-42.589 Y-11.132
X-42.531 Y-11.27
X-42.43 Y-11.381
X-42.306 Y-11.465
X-42.168 Y-11.526
X-42.023 Y-11.564
X-41.874 Y-11.581
X-41.724 Y-11.576
X-41.647 Y-11.556
X-41.53 Y-11.496
X-41.45 Y-11.393
X-41.422 Y-11.265
Y-11.029
X-41.431 Y-10.992
X-41.454 Y-10.96
X-41.487 Y-10.939
X-41.525 Y-10.933
X-41.861 Y-10.943
X-42.495 Y-10.961
X-42.532 Y-10.969
X-42.563 Y-10.99
X-42.584 Y-11.021
X-42.593 Y-11.057
Y-11.311
X-42.589 Y-11.385
X-42.526 Y-11.521
X-42.422 Y-11.63
X-42.296 Y-11.712
X-42.158 Y-11.771
X-42.013 Y-11.808
X-41.864 Y-11.823
X-41.714 Y-11.811
X-41.646 Y-11.793
X-41.53 Y-11.734
X-41.45 Y-11.63
X-41.422 Y-11.503
Y-11.265
X-41.431 Y-11.227
X-41.454 Y-11.195
X-41.488 Y-11.175
X-41.527 Y-11.169
X-41.861 Y-11.184
X-42.497 Y-11.214
X-42.533 Y-11.223
X-42.564 Y-11.244
X-42.584 Y-11.274
X-42.593 Y-11.311
Y-11.517
X-42.585 Y-11.667
X-42.506 Y-11.795
X-42.395 Y-11.895
X-42.265 Y-11.971
X-42.125 Y-12.025
X-41.978 Y-12.055
X-41.829 Y-12.063
X-41.68 Y-12.044
X-41.63 Y-12.028
X-41.521 Y-11.965
X-41.448 Y-11.864
X-41.422 Y-11.742
Y-11.503
X-41.431 Y-11.466
X-41.453 Y-11.434
X-41.486 Y-11.414
X-41.523 Y-11.407
X-41.861 Y-11.412
X-42.494 Y-11.421
X-42.531 Y-11.429
X-42.563 Y-11.45
X-42.584 Y-11.481
X-42.593 Y-11.517
Y-11.771
X-42.589 Y-11.846
X-42.536 Y-11.986
X-42.437 Y-12.099
X-42.314 Y-12.184
X-42.177 Y-12.246
X-42.033 Y-12.287
X-41.884 Y-12.304
X-41.734 Y-12.296
X-41.588 Y-12.26
X-41.582 Y-12.256
X-41.497 Y-12.189
X-41.441 Y-12.097
X-41.422 Y-11.991
Y-11.742
X-41.431 Y-11.705
X-41.454 Y-11.673
X-41.487 Y-11.652
X-41.525 Y-11.646
X-41.861 Y-11.656
X-42.496 Y-11.674
X-42.532 Y-11.682
X-42.563 Y-11.703
X-42.584 Y-11.734
X-42.593 Y-11.771
Y-12.024
X-42.589 Y-12.099
X-42.53 Y-12.237
X-42.428 Y-12.347
X-42.304 Y-12.431
X-42.166 Y-12.491
X-42.021 Y-12.529
X-41.872 Y-12.544
X-41.722 Y-12.538
X-41.645 Y-12.518
X-41.53 Y-12.458
X-41.45 Y-12.355
X-41.422 Y-12.228
Y-11.991
X-41.431 Y-11.953
X-41.454 Y-11.921
X-41.487 Y-11.901
X-41.525 Y-11.895
X-41.861 Y-11.906
X-42.496 Y-11.928
X-42.532 Y-11.936
X-42.563 Y-11.957
X-42.584 Y-11.988
X-42.593 Y-12.024
Y-12.24
X-42.585 Y-12.389
X-42.506 Y-12.517
X-42.395 Y-12.618
X-42.266 Y-12.694
X-42.125 Y-12.747
X-41.979 Y-12.778
X-41.829 Y-12.787
X-41.68 Y-12.768
X-41.63 Y-12.752
X-41.522 Y-12.69
X-41.448 Y-12.588
X-41.422 Y-12.466
Y-12.228
X-41.431 Y-12.19
X-41.453 Y-12.159
X-41.485 Y-12.138
X-41.523 Y-12.131
X-41.861 Y-12.135
X-42.494 Y-12.143
X-42.531 Y-12.151
X-42.563 Y-12.172
X-42.584 Y-12.203
X-42.593 Y-12.24
Y-12.493
X-42.589 Y-12.568
X-42.537 Y-12.709
X-42.437 Y-12.821
X-42.314 Y-12.907
X-42.178 Y-12.969
X-42.033 Y-13.01
X-41.884 Y-13.027
X-41.735 Y-13.02
X-41.589 Y-12.984
X-41.582 Y-12.98
X-41.497 Y-12.913
X-41.441 Y-12.821
X-41.422 Y-12.715
Y-12.466
X-41.431 Y-12.428
X-41.454 Y-12.397
X-41.486 Y-12.376
X-41.525 Y-12.37
X-41.861 Y-12.379
X-42.495 Y-12.397
X-42.532 Y-12.405
X-42.563 Y-12.426
X-42.584 Y-12.457
X-42.593 Y-12.493
Y-12.746
X-42.589 Y-12.821
X-42.53 Y-12.959
X-42.428 Y-13.07
X-42.304 Y-13.154
X-42.167 Y-13.214
X-42.022 Y-13.252
X-41.873 Y-13.267
X-41.723 Y-13.261
X-41.646 Y-13.241
X-41.53 Y-13.181
X-41.45 Y-13.078
X-41.422 Y-12.951
Y-12.715
X-41.431 Y-12.677
X-41.454 Y-12.645
X-41.487 Y-12.625
X-41.525 Y-12.618
X-41.861 Y-12.629
X-42.496 Y-12.65
X-42.532 Y-12.658
X-42.563 Y-12.679
X-42.584 Y-12.71
X-42.593 Y-12.746
Y-13
X-42.589 Y-13.075
X-42.525 Y-13.211
X-42.421 Y-13.318
X-42.295 Y-13.4
X-42.157 Y-13.458
X-42.011 Y-13.495
X-41.862 Y-13.51
X-41.713 Y-13.497
X-41.645 Y-13.479
X-41.529 Y-13.419
X-41.45 Y-13.316
X-41.422 Y-13.189
Y-12.951
X-41.431 Y-12.913
X-41.454 Y-12.881
X-41.488 Y-12.86
X-41.527 Y-12.855
X-41.862 Y-12.871
X-42.498 Y-12.903
X-42.534 Y-12.912
X-42.564 Y-12.933
X-42.584 Y-12.964
X-42.593 Y-13
Y-13.207
X-42.585 Y-13.357
X-42.505 Y-13.484
X-42.394 Y-13.584
X-42.264 Y-13.659
X-42.124 Y-13.712
X-41.977 Y-13.742
X-41.827 Y-13.75
X-41.678 Y-13.73
X-41.629 Y-13.714
X-41.521 Y-13.651
X-41.448 Y-13.55
X-41.422 Y-13.429
Y-13.189
X-41.431 Y-13.152
X-41.453 Y-13.12
X-41.486 Y-13.1
X-41.524 Y-13.093
X-41.861 Y-13.099
X-42.494 Y-13.11
X-42.531 Y-13.118
X-42.563 Y-13.139
X-42.584 Y-13.17
X-42.593 Y-13.207
Y-13.46
X-42.589 Y-13.535
X-42.535 Y-13.675
X-42.435 Y-13.787
X-42.312 Y-13.872
X-42.175 Y-13.934
X-42.031 Y-13.974
X-41.882 Y-13.99
X-41.732 Y-13.982
X-41.586 Y-13.945
X-41.581 Y-13.942
X-41.497 Y-13.876
X-41.441 Y-13.783
X-41.422 Y-13.678
Y-13.429
X-41.431 Y-13.391
X-41.454 Y-13.359
X-41.487 Y-13.339
X-41.525 Y-13.332
X-41.861 Y-13.343
X-42.496 Y-13.364
X-42.532 Y-13.372
X-42.563 Y-13.393
X-42.584 Y-13.424
X-42.593 Y-13.46
Y-13.714
X-42.589 Y-13.788
X-42.529 Y-13.926
X-42.427 Y-14.036
X-42.302 Y-14.119
X-42.164 Y-14.179
X-42.019 Y-14.216
X-41.87 Y-14.23
X-41.72 Y-14.224
X-41.644 Y-14.204
X-41.529 Y-14.144
X-41.45 Y-14.041
X-41.422 Y-13.914
Y-13.678
X-41.431 Y-13.64
X-41.454 Y-13.608
X-41.487 Y-13.588
X-41.526 Y-13.581
X-41.861 Y-13.594
X-42.496 Y-13.617
X-42.533 Y-13.625
X-42.563 Y-13.646
X-42.584 Y-13.677
X-42.593 Y-13.714
Y-13.929
X-42.585 Y-14.079
X-42.505 Y-14.206
X-42.394 Y-14.306
X-42.264 Y-14.381
X-42.124 Y-14.434
X-41.977 Y-14.465
X-41.827 Y-14.474
X-41.678 Y-14.454
X-41.629 Y-14.438
X-41.521 Y-14.376
X-41.448 Y-14.275
X-41.422 Y-14.153
Y-13.914
X-41.431 Y-13.877
X-41.453 Y-13.845
X-41.486 Y-13.824
X-41.524 Y-13.818
X-41.861 Y-13.823
X-42.494 Y-13.832
X-42.531 Y-13.84
X-42.563 Y-13.861
X-42.584 Y-13.892
X-42.593 Y-13.929
Y-14.182
X-42.589 Y-14.257
X-42.536 Y-14.398
X-42.436 Y-14.509
X-42.312 Y-14.595
X-42.176 Y-14.656
X-42.031 Y-14.697
X-41.882 Y-14.714
X-41.732 Y-14.706
X-41.587 Y-14.67
X-41.581 Y-14.666
X-41.497 Y-14.6
X-41.441 Y-14.507
X-41.422 Y-14.402
Y-14.153
X-41.431 Y-14.115
X-41.454 Y-14.083
X-41.487 Y-14.063
X-41.525 Y-14.056
X-41.861 Y-14.067
X-42.496 Y-14.086
X-42.532 Y-14.094
X-42.563 Y-14.115
X-42.584 Y-14.146
X-42.593 Y-14.182
Y-14.436
X-42.589 Y-14.511
X-42.529 Y-14.648
X-42.427 Y-14.758
X-42.302 Y-14.842
X-42.165 Y-14.902
X-42.02 Y-14.939
X-41.87 Y-14.954
X-41.72 Y-14.948
X-41.645 Y-14.928
X-41.529 Y-14.868
X-41.45 Y-14.765
X-41.422 Y-14.638
Y-14.402
X-41.431 Y-14.364
X-41.454 Y-14.332
X-41.487 Y-14.312
X-41.525 Y-14.305
X-41.861 Y-14.317
X-42.496 Y-14.339
X-42.532 Y-14.348
X-42.563 Y-14.369
X-42.584 Y-14.399
X-42.593 Y-14.436
Y-14.643
X-42.585 Y-14.793
X-42.509 Y-14.922
X-42.399 Y-15.024
X-42.271 Y-15.101
X-42.131 Y-15.155
X-41.984 Y-15.187
X-41.834 Y-15.197
X-41.685 Y-15.179
X-41.633 Y-15.163
X-41.523 Y-15.101
X-41.448 Y-14.999
X-41.422 Y-14.876
Y-14.638
X-41.431 Y-14.601
X-41.453 Y-14.569
X-41.485 Y-14.548
X-41.522 Y-14.541
X-41.861 Y-14.543
X-42.493 Y-14.546
X-42.53 Y-14.554
X-42.562 Y-14.574
X-42.584 Y-14.606
X-42.593 Y-14.643
Y-14.896
X-42.585 Y-15.046
X-42.505 Y-15.173
X-42.393 Y-15.272
X-42.263 Y-15.347
X-42.122 Y-15.399
X-41.975 Y-15.429
X-41.825 Y-15.437
X-41.677 Y-15.417
X-41.628 Y-15.401
X-41.521 Y-15.339
X-41.448 Y-15.238
X-41.422 Y-15.116
Y-14.876
X-41.431 Y-14.839
X-41.453 Y-14.807
X-41.486 Y-14.786
X-41.524 Y-14.78
X-41.861 Y-14.787
X-42.495 Y-14.8
X-42.531 Y-14.807
X-42.563 Y-14.828
X-42.584 Y-14.859
X-42.593 Y-14.896
Y-15.15
X-42.589 Y-15.224
X-42.535 Y-15.364
X-42.434 Y-15.476
X-42.311 Y-15.561
X-42.174 Y-15.622
X-42.029 Y-15.661
X-41.88 Y-15.678
X-41.73 Y-15.669
X-41.585 Y-15.632
X-41.58 Y-15.63
X-41.496 Y-15.563
X-41.441 Y-15.471
X-41.422 Y-15.366
Y-15.116
X-41.431 Y-15.078
X-41.454 Y-15.047
X-41.487 Y-15.026
X-41.525 Y-15.02
X-41.861 Y-15.031
X-42.496 Y-15.053
X-42.532 Y-15.061
X-42.563 Y-15.082
X-42.584 Y-15.113
X-42.593 Y-15.15
Y-15.403
X-42.589 Y-15.478
X-42.528 Y-15.615
X-42.425 Y-15.724
X-42.301 Y-15.808
X-42.163 Y-15.867
X-42.017 Y-15.903
X-41.868 Y-15.918
X-41.718 Y-15.911
X-41.644 Y-15.891
X-41.529 Y-15.831
X-41.45 Y-15.728
X-41.422 Y-15.602
Y-15.366
X-41.431 Y-15.327
X-41.454 Y-15.296
X-41.487 Y-15.275
X-41.526 Y-15.269
X-41.861 Y-15.282
X-42.496 Y-15.306
X-42.533 Y-15.315
X-42.563 Y-15.336
X-42.584 Y-15.367
X-42.593 Y-15.403
Y-15.618
X-42.585 Y-15.768
X-42.505 Y-15.895
X-42.393 Y-15.994
X-42.263 Y-16.07
X-42.122 Y-16.122
X-41.975 Y-16.153
X-41.826 Y-16.161
X-41.677 Y-16.141
X-41.628 Y-16.126
X-41.521 Y-16.063
X-41.448 Y-15.962
X-41.422 Y-15.84
Y-15.602
X-41.431 Y-15.564
X-41.453 Y-15.533
X-41.486 Y-15.512
X-41.524 Y-15.505
X-41.861 Y-15.511
X-42.494 Y-15.522
X-42.531 Y-15.53
X-42.563 Y-15.55
X-42.584 Y-15.582
X-42.593 Y-15.618
Y-15.872
X-42.589 Y-15.947
X-42.535 Y-16.087
X-42.434 Y-16.198
X-42.311 Y-16.283
X-42.174 Y-16.345
X-42.029 Y-16.385
X-41.88 Y-16.401
X-41.731 Y-16.393
X-41.585 Y-16.357
X-41.58 Y-16.354
X-41.496 Y-16.287
X-41.441 Y-16.195
X-41.422 Y-16.089
Y-15.84
X-41.431 Y-15.803
X-41.454 Y-15.771
X-41.487 Y-15.75
X-41.525 Y-15.744
X-41.861 Y-15.755
X-42.496 Y-15.775
X-42.532 Y-15.783
X-42.563 Y-15.804
X-42.584 Y-15.835
X-42.593 Y-15.872
Y-16.125
X-42.589 Y-16.2
X-42.528 Y-16.337
X-42.426 Y-16.447
X-42.301 Y-16.53
X-42.163 Y-16.59
X-42.018 Y-16.627
X-41.869 Y-16.642
X-41.719 Y-16.635
X-41.644 Y-16.615
X-41.529 Y-16.555
X-41.45 Y-16.452
X-41.422 Y-16.325
Y-16.089
X-41.431 Y-16.051
X-41.454 Y-16.02
X-41.487 Y-15.999
X-41.526 Y-15.993
X-41.861 Y-16.005
X-42.496 Y-16.029
X-42.533 Y-16.037
X-42.563 Y-16.058
X-42.584 Y-16.089
X-42.593 Y-16.125
Y-16.332
X-42.585 Y-16.482
X-42.509 Y-16.611
X-42.398 Y-16.713
X-42.269 Y-16.789
X-42.129 Y-16.843
X-41.983 Y-16.875
X-41.833 Y-16.885
X-41.684 Y-16.867
X-41.632 Y-16.85
X-41.523 Y-16.788
X-41.448 Y-16.687
X-41.422 Y-16.564
Y-16.325
X-41.431 Y-16.288
X-41.453 Y-16.257
X-41.485 Y-16.236
X-41.523 Y-16.229
X-41.861 Y-16.231
X-42.493 Y-16.236
X-42.531 Y-16.243
X-42.562 Y-16.264
X-42.584 Y-16.295
X-42.593 Y-16.332
Y-16.585
X-42.585 Y-16.735
X-42.504 Y-16.862
X-42.392 Y-16.961
X-42.262 Y-17.036
X-42.121 Y-17.087
X-41.974 Y-17.117
X-41.824 Y-17.125
X-41.676 Y-17.105
X-41.627 Y-17.089
X-41.52 Y-17.026
X-41.448 Y-16.925
X-41.422 Y-16.804
Y-16.564
X-41.431 Y-16.526
X-41.453 Y-16.495
X-41.486 Y-16.474
X-41.524 Y-16.467
X-41.861 Y-16.475
X-42.495 Y-16.489
X-42.532 Y-16.497
X-42.563 Y-16.518
X-42.584 Y-16.549
X-42.593 Y-16.585
Y-16.839
Y-16.885
Y-16.923
X-42.591 Y-16.961
X-42.515 Y-17.09
X-42.451 Y-17.15
X-42.39 Y-17.193
X-42.321 Y-17.221
X-42.246 Y-17.23
X-42.213 Y-17.223
X-42.184 Y-17.205
X-42.162 Y-17.178
X-42.151 Y-17.146
X-42.152 Y-17.112
X-42.164 Y-17.08
X-42.186 Y-17.053
X-42.428 Y-16.85
X-42.461 Y-16.832
X-42.497 Y-16.827
X-42.533 Y-16.835
X-42.564 Y-16.856
X-42.584 Y-16.887
X-42.593 Y-16.923
Y-17.092
X-42.592 Y-17.126
X-42.589 Y-17.143
X-42.579 Y-17.165
X-42.557 Y-17.184
X-42.53 Y-17.192
X-42.501 Y-17.186
X-42.479 Y-17.168
X-42.467 Y-17.142
X-42.469 Y-17.113
X-42.484 Y-17.088
X-42.508 Y-17.073
X-42.537 Y-17.07
X-42.563 Y-17.081
X-42.582 Y-17.102
X-42.589 Y-17.122
Y-17.143
X-42.582 Y-17.159
X-42.571 Y-17.177
X-42.557 Y-17.196
X-42.546 Y-17.207
X-42.534 Y-17.215
X-42.516 Y-17.224
X-42.498 Y-17.229
X-42.413 Y-17.23
X-41.652
X-41.605
X-41.567
X-41.554 Y-17.229
X-41.513 Y-17.221
X-41.475 Y-17.203
X-41.443 Y-17.177
X-41.43 Y-17.142
X-41.429 Y-17.105
X-41.443 Y-17.07
X-41.468 Y-17.043
X-41.502 Y-17.026
X-42.079 Y-16.871
X-42.244 Y-16.826
X-42.279 Y-16.823
X-42.314 Y-16.833
X-42.342 Y-16.854
X-42.362 Y-16.884
X-42.37 Y-16.919
X-42.365 Y-16.954
X-42.348 Y-16.985
X-42.321 Y-17.009
G3 X-41.567 Y-17.23 I0.809 J1.36
G1 X-41.525 Y-17.229
X-41.514 Y-17.228
X-41.504 Y-17.225
X-41.493 Y-17.22
X-41.483 Y-17.214
X-41.463 Y-17.198
X-41.443 Y-17.177
X-41.436 Y-17.166
X-41.431 Y-17.156
X-41.427 Y-17.145
X-41.424 Y-17.134
X-41.422 Y-17.124
Y-16.804
X-41.431 Y-16.766
X-41.454 Y-16.734
X-41.487 Y-16.714
X-41.525 Y-16.707
X-41.564 Y-16.709 Z-0.982
X-41.596 Y-16.71 Z-0.961
X-41.618 Y-16.711 Z-0.928
X-41.625 Z-0.89
G0 Z2
X-42.25 Y-7.807
Z-0.79
G1 Z-0.89 F1000
X-42.257 Y-7.803 Z-0.928
X-42.275 Y-7.792 Z-0.961
X-42.303 Y-7.775 Z-0.982
X-42.336 Y-7.755 Z-0.99
G3 X-43.089 Y-7.534 I-0.809 J-1.36
G1 X-43.343
X-43.418 Y-7.538
X-43.554 Y-7.602
X-43.655 Y-7.713
X-43.72 Y-7.848
X-43.754 Y-7.994
X-43.742 Y-8.143
X-43.74 Y-8.15
X-43.676 Y-8.253
X-43.577 Y-8.321
X-43.459 Y-8.346
X-43.244
X-43.211 Y-8.339
X-43.182 Y-8.321
X-43.161 Y-8.295
X-43.149 Y-8.264
Y-8.23
X-43.248 Y-7.618
X-43.259 Y-7.586
X-43.281 Y-7.559
X-43.31 Y-7.541
X-43.343 Y-7.534
X-43.559
X-43.634 Y-7.538
X-43.769 Y-7.602
X-43.87 Y-7.714
X-43.936 Y-7.848
X-43.969 Y-7.995
X-43.957 Y-8.144
X-43.955 Y-8.148
X-43.891 Y-8.252
X-43.792 Y-8.321
X-43.673 Y-8.346
X-43.459
X-43.426 Y-8.339
X-43.397 Y-8.321
X-43.375 Y-8.295
X-43.364 Y-8.263
X-43.363 Y-8.23
X-43.464 Y-7.618
X-43.475 Y-7.586
X-43.496 Y-7.559
X-43.525 Y-7.541
X-43.559 Y-7.534
X-43.766
X-43.841 Y-7.538
X-43.978 Y-7.598
X-44.081 Y-7.708
X-44.149 Y-7.841
X-44.183 Y-7.988
X-44.173 Y-8.137
X-44.17 Y-8.144
X-44.107 Y-8.249
X-44.007 Y-8.321
X-43.887 Y-8.346
X-43.673
X-43.64 Y-8.339
X-43.612 Y-8.322
X-43.59 Y-8.296
X-43.578 Y-8.264
Y-8.231
X-43.671 Y-7.619
X-43.682 Y-7.586
X-43.703 Y-7.559
X-43.732 Y-7.541
X-43.766 Y-7.534
X-43.982
X-44.057 Y-7.538
X-44.194 Y-7.599
X-44.296 Y-7.708
X-44.364 Y-7.842
X-44.397 Y-7.989
X-44.386 Y-8.138
X-44.384 Y-8.145
X-44.321 Y-8.25
X-44.221 Y-8.321
X-44.101 Y-8.346
X-43.887
X-43.854 Y-8.339
X-43.825 Y-8.322
X-43.804 Y-8.296
X-43.792 Y-8.264
X-43.791 Y-8.231
X-43.886 Y-7.619
X-43.897 Y-7.586
X-43.919 Y-7.559
X-43.948 Y-7.541
X-43.982 Y-7.534
X-44.189
X-44.264 Y-7.538
X-44.403 Y-7.594
X-44.506 Y-7.703
X-44.576 Y-7.836
X-44.611 Y-7.982
X-44.602 Y-8.131
X-44.599 Y-8.141
X-44.536 Y-8.248
X-44.436 Y-8.32
X-44.314 Y-8.346
X-44.101
X-44.068 Y-8.339
X-44.039 Y-8.322
X-44.018 Y-8.296
X-44.006 Y-8.265
X-44.005 Y-8.232
X-44.093 Y-7.62
X-44.104 Y-7.587
X-44.126 Y-7.56
X-44.155 Y-7.541
X-44.189 Y-7.534
X-44.405
X-44.479 Y-7.538
X-44.618 Y-7.595
X-44.722 Y-7.704
X-44.79 Y-7.837
X-44.825 Y-7.983
X-44.815 Y-8.133
X-44.812 Y-8.142
X-44.749 Y-8.249
X-44.649 Y-8.32
X-44.528 Y-8.346
X-44.314
X-44.281 Y-8.339
X-44.253 Y-8.322
X-44.231 Y-8.296
X-44.22 Y-8.265
X-44.219 Y-8.231
X-44.309 Y-7.619
X-44.32 Y-7.587
X-44.341 Y-7.56
X-44.371 Y-7.541
X-44.405 Y-7.534
X-44.612
X-44.687 Y-7.538
X-44.827 Y-7.591
X-44.932 Y-7.698
X-45.003 Y-7.831
X-45.038 Y-7.976
X-45.031 Y-8.126
X-45.027 Y-8.138
X-44.964 Y-8.246
X-44.863 Y-8.32
X-44.741 Y-8.346
X-44.528
X-44.495 Y-8.339
X-44.467 Y-8.322
X-44.445 Y-8.297
X-44.434 Y-8.266
X-44.433 Y-8.232
X-44.516 Y-7.621
X-44.527 Y-7.587
X-44.548 Y-7.56
X-44.578 Y-7.541
X-44.612 Y-7.534
X-44.827
X-44.902 Y-7.538
X-45.042 Y-7.592
X-45.147 Y-7.7
X-45.217 Y-7.832
X-45.252 Y-7.978
X-45.244 Y-8.128
X-45.24 Y-8.14
X-45.177 Y-8.247
X-45.077 Y-8.32
X-44.955 Y-8.346
X-44.741
X-44.709 Y-8.339
X-44.68 Y-8.322
X-44.659 Y-8.296
X-44.647 Y-8.265
X-44.646 Y-8.232
X-44.732 Y-7.62
X-44.743 Y-7.587
X-44.764 Y-7.56
X-44.793 Y-7.541
X-44.827 Y-7.534
X-45.035
X-45.109 Y-7.538
X-45.251 Y-7.588
X-45.357 Y-7.694
X-45.429 Y-7.826
X-45.465 Y-7.971
X-45.459 Y-8.121
X-45.454 Y-8.136
X-45.392 Y-8.245
X-45.291 Y-8.319
X-45.168 Y-8.346
X-44.955
X-44.922 Y-8.339
X-44.894 Y-8.322
X-44.872 Y-8.297
X-44.86 Y-8.266
X-44.859 Y-8.233
X-44.939 Y-7.621
X-44.949 Y-7.588
X-44.971 Y-7.56
X-45 Y-7.541
X-45.035 Y-7.534
X-45.25
X-45.325 Y-7.538
X-45.466 Y-7.589
X-45.572 Y-7.695
X-45.643 Y-7.828
X-45.679 Y-7.973
X-45.672 Y-8.123
X-45.667 Y-8.137
X-45.605 Y-8.246
X-45.504 Y-8.32
X-45.381 Y-8.346
X-45.168
X-45.135 Y-8.339
X-45.107 Y-8.322
X-45.085 Y-8.297
X-45.073 Y-8.266
X-45.072 Y-8.233
X-45.155 Y-7.621
X-45.165 Y-7.588
X-45.187 Y-7.56
X-45.216 Y-7.541
X-45.25 Y-7.534
X-45.504
X-45.542
X-45.588
X-45.626 Y-7.536
X-45.745 Y-7.627
X-45.783 Y-7.681
X-45.813 Y-7.734
X-45.831 Y-7.792
X-45.837 Y-7.853
X-45.83 Y-7.888
X-45.81 Y-7.918
X-45.782 Y-7.939
X-45.747 Y-7.949
X-45.712 Y-7.946
X-45.679 Y-7.931
X-45.654 Y-7.905
X-45.509 Y-7.69
X-45.495 Y-7.658
X-45.493 Y-7.623
X-45.503 Y-7.589
X-45.524 Y-7.561
X-45.554 Y-7.542
X-45.588 Y-7.534
X-45.711
X-45.727
X-45.744 Y-7.536
X-45.77 Y-7.545
X-45.776 Y-7.548
X-45.792 Y-7.566
X-45.798 Y-7.589
X-45.795 Y-7.613
X-45.779 Y-7.636
X-45.754 Y-7.649
X-45.726
X-45.701 Y-7.636
X-45.686 Y-7.612
X-45.683 Y-7.584
X-45.694 Y-7.559
X-45.716 Y-7.541
X-45.744 Y-7.536
X-45.76 Y-7.54
X-45.776 Y-7.548
X-45.796 Y-7.562
X-45.81 Y-7.58
X-45.822 Y-7.597
X-45.83 Y-7.615
X-45.835 Y-7.632
X-45.837 Y-7.643
Y-8.054
Y-8.101
Y-8.139
X-45.834 Y-8.204
X-45.781 Y-8.279
X-45.703 Y-8.328
X-45.613 Y-8.346
G3 X-45.429 Y-8.076 I-0.007 J0.202
X-45.837 Y-8.139 I-0.198 J-0.07
G1 Y-8.244
X-45.835 Y-8.255
X-45.832 Y-8.266
X-45.828 Y-8.276
X-45.822 Y-8.287
X-45.805 Y-8.308
X-45.796 Y-8.318
X-45.785 Y-8.327
X-45.775 Y-8.333
X-45.764 Y-8.338
X-45.753 Y-8.342
X-45.743 Y-8.344
X-45.732 Y-8.346
X-45.381
X-45.353 Y-8.341
X-45.328 Y-8.328
X-45.311 Y-8.299 Z-0.983
X-45.296 Y-8.274 Z-0.966
X-45.285 Y-8.255 Z-0.939
Y-8.246 Z-0.916
Y-8.242 Z-0.89
G0 Z2
X-31.116 Y-14.898
Z0.5
G3 X-30.632 Y-15.023 Z0.29 I0.242 J-0.062 F333.3
X-31.116 Y-14.898 Z0.079 I-0.242 J0.062
X-30.632 Y-15.023 Z-0.131 I0.242 J-0.062
X-31.116 Y-14.898 Z-0.342 I-0.242 J0.062
X-30.632 Y-15.023 Z-0.552 I0.242 J-0.062
X-31.116 Y-14.898 Z-0.763 I-0.242 J0.062
X-30.905 Y-15.208 Z-0.876 I0.242 J-0.062
X-30.624 Y-14.96 Z-0.99 I0.031 J0.248
X-31.124 I-0.25
X-30.624 I0.25
G1 X-30.587 Y-14.815 F1000
X-30.6 Y-14.741
X-30.637 Y-14.676
X-30.744 Y-14.571
X-30.888 Y-14.531
X-31.037 Y-14.552
X-31.167 Y-14.626
X-31.264 Y-14.741
X-31.316 Y-14.882
X-31.318 Y-15.032
X-31.271 Y-15.174
X-31.179 Y-15.292
X-31.053 Y-15.374
X-30.907 Y-15.41
X-30.758 Y-15.396
X-30.621 Y-15.334
X-30.513 Y-15.23
X-30.435 Y-15.102
X-30.385 Y-14.961
X-30.374 Y-14.811
X-30.396 Y-14.721
X-30.406 Y-14.687
X-30.421 Y-14.654
X-30.439 Y-14.623
X-30.463 Y-14.587
X-30.554 Y-14.468
X-30.675 Y-14.38
X-30.818 Y-14.334
X-30.968 Y-14.325
X-31.115 Y-14.354
X-31.249 Y-14.421
X-31.365 Y-14.517
X-31.455 Y-14.636
X-31.514 Y-14.774
X-31.519 Y-14.803
X-31.522 Y-14.89
X-31.5 Y-14.974
X-31.456 Y-15.048
X-31.442 Y-15.065
X-31.419 Y-15.097
X-31.388 Y-15.15
X-31.354 Y-15.234
X-31.335 Y-15.284
X-31.281 Y-15.424
X-31.171 Y-15.526
X-31.036 Y-15.592
X-30.889 Y-15.621
X-30.739 Y-15.611
X-30.596 Y-15.566
X-30.466 Y-15.491
X-30.354 Y-15.391
X-30.336 Y-15.367
X-30.296 Y-15.294
X-30.277 Y-15.214
X-30.281 Y-15.131
X-30.294 Y-15.065
X-30.345 Y-14.812
X-30.355 Y-14.769
X-30.364 Y-14.748
X-30.376 Y-14.727
X-30.426 Y-14.643
X-30.439 Y-14.623
X-30.466 Y-14.596
X-30.501 Y-14.581
X-30.539 Y-14.58
X-30.574 Y-14.594
X-30.602 Y-14.62
X-30.619 Y-14.654
X-30.621 Y-14.692
X-30.561 Y-15.158
X-30.549 Y-15.196
X-30.522 Y-15.225
X-30.487 Y-15.243
X-30.447 Y-15.245
X-30.41 Y-15.231
X-30.381 Y-15.204
X-30.365 Y-15.168
G3 X-30.463 Y-14.587 I-0.749 J0.172
G1 X-30.598 Y-14.389
X-30.658 Y-14.308
X-30.661 Y-14.305
X-30.683 Y-14.279
X-30.704 Y-14.258
X-30.727 Y-14.24
X-30.761 Y-14.224
X-30.798 Y-14.222
X-30.834 Y-14.235
X-30.862 Y-14.259
X-30.88 Y-14.292
X-30.884 Y-14.329
X-30.874 Y-14.366
X-30.851 Y-14.396
X-30.827 Y-14.417
X-30.796 Y-14.437
X-30.759 Y-14.443
X-30.722 Y-14.436
X-30.691 Y-14.415
X-30.67 Y-14.385
X-30.66 Y-14.349
X-30.665 Y-14.312
X-30.683 Y-14.279
X-30.702 Y-14.259
X-30.743 Y-14.228
X-30.868 Y-14.146
X-31.017 Y-14.126
X-31.166 Y-14.146
X-31.307 Y-14.198
X-31.435 Y-14.276
X-31.547 Y-14.375
X-31.639 Y-14.493
X-31.659 Y-14.534
X-31.689 Y-14.658
X-31.664 Y-14.784
X-31.588 Y-14.887
X-31.456 Y-15.048
X-31.429 Y-15.069
X-31.397 Y-15.08
X-31.363
X-31.331 Y-15.068
X-31.304 Y-15.047
X-31.135 Y-14.847
X-30.73 Y-14.37
X-30.71 Y-14.335
X-30.706 Y-14.296
X-30.718 Y-14.258
X-30.743 Y-14.228
X-30.827 Y-14.167
X-30.996 Y-14.056
X-31.061 Y-14.018
X-31.207 Y-13.986
X-31.356 Y-14.004
X-31.496 Y-14.058
X-31.624 Y-14.137
X-31.735 Y-14.237
X-31.822 Y-14.359
X-31.838 Y-14.395
X-31.862 Y-14.519
X-31.833 Y-14.642
X-31.756 Y-14.742
X-31.673 Y-14.812
X-31.588 Y-14.887
X-31.56 Y-14.903
X-31.528 Y-14.909
X-31.495 Y-14.905
X-31.466 Y-14.89
X-31.443 Y-14.867
X-31.333 Y-14.71
X-30.972 Y-14.195
X-30.956 Y-14.16
X-30.955 Y-14.121
X-30.969 Y-14.084
X-30.996 Y-14.056
X-31.191 Y-13.932
X-31.321 Y-13.858
X-31.471 Y-13.852
X-31.617 Y-13.889
X-31.751 Y-13.955
X-31.87 Y-14.047
X-31.967 Y-14.161
X-32.038 Y-14.293
X-32.047 Y-14.333
X-32.046 Y-14.47
X-31.985 Y-14.592
X-31.875 Y-14.674
X-31.838 Y-14.681
X-31.801 Y-14.674
X-31.769 Y-14.653
X-31.617 Y-14.507
X-31.178 Y-14.086
X-31.158 Y-14.058
X-31.148 Y-14.024
X-31.151 Y-13.989
X-31.166 Y-13.957
X-31.191 Y-13.932
X-31.269 Y-13.883
X-31.335 Y-13.848
X-31.478 Y-13.784
X-31.618 Y-13.729
X-31.766 Y-13.749
X-31.905 Y-13.807
X-32.028 Y-13.892
X-32.133 Y-14
X-32.212 Y-14.127
X-32.259 Y-14.27
X-32.26 Y-14.303
X-32.24 Y-14.427
X-32.171 Y-14.532
X-32.064 Y-14.599
X-31.946 Y-14.643
X-31.875 Y-14.674
X-31.838 Y-14.681
X-31.801 Y-14.674
X-31.769 Y-14.653
X-31.747 Y-14.622
X-31.689 Y-14.491
X-31.431 Y-13.914
X-31.422 Y-13.877
X-31.428 Y-13.84
X-31.448 Y-13.807
X-31.478 Y-13.784
X-31.588 Y-13.734
X-31.757 Y-13.678
X-31.902 Y-13.639
X-32.048 Y-13.674
X-32.18 Y-13.746
X-32.292 Y-13.845
X-32.382 Y-13.965
X-32.447 Y-14.1
X-32.476 Y-14.247
Y-14.257
X-32.446 Y-14.369
X-32.377 Y-14.462
X-32.277 Y-14.521
X-32.064 Y-14.599
X-32.026 Y-14.604
X-31.988 Y-14.593
X-31.957 Y-14.569
X-31.938 Y-14.535
X-31.895 Y-14.403
X-31.697 Y-13.803
X-31.692 Y-13.765
X-31.702 Y-13.728
X-31.725 Y-13.698
X-31.757 Y-13.678
X-32.011 Y-13.595
X-32.084 Y-13.578
X-32.234 Y-13.588
X-32.37 Y-13.651
X-32.486 Y-13.746
X-32.581 Y-13.862
X-32.651 Y-13.995
X-32.688 Y-14.14
Y-14.161
X-32.664 Y-14.282
X-32.593 Y-14.382
X-32.487 Y-14.446
X-32.277 Y-14.521
X-32.246 Y-14.526
X-32.214 Y-14.52
X-32.186 Y-14.505
X-32.164 Y-14.481
X-32.151 Y-14.452
X-32.117 Y-14.33
X-31.949 Y-13.716
X-31.946 Y-13.679
X-31.957 Y-13.644
X-31.979 Y-13.614
X-32.011 Y-13.595
X-32.096 Y-13.57
X-32.185 Y-13.545
X-32.265 Y-13.525
X-32.339 Y-13.511
X-32.487 Y-13.531
X-32.62 Y-13.601
X-32.731 Y-13.702
X-32.817 Y-13.825
X-32.879 Y-13.962
X-32.904 Y-14.109
X-32.903 Y-14.121
X-32.87 Y-14.233
X-32.797 Y-14.324
X-32.695 Y-14.38
X-32.519 Y-14.435
X-32.487 Y-14.446
X-32.455 Y-14.451
X-32.423 Y-14.444
X-32.394 Y-14.428
X-32.373 Y-14.403
X-32.36 Y-14.373
X-32.335 Y-14.261
X-32.194 Y-13.644
X-32.193 Y-13.606
X-32.206 Y-13.57
X-32.231 Y-13.542
X-32.265 Y-13.525
X-32.434 Y-13.484
X-32.519 Y-13.466
X-32.593 Y-13.454
X-32.74 Y-13.483
X-32.868 Y-13.561
X-32.973 Y-13.668
X-33.052 Y-13.795
X-33.106 Y-13.936
X-33.112 Y-13.999
X-33.094 Y-14.135
X-33.018 Y-14.249
X-32.899 Y-14.317
X-32.73 Y-14.369
X-32.695 Y-14.38
X-32.662 Y-14.383
X-32.629 Y-14.376
X-32.601 Y-14.358
X-32.58 Y-14.332
X-32.569 Y-14.3
X-32.553 Y-14.206
X-32.445 Y-13.58
Y-13.543
X-32.459 Y-13.508
X-32.485 Y-13.481
X-32.519 Y-13.466
X-32.734 Y-13.42
X-32.808 Y-13.408
X-32.956 Y-13.43
X-33.085 Y-13.507
X-33.19 Y-13.614
X-33.27 Y-13.741
X-33.316 Y-13.884
X-33.322 Y-13.941
X-33.302 Y-14.078
X-33.224 Y-14.192
X-33.102 Y-14.258
X-33.026 Y-14.279
X-32.899 Y-14.317
X-32.866 Y-14.32
X-32.834 Y-14.312
X-32.806 Y-14.294
X-32.786 Y-14.268
X-32.775 Y-14.236
X-32.763 Y-14.162
X-32.66 Y-13.533
X-32.661 Y-13.496
X-32.675 Y-13.462
X-32.701 Y-13.435
X-32.734 Y-13.42
X-32.941 Y-13.373
X-33.089 Y-13.348
X-33.231 Y-13.397
X-33.35 Y-13.488
X-33.443 Y-13.606
X-33.508 Y-13.741
X-33.538 Y-13.888
X-33.537 Y-13.927
X-33.505 Y-14.05
X-33.425 Y-14.148
X-33.311 Y-14.205
X-33.102 Y-14.258
X-33.07 Y-14.261
X-33.038 Y-14.252
X-33.011 Y-14.234
X-32.991 Y-14.208
X-32.981 Y-14.177
X-32.971 Y-14.116
X-32.868 Y-13.486
X-32.869 Y-13.45
X-32.883 Y-13.416
X-32.908 Y-13.389
X-32.941 Y-13.373
X-33.195 Y-13.314
X-33.269 Y-13.301
X-33.416 Y-13.331
X-33.54 Y-13.415
X-33.64 Y-13.527
X-33.712 Y-13.659
X-33.75 Y-13.804
X-33.751 Y-13.854
X-33.724 Y-13.985
X-33.643 Y-14.091
X-33.524 Y-14.151
X-33.311 Y-14.205
X-33.277 Y-14.207
X-33.245 Y-14.197
X-33.218 Y-14.177
X-33.199 Y-14.149
X-33.19 Y-14.117
X-33.185 Y-14.063
X-33.122 Y-13.421
X-33.125 Y-13.386
X-33.139 Y-13.354
X-33.164 Y-13.329
X-33.195 Y-13.314
X-33.294 Y-13.291
X-33.411 Y-13.261
X-33.484 Y-13.246
X-33.63 Y-13.279
X-33.755 Y-13.362
X-33.854 Y-13.475
X-33.926 Y-13.607
X-33.962 Y-13.752
X-33.963 Y-13.803
X-33.935 Y-13.936
X-33.852 Y-14.043
X-33.73 Y-14.102
X-33.618 Y-14.128
X-33.524 Y-14.151
X-33.491 Y-14.153
X-33.458 Y-14.143
X-33.431 Y-14.123
X-33.412 Y-14.095
X-33.404 Y-14.063
X-33.399 Y-14.011
X-33.34 Y-13.366
X-33.342 Y-13.332
X-33.356 Y-13.301
X-33.38 Y-13.276
X-33.411 Y-13.261
X-33.578 Y-13.217
X-33.614 Y-13.207
X-33.687 Y-13.19
X-33.834 Y-13.219
X-33.96 Y-13.301
X-34.061 Y-13.412
X-34.135 Y-13.542
X-34.174 Y-13.687
X-34.176 Y-13.748
X-34.151 Y-13.883
X-34.067 Y-13.992
X-33.944 Y-14.053
X-33.73 Y-14.102
X-33.697 Y-14.103
X-33.665 Y-14.093
X-33.638 Y-14.073
X-33.62 Y-14.045
X-33.611 Y-14.013
X-33.606 Y-13.959
X-33.545 Y-13.311
X-33.548 Y-13.278
X-33.561 Y-13.247
X-33.584 Y-13.222
X-33.614 Y-13.207
X-33.787 Y-13.157
X-33.86 Y-13.14
X-34.01 Y-13.146
X-34.142 Y-13.217
X-34.25 Y-13.321
X-34.331 Y-13.448
X-34.381 Y-13.589
X-34.398 Y-13.738
X-34.394 Y-13.757
X-34.354 Y-13.866
X-34.275 Y-13.951
X-34.171 Y-14
X-33.944 Y-14.053
X-33.912 Y-14.054
X-33.881 Y-14.045
X-33.855 Y-14.026
X-33.836 Y-14.001
X-33.826 Y-13.97
X-33.816 Y-13.905
X-33.72 Y-13.267
X-33.721 Y-13.232
X-33.733 Y-13.2
X-33.756 Y-13.174
X-33.787 Y-13.157
X-33.904 Y-13.122
X-34.003 Y-13.091
X-34.075 Y-13.072
X-34.225 Y-13.086
X-34.356 Y-13.159
X-34.463 Y-13.264
X-34.544 Y-13.39
X-34.599 Y-13.53
X-34.617 Y-13.679
X-34.616 Y-13.684
X-34.58 Y-13.794
X-34.504 Y-13.883
X-34.4 Y-13.936
X-34.21 Y-13.99
X-34.171 Y-14
X-34.138 Y-14.001
X-34.107 Y-13.992
X-34.081 Y-13.974
X-34.061 Y-13.948
X-34.051 Y-13.917
X-34.039 Y-13.84
X-33.937 Y-13.201
X-33.938 Y-13.167
X-33.95 Y-13.134
X-33.973 Y-13.108
X-34.003 Y-13.091
X-34.125 Y-13.053
X-34.21 Y-13.025
X-34.282 Y-13.004
X-34.431 Y-13.02
X-34.563 Y-13.092
X-34.671 Y-13.196
X-34.755 Y-13.32
X-34.813 Y-13.459
X-34.835 Y-13.607
X-34.834 Y-13.611
X-34.801 Y-13.722
X-34.727 Y-13.812
X-34.625 Y-13.868
X-34.464 Y-13.918
X-34.4 Y-13.936
X-34.368 Y-13.938
X-34.336 Y-13.93
X-34.309 Y-13.913
X-34.289 Y-13.887
X-34.278 Y-13.857
X-34.262 Y-13.772
X-34.147 Y-13.136
X-34.146 Y-13.102
X-34.158 Y-13.069
X-34.18 Y-13.042
X-34.21 Y-13.025
X-34.423 Y-12.953
X-34.495 Y-12.933
X-34.644 Y-12.953
X-34.775 Y-13.025
X-34.884 Y-13.129
X-34.969 Y-13.252
X-35.029 Y-13.39
X-35.051 Y-13.538
Y-13.541
X-35.018 Y-13.652
X-34.945 Y-13.743
X-34.844 Y-13.799
X-34.625 Y-13.868
X-34.592 Y-13.871
X-34.56 Y-13.864
X-34.533 Y-13.847
X-34.512 Y-13.821
X-34.5 Y-13.79
X-34.483 Y-13.699
X-34.36 Y-13.066
Y-13.031
X-34.371 Y-12.998
X-34.393 Y-12.971
X-34.423 Y-12.953
X-34.548 Y-12.911
X-34.574 Y-12.898
X-34.643 Y-12.868
X-34.792 Y-12.856
X-34.931 Y-12.911
X-35.051 Y-13.002
X-35.148 Y-13.117
X-35.218 Y-13.249
X-35.262 Y-13.392
