%
(n-006-010)
(T1  D=1 CR=0 - ZMIN=-2 - flat end mill)
G90 G94
G17
G21
G28 G91 Z0
G90

(Clear 2)
M9
T1 M6
S5000 M3
G54
M8
G0 X-117.439 Y-12.673
Z12
Z2
Z0.5
G3 X-116.955 Y-12.797 Z0.29 I0.242 J-0.062 F333.3
X-117.439 Y-12.673 Z0.079 I-0.242 J0.062
X-116.955 Y-12.797 Z-0.131 I0.242 J-0.062
X-117.439 Y-12.673 Z-0.342 I-0.242 J0.062
X-116.955 Y-12.797 Z-0.552 I0.242 J-0.062
X-117.439 Y-12.673 Z-0.763 I-0.242 J0.062
X-117.228 Y-12.983 Z-0.876 I0.242 J-0.062
X-116.947 Y-12.735 Z-0.99 I0.031 J0.248
X-117.447 I-0.25
X-116.947 I0.25
G1 X-116.91 Y-12.59 F1000
X-116.923 Y-12.516
X-116.96 Y-12.451
X-117.067 Y-12.345
X-117.211 Y-12.306
X-117.36 Y-12.327
X-117.49 Y-12.401
X-117.587 Y-12.516
X-117.639 Y-12.656
X-117.641 Y-12.806
X-117.593 Y-12.949
X-117.501 Y-13.067
X-117.376 Y-13.149
X-117.23 Y-13.185
X-117.081 Y-13.171
X-116.944 Y-13.109
X-116.836 Y-13.005
X-116.758 Y-12.877
X-116.707 Y-12.736
X-116.697 Y-12.586
X-116.732 Y-12.44
X-116.802 Y-12.308
X-116.911 Y-12.204
X-117.042 Y-12.131
X-117.188 Y-12.098
X-117.338 Y-12.105
X-117.482 Y-12.146
X-117.611 Y-12.222
X-117.718 Y-12.327
X-117.8 Y-12.453
X-117.85 Y-12.594
X-117.864 Y-12.744
X-117.848 Y-12.893
X-117.797 Y-13.034
X-117.715 Y-13.159
X-117.608 Y-13.265
X-117.481 Y-13.344
X-117.338 Y-13.39
X-117.189 Y-13.406
X-117.04 Y-13.388
X-116.9 Y-13.336
X-116.773 Y-13.256
X-116.664 Y-13.152
X-116.576 Y-13.03
X-116.514 Y-12.894
X-116.476 Y-12.749
X-116.467 Y-12.599
X-116.49 Y-12.451
X-116.497 Y-12.43
X-116.529 Y-12.365
X-116.574 Y-12.31
X-116.632 Y-12.267
X-116.714 Y-12.221
X-116.754 Y-12.193
X-116.799 Y-12.152
X-116.837 Y-12.109
X-116.861 Y-12.076
X-116.906 Y-12.015
X-117.032 Y-11.933
X-117.175 Y-11.89
X-117.325 Y-11.882
X-117.473 Y-11.906
X-117.614 Y-11.958
X-117.743 Y-12.034
X-117.776 Y-12.062
X-117.829 Y-12.122
X-117.864 Y-12.194
X-117.879 Y-12.273
X-117.892 Y-12.531
X-117.898 Y-12.79
X-117.899 Y-12.869
X-117.896 Y-13.038
X-117.886 Y-13.188
X-117.823 Y-13.324
X-117.726 Y-13.438
X-117.605 Y-13.527
X-117.469 Y-13.59
X-117.323 Y-13.627
X-117.174 Y-13.639
X-117.025 Y-13.624
X-116.962 Y-13.607
X-116.87 Y-13.563
X-116.798 Y-13.492
X-116.754 Y-13.4
X-116.747 Y-13.376
X-116.731 Y-13.339
X-116.714 Y-13.301
X-116.612 Y-13.122
X-116.513 Y-12.953
X-116.457 Y-12.869
X-116.388 Y-12.784
X-116.299 Y-12.664
X-116.296 Y-12.639
X-116.301 Y-12.523
X-116.35 Y-12.419
X-116.434 Y-12.34
X-116.542 Y-12.299
X-116.581 Y-12.302
X-116.617 Y-12.319
X-116.642 Y-12.349
X-116.655 Y-12.387
X-116.651 Y-12.426
X-116.56 Y-12.746
X-116.544 Y-12.778
X-116.518 Y-12.802
X-116.485 Y-12.816
X-116.45 Y-12.818
X-116.416 Y-12.807
X-116.388 Y-12.784
X-116.266 Y-12.64
X-116.245 Y-12.616
X-116.222 Y-12.586
X-116.216 Y-12.49
X-116.253 Y-12.402
X-116.325 Y-12.339
X-116.418 Y-12.314
X-116.459 Y-12.32
X-116.497 Y-12.337
X-116.529 Y-12.363
X-116.553 Y-12.396
G3 X-116.245 Y-12.616 I0.168 J-0.09
G1 X-116.188 Y-12.549
X-116.172 Y-12.531
X-116.144 Y-12.502
X-116.124 Y-12.477
X-116.153 Y-12.384
X-116.228 Y-12.322
X-116.325 Y-12.309
X-116.352 Y-12.32
X-116.372 Y-12.339
X-116.384 Y-12.365
G3 X-116.144 Y-12.502 I0.139 J-0.035
G1 X-116.122 Y-12.478
X-116.089 Y-12.447
X-116.079 Y-12.436
X-116.071 Y-12.425
X-116.062 Y-12.407
G0 Z2
X-116.537 Y-12.394
Z-0.79
G1 Z-0.89 F1000
X-116.531 Y-12.399 Z-0.928
X-116.515 Y-12.413 Z-0.961
X-116.491 Y-12.435 Z-0.982
X-116.462 Y-12.461 Z-0.99
G3 X-116.071 Y-12.425 I0.179 J0.199
G1 X-116.065 Y-12.415
X-116.061 Y-12.404
X-116.058 Y-12.394
X-116.056 Y-12.383
X-116.057 Y-12.371
X-116.062 Y-12.34
X-116.075 Y-12.311
X-116.096 Y-12.286
X-116.123 Y-12.275
X-116.152 Y-12.273
X-116.181 Y-12.28
X-116.212 Y-12.301
X-116.233 Y-12.333
X-116.238 Y-12.37
X-116.229 Y-12.407
X-116.205 Y-12.436
X-116.172 Y-12.454
X-116.134 Y-12.456
X-116.099 Y-12.444
X-116.071 Y-12.418
X-116.056 Y-12.383
Y-12.362
X-116.057 Y-12.352
X-116.059 Y-12.341
X-116.062 Y-12.33
X-116.067 Y-12.32
X-116.074 Y-12.309
X-116.082 Y-12.299
X-116.096 Y-12.286
X-116.109 Y-12.278
X-116.122 Y-12.272
X-116.132 Y-12.269
X-116.143 Y-12.267
X-116.153 Y-12.266
X-116.163
X-116.174 Y-12.268
X-116.184 Y-12.27
X-116.206 Y-12.278
X-116.253 Y-12.292
X-116.979 Y-12.593
X-117.216 Y-12.691
X-117.834 Y-12.947
X-117.866 Y-12.968
X-117.888 Y-13
X-117.896 Y-13.038
X-117.894 Y-13.122
X-117.883 Y-13.376
X-117.874 Y-13.45
X-117.813 Y-13.587
X-117.71 Y-13.697
X-117.584 Y-13.778
X-117.445 Y-13.834
X-117.299 Y-13.867
X-117.149 Y-13.876
X-117.069 Y-13.867
X-116.953 Y-13.828
X-116.862 Y-13.747
X-116.811 Y-13.635
X-116.771 Y-13.46
X-116.754 Y-13.4
X-116.752 Y-13.364
X-116.762 Y-13.33
X-116.785 Y-13.301
X-116.815 Y-13.283
X-116.851 Y-13.276
X-117.156
X-117.783 Y-13.275
X-117.821 Y-13.282
X-117.854 Y-13.304
X-117.875 Y-13.337
X-117.883 Y-13.376
X-117.877 Y-13.46
X-117.862 Y-13.629
X-117.841 Y-13.778
X-117.749 Y-13.897
X-117.63 Y-13.987
X-117.495 Y-14.053
X-117.351 Y-14.096
X-117.202 Y-14.112
X-117.128 Y-14.106
X-117.003 Y-14.068
X-116.906 Y-13.98
X-116.855 Y-13.859
X-116.829 Y-13.714
X-116.811 Y-13.635
Y-13.6
X-116.823 Y-13.567
X-116.845 Y-13.54
X-116.876 Y-13.522
X-116.911 Y-13.517
X-117.139 Y-13.519
X-117.763 Y-13.524
X-117.794 Y-13.529
X-117.823 Y-13.544
X-117.845 Y-13.568
X-117.858 Y-13.597
X-117.862 Y-13.629
X-117.839 Y-13.883
X-117.829 Y-13.957
X-117.763 Y-14.092
X-117.655 Y-14.195
X-117.525 Y-14.27
X-117.383 Y-14.319
X-117.234 Y-14.338
X-117.085 Y-14.328
X-116.983 Y-14.269
X-116.913 Y-14.177
X-116.883 Y-14.066
X-116.874 Y-13.967
X-116.855 Y-13.859
X-116.856 Y-13.825
X-116.869 Y-13.792
X-116.893 Y-13.766
X-116.924 Y-13.75
X-116.958 Y-13.745
X-117.117 Y-13.752
X-117.743 Y-13.777
X-117.782 Y-13.787
X-117.813 Y-13.81
X-117.834 Y-13.844
X-117.839 Y-13.883
X-117.816 Y-14.136
X-117.806 Y-14.21
X-117.735 Y-14.342
X-117.623 Y-14.443
X-117.491 Y-14.512
X-117.346 Y-14.554
X-117.197 Y-14.568
X-117.148 Y-14.56
X-117.026 Y-14.51
X-116.937 Y-14.412
X-116.899 Y-14.285
X-116.883 Y-14.066
X-116.887 Y-14.032
X-116.903 Y-14.002
X-116.927 Y-13.979
X-116.958 Y-13.965
X-116.992 Y-13.963
X-117.096 Y-13.972
X-117.726 Y-14.031
X-117.762 Y-14.041
X-117.792 Y-14.065
X-117.811 Y-14.098
X-117.816 Y-14.136
X-117.808 Y-14.22
X-117.799 Y-14.305
X-117.788 Y-14.389
X-117.774 Y-14.463
X-117.698 Y-14.592
X-117.582 Y-14.688
X-117.447 Y-14.752
X-117.301 Y-14.785
X-117.186 Y-14.782
X-117.073 Y-14.756
X-116.979 Y-14.688
X-116.918 Y-14.589
X-116.901 Y-14.474
X-116.9 Y-14.305
X-116.899 Y-14.285
X-116.903 Y-14.251
X-116.92 Y-14.22
X-116.946 Y-14.197
X-116.978 Y-14.184
X-117.013 Y-14.183
X-117.076 Y-14.192
X-117.702 Y-14.281
X-117.738 Y-14.293
X-117.767 Y-14.318
X-117.784 Y-14.352
X-117.788 Y-14.389
X-117.765 Y-14.558
X-117.742 Y-14.643
X-117.697 Y-14.786
X-117.591 Y-14.891
X-117.459 Y-14.962
X-117.313 Y-14.998
X-117.163 Y-15.002
X-117.112 Y-14.988
X-116.99 Y-14.924
X-116.909 Y-14.812
X-116.888 Y-14.675
X-116.897 Y-14.558
X-116.901 Y-14.474
X-116.909 Y-14.441
X-116.928 Y-14.413
X-116.955 Y-14.393
X-116.988 Y-14.383
X-117.021 Y-14.384
X-117.052 Y-14.391
X-117.666 Y-14.523
X-117.702 Y-14.539
X-117.729 Y-14.567
X-117.743 Y-14.604
X-117.742 Y-14.643
X-117.698 Y-14.812
X-117.674 Y-14.896
X-117.624 Y-15.037
X-117.511 Y-15.136
X-117.373 Y-15.195
X-117.225 Y-15.218
X-117.076 Y-15.199
X-117.047 Y-15.187
X-116.938 Y-15.109
X-116.875 Y-14.992
X-116.868 Y-14.859
X-116.876 Y-14.812
X-116.888 Y-14.675
X-116.898 Y-14.641
X-116.919 Y-14.613
X-116.948 Y-14.594
X-116.982 Y-14.586
X-117.017 Y-14.591
X-117.607 Y-14.777
X-117.64 Y-14.794
X-117.664 Y-14.823
X-117.676 Y-14.859
X-117.674 Y-14.896
X-117.598 Y-15.15
X-117.572 Y-15.22
X-117.472 Y-15.332
X-117.337 Y-15.397
X-117.19 Y-15.424
X-117.041 Y-15.403
X-117.013 Y-15.392
X-116.904 Y-15.314
X-116.839 Y-15.197
X-116.832 Y-15.063
X-116.868 Y-14.859
X-116.881 Y-14.826
X-116.905 Y-14.8
X-116.937 Y-14.784
X-116.973 Y-14.78
X-117.007 Y-14.789
X-117.543 Y-15.033
X-117.572 Y-15.053
X-117.592 Y-15.081
X-117.601 Y-15.115
X-117.598 Y-15.15
X-117.531 Y-15.365
X-117.519 Y-15.403
X-117.487 Y-15.471
X-117.372 Y-15.567
X-117.23 Y-15.615
X-117.08 Y-15.621
X-116.935 Y-15.584
X-116.921 Y-15.575
X-116.833 Y-15.49
X-116.786 Y-15.377
X-116.789 Y-15.254
X-116.832 Y-15.063
X-116.847 Y-15.028
X-116.873 Y-15.001
X-116.908 Y-14.986
X-116.946 Y-14.985
X-116.981 Y-14.998
X-117.473 Y-15.29
X-117.498 Y-15.311
X-117.515 Y-15.339
X-117.522 Y-15.371
X-117.519 Y-15.403
X-117.449 Y-15.572
X-117.417 Y-15.64
X-117.317 Y-15.751
X-117.178 Y-15.807
X-117.028 Y-15.819
X-116.883 Y-15.781
X-116.866 Y-15.771
X-116.764 Y-15.67
X-116.721 Y-15.533
X-116.747 Y-15.391
X-116.766 Y-15.365
X-116.793 Y-15.346
X-116.824 Y-15.336
X-116.856 Y-15.337
X-117.375 Y-15.439
X-117.407 Y-15.451
X-117.433 Y-15.474
X-117.45 Y-15.504
X-117.456 Y-15.538
X-117.449 Y-15.572
X-117.368 Y-15.766
X-117.336 Y-15.834
X-117.236 Y-15.946
X-117.096 Y-16
X-116.946 Y-16.007
X-116.803 Y-15.963
X-116.776 Y-15.945
X-116.68 Y-15.843
X-116.641 Y-15.708
X-116.667 Y-15.571
X-116.747 Y-15.391
X-116.767 Y-15.364
X-116.795 Y-15.344
X-116.828 Y-15.336
X-116.862 Y-15.338
X-116.893 Y-15.352
X-117.331 Y-15.648
X-117.355 Y-15.671
X-117.37 Y-15.701
X-117.375 Y-15.734
X-117.368 Y-15.766
X-117.288 Y-15.959
X-117.256 Y-16.027
X-117.155 Y-16.138
X-117.014 Y-16.19
X-116.865 Y-16.193
X-116.722 Y-16.146
X-116.685 Y-16.122
X-116.586 Y-16.012
X-116.551 Y-15.868
X-116.589 Y-15.725
X-116.629 Y-15.653
X-116.667 Y-15.571
X-116.687 Y-15.543
X-116.715 Y-15.524
X-116.749 Y-15.515
X-116.783 Y-15.519
X-116.814 Y-15.533
X-117.252 Y-15.842
X-117.275 Y-15.865
X-117.29 Y-15.894
X-117.295 Y-15.927
X-117.288 Y-15.959
X-117.238 Y-16.079
X-117.222 Y-16.105
X-117.137 Y-16.212
X-117.087 Y-16.268
X-116.963 Y-16.352
X-116.815 Y-16.372
X-116.668 Y-16.339
X-116.537 Y-16.266
X-116.525 Y-16.252
X-116.462 Y-16.144
X-116.45 Y-16.02
X-116.488 Y-15.901
X-116.545 Y-15.803
X-116.589 Y-15.725
X-116.613 Y-15.698
X-116.644 Y-15.681
X-116.68 Y-15.677
X-116.715 Y-15.685
X-116.745 Y-15.705
X-117.127 Y-16.081
X-117.147 Y-16.11
X-117.156 Y-16.144
X-117.153 Y-16.18
X-117.137 Y-16.212
X-117.04 Y-16.332
X-116.97 Y-16.416
X-116.92 Y-16.472
X-116.781 Y-16.528
X-116.631 Y-16.524
X-116.489 Y-16.475
X-116.458 Y-16.45
X-116.369 Y-16.335
X-116.345 Y-16.192
X-116.392 Y-16.054
X-116.488 Y-15.901
X-116.514 Y-15.874
X-116.549 Y-15.858
X-116.587 Y-15.856
X-116.623 Y-15.868
X-116.651 Y-15.892
X-116.969 Y-16.293
X-116.985 Y-16.322
X-116.991 Y-16.355
X-116.986 Y-16.387
X-116.97 Y-16.416
X-116.854 Y-16.557
X-116.804 Y-16.612
X-116.671 Y-16.683
X-116.522 Y-16.687
X-116.425 Y-16.649
X-116.307 Y-16.564
X-116.242 Y-16.435
X-116.245 Y-16.29
X-116.315 Y-16.163
X-116.343 Y-16.143
X-116.376 Y-16.134
X-116.41 Y-16.136
X-116.442 Y-16.15
X-116.831 Y-16.413
X-116.855 Y-16.435
X-116.87 Y-16.464
X-116.875 Y-16.496
X-116.87 Y-16.528
X-116.854 Y-16.557
X-116.714 Y-16.724
X-116.684 Y-16.754
X-116.624 Y-16.799
X-116.479 Y-16.838
X-116.331 Y-16.811
X-116.204 Y-16.732
X-116.173 Y-16.698
X-116.115 Y-16.599
X-116.097 Y-16.486
X-116.124 Y-16.374
X-116.191 Y-16.281
X-116.315 Y-16.163
X-116.346 Y-16.144
X-116.381 Y-16.138
X-116.417 Y-16.145
X-116.448 Y-16.164
X-116.47 Y-16.192
X-116.7 Y-16.641
X-116.709 Y-16.669
X-116.71 Y-16.7
X-116.701 Y-16.729
X-116.684 Y-16.754
X-116.51 Y-16.899
X-116.45 Y-16.944
X-116.301 Y-16.967
X-116.157 Y-16.927
X-116.035 Y-16.84
X-116.011 Y-16.806
X-115.958 Y-16.673
X-115.972 Y-16.531
X-116.051 Y-16.412
X-116.166 Y-16.304
X-116.191 Y-16.281
X-116.223 Y-16.262
X-116.261 Y-16.256
X-116.298 Y-16.265
X-116.329 Y-16.287
X-116.35 Y-16.319
X-116.536 Y-16.788
X-116.543 Y-16.817
X-116.54 Y-16.848
X-116.529 Y-16.876
X-116.51 Y-16.899
X-116.379 Y-17.008
X-116.319 Y-17.053
X-116.176 Y-17.096
X-116.029 Y-17.066
X-115.905 Y-16.981
X-115.812 Y-16.863
X-115.808 Y-16.853
X-115.793 Y-16.726
X-115.832 Y-16.605
X-115.918 Y-16.511
X-116.037 Y-16.425
X-116.051 Y-16.412
X-116.083 Y-16.394
X-116.12 Y-16.388
X-116.156 Y-16.396
X-116.187 Y-16.417
X-116.208 Y-16.448
X-116.404 Y-16.893
X-116.412 Y-16.923
X-116.411 Y-16.954
X-116.399 Y-16.984
X-116.379 Y-17.008
X-116.278 Y-17.092
X-116.206 Y-17.15
X-116.19 Y-17.159
X-116.141 Y-17.177
X-116.069 Y-17.198
X-115.919 Y-17.192
X-115.784 Y-17.126
X-115.677 Y-17.021
X-115.665 Y-16.997
X-115.634 Y-16.856
X-115.673 Y-16.716
X-115.773 Y-16.611
X-115.812 Y-16.585
X-115.918 Y-16.511
X-115.952 Y-16.496
X-115.99
X-116.025 Y-16.509
X-116.053 Y-16.534
X-116.069 Y-16.568
X-116.201 Y-17.057
X-116.204 Y-17.094
X-116.194 Y-17.129
X-116.172 Y-17.158
X-116.141 Y-17.177
X-115.923 Y-17.253
X-115.851 Y-17.274
X-115.701 Y-17.258
X-115.573 Y-17.181
X-115.484 Y-17.06
X-115.48 Y-17.048
X-115.473 Y-16.917
X-115.522 Y-16.795
X-115.618 Y-16.706
X-115.68 Y-16.67
X-115.773 Y-16.611
X-115.809 Y-16.598
X-115.849 Y-16.6
X-115.884 Y-16.617
X-115.91 Y-16.646
X-115.922 Y-16.683
X-115.986 Y-17.146
X-115.984 Y-17.179
X-115.973 Y-17.21
X-115.951 Y-17.236
X-115.923 Y-17.253
X-115.737 Y-17.317
X-115.665 Y-17.338
X-115.515 Y-17.328
X-115.389 Y-17.248
X-115.309 Y-17.121
X-115.304 Y-17.1
X-115.308 Y-16.952
X-115.383 Y-16.824
X-115.51 Y-16.748
X-115.545 Y-16.745
X-115.579 Y-16.755
X-115.608 Y-16.775
X-115.627 Y-16.805
X-115.792 Y-17.184
X-115.8 Y-17.215
X-115.798 Y-17.247
X-115.786 Y-17.277
X-115.765 Y-17.301
X-115.737 Y-17.317
X-115.614 Y-17.36
X-115.53 Y-17.385
X-115.455 Y-17.395
X-115.307 Y-17.373
X-115.19 Y-17.279
X-115.123 Y-17.144
X-115.121 Y-17.125
X-115.137 Y-16.986
X-115.214 Y-16.869
X-115.336 Y-16.8
X-115.51 Y-16.748
X-115.548 Y-16.745
X-115.584 Y-16.757
X-115.613 Y-16.782
X-115.631 Y-16.815
X-115.635 Y-16.853
X-115.597 Y-17.299
X-115.587 Y-17.336
X-115.563 Y-17.366
X-115.53 Y-17.385
X-115.445 Y-17.401
X-115.314 Y-17.419
X-115.239 Y-17.425
X-115.166 Y-17.407
X-115.036 Y-17.333
X-114.958 Y-17.205
X-114.954 Y-17.185
X-114.955 Y-17.068
X-115 Y-16.961
X-115.083 Y-16.879
X-115.191 Y-16.834
X-115.276 Y-16.818
X-115.336 Y-16.8
X-115.375 Y-16.798
X-115.411 Y-16.811
X-115.44 Y-16.838
X-115.457 Y-16.873
X-115.459 Y-16.912
X-115.396 Y-17.335
X-115.386 Y-17.365
X-115.368 Y-17.39
X-115.343 Y-17.409
X-115.314 Y-17.419
X-115.107 Y-17.447
X-115.032 Y-17.454
X-114.962 Y-17.425
X-114.84 Y-17.339
X-114.817 Y-17.293
X-114.787 Y-17.161
X-114.818 Y-17.028
X-114.904 Y-16.923
X-115.028 Y-16.867
X-115.191 Y-16.834
X-115.224 Y-16.835
X-115.255 Y-16.846
X-115.281 Y-16.867
X-115.299 Y-16.895
X-115.306 Y-16.927
X-115.303 Y-16.96
X-115.186 Y-17.376
X-115.169 Y-17.409
X-115.141 Y-17.434
X-115.107 Y-17.447
X-114.937 Y-17.47
X-114.863 Y-17.477
X-114.792 Y-17.45
X-114.676 Y-17.356
X-114.614 Y-17.219
X-114.613 Y-17.202
X-114.628 Y-17.09
X-114.683 Y-16.991
X-114.77 Y-16.919
X-114.878 Y-16.885
X-115.028 Y-16.867
X-115.062
X-115.093 Y-16.878
X-115.12 Y-16.9
X-115.137 Y-16.928
X-115.144 Y-16.961
X-115.14 Y-16.994
X-115.016 Y-17.401
X-114.999 Y-17.433
X-114.972 Y-17.458
X-114.937 Y-17.47
X-114.768 Y-17.494
X-114.747 Y-17.496
X-114.726 Y-17.497
X-114.651 Y-17.488
X-114.622 Y-17.47
X-114.517 Y-17.362
X-114.475 Y-17.217
X-114.507 Y-17.069
X-114.606 Y-16.955
X-114.747 Y-16.901
X-114.878 Y-16.885
X-114.911 Y-16.888
X-114.942 Y-16.902
X-114.967 Y-16.926
X-114.982 Y-16.956
X-114.986 Y-16.99
X-114.978 Y-17.023
X-114.81 Y-17.435
X-114.79 Y-17.466
X-114.761 Y-17.487
X-114.726 Y-17.497
X-114.552 Y-17.483
X-114.515 Y-17.478
X-114.449 Y-17.442
X-114.395 Y-17.391
X-114.318 Y-17.262
X-114.302 Y-17.113
X-114.304 Y-17.105
X-114.371 Y-16.985
X-114.484 Y-16.908
X-114.619 Y-16.889
X-114.747 Y-16.901
X-114.783 Y-16.912
X-114.812 Y-16.936
X-114.83 Y-16.969
X-114.835 Y-17.006
X-114.826 Y-17.042
X-114.648 Y-17.426
X-114.624 Y-17.457
X-114.591 Y-17.477
X-114.552 Y-17.483
X-114.43 Y-17.473
X-114.355 Y-17.464
X-114.287 Y-17.432
X-114.178 Y-17.33
X-114.121 Y-17.191
X-114.123 Y-17.154
X-114.155 Y-17.035
X-114.232 Y-16.938
X-114.341 Y-16.881
X-114.464 Y-16.873
X-114.514 Y-16.88
X-114.619 Y-16.889
X-114.655 Y-16.901
X-114.683 Y-16.924
X-114.702 Y-16.957
X-114.707 Y-16.993
X-114.698 Y-17.029
X-114.526 Y-17.414
X-114.503 Y-17.447
X-114.469 Y-17.467
X-114.43 Y-17.473
X-114.214 Y-17.456
X-114.144 Y-17.447
X-114.081 Y-17.406
X-113.978 Y-17.297
X-113.942 Y-17.151
X-113.949 Y-17.099
X-113.989 Y-16.986
X-114.069 Y-16.898
X-114.178 Y-16.848
X-114.298 Y-16.845
X-114.43 Y-16.868
X-114.464 Y-16.873
X-114.5 Y-16.887
X-114.528 Y-16.913
X-114.544 Y-16.948
X-114.546 Y-16.986
X-114.533 Y-17.022
X-114.305 Y-17.407
X-114.281 Y-17.434
X-114.25 Y-17.451
X-114.214 Y-17.456
X-114.176 Y-17.453
X-114.091 Y-17.441
X-114.007 Y-17.425
X-113.934 Y-17.408
X-113.819 Y-17.311
X-113.767 Y-17.17
X-113.768 Y-17.02
X-113.779 Y-16.993
X-113.837 Y-16.897
X-113.926 Y-16.829
X-114.034 Y-16.799
X-114.146 Y-16.81
X-114.176 Y-16.819
X-114.264 Y-16.839
X-114.298 Y-16.845
X-114.334 Y-16.86
X-114.361 Y-16.888
X-114.375 Y-16.924
Y-16.962
X-114.36 Y-16.998
X-114.105 Y-17.382
X-114.079 Y-17.409
X-114.044 Y-17.424
X-114.007 Y-17.425
X-113.922 Y-17.409
X-113.838 Y-17.391
X-113.766 Y-17.37
X-113.704 Y-17.326
X-113.614 Y-17.207
X-113.58 Y-17.061
X-113.603 Y-16.913
X-113.61 Y-16.898
X-113.7 Y-16.797
X-113.825 Y-16.746
X-113.96 Y-16.755
X-114.146 Y-16.81
X-114.178 Y-16.828
X-114.201 Y-16.856
X-114.213 Y-16.891
X-114.211 Y-16.927
X-114.197 Y-16.961
X-113.938 Y-17.348
X-113.911 Y-17.375
X-113.876 Y-17.39
X-113.838 Y-17.391
X-113.649 Y-17.346
X-113.578 Y-17.324
X-113.461 Y-17.229
X-113.404 Y-17.091
X-113.399 Y-16.999
X-113.418 Y-16.874
X-113.486 Y-16.768
X-113.59 Y-16.697
X-113.715 Y-16.674
X-113.838 Y-16.703
X-113.922 Y-16.742
X-113.96 Y-16.755
X-113.992 Y-16.772
X-114.015 Y-16.8
X-114.027 Y-16.834
X-114.026 Y-16.87
X-114.012 Y-16.904
X-113.753 Y-17.302
X-113.726 Y-17.33
X-113.689 Y-17.346
X-113.649
X-113.457 Y-17.299
X-113.446 Y-17.296
X-113.436 Y-17.291
X-113.308 Y-17.212
X-113.233 Y-17.082
X-113.211 Y-16.934
X-113.24 Y-16.787
X-113.316 Y-16.657
X-113.335 Y-16.64
X-113.449 Y-16.575
X-113.58 Y-16.566
X-113.703 Y-16.613
X-113.838 Y-16.703
X-113.865 Y-16.732
X-113.878 Y-16.769
X-113.877 Y-16.808
X-113.86 Y-16.844
X-113.553 Y-17.258
X-113.529 Y-17.28
X-113.5 Y-17.294
X-113.467 Y-17.298
X-113.436 Y-17.291
X-113.384 Y-17.261
X-113.216 Y-17.163
X-113.154 Y-17.121
X-113.061 Y-17.003
X-113.034 Y-16.856
X-113.056 Y-16.707
X-113.123 Y-16.573
X-113.15 Y-16.544
X-113.269 Y-16.466
X-113.411 Y-16.452
X-113.544 Y-16.504
X-113.584 Y-16.533
X-113.703 Y-16.613
X-113.727 Y-16.638
X-113.741 Y-16.669
X-113.744 Y-16.704
X-113.735 Y-16.737
X-113.715 Y-16.765
X-113.335 Y-17.145
X-113.309 Y-17.164
X-113.278 Y-17.174
X-113.246 Y-17.173
X-113.216 Y-17.163
X-113.018 Y-17.046
X-112.955 Y-17.004
X-112.879 Y-16.875
X-112.863 Y-16.726
X-112.891 Y-16.579
X-112.965 Y-16.449
X-113.006 Y-16.407
X-113.103 Y-16.342
X-113.217 Y-16.318
X-113.332 Y-16.34
X-113.429 Y-16.404
X-113.499 Y-16.469
X-113.544 Y-16.504
X-113.567 Y-16.53
X-113.581 Y-16.562
X-113.582 Y-16.597
X-113.571 Y-16.63
X-113.55 Y-16.658
X-113.133 Y-17.032
X-113.107 Y-17.049
X-113.077 Y-17.057
X-113.047 Y-17.056
X-113.018 Y-17.046
X-112.954 Y-17.008
X-112.907 Y-16.978
X-112.843 Y-16.923
X-112.735 Y-16.819
X-112.692 Y-16.676
X-112.704 Y-16.526
X-112.758 Y-16.386
X-112.847 Y-16.266
X-112.896 Y-16.229
X-113.027 Y-16.174
X-113.169 Y-16.186
X-113.289 Y-16.261
X-113.429 Y-16.404
X-113.448 Y-16.431
X-113.456 Y-16.462
X-113.454 Y-16.495
X-113.442 Y-16.525
X-113.421 Y-16.55
X-112.969 Y-16.922
X-112.94 Y-16.939
X-112.906 Y-16.945
X-112.873 Y-16.94
X-112.843 Y-16.923
X-112.67 Y-16.772
X-112.616 Y-16.72
X-112.542 Y-16.59
X-112.535 Y-16.44
X-112.575 Y-16.296
X-112.652 Y-16.167
X-112.761 Y-16.064
X-112.796 Y-16.046
X-112.938 Y-16.013
X-113.079 Y-16.051
X-113.185 Y-16.151
X-113.194 Y-16.163
X-113.289 Y-16.261
X-113.307 Y-16.289
X-113.315 Y-16.321
X-113.312 Y-16.354
X-113.298 Y-16.384
X-113.276 Y-16.408
X-112.794 Y-16.774
X-112.765 Y-16.79
X-112.732 Y-16.795
X-112.699 Y-16.789
X-112.67 Y-16.772
X-112.484 Y-16.61
X-112.456 Y-16.585
X-112.422 Y-16.552
X-112.394 Y-16.511
X-112.382 Y-16.477
X-112.384 Y-16.441
X-112.397 Y-16.408
X-112.422 Y-16.382
X-112.454 Y-16.366
X-112.489 Y-16.362
X-112.524 Y-16.371
X-112.553 Y-16.392
X-112.573 Y-16.422
X-112.58 Y-16.438
X-112.588 Y-16.475
X-112.582 Y-16.513
X-112.562 Y-16.546
X-112.53 Y-16.569
X-112.493 Y-16.578
X-112.455 Y-16.572
X-112.422 Y-16.552
X-112.409 Y-16.536
X-112.388 Y-16.501
X-112.37 Y-16.468
X-112.367 Y-16.318
X-112.405 Y-16.173
X-112.476 Y-16.041
X-112.579 Y-15.932
X-112.706 Y-15.852
X-112.744 Y-15.842
X-112.875 Y-15.835
X-112.996 Y-15.885
X-113.084 Y-15.982
X-113.139 Y-16.079
X-113.185 Y-16.151
X-113.197 Y-16.183
X-113.198 Y-16.217
X-113.186 Y-16.25
X-113.165 Y-16.277
X-113.135 Y-16.295
X-113.113 Y-16.304
X-112.508 Y-16.539
X-112.475 Y-16.546
X-112.441 Y-16.541
X-112.411 Y-16.526
X-112.388 Y-16.501
X-112.315 Y-16.38
X-112.244 Y-16.248
Y-16.098
X-112.293 Y-15.956
X-112.377 Y-15.832
X-112.486 Y-15.728
X-112.619 Y-15.659
X-112.652 Y-15.65
X-112.787 Y-15.649
X-112.908 Y-15.706
X-112.993 Y-15.81
X-113.043 Y-15.91
X-113.084 Y-15.982
X-113.095 Y-16.02
X-113.091 Y-16.06
X-113.072 Y-16.094
X-113.04 Y-16.118
X-113.017 Y-16.13
X-112.443 Y-16.414
X-112.408 Y-16.424
X-112.372 Y-16.421
X-112.34 Y-16.406
X-112.315 Y-16.38
X-112.286 Y-16.332
X-112.23 Y-16.236
X-112.191 Y-16.163
X-112.126 Y-16.028
X-112.137 Y-15.878
X-112.194 Y-15.74
X-112.285 Y-15.62
X-112.4 Y-15.523
X-112.536 Y-15.46
X-112.571 Y-15.453
X-112.706 Y-15.457
X-112.825 Y-15.52
X-112.905 Y-15.629
X-112.993 Y-15.81
X-113.002 Y-15.849
X-112.995 Y-15.888
X-112.973 Y-15.921
X-112.94 Y-15.943
X-112.907 Y-15.957
X-112.316 Y-16.205
X-112.281 Y-16.212
X-112.245 Y-16.207
X-112.214 Y-16.19
X-112.191 Y-16.163
X-112.078 Y-15.954
X-112.046 Y-15.886
X-112.023 Y-15.738
X-112.064 Y-15.594
X-112.143 Y-15.467
X-112.251 Y-15.362
X-112.379 Y-15.285
X-112.523 Y-15.241
X-112.542
X-112.66 Y-15.264
X-112.759 Y-15.33
X-112.824 Y-15.431
X-112.88 Y-15.572
X-112.905 Y-15.629
X-112.912 Y-15.668
X-112.903 Y-15.707
X-112.88 Y-15.739
X-112.846 Y-15.759
X-112.805 Y-15.775
X-112.2 Y-15.998
X-112.165 Y-16.005
X-112.131 Y-15.999
X-112.101 Y-15.981
X-112.078 Y-15.954
X-111.976 Y-15.761
X-111.945 Y-15.693
X-111.921 Y-15.545
X-111.962 Y-15.401
X-112.042 Y-15.274
X-112.149 Y-15.168
X-112.274 Y-15.087
X-112.417 Y-15.039
X-112.461 Y-15.036
X-112.602 Y-15.059
X-112.717 Y-15.146
X-112.778 Y-15.276
X-112.792 Y-15.35
X-112.824 Y-15.431
X-112.83 Y-15.469
X-112.821 Y-15.507
X-112.798 Y-15.538
X-112.765 Y-15.558
X-112.702 Y-15.581
X-112.098 Y-15.805
X-112.063 Y-15.812
X-112.029 Y-15.806
X-111.999 Y-15.788
X-111.976 Y-15.761
X-111.965 Y-15.741
X-111.924 Y-15.656
X-111.885 Y-15.572
X-111.866 Y-15.525
X-111.85 Y-15.487
X-111.825 Y-15.34
X-111.868 Y-15.196
X-111.95 Y-15.07
X-112.056 Y-14.965
X-112.182 Y-14.882
X-112.324 Y-14.833
X-112.473 Y-14.817
X-112.495 Y-14.821
X-112.61 Y-14.868
X-112.695 Y-14.958
X-112.738 Y-15.074
X-112.778 Y-15.276
X-112.777 Y-15.314
X-112.761 Y-15.349
X-112.734 Y-15.376
X-112.699 Y-15.39
X-112.598 Y-15.411
X-111.962 Y-15.544
X-111.928 Y-15.545
X-111.896 Y-15.535
X-111.869 Y-15.515
X-111.85 Y-15.487
X-111.831 Y-15.403
X-111.789 Y-15.188
X-111.779 Y-15.113
X-111.814 Y-14.968
X-111.895 Y-14.841
X-112.005 Y-14.739
X-112.134 Y-14.663
X-112.275 Y-14.611
X-112.425 Y-14.597
X-112.454 Y-14.602
X-112.573 Y-14.647
X-112.663 Y-14.737
X-112.707 Y-14.857
X-112.738 Y-15.074
X-112.734 Y-15.113
X-112.716 Y-15.147
X-112.686 Y-15.172
X-112.649 Y-15.184
X-112.534 Y-15.196
X-111.898 Y-15.265
X-111.862 Y-15.262
X-111.829 Y-15.247
X-111.804 Y-15.221
X-111.789 Y-15.188
X-111.782 Y-15.15
X-111.768 Y-15.065
X-111.747 Y-14.934
X-111.739 Y-14.86
X-111.781 Y-14.716
X-111.869 Y-14.594
X-111.984 Y-14.498
X-112.117 Y-14.428
X-112.26 Y-14.384
X-112.41 Y-14.377
X-112.447 Y-14.384
X-112.567 Y-14.436
X-112.653 Y-14.534
X-112.69 Y-14.659
X-112.701 Y-14.812
X-112.707 Y-14.857
X-112.705 Y-14.889
X-112.693 Y-14.919
X-112.673 Y-14.943
X-112.645 Y-14.96
X-112.614 Y-14.967
X-112.491 Y-14.975
X-111.851 Y-15.015
X-111.816 Y-15.011
X-111.784 Y-14.994
X-111.76 Y-14.968
X-111.747 Y-14.934
X-111.715 Y-14.727
X-111.708 Y-14.653
X-111.738 Y-14.506
X-111.822 Y-14.381
X-111.935 Y-14.283
X-112.066 Y-14.21
X-112.209 Y-14.163
X-112.359 Y-14.151
X-112.508 Y-14.173
X-112.603 Y-14.241
X-112.665 Y-14.34
X-112.684 Y-14.456
X-112.683 Y-14.558
X-112.69 Y-14.659
X-112.684 Y-14.697
X-112.664 Y-14.73
X-112.633 Y-14.753
X-112.596 Y-14.762
X-112.459 Y-14.77
X-111.82 Y-14.809
X-111.784 Y-14.805
X-111.752 Y-14.788
X-111.728 Y-14.761
X-111.715 Y-14.727
X-111.69 Y-14.558
X-111.682 Y-14.474
X-111.678 Y-14.399
X-111.719 Y-14.254
X-111.809 Y-14.134
X-111.926 Y-14.041
X-112.06 Y-13.974
X-112.205 Y-13.934
X-112.354 Y-13.92
X-112.502 Y-13.943
X-112.511 Y-13.947
X-112.61 Y-14.016
X-112.674 Y-14.118
X-112.692 Y-14.238
X-112.689 Y-14.305
X-112.684 Y-14.456
X-112.675 Y-14.492
X-112.653 Y-14.522
X-112.622 Y-14.542
X-112.586 Y-14.549
X-112.423 Y-14.551
X-111.782 Y-14.56
X-111.746 Y-14.554
X-111.715 Y-14.536
X-111.693 Y-14.508
X-111.682 Y-14.474
X-111.666 Y-14.305
X-111.671 Y-14.22
X-111.676 Y-14.174
X-111.7 Y-14.026
X-111.789 Y-13.905
X-111.907 Y-13.813
X-112.042 Y-13.746
X-112.185 Y-13.704
X-112.335 Y-13.688
X-112.483 Y-13.708
X-112.516 Y-13.72
X-112.624 Y-13.791
X-112.692 Y-13.9
X-112.708 Y-14.029
X-112.692 Y-14.238
X-112.682 Y-14.275
X-112.658 Y-14.305
X-112.625 Y-14.324
X-112.587 Y-14.329
X-112.396 Y-14.318
X-111.77 Y-14.281
X-111.732 Y-14.271
X-111.701 Y-14.247
X-111.681 Y-14.213
X-111.676 Y-14.174
X-111.699 Y-13.967
X-111.711 Y-13.883
X-111.727 Y-13.809
X-111.804 Y-13.68
X-111.918 Y-13.583
X-112.051 Y-13.514
X-112.196 Y-13.474
X-112.345 Y-13.459
X-112.493 Y-13.48
X-112.548 Y-13.501
X-112.663 Y-13.578
X-112.732 Y-13.699
X-112.738 Y-13.837
X-112.714 Y-13.967
X-112.708 Y-14.029
X-112.695 Y-14.066
X-112.669 Y-14.096
X-112.633 Y-14.113
X-112.594 Y-14.115
X-112.42 Y-14.088
X-111.796 Y-13.993
X-111.76 Y-13.98
X-111.731 Y-13.955
X-111.714 Y-13.921
X-111.711 Y-13.883
X-111.752 Y-13.629
X-111.768 Y-13.556
X-111.847 Y-13.428
X-111.965 Y-13.335
X-112.101 Y-13.272
X-112.247 Y-13.239
X-112.397 Y-13.234
X-112.545 Y-13.263
X-112.594 Y-13.283
X-112.708 Y-13.365
X-112.774 Y-13.489
X-112.778 Y-13.629
X-112.761 Y-13.714
X-112.738 Y-13.837
X-112.723 Y-13.873
X-112.694 Y-13.9
X-112.658 Y-13.914
X-112.619 Y-13.913
X-112.452 Y-13.876
X-111.83 Y-13.739
X-111.796 Y-13.725
X-111.77 Y-13.699
X-111.754 Y-13.666
X-111.752 Y-13.629
X-111.788 Y-13.414
X-111.821 Y-13.267
X-111.919 Y-13.154
X-112.047 Y-13.074
X-112.188 Y-13.025
X-112.337 Y-13.005
X-112.487 Y-13.013
X-112.631 Y-13.054
X-112.694 Y-13.089
X-112.8 Y-13.184
X-112.85 Y-13.318
X-112.833 Y-13.46
X-112.8 Y-13.545
X-112.778 Y-13.629
X-112.761 Y-13.662
X-112.733 Y-13.687
X-112.698 Y-13.699
X-112.661 Y-13.698
X-112.488 Y-13.66
X-111.866 Y-13.525
X-111.832 Y-13.511
X-111.805 Y-13.485
X-111.79 Y-13.451
X-111.788 Y-13.414
X-111.795 Y-13.376
X-111.834 Y-13.207
X-111.845 Y-13.165
X-111.892 Y-13.073
X-111.967 Y-12.943
X-112.09 Y-12.857
X-112.23 Y-12.805
X-112.379 Y-12.783
X-112.529 Y-12.79
X-112.674 Y-12.827
X-112.808 Y-12.894
X-112.842 Y-12.924
X-112.916 Y-13.025
X-112.943 Y-13.148
X-112.916 Y-13.271
X-112.899 Y-13.296
X-112.874 Y-13.315
X-112.845 Y-13.325
X-112.814 Y-13.326
X-112.561 Y-13.293
X-111.969 Y-13.215
X-111.934 Y-13.203
X-111.905 Y-13.179
X-111.887 Y-13.146
X-111.882 Y-13.109
X-111.892 Y-13.073
X-112.021 Y-12.822
X-112.097 Y-12.693
X-112.225 Y-12.615
X-112.369 Y-12.574
X-112.519 Y-12.565
X-112.667 Y-12.586
X-112.809 Y-12.634
X-112.936 Y-12.713
X-112.959 Y-12.737
X-113.029 Y-12.848
X-113.044 Y-12.978
X-113.003 Y-13.102
X-112.982 Y-13.125
X-112.956 Y-13.14
X-112.927 Y-13.147
X-112.897 Y-13.145
X-112.68 Y-13.096
X-112.089 Y-12.963
X-112.056 Y-12.949
X-112.03 Y-12.925
X-112.015 Y-12.892
X-112.011 Y-12.857
X-112.021 Y-12.822
X-112.041 Y-12.784
X-112.089 Y-12.7
X-112.14 Y-12.616
X-112.176 Y-12.566
X-112.269 Y-12.448
X-112.405 Y-12.384
X-112.553 Y-12.359
X-112.703 Y-12.366
X-112.848 Y-12.403
X-112.983 Y-12.468
X-113.099 Y-12.563
X-113.109 Y-12.576
X-113.157 Y-12.682
X-113.161 Y-12.799
X-113.12 Y-12.908
X-113.099 Y-12.931
X-113.071 Y-12.947
X-113.04 Y-12.953
X-113.008 Y-12.948
X-112.804 Y-12.888
X-112.23 Y-12.717
X-112.197 Y-12.7
X-112.173 Y-12.672
X-112.16 Y-12.637
X-112.161 Y-12.6
X-112.176 Y-12.566
X-112.341 Y-12.337
X-112.387 Y-12.278
X-112.514 Y-12.198
X-112.661 Y-12.166
X-112.811 Y-12.171
X-112.957 Y-12.206
X-113.093 Y-12.268
X-113.211 Y-12.362
X-113.224 Y-12.379
X-113.279 Y-12.492
X-113.282 Y-12.618
X-113.234 Y-12.734
X-113.199 Y-12.784
X-113.144 Y-12.869
X-113.041 Y-13.038
X-112.99 Y-13.122
X-112.945 Y-13.207
X-112.869 Y-13.376
X-112.833 Y-13.46
X-112.809 Y-13.492
X-112.775 Y-13.512
X-112.735 Y-13.517
X-112.697 Y-13.506
X-112.666 Y-13.482
X-112.647 Y-13.447
X-112.535 Y-13.087
X-112.328 Y-12.422
X-112.324 Y-12.393
X-112.328 Y-12.363
X-112.341 Y-12.337
X-112.399 Y-12.255
X-112.423 Y-12.224
X-112.458 Y-12.193
X-112.561 Y-12.109
X-112.682 Y-12.02
X-112.828 Y-11.987
X-112.978 Y-11.995
X-113.122 Y-12.037
X-113.255 Y-12.107
X-113.337 Y-12.183
X-113.408 Y-12.284
X-113.433 Y-12.406
X-113.405 Y-12.527
X-113.33 Y-12.627
X-113.304 Y-12.644
X-113.273 Y-12.652
X-113.242 Y-12.651
X-113.212 Y-12.639
X-113.092 Y-12.57
X-112.577 Y-12.27
X-112.548 Y-12.246
X-112.531 Y-12.212
X-112.528 Y-12.175
X-112.538 Y-12.138
X-112.561 Y-12.109
X-112.769 Y-11.94
X-112.798 Y-11.918
X-112.822 Y-11.9
X-112.953 Y-11.827
X-113.103 Y-11.826
X-113.249 Y-11.862
X-113.382 Y-11.932
X-113.497 Y-12.028
X-113.581 Y-12.152
X-113.585 Y-12.162
X-113.6 Y-12.282
X-113.567 Y-12.399
X-113.49 Y-12.493
X-113.461 Y-12.508
X-113.428 Y-12.513
X-113.396 Y-12.507
X-113.367 Y-12.491
X-113.296 Y-12.434
X-112.822 Y-12.057
X-112.799 Y-12.03
X-112.786 Y-11.996
Y-11.96
X-112.799 Y-11.927
X-112.822 Y-11.9
X-112.992 Y-11.794
X-113.031 Y-11.771
X-113.164 Y-11.702
X-113.314 Y-11.698
X-113.458 Y-11.742
X-113.586 Y-11.82
X-113.694 Y-11.924
X-113.723 Y-11.974
X-113.763 Y-12.11
X-113.738 Y-12.25
X-113.651 Y-12.362
X-113.621 Y-12.378
X-113.588 Y-12.382
X-113.555 Y-12.376
X-113.526 Y-12.359
X-113.478 Y-12.318
X-113.021 Y-11.931
X-112.997 Y-11.902
X-112.986 Y-11.867
X-112.988 Y-11.83
X-113.004 Y-11.796
X-113.031 Y-11.771
X-113.245 Y-11.646
X-113.266 Y-11.634
X-113.277 Y-11.629
X-113.307 Y-11.619
X-113.345 Y-11.616
X-113.382 Y-11.629
X-113.411 Y-11.654
X-113.428 Y-11.689
X-113.431 Y-11.727
X-113.419 Y-11.764
X-113.395 Y-11.793
X-113.36 Y-11.811
X-113.322 Y-11.815
X-113.317 Y-11.814
X-113.283 Y-11.805
X-113.254 Y-11.783
X-113.235 Y-11.753
X-113.227 Y-11.718
X-113.233 Y-11.683
X-113.25 Y-11.652
X-113.277 Y-11.629
X-113.288 Y-11.624
X-113.33 Y-11.612
X-113.477 Y-11.581
X-113.622 Y-11.616
X-113.754 Y-11.689
X-113.858 Y-11.796
X-113.934 Y-11.926
X-113.939 Y-11.946
X-113.941 Y-12.07
X-113.893 Y-12.184
X-113.802 Y-12.269
X-113.77 Y-12.281
X-113.735 Y-12.28
X-113.703 Y-12.268
X-113.676 Y-12.245
X-113.661 Y-12.227
X-113.284 Y-11.77
X-113.266 Y-11.736
X-113.262 Y-11.698
X-113.273 Y-11.661
X-113.296 Y-11.631
X-113.33 Y-11.612
X-113.584 Y-11.545
X-113.732 Y-11.521
X-113.875 Y-11.563
X-113.997 Y-11.651
X-114.04 Y-11.706
X-114.098 Y-11.829
X-114.101 Y-11.965
X-114.048 Y-12.09
X-113.947 Y-12.182
X-113.912 Y-12.193
X-113.874 Y-12.19
X-113.841 Y-12.174
X-113.815 Y-12.147
X-113.528 Y-11.694
X-113.514 Y-11.66
Y-11.624
X-113.527 Y-11.589
X-113.551 Y-11.562
X-113.584 Y-11.545
X-113.753 Y-11.509
X-113.838 Y-11.492
X-113.912 Y-11.483
X-114.061 Y-11.503
X-114.182 Y-11.592
X-114.264 Y-11.717
X-114.279 Y-11.77
X-114.289 Y-11.884
X-114.255 Y-11.993
X-114.183 Y-12.082
X-114.083 Y-12.138
X-114.047 Y-12.141
X-114.012 Y-12.132
X-113.983 Y-12.111
X-113.963 Y-12.081
X-113.769 Y-11.628
X-113.761 Y-11.595
X-113.765 Y-11.56
X-113.781 Y-11.529
X-113.806 Y-11.506
X-113.838 Y-11.492
X-113.922 Y-11.478
X-114.091 Y-11.46
X-114.166 Y-11.455
X-114.308 Y-11.505
X-114.413 Y-11.611
X-114.475 Y-11.748
X-114.477 Y-11.768
X-114.458 Y-11.905
X-114.379 Y-12.019
X-114.258 Y-12.085
X-114.22 Y-12.087
X-114.185 Y-12.074
X-114.156 Y-12.05
X-114.139 Y-12.017
X-114.01 Y-11.587
X-114.006 Y-11.553
X-114.013 Y-11.52
X-114.032 Y-11.491
X-114.059 Y-11.47
X-114.091 Y-11.46
X-114.261 Y-11.442
X-114.307 Y-11.438
X-114.345 Y-11.435
X-114.42 Y-11.44
X-114.548 Y-11.518
X-114.635 Y-11.64
X-114.646 Y-11.684
X-114.651 Y-11.803
X-114.61 Y-11.915
X-114.528 Y-12.002
X-114.419 Y-12.05
X-114.386
X-114.355 Y-12.04
X-114.329 Y-12.02
X-114.311 Y-11.993
X-114.302 Y-11.962
X-114.257 Y-11.545
X-114.261 Y-11.506
X-114.278 Y-11.472
X-114.308 Y-11.447
X-114.345 Y-11.435
X-114.43 Y-11.436
X-114.561 Y-11.446
X-114.635 Y-11.456
X-114.76 Y-11.54
X-114.829 Y-11.673
X-114.832 Y-11.7
X-114.82 Y-11.814
X-114.766 Y-11.916
X-114.679 Y-11.99
X-114.569 Y-12.025
X-114.537 Y-12.023
X-114.507 Y-12.01
X-114.482 Y-11.988
X-114.466 Y-11.959
X-114.461 Y-11.927
X-114.456 Y-11.547
X-114.461 Y-11.515
X-114.476 Y-11.486
X-114.499 Y-11.463
X-114.529 Y-11.449
X-114.561 Y-11.446
X-114.73 Y-11.461
X-114.768 Y-11.464
X-114.84 Y-11.485
X-114.9 Y-11.531
X-114.985 Y-11.654
X-114.987 Y-11.668
X-114.979 Y-11.786
X-114.927 Y-11.891
X-114.838 Y-11.969
X-114.726 Y-12.006
X-114.691 Y-12.003
X-114.658 Y-11.987
X-114.634 Y-11.961
X-114.62 Y-11.929
X-114.618 Y-11.893
X-114.663 Y-11.551
X-114.675 Y-11.515
X-114.699 Y-11.487
X-114.731 Y-11.469
X-114.768 Y-11.464
X-114.937 Y-11.503
X-115.01 Y-11.523
X-115.066 Y-11.573
X-115.143 Y-11.701
X-115.12 Y-11.823
X-115.051 Y-11.925
X-114.946 Y-11.99
X-114.825 Y-12.007
X-114.791 Y-11.998
X-114.763 Y-11.978
X-114.743 Y-11.949
X-114.735 Y-11.916
X-114.738 Y-11.881
X-114.822 Y-11.575
X-114.838 Y-11.541
X-114.866 Y-11.516
X-114.9 Y-11.503
X-114.937
X-115.022 Y-11.522
X-115.107 Y-11.545
X-115.178 Y-11.569
X-115.23 Y-11.623
X-115.292 Y-11.759
X-115.26 Y-11.865
X-115.19 Y-11.95
X-115.094 Y-12.004
X-114.984 Y-12.018
X-114.95 Y-12.008
X-114.921 Y-11.987
X-114.902 Y-11.957
X-114.894 Y-11.922
X-114.899 Y-11.887
X-114.989 Y-11.611
X-115.007 Y-11.579
X-115.035 Y-11.555
X-115.07 Y-11.543
X-115.107 Y-11.545
X-115.191 Y-11.569
X-115.276 Y-11.598
X-115.286 Y-11.602
X-115.419 Y-11.672
X-115.488 Y-11.733
X-115.55 Y-11.769
X-115.579 Y-11.782
X-115.617 Y-11.798
X-115.54 Y-11.927
X-115.518 Y-11.953
X-115.439 Y-12.02
X-115.342 Y-12.056
X-115.238
X-115.207 Y-12.044
X-115.182 Y-12.023
X-115.165 Y-11.994
X-115.158 Y-11.962
X-115.149 Y-11.698
X-115.156 Y-11.66
X-115.177 Y-11.626
X-115.209 Y-11.604
X-115.247 Y-11.595
X-115.286 Y-11.602
X-115.36 Y-11.636
X-115.614 Y-11.784
X-115.699 Y-11.845
X-115.711 Y-11.855
X-115.802 Y-11.94
X-115.953 Y-12.087
X-115.972 Y-12.109
X-115.979 Y-12.119
X-115.985 Y-12.13
X-115.989 Y-12.14
X-115.991 Y-12.151
X-115.992 Y-12.162
X-115.993 Y-12.172
X-115.992 Y-12.183
X-115.99 Y-12.193
X-115.985 Y-12.208
X-115.977 Y-12.222
X-115.966 Y-12.237
X-115.936 Y-12.267
X-115.919 Y-12.278
X-115.907 Y-12.283
X-115.894 Y-12.287
X-115.881 Y-12.288
X-115.868
X-115.849 Y-12.285
X-115.829 Y-12.278
X-115.614 Y-12.173
X-115.53 Y-12.133
X-115.469 Y-12.109
X-115.445 Y-12.102
X-115.36 Y-12.081
X-115.276 Y-12.063
X-115.022 Y-12.02
X-114.758 Y-12.003
X-114.747
X-114.514 Y-12.032
X-114.43 Y-12.047
X-114.261 Y-12.084
X-114.172 Y-12.109
X-113.947 Y-12.182
X-113.668 Y-12.351
X-113.651 Y-12.362
X-113.415 Y-12.554
X-113.33 Y-12.627
X-113.293 Y-12.663
X-113.259 Y-12.7
X-113.234 Y-12.734
X-113.205 Y-12.76
X-113.168 Y-12.773
X-113.129 Y-12.771
X-113.094 Y-12.754
X-113.063 Y-12.732 Z-0.982
X-113.037 Y-12.712 Z-0.961
X-113.02 Y-12.699 Z-0.928
X-113.014 Y-12.695 Z-0.89
G0 Z2
X-116.496 Y-12.881
Z-0.79
G1 Z-0.89 F1000
X-116.498 Y-12.874 Z-0.928
X-116.505 Y-12.854 Z-0.961
X-116.516 Y-12.823 Z-0.982
X-116.528 Y-12.787 Z-0.99
G3 X-116.861 Y-12.076 I-3.449 J-1.182
G1 X-116.883 Y-12.043
X-116.893 Y-12.024
X-116.929 Y-11.94
X-116.958 Y-11.871
X-117.057 Y-11.758
X-117.194 Y-11.696
X-117.342 Y-11.673
X-117.492 Y-11.681
X-117.637 Y-11.716
X-117.685 Y-11.737
X-117.776 Y-11.799
X-117.839 Y-11.889
X-117.865 Y-11.997
X-117.879 Y-12.273
X-117.872 Y-12.312
X-117.85 Y-12.345
X-117.818 Y-12.367
X-117.779 Y-12.375
X-117.741 Y-12.367
X-117.585 Y-12.302
X-116.988 Y-12.053
X-116.959 Y-12.034
X-116.938 Y-12.007
X-116.927 Y-11.974
X-116.929 Y-11.94
X-116.95 Y-11.855
X-116.955 Y-11.813
X-116.957 Y-11.771
X-116.959 Y-11.733
X-117.03 Y-11.601
X-117.153 Y-11.516
X-117.295 Y-11.468
X-117.445 Y-11.454
X-117.594 Y-11.467
X-117.64 Y-11.481
X-117.747 Y-11.539
X-117.821 Y-11.635
X-117.852 Y-11.752
X-117.865 Y-11.997
X-117.858 Y-12.034
X-117.838 Y-12.066
X-117.808 Y-12.089
X-117.771 Y-12.098
X-117.733 Y-12.093
X-117.66 Y-12.069
X-117.025 Y-11.857
X-116.991 Y-11.838
X-116.967 Y-11.808
X-116.957 Y-11.771
X-116.953 Y-11.686
X-116.949 Y-11.64
X-116.946 Y-11.565
X-117.003 Y-11.426
X-117.117 Y-11.328
X-117.253 Y-11.265
X-117.399 Y-11.233
X-117.549 Y-11.232
X-117.603 Y-11.244
X-117.72 Y-11.297
X-117.803 Y-11.395
X-117.838 Y-11.519
X-117.852 Y-11.752
X-117.846 Y-11.787
X-117.829 Y-11.817
X-117.803 Y-11.84
X-117.77 Y-11.852
X-117.734
X-117.678 Y-11.842
X-117.03 Y-11.727
X-117 Y-11.716
X-116.975 Y-11.697
X-116.957 Y-11.67
X-116.949 Y-11.64
X-116.931 Y-11.433
X-116.928 Y-11.358
X-116.991 Y-11.222
X-117.102 Y-11.121
X-117.235 Y-11.052
X-117.38 Y-11.012
X-117.53 Y-11.008
X-117.577 Y-11.017
X-117.696 Y-11.067
X-117.782 Y-11.162
X-117.821 Y-11.286
X-117.833 Y-11.433
X-117.838 Y-11.519
X-117.833 Y-11.553
X-117.817 Y-11.583
X-117.791 Y-11.606
X-117.759 Y-11.619
X-117.724 Y-11.62
X-117.665 Y-11.612
X-117.016 Y-11.519
X-116.985 Y-11.509
X-116.959 Y-11.49
X-116.941 Y-11.464
X-116.931 Y-11.433
X-116.915 Y-11.264
X-116.912 Y-11.189
X-116.952 Y-11.045
X-117.051 Y-10.932
X-117.177 Y-10.851
X-117.318 Y-10.8
X-117.467 Y-10.782
X-117.529 Y-10.789
X-117.651 Y-10.83
X-117.745 Y-10.919
X-117.792 Y-11.04
X-117.801 Y-11.095
X-117.812 Y-11.18
X-117.821 Y-11.286
X-117.817 Y-11.319
X-117.802 Y-11.349
X-117.779 Y-11.372
X-117.749 Y-11.387
X-117.715 Y-11.391
X-117.655 Y-11.387
X-117.009 Y-11.351
X-116.975 Y-11.343
X-116.946 Y-11.324
X-116.925 Y-11.297
X-116.915 Y-11.264
X-116.907 Y-11.18
X-116.891 Y-11.049
X-116.885 Y-10.974
X-116.931 Y-10.831
X-117.03 Y-10.718
X-117.155 Y-10.635
X-117.295 Y-10.582
X-117.444 Y-10.563
X-117.487 Y-10.568
X-117.608 Y-10.606
X-117.702 Y-10.69
X-117.753 Y-10.806
X-117.76 Y-10.842
X-117.792 Y-11.04
X-117.791 Y-11.074
X-117.778 Y-11.106
X-117.754 Y-11.131
X-117.724 Y-11.147
X-117.69 Y-11.152
X-117.634 Y-11.15
X-116.987 Y-11.133
X-116.953 Y-11.126
X-116.924 Y-11.108
X-116.902 Y-11.081
X-116.891 Y-11.049
X-116.875 Y-10.926
X-116.863 Y-10.842
X-116.854 Y-10.767
X-116.899 Y-10.624
X-116.995 Y-10.509
X-117.118 Y-10.423
X-117.257 Y-10.366
X-117.406 Y-10.346
X-117.44 Y-10.349
X-117.561 Y-10.386
X-117.656 Y-10.47
X-117.707 Y-10.586
X-117.753 Y-10.806
X-117.752 Y-10.84
X-117.74 Y-10.873
X-117.718 Y-10.899
X-117.688 Y-10.916
X-117.654 Y-10.922
X-117.609
X-116.961
X-116.927 Y-10.916
X-116.898 Y-10.899
X-116.875 Y-10.874
X-116.863 Y-10.842
X-116.827 Y-10.626
X-116.818 Y-10.552
X-116.865 Y-10.41
X-116.961 Y-10.294
X-117.084 Y-10.208
X-117.222 Y-10.15
X-117.371 Y-10.13
X-117.397 Y-10.132
X-117.517 Y-10.17
X-117.611 Y-10.254
X-117.662 Y-10.369
X-117.707 Y-10.586
Y-10.621
X-117.695 Y-10.653
X-117.673 Y-10.68
X-117.643 Y-10.697
X-117.609 Y-10.703
X-117.574
X-116.925 Y-10.706
X-116.892 Y-10.7
X-116.862 Y-10.684
X-116.839 Y-10.658
X-116.827 Y-10.626
X-116.82 Y-10.588
X-116.791 Y-10.45
X-116.779 Y-10.376
X-116.808 Y-10.228
X-116.894 Y-10.106
X-117.01 Y-10.01
X-117.145 Y-9.945
X-117.292 Y-9.915
X-117.328 Y-9.916
X-117.452 Y-9.948
X-117.551 Y-10.028
X-117.608 Y-10.143
X-117.645 Y-10.288
X-117.662 Y-10.369
Y-10.403
X-117.651 Y-10.434
X-117.63 Y-10.461
X-117.602 Y-10.478
X-117.569 Y-10.486
X-117.539 Y-10.488
X-116.894 Y-10.525
X-116.859 Y-10.521
X-116.829 Y-10.506
X-116.805 Y-10.481
X-116.791 Y-10.45
X-116.766 Y-10.335
X-116.745 Y-10.25
X-116.731 Y-10.177
X-116.756 Y-10.029
X-116.839 Y-9.904
X-116.952 Y-9.806
X-117.085 Y-9.736
X-117.231 Y-9.704
X-117.256
X-117.372 Y-9.728
X-117.468 Y-9.795
X-117.532 Y-9.894
X-117.56 Y-9.966
X-117.571 Y-9.997
X-117.608 Y-10.143
X-117.61 Y-10.176
X-117.6 Y-10.209
X-117.58 Y-10.236
X-117.552 Y-10.255
X-117.519 Y-10.263
X-117.495 Y-10.265
X-116.85 Y-10.322
X-116.816 Y-10.319
X-116.785 Y-10.305
X-116.76 Y-10.281
X-116.745 Y-10.25
X-116.69 Y-10.035
X-116.675 Y-9.962
X-116.706 Y-9.815
X-116.79 Y-9.691
X-116.904 Y-9.593
X-117.037 Y-9.524
X-117.11 Y-9.508
X-117.248 Y-9.511
X-117.37 Y-9.576
X-117.45 Y-9.688
X-117.475 Y-9.75
X-117.532 Y-9.894
X-117.538 Y-9.93
X-117.531 Y-9.965
X-117.512 Y-9.995
X-117.484 Y-10.016
X-117.45 Y-10.027
X-117.439 Y-10.028
X-116.798 Y-10.105
X-116.763 Y-10.103
X-116.731 Y-10.09
X-116.706 Y-10.066
X-116.69 Y-10.035
X-116.634 Y-9.828
X-116.618 Y-9.755
X-116.649 Y-9.608
X-116.732 Y-9.483
X-116.846 Y-9.385
X-116.981 Y-9.321
X-117.027 Y-9.312
X-117.163 Y-9.315
X-117.284 Y-9.377
X-117.365 Y-9.487
X-117.45 Y-9.688
X-117.456 Y-9.723
X-117.449 Y-9.758
X-117.431 Y-9.789
X-117.402 Y-9.811
X-117.368 Y-9.822
X-116.741 Y-9.898
X-116.707 Y-9.896
X-116.675 Y-9.882
X-116.65 Y-9.859
X-116.634 Y-9.828
X-116.61 Y-9.744
X-116.576 Y-9.659
X-116.548 Y-9.59
X-116.563 Y-9.44
X-116.637 Y-9.309
X-116.744 Y-9.205
X-116.876 Y-9.134
X-116.929 Y-9.12
X-117.068 Y-9.118
X-117.193 Y-9.178
X-117.277 Y-9.289
X-117.349 Y-9.45
X-117.365 Y-9.487
X-117.371 Y-9.522
X-117.365 Y-9.557
X-117.347 Y-9.588
X-117.32 Y-9.611
X-117.286 Y-9.622
X-116.678 Y-9.71
X-116.648
X-116.619 Y-9.701
X-116.594 Y-9.683
X-116.576 Y-9.659
X-116.49 Y-9.49
X-116.459 Y-9.422
X-116.468 Y-9.272
X-116.534 Y-9.138
X-116.637 Y-9.028
X-116.765 Y-8.951
X-116.822 Y-8.933
X-116.955 Y-8.923
X-117.079 Y-8.971
X-117.17 Y-9.068
X-117.216 Y-9.152
X-117.277 Y-9.289
X-117.285 Y-9.323
X-117.279 Y-9.358
X-117.263 Y-9.389
X-117.236 Y-9.412
X-117.203 Y-9.424
X-116.596 Y-9.54
X-116.565 Y-9.541
X-116.535 Y-9.532
X-116.509 Y-9.515
X-116.49 Y-9.49
X-116.403 Y-9.321
X-116.373 Y-9.253
X-116.372 Y-9.103
X-116.432 Y-8.966
X-116.529 Y-8.852
X-116.655 Y-8.769
X-116.696 Y-8.755
X-116.821 Y-8.738
X-116.942 Y-8.775
X-117.037 Y-8.858
X-117.067 Y-8.899
X-117.12 Y-8.984
X-117.17 Y-9.068
X-117.181 Y-9.102
X-117.179 Y-9.138
X-117.165 Y-9.171
X-117.14 Y-9.197
X-117.108 Y-9.212
X-116.517 Y-9.369
X-116.484 Y-9.372
X-116.452 Y-9.365
X-116.424 Y-9.347
X-116.403 Y-9.321
X-116.36 Y-9.237
X-116.311 Y-9.152
X-116.275 Y-9.086
X-116.268 Y-8.937
X-116.323 Y-8.797
X-116.416 Y-8.679
X-116.539 Y-8.593
X-116.561 Y-8.585
X-116.687 Y-8.566
X-116.809 Y-8.601
X-116.906 Y-8.684
X-117.037 Y-8.858
X-117.052 Y-8.892
X-117.054 Y-8.929
X-117.042 Y-8.964
X-117.018 Y-8.992
X-116.986 Y-9.01
X-116.426 Y-9.193
X-116.393 Y-9.198
X-116.361 Y-9.192
X-116.333 Y-9.176
X-116.311 Y-9.152
X-116.291 Y-9.12
X-116.255 Y-9.068
X-116.228 Y-9.035
X-116.184 Y-8.974
X-116.145 Y-8.829
X-116.178 Y-8.683
X-116.256 Y-8.555
X-116.366 Y-8.453
X-116.4 Y-8.435
X-116.524 Y-8.403
X-116.65 Y-8.425
X-116.756 Y-8.498
X-116.799 Y-8.544
X-116.906 Y-8.684
X-116.921 Y-8.716
X-116.924 Y-8.751
X-116.914 Y-8.785
X-116.894 Y-8.814
X-116.864 Y-8.834
X-116.344 Y-9.061
X-116.313 Y-9.069
X-116.282 Y-9.067
X-116.253 Y-9.055
X-116.228 Y-9.035
X-116.118 Y-8.899
X-116.096 Y-8.873
X-116.05 Y-8.814
X-116.019 Y-8.667
X-116.054 Y-8.521
X-116.128 Y-8.391
X-116.24 Y-8.291
X-116.248 Y-8.286
X-116.36 Y-8.255
X-116.476 Y-8.268
X-116.579 Y-8.325
X-116.601 Y-8.355
X-116.611 Y-8.392
X-116.606 Y-8.43
X-116.588 Y-8.463
X-116.246 Y-8.87
X-116.22 Y-8.892
X-116.189 Y-8.904
X-116.155 Y-8.905
X-116.123 Y-8.894
X-116.096 Y-8.873
X-116.037 Y-8.806
X-115.97 Y-8.73
X-115.922 Y-8.672
X-115.887 Y-8.526
X-115.914 Y-8.379
X-115.985 Y-8.246
X-116.025 Y-8.209
X-116.148 Y-8.138
X-116.29 Y-8.132
X-116.419 Y-8.193
X-116.46 Y-8.226
X-116.559 Y-8.308
X-116.629 Y-8.368
X-116.656 Y-8.392
X-116.756 Y-8.498
X-116.774 Y-8.528
X-116.78 Y-8.563
X-116.774 Y-8.598
X-116.756 Y-8.628
X-116.729 Y-8.651
X-116.695 Y-8.662
X-116.057 Y-8.76
X-116.025 Y-8.759
X-115.995 Y-8.749
X-115.97 Y-8.73
X-115.934 Y-8.69
X-115.915 Y-8.675
X-115.868 Y-8.638
X-115.809 Y-8.592
X-115.742 Y-8.457
X-115.746 Y-8.307
X-115.8 Y-8.168
X-115.895 Y-8.051
X-115.908 Y-8.043
X-116.023 Y-8
X-116.147 Y-8.007
X-116.257 Y-8.063
X-116.419 Y-8.193
X-116.442 Y-8.221
X-116.453 Y-8.257
X-116.45 Y-8.293
X-116.435 Y-8.327
X-116.408 Y-8.352
X-115.976 Y-8.636
X-115.941 Y-8.651
X-115.903
X-115.868 Y-8.638
X-115.783 Y-8.581
X-115.72 Y-8.547
X-115.655 Y-8.509
X-115.581 Y-8.379
X-115.574 Y-8.229
X-115.616 Y-8.085
X-115.648 Y-8.035
X-115.75 Y-7.938
X-115.886 Y-7.898
X-116.025 Y-7.924
X-116.123 Y-7.97
X-116.164 Y-7.992
X-116.206 Y-8.023
X-116.257 Y-8.063
X-116.279 Y-8.09
X-116.29 Y-8.124
X-116.289 Y-8.159
X-116.276 Y-8.192
X-116.251 Y-8.218
X-115.823 Y-8.538
X-115.791 Y-8.554
X-115.755 Y-8.557
X-115.72 Y-8.547
X-115.586 Y-8.477
X-115.555 Y-8.461
X-115.49 Y-8.424
X-115.413 Y-8.295
X-115.399 Y-8.146
X-115.438 Y-8.001
X-115.46 Y-7.963
X-115.56 Y-7.862
X-115.696 Y-7.817
X-115.836 Y-7.84
X-115.953 Y-7.891
X-116.025 Y-7.924
X-116.056 Y-7.948
X-116.075 Y-7.981
X-116.08 Y-8.019
X-116.071 Y-8.056
X-116.048 Y-8.087
X-115.665 Y-8.443
X-115.632 Y-8.464
X-115.593 Y-8.47
X-115.555 Y-8.461
X-115.53 Y-8.448
X-115.445 Y-8.411
X-115.399 Y-8.392
X-115.331 Y-8.361
X-115.243 Y-8.239
X-115.219 Y-8.091
X-115.249 Y-7.944
X-115.271 Y-7.901
X-115.369 Y-7.791
X-115.507 Y-7.741
X-115.653 Y-7.763
X-115.836 Y-7.84
X-115.867 Y-7.863
X-115.887 Y-7.895
X-115.894 Y-7.932
X-115.886 Y-7.969
X-115.865 Y-8.001
X-115.505 Y-8.368
X-115.473 Y-8.39
X-115.436 Y-8.398
X-115.399 Y-8.392
X-115.276 Y-8.343
X-115.229 Y-8.333
X-115.193 Y-8.323
X-115.084 Y-8.22
X-115.041 Y-8.076
X-115.049 Y-7.926
X-115.103 Y-7.786
X-115.106 Y-7.783
X-115.185 Y-7.716
X-115.283 Y-7.679
X-115.387
X-115.445 Y-7.688
X-115.466 Y-7.693
X-115.532 Y-7.717
X-115.614 Y-7.747
X-115.653 Y-7.763
X-115.684 Y-7.785
X-115.704 Y-7.816
X-115.711 Y-7.854
X-115.704 Y-7.891
X-115.683 Y-7.923
X-115.32 Y-8.304
X-115.294 Y-8.323
X-115.262 Y-8.334
X-115.229 Y-8.333
X-115.107 Y-8.305
X-115.034 Y-8.285
X-114.975 Y-8.239
X-114.887 Y-8.118
X-114.856 Y-7.971
X-114.86 Y-7.925
X-114.894 Y-7.81
X-114.97 Y-7.717
X-115.076 Y-7.662
X-115.195 Y-7.652
X-115.231 Y-7.665
X-115.26 Y-7.691
X-115.276 Y-7.725
X-115.279 Y-7.763
X-115.224 Y-8.219
X-115.215 Y-8.25
X-115.197 Y-8.277
X-115.17 Y-8.296
X-115.139 Y-8.306
X-115.107 Y-8.305
X-114.937 Y-8.268
X-114.865 Y-8.248
X-114.745 Y-8.157
X-114.682 Y-8.021
X-114.671 Y-7.872
X-114.679 Y-7.846
X-114.746 Y-7.725
X-114.86 Y-7.648
X-114.996 Y-7.629
X-115.032 Y-7.641
X-115.06 Y-7.665
X-115.078 Y-7.697
X-115.083 Y-7.735
X-115.055 Y-8.175
X-115.047 Y-8.208
X-115.029 Y-8.236
X-115.003 Y-8.257
X-114.971 Y-8.268
X-114.937
X-114.735 Y-8.223
X-114.662 Y-8.207
X-114.548 Y-8.11
X-114.488 Y-7.972
X-114.489 Y-7.822
X-114.493 Y-7.813
X-114.562 Y-7.699
X-114.674 Y-7.627
X-114.806 Y-7.611
X-114.842 Y-7.623
X-114.871 Y-7.648
X-114.889 Y-7.683
X-114.892 Y-7.721
X-114.843 Y-8.135
X-114.832 Y-8.172
X-114.807 Y-8.201
X-114.773 Y-8.219
X-114.735 Y-8.223
X-114.684 Y-8.217
X-114.641 Y-8.215
X-114.599 Y-8.216
X-114.561 Y-8.217
X-114.491 Y-8.191
X-114.369 Y-8.104
X-114.304 Y-7.968
X-114.303 Y-7.923
X-114.321 Y-7.808
X-114.382 Y-7.708
X-114.477 Y-7.639
X-114.59 Y-7.612
X-114.684 Y-7.608
X-114.768 Y-7.607
X-115.027 Y-7.632
X-115.276 Y-7.662
X-115.36 Y-7.674
X-115.387 Y-7.679
X-115.42 Y-7.692
X-115.447 Y-7.716
X-115.463 Y-7.748
X-115.466 Y-7.784
X-115.457 Y-7.819
X-115.437 Y-7.848
X-115.407 Y-7.868
X-115.32 Y-7.905
X-114.599 Y-8.216
X-114.468 Y-8.23
X-114.393 Y-8.235
X-114.322 Y-8.21
X-114.26 Y-8.168
X-114.159 Y-8.057
X-114.117 Y-7.913
X-114.119 Y-7.896
X-114.161 Y-7.769
X-114.255 Y-7.673
X-114.381 Y-7.627
X-114.43 Y-7.621
X-114.514 Y-7.615
X-114.59 Y-7.612
X-114.627 Y-7.619
X-114.659 Y-7.639
X-114.681 Y-7.669
X-114.691 Y-7.706
X-114.686 Y-7.743
X-114.548 Y-8.162
X-114.53 Y-8.194
X-114.502 Y-8.218
X-114.468 Y-8.23
X-114.299 Y-8.251
X-114.224 Y-8.257
X-114.152 Y-8.234
X-114.029 Y-8.149
X-113.951 Y-8.02
X-113.946 Y-7.985
X-113.954 Y-7.868
X-114.007 Y-7.762
X-114.095 Y-7.685
X-114.207 Y-7.648
X-114.381 Y-7.627
X-114.418 Y-7.631
X-114.452 Y-7.648
X-114.477 Y-7.677
X-114.489 Y-7.713
X-114.487 Y-7.751
X-114.379 Y-8.177
X-114.363 Y-8.212
X-114.335 Y-8.238
X-114.299 Y-8.251
X-114.261 Y-8.256
X-114.176 Y-8.272
X-114.129 Y-8.285
X-114.093 Y-8.294
X-114.019 Y-8.282
X-113.883 Y-8.219
X-113.792 Y-8.1
X-113.753 Y-7.955
X-113.754 Y-7.945
X-113.795 Y-7.817
X-113.888 Y-7.72
X-114.014 Y-7.674
X-114.05 Y-7.677
X-114.084 Y-7.693
X-114.108 Y-7.721
X-114.122 Y-7.755
X-114.197 Y-8.172
Y-8.208
X-114.184 Y-8.241
X-114.161 Y-8.268
X-114.129 Y-8.285
X-113.96 Y-8.334
X-113.924 Y-8.343
X-113.776 Y-8.317
X-113.661 Y-8.221
X-113.584 Y-8.093
X-113.576 Y-8.042
X-113.581 Y-7.926
X-113.63 Y-7.821
X-113.714 Y-7.743
X-113.822 Y-7.701
X-113.859 Y-7.703
X-113.893 Y-7.719
X-113.919 Y-7.746
X-113.933 Y-7.78
X-114.026 Y-8.219
X-114.027 Y-8.255
X-114.015 Y-8.289
X-113.992 Y-8.317
X-113.96 Y-8.334
X-113.922 Y-8.346
X-113.838 Y-8.376
X-113.767 Y-8.402
X-113.618 Y-8.388
X-113.494 Y-8.304
X-113.412 Y-8.178
X-113.374 Y-8.033
Y-8.021
X-113.4 Y-7.916
X-113.462 Y-7.827
X-113.551 Y-7.766
X-113.588 Y-7.758
X-113.625 Y-7.765
X-113.657 Y-7.785
X-113.679 Y-7.816
X-113.879 Y-8.248
X-113.888 Y-8.284
X-113.883 Y-8.32
X-113.866 Y-8.353
X-113.838 Y-8.376
X-113.753 Y-8.423
X-113.7 Y-8.46
X-113.668 Y-8.48
X-113.593 Y-8.489
X-113.445 Y-8.469
X-113.321 Y-8.385
X-113.23 Y-8.265
X-113.214 Y-8.218
X-113.2 Y-8.072
X-113.258 Y-7.936
X-113.374 Y-7.845
X-113.41 Y-7.838
X-113.446 Y-7.844
X-113.478 Y-7.863
X-113.5 Y-7.892
X-113.728 Y-8.334
X-113.739 Y-8.367
X-113.737 Y-8.402
X-113.723 Y-8.434
X-113.7 Y-8.46
X-113.584 Y-8.541
X-113.52 Y-8.581
X-113.371 Y-8.598
X-113.231 Y-8.544
X-113.115 Y-8.449
X-113.038 Y-8.321
X-113.027 Y-8.283
X-113.021 Y-8.143
X-113.08 Y-8.015
X-113.19 Y-7.928
X-113.224 Y-7.921
X-113.258 Y-7.925
X-113.288 Y-7.94
X-113.312 Y-7.965
X-113.606 Y-8.406
X-113.621 Y-8.441
X-113.622 Y-8.478
X-113.609 Y-8.513
X-113.584 Y-8.541
X-113.499 Y-8.602
X-113.448 Y-8.646
X-113.391 Y-8.694
X-113.244 Y-8.722
X-113.1 Y-8.681
X-112.977 Y-8.594
X-112.883 Y-8.478
X-112.859 Y-8.422
X-112.837 Y-8.285
X-112.878 Y-8.152
X-112.975 Y-8.052
X-113.008 Y-8.04
X-113.044
X-113.077 Y-8.053
X-113.104 Y-8.076
X-113.455 Y-8.513
X-113.472 Y-8.545
X-113.477 Y-8.581
X-113.469 Y-8.616
X-113.448 Y-8.646
X-113.415 Y-8.678
X-113.33 Y-8.766
X-113.275 Y-8.818
X-113.131 Y-8.858
X-112.984 Y-8.829
X-112.853 Y-8.756
X-112.745 Y-8.652
X-112.67 Y-8.522
X-112.663 Y-8.496
X-112.658 Y-8.372
X-112.704 Y-8.255
X-112.793 Y-8.168
X-112.824 Y-8.156
X-112.858 Y-8.155
X-112.89 Y-8.166
X-112.917 Y-8.186
X-113.329 Y-8.632
X-113.348 Y-8.663
X-113.355 Y-8.699
X-113.349 Y-8.735
X-113.33 Y-8.766
X-113.284 Y-8.815
X-113.226 Y-8.881
X-113.174 Y-8.935
X-113.037 Y-8.998
X-112.888 Y-8.988
X-112.749 Y-8.932
X-112.629 Y-8.841
X-112.531 Y-8.727
X-112.52 Y-8.702
X-112.493 Y-8.594
X-112.507 Y-8.483
X-112.561 Y-8.386
X-112.653 Y-8.273
X-112.679 Y-8.245
X-112.693 Y-8.233
X-112.706 Y-8.223
X-113.105 Y-7.97
X-113.161 Y-7.942
X-113.415 Y-7.827
X-113.584 Y-7.751
X-113.605 Y-7.743
X-113.626 Y-7.738
X-113.753 Y-7.713
X-113.838 Y-7.699
X-113.922 Y-7.686
X-114.207 Y-7.648
X-114.246 Y-7.652
X-114.28 Y-7.671
X-114.304 Y-7.701
X-114.315 Y-7.739
X-114.311 Y-7.778
X-114.293 Y-7.812
X-114.263 Y-7.836
X-113.811 Y-8.075
X-113.502 Y-8.238
X-113.466 Y-8.249
X-113.428 Y-8.245
X-113.394 Y-8.228
X-113.369 Y-8.199
X-113.357 Y-8.163
X-113.359 Y-8.125
X-113.375 Y-8.09
X-113.403 Y-8.064
X-113.439 Y-8.051
X-113.477
X-113.512 Y-8.067
X-113.539 Y-8.094
X-113.554 Y-8.129
Y-8.167
G3 X-113.226 Y-8.881 I1.557 J0.284
G1 X-113.161 Y-8.955
X-113.143 Y-8.984
X-113.128 Y-9.009
X-113.087 Y-9.072
X-112.958 Y-9.149
X-112.809 Y-9.156
X-112.664 Y-9.117
X-112.533 Y-9.044
X-112.42 Y-8.945
X-112.401 Y-8.916
X-112.355 Y-8.802
X-112.359 Y-8.68
X-112.411 Y-8.569
X-112.438 Y-8.545
X-112.471 Y-8.533
X-112.507
X-112.54 Y-8.546
X-112.548 Y-8.551
X-113.091 Y-8.876
X-113.119 Y-8.901
X-113.136 Y-8.935
X-113.139 Y-8.973
X-113.128 Y-9.009
X-113.076 Y-9.098
X-113.047 Y-9.152
X-113.027 Y-9.195
X-113.016 Y-9.216
X-112.979 Y-9.255
X-112.943 Y-9.27
X-112.904 Y-9.271
X-112.867 Y-9.257
X-112.838 Y-9.231
X-112.82 Y-9.196
X-112.816 Y-9.158
X-112.827 Y-9.12
X-112.851 Y-9.089
X-112.885 Y-9.069
X-112.923 Y-9.062
X-112.962 Y-9.071
X-112.994 Y-9.092
X-113.017 Y-9.124
X-113.025 Y-9.154
Y-9.186
X-113.016 Y-9.216
X-112.992 Y-9.243
X-112.981 Y-9.253
X-112.97 Y-9.261
X-112.96 Y-9.267
X-112.949 Y-9.271
X-112.939 Y-9.274
X-112.928 Y-9.275
X-112.738 Y-9.276
X-112.588 Y-9.268
X-112.445 Y-9.223
X-112.32 Y-9.14
X-112.296 Y-9.112
X-112.234 Y-8.993
X-112.229 Y-8.859
X-112.284 Y-8.736
X-112.309 Y-8.714
X-112.34 Y-8.702
X-112.374 Y-8.7
X-112.406 Y-8.71
X-112.433 Y-8.729
X-112.805 Y-9.106
X-112.827 Y-9.138
X-112.834 Y-9.175
X-112.827 Y-9.213
X-112.806 Y-9.245
X-112.775 Y-9.267
X-112.738 Y-9.276
X-112.399
X-112.353
X-112.315
X-112.277 Y-9.274
X-112.193 Y-9.195
X-112.146 Y-9.09
X-112.145 Y-8.974
X-112.189 Y-8.867
X-112.218 Y-8.841
X-112.254 Y-8.828
X-112.293 Y-8.829
X-112.328 Y-8.846
X-112.355 Y-8.874
X-112.368 Y-8.91
X-112.41 Y-9.16
Y-9.193
X-112.398 Y-9.225
X-112.377 Y-9.251
X-112.348 Y-9.269
X-112.315 Y-9.276
X-112.23
X-112.188
X-112.167 Y-9.275
X-112.142 Y-9.268
X-112.134 Y-9.265
X-112.114 Y-9.244
X-112.106 Y-9.216
X-112.112 Y-9.188
X-112.13 Y-9.165
X-112.156 Y-9.153
X-112.185 Y-9.155
X-112.21 Y-9.169
X-112.226 Y-9.194
X-112.228 Y-9.223
X-112.217 Y-9.25
X-112.195 Y-9.268
X-112.167 Y-9.275
X-112.156 Y-9.273
X-112.146 Y-9.27
X-112.134 Y-9.265
X-112.123 Y-9.258
X-112.112 Y-9.249
X-112.101 Y-9.237
X-112.079 Y-9.205
X-112.074 Y-9.195
X-112.07 Y-9.184
X-112.068 Y-9.174
X-112.067 Y-9.163
X-112.066 Y-9.152
X-112.067 Y-9.142
X-112.069 Y-9.131
X-112.119 Y-8.984
X-112.13 Y-8.958
X-112.168 Y-8.899
X-112.23 Y-8.808
X-112.417 Y-8.561
X-112.561 Y-8.386
X-112.582 Y-8.367
X-112.608 Y-8.356
X-112.636 Y-8.352 Z-0.986
X-112.662 Y-8.362 Z-0.972
X-112.684 Y-8.37 Z-0.95
X-112.697 Y-8.375 Z-0.922
X-112.702 Y-8.377 Z-0.89
G0 Z2
X-87.007 Y-8.723
Z0.5
G3 X-86.523 Y-8.848 Z0.29 I0.242 J-0.062 F333.3
X-87.007 Y-8.723 Z0.079 I-0.242 J0.062
X-86.523 Y-8.848 Z-0.131 I0.242 J-0.062
X-87.007 Y-8.723 Z-0.342 I-0.242 J0.062
X-86.523 Y-8.848 Z-0.552 I0.242 J-0.062
X-87.007 Y-8.723 Z-0.763 I-0.242 J0.062
X-86.797 Y-9.033 Z-0.876 I0.242 J-0.062
X-86.515 Y-8.785 Z-0.99 I0.031 J0.248
X-87.015 I-0.25
X-86.515 I0.25
G1 X-86.478 Y-8.64 F1000
X-86.491 Y-8.566
X-86.528 Y-8.501
X-86.635 Y-8.396
X-86.779 Y-8.356
X-86.928 Y-8.377
X-87.058 Y-8.451
X-87.155 Y-8.566
X-87.207 Y-8.707
X-87.209 Y-8.857
X-87.162 Y-8.999
X-87.07 Y-9.117
X-86.944 Y-9.199
X-86.798 Y-9.235
X-86.649 Y-9.221
X-86.512 Y-9.159
X-86.404 Y-9.055
X-86.326 Y-8.927
X-86.276 Y-8.786
X-86.265 Y-8.636
X-86.3 Y-8.49
X-86.371 Y-8.358
X-86.479 Y-8.254
X-86.61 Y-8.181
X-86.756 Y-8.148
X-86.906 Y-8.155
X-87.05 Y-8.196
X-87.18 Y-8.272
X-87.286 Y-8.377
X-87.368 Y-8.503
X-87.418 Y-8.645
X-87.433 Y-8.794
X-87.416 Y-8.943
X-87.387 Y-9.026
X-87.374 Y-9.055
X-87.359 Y-9.082
X-87.342 Y-9.108
X-87.307 Y-9.152
X-87.216 Y-9.271
X-87.096 Y-9.362
X-86.959 Y-9.424
X-86.812 Y-9.454
X-86.663 Y-9.447
X-86.518 Y-9.408
X-86.385 Y-9.339
X-86.355 Y-9.313
X-86.343 Y-9.301
X-86.331 Y-9.287
X-86.289 Y-9.237
X-86.258 Y-9.202
X-86.233 Y-9.175
X-86.214 Y-9.152
X-86.12 Y-9.036
X-86.102 Y-8.991
X-86.091 Y-8.955
X-86.084 Y-8.919
X-86.082 Y-8.882
X-86.09 Y-8.845
X-86.111 Y-8.815
X-86.141 Y-8.794
X-86.178 Y-8.785
X-86.215 Y-8.791
X-86.247 Y-8.809
X-86.27 Y-8.839
X-86.374 Y-9.037
X-86.385 Y-9.071
X-86.383 Y-9.106
X-86.369 Y-9.139
X-86.344 Y-9.165
X-86.312 Y-9.18
X-86.277 Y-9.183
X-86.242 Y-9.173
X-86.214 Y-9.152
X-86.108 Y-9.033
X-86.097 Y-9.015
X-86.088 Y-8.998
X-86.084 Y-8.984
X-86.082 Y-8.973
Y-8.941
Y-8.646
Y-8.599
Y-8.561
X-86.089 Y-8.411
X-86.156 Y-8.277
X-86.181 Y-8.245
X-86.246 Y-8.183
X-86.328 Y-8.144
X-86.417 Y-8.13
X-86.452 Y-8.138
X-86.482 Y-8.157
X-86.503 Y-8.186
X-86.513 Y-8.22
X-86.51 Y-8.255
X-86.495 Y-8.288
X-86.263 Y-8.615
X-86.238 Y-8.64
X-86.206 Y-8.655
X-86.17 Y-8.657
X-86.136 Y-8.647
X-86.108 Y-8.626
X-86.089 Y-8.596
X-86.082 Y-8.561
Y-8.266
Y-8.244
Y-8.234
X-86.088 Y-8.206
X-86.106 Y-8.185
X-86.13 Y-8.174
X-86.157
X-86.184 Y-8.188
X-86.201 Y-8.213
X-86.204 Y-8.243
X-86.192 Y-8.271
X-86.169 Y-8.29
X-86.139 Y-8.295
X-86.11 Y-8.285
X-86.089 Y-8.263
X-86.082 Y-8.234
X-86.084 Y-8.223
X-86.088 Y-8.206
X-86.094 Y-8.195
X-86.101 Y-8.184
X-86.11 Y-8.173
X-86.122 Y-8.162
X-86.139 Y-8.149
X-86.156 Y-8.139
X-86.173 Y-8.133
X-86.184 Y-8.131
X-86.194 Y-8.13
X-87.104
X-87.253 Y-8.138
X-87.386 Y-8.208
X-87.494 Y-8.312
X-87.577 Y-8.437
X-87.633 Y-8.576
X-87.648 Y-8.657
X-87.644 Y-8.784
X-87.588 Y-8.899
X-87.49 Y-8.98
X-87.453 Y-8.989
X-87.415 Y-8.984
X-87.382 Y-8.965
X-87.359 Y-8.935
X-87.286 Y-8.795
X-87.018 Y-8.276
X-87.008 Y-8.244
X-87.009 Y-8.211
X-87.021 Y-8.179
X-87.042 Y-8.154
X-87.071 Y-8.137
X-87.104 Y-8.13
X-87.404
X-87.479 Y-8.134
X-87.616 Y-8.195
X-87.725 Y-8.298
X-87.806 Y-8.424
X-87.855 Y-8.566
X-87.858 Y-8.607
X-87.836 Y-8.748
X-87.751 Y-8.863
X-87.622 Y-8.925
X-87.587
X-87.554 Y-8.913
X-87.527 Y-8.889
X-87.51 Y-8.858
X-87.501 Y-8.831
X-87.313 Y-8.261
X-87.308 Y-8.225
X-87.316 Y-8.189
X-87.337 Y-8.159
X-87.368 Y-8.138
X-87.404 Y-8.13
X-87.611
X-87.761 Y-8.138
X-87.889 Y-8.216
X-87.986 Y-8.33
X-88.047 Y-8.467
X-88.061 Y-8.559
X-88.055 Y-8.683
X-87.998 Y-8.794
X-87.901 Y-8.873
X-87.78 Y-8.905
X-87.696 Y-8.91
X-87.622 Y-8.925
X-87.587
X-87.554 Y-8.913
X-87.528 Y-8.89
X-87.51 Y-8.86
X-87.505 Y-8.825
X-87.515 Y-8.228
X-87.523 Y-8.191
X-87.543 Y-8.16
X-87.574 Y-8.138
X-87.611 Y-8.13
X-87.865
X-87.94 Y-8.134
X-88.079 Y-8.19
X-88.182 Y-8.299
X-88.246 Y-8.435
X-88.274 Y-8.582
X-88.267 Y-8.638
X-88.217 Y-8.774
X-88.109 Y-8.87
X-87.969 Y-8.905
X-87.78
X-87.748 Y-8.898
X-87.719 Y-8.881
X-87.697 Y-8.855
X-87.686 Y-8.824
X-87.685 Y-8.791
X-87.77 Y-8.215
X-87.78 Y-8.183
X-87.802 Y-8.155
X-87.831 Y-8.137
X-87.865 Y-8.13
X-88.081
X-88.156 Y-8.134
X-88.294 Y-8.193
X-88.394 Y-8.305
X-88.458 Y-8.44
X-88.477 Y-8.589
X-88.471 Y-8.64
X-88.42 Y-8.775
X-88.313 Y-8.871
X-88.173 Y-8.905
X-87.969
X-87.936 Y-8.898
X-87.906 Y-8.88
X-87.885 Y-8.853
X-87.874 Y-8.82
Y-8.786
X-87.986 Y-8.211
X-87.998 Y-8.18
X-88.019 Y-8.154
X-88.048 Y-8.137
X-88.081 Y-8.13
X-88.288
X-88.363 Y-8.134
X-88.501 Y-8.192
X-88.602 Y-8.303
X-88.664 Y-8.44
X-88.683 Y-8.588
X-88.676 Y-8.641
X-88.625 Y-8.776
X-88.518 Y-8.871
X-88.379 Y-8.905
X-88.173
X-88.14 Y-8.898
X-88.11 Y-8.88
X-88.089 Y-8.853
X-88.078 Y-8.82
X-88.079 Y-8.786
X-88.193 Y-8.21
X-88.205 Y-8.179
X-88.227 Y-8.154
X-88.255 Y-8.137
X-88.288 Y-8.13
X-88.504
X-88.579 Y-8.134
X-88.715 Y-8.196
X-88.813 Y-8.31
X-88.873 Y-8.448
X-88.888 Y-8.597
X-88.881 Y-8.646
X-88.829 Y-8.778
X-88.722 Y-8.872
X-88.584 Y-8.905
X-88.379
X-88.345 Y-8.898
X-88.315 Y-8.879
X-88.294 Y-8.852
X-88.283 Y-8.819
X-88.284 Y-8.784
X-88.41 Y-8.209
X-88.422 Y-8.178
X-88.443 Y-8.153
X-88.472 Y-8.137
X-88.504 Y-8.13
X-88.711
X-88.786 Y-8.134
X-88.922 Y-8.197
X-89.02 Y-8.311
X-89.079 Y-8.448
X-89.095 Y-8.598
X-89.088 Y-8.647
X-89.035 Y-8.779
X-88.928 Y-8.872
X-88.791 Y-8.905
X-88.584
X-88.55 Y-8.898
X-88.521 Y-8.879
X-88.499 Y-8.852
X-88.489 Y-8.818
X-88.49 Y-8.784
X-88.617 Y-8.208
X-88.629 Y-8.178
X-88.651 Y-8.153
X-88.679 Y-8.137
X-88.711 Y-8.13
X-88.927
X-89.002 Y-8.134
X-89.135 Y-8.202
X-89.23 Y-8.318
X-89.287 Y-8.457
X-89.301 Y-8.606
X-89.293 Y-8.652
X-89.24 Y-8.781
X-89.133 Y-8.872
X-88.997 Y-8.905
X-88.791
X-88.756 Y-8.898
X-88.726 Y-8.879
X-88.705 Y-8.851
X-88.695 Y-8.817
X-88.697 Y-8.782
X-88.833 Y-8.207
X-88.845 Y-8.177
X-88.867 Y-8.153
X-88.895 Y-8.136
X-88.927 Y-8.13
X-89.134
X-89.209 Y-8.134
X-89.342 Y-8.202
X-89.437 Y-8.319
X-89.495 Y-8.457
X-89.507 Y-8.607
X-89.5 Y-8.652
X-89.446 Y-8.782
X-89.34 Y-8.872
X-89.204 Y-8.905
X-88.997
X-88.963 Y-8.898
X-88.933 Y-8.879
X-88.912 Y-8.851
X-88.901 Y-8.817
X-88.903 Y-8.782
X-89.04 Y-8.207
X-89.053 Y-8.177
X-89.074 Y-8.153
X-89.102 Y-8.136
X-89.134 Y-8.13
X-89.35
X-89.425 Y-8.134
X-89.556 Y-8.207
X-89.648 Y-8.325
X-89.703 Y-8.465
X-89.714 Y-8.614
X-89.706 Y-8.657
X-89.652 Y-8.784
X-89.546 Y-8.873
X-89.411 Y-8.905
X-89.204
X-89.169 Y-8.898
X-89.139 Y-8.878
X-89.118 Y-8.85
X-89.108 Y-8.816
X-89.11 Y-8.781
X-89.256 Y-8.205
X-89.269 Y-8.176
X-89.291 Y-8.152
X-89.318 Y-8.136
X-89.35 Y-8.13
X-89.519
X-89.594 Y-8.134
X-89.735 Y-8.183
X-89.839 Y-8.292
X-89.902 Y-8.428
X-89.924 Y-8.577
X-89.907 Y-8.726
X-89.841 Y-8.821
X-89.745 Y-8.883
X-89.633 Y-8.905
X-89.411
X-89.377 Y-8.898
X-89.348 Y-8.88
X-89.327 Y-8.853
X-89.316 Y-8.821
Y-8.787
X-89.424 Y-8.212
X-89.436 Y-8.18
X-89.457 Y-8.154
X-89.486 Y-8.137
X-89.519 Y-8.13
X-89.726
X-89.801 Y-8.134
X-89.943 Y-8.184
X-90.045 Y-8.294
X-90.109 Y-8.429
X-90.138 Y-8.577
X-90.132 Y-8.637
X-90.082 Y-8.773
X-89.974 Y-8.87
X-89.833 Y-8.905
X-89.633
X-89.6 Y-8.898
X-89.571 Y-8.881
X-89.549 Y-8.855
X-89.538 Y-8.823
Y-8.789
X-89.631 Y-8.214
X-89.642 Y-8.182
X-89.664 Y-8.155
X-89.693 Y-8.137
X-89.726 Y-8.13
X-89.942
X-90.017 Y-8.134
X-90.156 Y-8.191
X-90.257 Y-8.302
X-90.322 Y-8.437
X-90.342 Y-8.586
X-90.336 Y-8.639
X-90.285 Y-8.774
X-90.178 Y-8.87
X-90.037 Y-8.905
X-89.833
X-89.8 Y-8.898
X-89.771 Y-8.88
X-89.749 Y-8.853
X-89.738 Y-8.821
X-89.739 Y-8.787
X-89.847 Y-8.211
X-89.859 Y-8.18
X-89.88 Y-8.154
X-89.909 Y-8.137
X-89.942 Y-8.13
X-90.149
X-90.224 Y-8.134
X-90.363 Y-8.19
X-90.465 Y-8.301
X-90.528 Y-8.437
X-90.547 Y-8.585
X-90.541 Y-8.64
X-90.49 Y-8.775
X-90.383 Y-8.87
X-90.243 Y-8.905
X-90.037
X-90.004 Y-8.898
X-89.975 Y-8.88
X-89.953 Y-8.853
X-89.942 Y-8.82
X-89.943 Y-8.786
X-90.055 Y-8.211
X-90.066 Y-8.18
X-90.088 Y-8.154
X-90.117 Y-8.137
X-90.149 Y-8.13
X-90.365
X-90.44 Y-8.134
X-90.577 Y-8.195
X-90.675 Y-8.308
X-90.736 Y-8.445
X-90.752 Y-8.594
X-90.746 Y-8.645
X-90.694 Y-8.777
X-90.587 Y-8.871
X-90.448 Y-8.905
X-90.243
X-90.209 Y-8.898
X-90.179 Y-8.879
X-90.158 Y-8.852
X-90.147 Y-8.819
X-90.148 Y-8.784
X-90.271 Y-8.209
X-90.283 Y-8.179
X-90.304 Y-8.153
X-90.333 Y-8.137
X-90.365 Y-8.13
X-90.572
X-90.647 Y-8.134
X-90.784 Y-8.195
X-90.882 Y-8.309
X-90.943 Y-8.446
X-90.959 Y-8.595
X-90.952 Y-8.646
X-90.9 Y-8.778
X-90.793 Y-8.871
X-90.654 Y-8.905
X-90.448
X-90.414 Y-8.898
X-90.385 Y-8.879
X-90.363 Y-8.852
X-90.353 Y-8.819
X-90.354 Y-8.784
X-90.478 Y-8.209
X-90.49 Y-8.178
X-90.512 Y-8.153
X-90.54 Y-8.137
X-90.572 Y-8.13
X-90.788
X-90.863 Y-8.134
X-90.997 Y-8.2
X-91.093 Y-8.316
X-91.151 Y-8.455
X-91.164 Y-8.604
X-91.157 Y-8.651
X-91.104 Y-8.781
X-90.997 Y-8.872
X-90.861 Y-8.905
X-90.654
X-90.62 Y-8.898
X-90.591 Y-8.879
X-90.569 Y-8.851
X-90.559 Y-8.818
X-90.561 Y-8.783
X-90.694 Y-8.207
X-90.707 Y-8.177
X-90.728 Y-8.153
X-90.756 Y-8.136
X-90.788 Y-8.13
X-90.995
X-91.07 Y-8.134
X-91.204 Y-8.201
X-91.3 Y-8.317
X-91.358 Y-8.455
X-91.371 Y-8.604
X-91.364 Y-8.651
X-91.311 Y-8.781
X-91.204 Y-8.872
X-91.067 Y-8.905
X-90.861
X-90.826 Y-8.898
X-90.797 Y-8.879
X-90.775 Y-8.851
X-90.765 Y-8.817
X-90.767 Y-8.782
X-90.901 Y-8.207
X-90.914 Y-8.177
X-90.935 Y-8.153
X-90.963 Y-8.136
X-90.995 Y-8.13
X-91.211
X-91.286 Y-8.134
X-91.418 Y-8.206
X-91.51 Y-8.324
X-91.566 Y-8.463
X-91.577 Y-8.612
X-91.57 Y-8.656
X-91.516 Y-8.783
X-91.409 Y-8.873
X-91.274 Y-8.905
X-91.067
X-91.033 Y-8.898
X-91.003 Y-8.879
X-90.982 Y-8.85
X-90.972 Y-8.816
X-90.974 Y-8.781
X-91.117 Y-8.206
X-91.13 Y-8.176
X-91.152 Y-8.152
X-91.18 Y-8.136
X-91.211 Y-8.13
X-91.38
X-91.455 Y-8.134
X-91.597 Y-8.182
X-91.701 Y-8.29
X-91.765 Y-8.426
X-91.787 Y-8.574
X-91.772 Y-8.724
X-91.77 Y-8.726
X-91.705 Y-8.82
X-91.609 Y-8.883
X-91.496 Y-8.905
X-91.274
X-91.241 Y-8.898
X-91.212 Y-8.88
X-91.19 Y-8.854
X-91.179 Y-8.821
X-91.18 Y-8.787
X-91.285 Y-8.212
X-91.297 Y-8.18
X-91.318 Y-8.154
X-91.347 Y-8.137
X-91.38 Y-8.13
X-91.634
X-91.709 Y-8.134
X-91.839 Y-8.209
X-91.929 Y-8.328
X-91.982 Y-8.469
X-92.002 Y-8.617
X-91.994 Y-8.659
X-91.939 Y-8.785
X-91.833 Y-8.873
X-91.699 Y-8.905
X-91.496
X-91.461 Y-8.898
X-91.432 Y-8.879
X-91.41 Y-8.851
X-91.4 Y-8.817
X-91.402 Y-8.782
X-91.54 Y-8.207
X-91.553 Y-8.177
X-91.574 Y-8.153
X-91.602 Y-8.136
X-91.634 Y-8.13
X-91.803
X-91.878 Y-8.134
X-92.019 Y-8.186
X-92.12 Y-8.297
X-92.186 Y-8.431
X-92.21 Y-8.579
X-92.203 Y-8.637
X-92.153 Y-8.773
X-92.046 Y-8.87
X-91.905 Y-8.905
X-91.699
X-91.666 Y-8.898
X-91.637 Y-8.88
X-91.615 Y-8.854
X-91.604 Y-8.821
Y-8.787
X-91.708 Y-8.212
X-91.72 Y-8.18
X-91.741 Y-8.154
X-91.77 Y-8.137
X-91.803 Y-8.13
X-92.011
X-92.085 Y-8.134
X-92.226 Y-8.187
X-92.328 Y-8.296
X-92.394 Y-8.431
X-92.414 Y-8.58
X-92.409 Y-8.636
X-92.359 Y-8.773
X-92.251 Y-8.87
X-92.11 Y-8.905
X-91.905
X-91.872 Y-8.898
X-91.843 Y-8.88
X-91.821 Y-8.854
X-91.81 Y-8.821
Y-8.787
X-91.916 Y-8.212
X-91.927 Y-8.18
X-91.949 Y-8.154
X-91.978 Y-8.137
X-92.011 Y-8.13
X-92.226
X-92.264
X-92.311
X-92.336 Y-8.131
X-92.346 Y-8.137
X-92.424 Y-8.203
X-92.475 Y-8.291
X-92.494 Y-8.391
G3 X-92.181 Y-8.544 I0.196 J0.004
X-92.311 Y-8.13 I-0.138 J0.184
G1 X-92.386
X-92.404 Y-8.133
X-92.422 Y-8.139
X-92.434 Y-8.145
X-92.453 Y-8.16
X-92.473 Y-8.184
X-92.484 Y-8.204
X-92.49 Y-8.223
X-92.492 Y-8.234
X-92.499 Y-8.692
X-92.5 Y-8.73
Y-8.772
X-92.494 Y-8.812
X-92.479 Y-8.848
X-92.456 Y-8.879
X-92.416 Y-8.899
X-92.371 Y-8.904
X-92.327 Y-8.895
G3 X-92.423 Y-8.663 I-0.048 J0.116
X-92.5 Y-8.772 I0.048 J-0.116
G1 X-92.501 Y-8.793
X-92.5 Y-8.804
X-92.498 Y-8.815
X-92.495 Y-8.825
X-92.491 Y-8.835
X-92.486 Y-8.845
X-92.479 Y-8.855
X-92.456 Y-8.879
X-92.445 Y-8.888
X-92.434 Y-8.895
X-92.423 Y-8.899
X-92.405 Y-8.904
X-92.386 Y-8.905
X-92.11
X-92.084 Y-8.902
X-92.06 Y-8.892
X-92.042 Y-8.883
X-92.022 Y-8.879
X-91.335 Y-8.795
X-87.707 Y-8.351
X-87.672 Y-8.353
X-87.639 Y-8.367
X-87.614 Y-8.391
X-87.599 Y-8.423
G3 X-87.307 Y-9.152 I3.512 J0.98
G1 X-87.273 Y-9.212
X-87.261 Y-9.237
X-87.245 Y-9.279
X-87.232 Y-9.321
X-87.226 Y-9.368
X-87.218 Y-9.405
X-87.134 Y-9.528
X-87.009 Y-9.613
X-86.867 Y-9.66
X-86.812 Y-9.665
X-86.714 Y-9.658
X-86.623 Y-9.619
X-86.549 Y-9.553
X-86.499 Y-9.49
X-86.331 Y-9.287
X-86.315 Y-9.257
X-86.31 Y-9.223
X-86.317 Y-9.19
X-86.335 Y-9.16
X-86.361 Y-9.139
X-86.394 Y-9.128
X-86.428
X-86.519 Y-9.144
X-87.144 Y-9.259
X-87.179 Y-9.272
X-87.206 Y-9.297
X-87.223 Y-9.331
X-87.226 Y-9.368
X-87.22 Y-9.406
X-87.219 Y-9.49
X-87.218 Y-9.565
X-87.159 Y-9.703
X-87.045 Y-9.801
X-87.026 Y-9.809
X-86.9 Y-9.83
X-86.777 Y-9.797
X-86.679 Y-9.716
X-86.549 Y-9.553
X-86.533 Y-9.52
X-86.53 Y-9.483
X-86.541 Y-9.447
X-86.564 Y-9.418
X-86.596 Y-9.399
X-86.633 Y-9.394
X-87.123 Y-9.408
X-87.156 Y-9.415
X-87.186 Y-9.432
X-87.207 Y-9.458
X-87.219 Y-9.49
X-87.231 Y-9.575
X-87.245 Y-9.621
X-87.262 Y-9.694
X-87.248 Y-9.768
X-87.182 Y-9.902
X-87.078 Y-9.949
X-86.964 Y-9.953
X-86.857 Y-9.914
X-86.773 Y-9.837
X-86.679 Y-9.716
X-86.663 Y-9.684
X-86.66 Y-9.648
X-86.67 Y-9.613
X-86.692 Y-9.584
X-86.722 Y-9.564
X-86.758 Y-9.557
X-87.149 Y-9.553
X-87.18 Y-9.558
X-87.208 Y-9.572
X-87.23 Y-9.593
X-87.245 Y-9.621
X-87.256 Y-9.659
X-87.273 Y-9.699
X-87.287 Y-9.723
X-87.321 Y-9.79
X-87.327 Y-9.865
X-87.304 Y-9.937
X-87.209 Y-10.025
X-87.084 Y-10.059
X-86.957 Y-10.032
X-86.856 Y-9.949
X-86.842 Y-9.917
X-86.839 Y-9.882
X-86.848 Y-9.849
X-86.869 Y-9.82
X-86.898 Y-9.801
X-87.161 Y-9.684
X-87.196 Y-9.676
X-87.231 Y-9.68
X-87.263 Y-9.697
X-87.287 Y-9.723
X-87.298 Y-9.744
X-87.326 Y-9.784
X-87.357 Y-9.824
X-87.38 Y-9.854
X-87.403 Y-9.925
X-87.391 Y-9.999
X-87.325 Y-10.134
X-87.194 Y-10.181
X-87.057 Y-10.159
X-86.948 Y-10.072
X-86.773 Y-9.837
X-86.758 Y-9.806
X-86.755 Y-9.772
X-86.764 Y-9.738
X-86.784 Y-9.71
X-86.812 Y-9.69
X-86.845 Y-9.681
X-86.88 Y-9.684
X-87.309 Y-9.795
X-87.335 Y-9.806
X-87.357 Y-9.824
X-87.434 Y-9.913
X-87.48 Y-9.972
X-87.492 Y-10.046
X-87.483 Y-10.12
X-87.389 Y-10.226
X-87.256 Y-10.271
X-87.117 Y-10.246
X-87.008 Y-10.156
X-86.994 Y-10.124
X-86.992 Y-10.089
X-87.002 Y-10.056
X-87.022 Y-10.028
X-87.051 Y-10.009
X-87.319 Y-9.889
X-87.349 Y-9.881
X-87.38 Y-9.882
X-87.409 Y-9.893
X-87.434 Y-9.913
X-87.527 Y-10.021
X-87.549 Y-10.051
X-87.572 Y-10.123
X-87.563 Y-10.197
X-87.501 Y-10.334
X-87.398 Y-10.384
X-87.283 Y-10.39
X-87.175 Y-10.35
X-87.092 Y-10.272
X-86.948 Y-10.072
X-86.933 Y-10.036
X-86.932 Y-9.997
X-86.946 Y-9.961
X-86.973 Y-9.933
X-87.009 Y-9.917
X-87.048
X-87.47 Y-9.99
X-87.501 Y-10.001
X-87.527 Y-10.021
X-87.611 Y-10.122
X-87.657 Y-10.182
X-87.667 Y-10.256
X-87.655 Y-10.33
X-87.587 Y-10.464
X-87.481 Y-10.51
X-87.365 Y-10.512
X-87.258 Y-10.47
X-87.174 Y-10.39
X-87.092 Y-10.272
X-87.078 Y-10.24
X-87.076 Y-10.206
X-87.085 Y-10.173
X-87.106 Y-10.145
X-87.134 Y-10.126
X-87.167 Y-10.117
X-87.529 Y-10.089
X-87.56 Y-10.092
X-87.588 Y-10.103
X-87.611 Y-10.122
X-87.696 Y-10.223
X-87.741 Y-10.283
X-87.757 Y-10.356
X-87.753 Y-10.431
X-87.697 Y-10.57
X-87.69 Y-10.576
X-87.581 Y-10.63
X-87.46 Y-10.636
X-87.347 Y-10.594
X-87.259 Y-10.511
X-87.174 Y-10.39
X-87.161 Y-10.359
X-87.159 Y-10.325
X-87.168 Y-10.293
X-87.187 Y-10.265
X-87.214 Y-10.245
X-87.246 Y-10.236
X-87.609 Y-10.191
X-87.641 Y-10.192
X-87.671 Y-10.203
X-87.696 Y-10.223
X-87.809 Y-10.361
X-87.853 Y-10.421
X-87.863 Y-10.495
X-87.851 Y-10.569
X-87.783 Y-10.703
X-87.77 Y-10.712
X-87.662 Y-10.761
X-87.544 Y-10.764
X-87.433 Y-10.722
X-87.348 Y-10.639
X-87.259 Y-10.511
X-87.245 Y-10.479
X-87.244 Y-10.445
X-87.253 Y-10.412
X-87.274 Y-10.384
X-87.302 Y-10.365
X-87.335 Y-10.357
X-87.726 Y-10.327
X-87.756 Y-10.329
X-87.785 Y-10.341
X-87.809 Y-10.361
X-87.907 Y-10.481
X-87.951 Y-10.541
X-87.96 Y-10.615
X-87.949 Y-10.69
X-87.883 Y-10.825
X-87.865 Y-10.839
X-87.755 Y-10.891
X-87.633 Y-10.896
X-87.52 Y-10.852
X-87.433 Y-10.767
X-87.348 Y-10.639
X-87.335 Y-10.608
X-87.333 Y-10.574
X-87.342 Y-10.542
X-87.362 Y-10.514
X-87.39 Y-10.495
X-87.422 Y-10.486
X-87.822 Y-10.447
X-87.853 Y-10.449
X-87.882 Y-10.461
X-87.907 Y-10.481
X-87.995 Y-10.588
X-88.039 Y-10.649
X-88.054 Y-10.722
X-88.049 Y-10.797
X-87.993 Y-10.937
X-87.97 Y-10.957
X-87.86 Y-11.019
X-87.733 Y-11.03
X-87.613 Y-10.988
X-87.521 Y-10.899
X-87.433 Y-10.767
X-87.419 Y-10.73
X-87.421 Y-10.691
X-87.438 Y-10.655
X-87.467 Y-10.628
X-87.503 Y-10.615
X-87.905 Y-10.555
X-87.938 Y-10.556
X-87.969 Y-10.567
X-87.995 Y-10.588
X-88.064 Y-10.673
X-88.094 Y-10.711
X-88.137 Y-10.772
X-88.154 Y-10.846
X-88.148 Y-10.92
X-88.093 Y-11.06
X-88.064 Y-11.087
X-87.953 Y-11.152
X-87.825 Y-11.165
X-87.703 Y-11.122
X-87.611 Y-11.033
X-87.521 Y-10.899
X-87.508 Y-10.863
X-87.509 Y-10.824
X-87.525 Y-10.789
X-87.553 Y-10.762
X-87.59 Y-10.748
X-88.001 Y-10.677
X-88.035
X-88.068 Y-10.689
X-88.094 Y-10.711
X-88.196 Y-10.842
X-88.238 Y-10.903
X-88.253 Y-10.977
X-88.237 Y-11.126
X-88.151 Y-11.249
X-88.118 Y-11.27
X-88.009 Y-11.312
X-87.893 Y-11.309
X-87.787 Y-11.263
X-87.706 Y-11.179
X-87.611 Y-11.033
X-87.597 Y-10.997
X-87.598 Y-10.958
X-87.614 Y-10.923
X-87.642 Y-10.896
X-87.678 Y-10.882
X-88.101 Y-10.807
X-88.136
X-88.169 Y-10.819
X-88.196 Y-10.842
X-88.308 Y-10.989
X-88.351 Y-11.051
X-88.366 Y-11.2
X-88.308 Y-11.338
X-88.2 Y-11.442
X-88.177 Y-11.452
X-88.038 Y-11.477
X-87.903 Y-11.434
X-87.802 Y-11.334
X-87.706 Y-11.179
X-87.693 Y-11.143
X-87.695 Y-11.105
X-87.711 Y-11.07
X-87.739 Y-11.043
X-87.775 Y-11.03
X-88.214 Y-10.954
X-88.249
X-88.282 Y-10.966
X-88.308 Y-10.989
X-88.373 Y-11.075
X-88.424 Y-11.153
X-88.463 Y-11.218
X-88.471 Y-11.367
X-88.409 Y-11.504
X-88.296 Y-11.603
X-88.276 Y-11.612
X-88.136 Y-11.636
X-88.001 Y-11.594
X-87.9 Y-11.494
X-87.802 Y-11.334
X-87.79 Y-11.298
X-87.792 Y-11.26
X-87.809 Y-11.225
X-87.837 Y-11.2
X-87.873 Y-11.186
X-88.327 Y-11.113
X-88.364
X-88.398 Y-11.128
X-88.424 Y-11.153
X-88.522 Y-11.3
X-88.56 Y-11.365
X-88.57 Y-11.439
X-88.543 Y-11.587
X-88.46 Y-11.712
X-88.335 Y-11.795
X-88.33 Y-11.796
X-88.205 Y-11.8
X-88.09 Y-11.753
X-88.004 Y-11.662
X-87.9 Y-11.494
X-87.888 Y-11.458
X-87.89 Y-11.42
X-87.906 Y-11.386
X-87.933 Y-11.36
X-87.969 Y-11.346
X-88.422 Y-11.26
X-88.46
X-88.495 Y-11.274
X-88.522 Y-11.3
X-88.609 Y-11.433
X-88.626 Y-11.461
X-88.664 Y-11.526
X-88.671 Y-11.676
X-88.61 Y-11.812
X-88.507 Y-11.922
X-88.482 Y-11.934
X-88.372 Y-11.963
X-88.259 Y-11.948
X-88.16 Y-11.893
X-88.088 Y-11.805
X-88.07 Y-11.771
X-88.004 Y-11.662
X-87.992 Y-11.627
X-87.993 Y-11.589
X-88.009 Y-11.555
X-88.036 Y-11.529
X-88.07 Y-11.515
X-88.524 Y-11.42
X-88.562 Y-11.419
X-88.599 Y-11.434
X-88.626 Y-11.461
X-88.717 Y-11.602
X-88.754 Y-11.667
X-88.78 Y-11.815
X-88.73 Y-11.957
X-88.628 Y-12.067
X-88.583 Y-12.091
X-88.471 Y-12.126
X-88.354 Y-12.114
X-88.251 Y-12.059
X-88.176 Y-11.969
X-88.088 Y-11.805
X-88.079 Y-11.771
X-88.082 Y-11.735
X-88.097 Y-11.702
X-88.123 Y-11.677
X-88.156 Y-11.663
X-88.613 Y-11.561
X-88.652 Y-11.56
X-88.689 Y-11.575
X-88.717 Y-11.602
X-88.825 Y-11.771
X-88.862 Y-11.836
X-88.884 Y-11.984
X-88.83 Y-12.124
X-88.725 Y-12.232
X-88.592 Y-12.302
X-88.467 Y-12.299
X-88.353 Y-12.244
X-88.272 Y-12.148
X-88.176 Y-11.969
X-88.166 Y-11.934
X-88.17 Y-11.898
X-88.186 Y-11.865
X-88.212 Y-11.84
X-88.246 Y-11.827
X-88.723 Y-11.73
X-88.761 Y-11.729
X-88.797 Y-11.744
X-88.825 Y-11.771
X-88.933 Y-11.94
X-88.969 Y-12.005
X-88.986 Y-12.154
X-88.928 Y-12.293
X-88.828 Y-12.405
X-88.696 Y-12.477
X-88.692 Y-12.478
X-88.564 Y-12.476
X-88.448 Y-12.422
X-88.366 Y-12.324
X-88.272 Y-12.148
X-88.262 Y-12.114
X-88.266 Y-12.078
X-88.281 Y-12.045
X-88.307 Y-12.02
X-88.34 Y-12.007
X-88.829 Y-11.899
X-88.868 Y-11.898
X-88.905 Y-11.913
X-88.933 Y-11.94
X-89.038 Y-12.109
X-89.075 Y-12.174
X-89.086 Y-12.324
X-89.03 Y-12.463
X-88.932 Y-12.577
X-88.802 Y-12.651
X-88.789 Y-12.654
X-88.657 Y-12.655
X-88.538 Y-12.599
X-88.454 Y-12.497
X-88.366 Y-12.324
X-88.356 Y-12.29
X-88.359 Y-12.254
X-88.375 Y-12.222
X-88.4 Y-12.197
X-88.433 Y-12.183
X-88.933 Y-12.067
X-88.963 Y-12.065
X-88.992 Y-12.072
X-89.018 Y-12.087
X-89.038 Y-12.109
X-89.134 Y-12.263
X-89.17 Y-12.329
X-89.194 Y-12.477
X-89.145 Y-12.619
X-89.051 Y-12.737
X-88.926 Y-12.818
X-88.896 Y-12.827
X-88.756 Y-12.835
X-88.628 Y-12.779
X-88.54 Y-12.671
X-88.457 Y-12.503
X-88.454 Y-12.497
X-88.445 Y-12.464
X-88.448 Y-12.429
X-88.463 Y-12.398
X-88.487 Y-12.373
X-88.519 Y-12.359
X-89.025 Y-12.222
X-89.056 Y-12.219
X-89.086 Y-12.225
X-89.113 Y-12.241
X-89.134 Y-12.263
X-89.194 Y-12.362
X-89.219 Y-12.404
X-89.24 Y-12.447
X-89.271 Y-12.515
X-89.288 Y-12.664
X-89.235 Y-12.804
X-89.141 Y-12.921
X-89.013 Y-12.999
X-88.981 Y-13.008
X-88.842 Y-13.015
X-88.715 Y-12.959
X-88.627 Y-12.852
X-88.54 Y-12.671
X-88.531 Y-12.638
X-88.535 Y-12.604
X-88.55 Y-12.572
X-88.574 Y-12.548
X-88.606 Y-12.534
X-89.128 Y-12.398
X-89.16 Y-12.395
X-89.192 Y-12.403
X-89.22 Y-12.421
X-89.24 Y-12.447
X-89.34 Y-12.641
X-89.37 Y-12.71
X-89.378 Y-12.859
X-89.319 Y-12.997
X-89.22 Y-13.11
X-89.09 Y-13.185
X-89.059 Y-13.193
X-88.922 Y-13.196
X-88.798 Y-13.138
X-88.713 Y-13.031
X-88.627 Y-12.852
X-88.619 Y-12.817
X-88.623 Y-12.783
X-88.639 Y-12.751
X-88.664 Y-12.727
X-88.697 Y-12.713
X-89.23 Y-12.592
X-89.262 Y-12.59
X-89.293 Y-12.598
X-89.32 Y-12.616
X-89.34 Y-12.641
X-89.426 Y-12.81
X-89.456 Y-12.878
X-89.474 Y-13.027
X-89.42 Y-13.167
X-89.324 Y-13.283
X-89.197 Y-13.361
X-89.151 Y-13.375
X-89.005 Y-13.382
X-88.873 Y-13.318
X-88.787 Y-13.2
X-88.756 Y-13.122
X-88.713 Y-13.031
X-88.705 Y-12.998
X-88.709 Y-12.963
X-88.724 Y-12.932
X-88.749 Y-12.908
X-88.781 Y-12.894
X-89.314 Y-12.762
X-89.347 Y-12.759
X-89.378 Y-12.767
X-89.406 Y-12.784
X-89.426 Y-12.81
X-89.523 Y-13
X-89.553 Y-13.068
X-89.564 Y-13.218
X-89.506 Y-13.356
X-89.408 Y-13.47
X-89.279 Y-13.547
X-89.227 Y-13.563
X-89.08 Y-13.569
X-88.949 Y-13.506
X-88.862 Y-13.388
X-88.856 Y-13.355
X-88.862 Y-13.321
X-88.878 Y-13.292
X-88.903 Y-13.269
X-89.381 Y-12.964
X-89.411 Y-12.951
X-89.444 Y-12.949
X-89.475 Y-12.957
X-89.502 Y-12.974
X-89.523 Y-13
X-89.609 Y-13.169
X-89.639 Y-13.237
X-89.66 Y-13.386
X-89.607 Y-13.526
X-89.513 Y-13.643
X-89.388 Y-13.726
X-89.246 Y-13.775
X-89.228 Y-13.776
X-89.109 Y-13.754
X-89.009 Y-13.688
X-88.942 Y-13.587
X-88.787 Y-13.2
X-88.781 Y-13.161
X-88.791 Y-13.122
X-88.815 Y-13.091
X-88.849 Y-13.071
X-88.889 Y-13.066
X-89.529 Y-13.118
X-89.561 Y-13.126
X-89.588 Y-13.143
X-89.609 Y-13.169
X-89.714 Y-13.376
X-89.745 Y-13.444
Y-13.594
X-89.683 Y-13.731
X-89.583 Y-13.843
X-89.461 Y-13.929
X-89.318 Y-13.974
X-89.31
X-89.187 Y-13.953
X-89.083 Y-13.884
X-89.016 Y-13.778
X-88.993 Y-13.714
X-88.942 Y-13.587
X-88.936 Y-13.554
X-88.942 Y-13.52
X-88.958 Y-13.491
X-88.984 Y-13.468
X-89.015 Y-13.455
X-89.605 Y-13.327
X-89.637 Y-13.325
X-89.668 Y-13.333
X-89.695 Y-13.351
X-89.714 Y-13.376
X-89.8 Y-13.545
X-89.831 Y-13.613
X-89.841 Y-13.763
X-89.785 Y-13.902
X-89.693 Y-14.02
X-89.574 Y-14.111
X-89.434 Y-14.167
X-89.404 Y-14.17
X-89.272 Y-14.156
X-89.159 Y-14.086
X-89.088 Y-13.974
X-89.016 Y-13.778
X-89.011 Y-13.746
X-89.017 Y-13.713
X-89.033 Y-13.685
X-89.057 Y-13.663
X-89.087 Y-13.65
X-89.688 Y-13.496
X-89.721 Y-13.493
X-89.753 Y-13.501
X-89.78 Y-13.519
X-89.8 Y-13.545
X-89.843 Y-13.629
X-89.895 Y-13.743
X-89.923 Y-13.813
X-89.927 Y-13.963
X-89.87 Y-14.102
X-89.775 Y-14.218
X-89.657 Y-14.31
X-89.517 Y-14.364
X-89.48 Y-14.369
X-89.347 Y-14.356
X-89.232 Y-14.286
X-89.16 Y-14.173
X-89.088 Y-13.974
X-89.083 Y-13.942
X-89.089 Y-13.91
X-89.105 Y-13.881
X-89.129 Y-13.859
X-89.159 Y-13.846
X-89.781 Y-13.69
X-89.815 Y-13.688
X-89.848 Y-13.697
X-89.876 Y-13.716
X-89.895 Y-13.743
X-89.98 Y-13.933
X-90.005 Y-14.003
X-90.014 Y-14.153
X-89.959 Y-14.293
X-89.866 Y-14.411
X-89.748 Y-14.504
X-89.61 Y-14.561
X-89.557 Y-14.569
X-89.416 Y-14.558
X-89.296 Y-14.483
X-89.224 Y-14.361
X-89.206 Y-14.305
X-89.16 Y-14.173
X-89.155 Y-14.141
X-89.161 Y-14.109
X-89.176 Y-14.081
X-89.2 Y-14.059
X-89.23 Y-14.046
X-89.238 Y-14.044
X-89.865 Y-13.88
X-89.899 Y-13.877
X-89.932 Y-13.886
X-89.96 Y-13.905
X-89.98 Y-13.933
X-90.063 Y-14.136
X-90.087 Y-14.207
X-90.095 Y-14.357
X-90.039 Y-14.496
X-89.945 Y-14.613
X-89.827 Y-14.705
X-89.688 Y-14.762
X-89.54 Y-14.787
X-89.43 Y-14.75
X-89.343 Y-14.677
X-89.29 Y-14.576
X-89.287 Y-14.545
X-89.294 Y-14.514
X-89.309 Y-14.487
X-89.333 Y-14.466
X-89.401 Y-14.423
X-89.917 Y-14.092
X-89.949 Y-14.079
X-89.983 Y-14.077
X-90.016 Y-14.087
X-90.043 Y-14.108
X-90.063 Y-14.136
X-90.149 Y-14.35
X-90.174 Y-14.421
X-90.173 Y-14.571
X-90.112 Y-14.708
X-90.016 Y-14.822
X-89.895 Y-14.912
X-89.759 Y-14.975
X-89.688 Y-14.987
X-89.545 Y-14.976
X-89.424 Y-14.901
X-89.351 Y-14.778
X-89.348 Y-14.746
X-89.355 Y-14.714
X-89.372 Y-14.687
X-89.397 Y-14.666
X-89.476 Y-14.619
X-90.007 Y-14.305
X-90.038 Y-14.293
X-90.072 Y-14.292
X-90.104 Y-14.302
X-90.131 Y-14.322
X-90.149 Y-14.35
X-90.234 Y-14.558
X-90.258 Y-14.629
X-90.252 Y-14.779
X-90.189 Y-14.915
X-90.092 Y-15.029
X-89.973 Y-15.12
X-89.835 Y-15.179
X-89.687 Y-15.207
X-89.668 Y-15.205
X-89.556 Y-15.169
X-89.465 Y-15.093
X-89.412 Y-14.988
X-89.409 Y-14.956
X-89.417 Y-14.925
X-89.434 Y-14.898
X-89.459 Y-14.878
X-89.557 Y-14.821
X-90.093 Y-14.512
X-90.124 Y-14.501
X-90.157 Y-14.5
X-90.189 Y-14.51
X-90.215 Y-14.531
X-90.234 Y-14.558
X-90.318 Y-14.767
X-90.343 Y-14.838
X-90.332 Y-14.988
X-90.268 Y-15.123
X-90.17 Y-15.237
X-90.05 Y-15.327
X-89.915 Y-15.392
X-89.768 Y-15.421
X-89.746 Y-15.42
X-89.624 Y-15.388
X-89.527 Y-15.31
X-89.47 Y-15.198
X-89.468 Y-15.166
X-89.476 Y-15.135
X-89.493 Y-15.108
X-89.519 Y-15.088
X-89.637 Y-15.022
X-90.179 Y-14.721
X-90.21 Y-14.71
X-90.243 Y-14.709
X-90.274 Y-14.72
X-90.3 Y-14.74
X-90.318 Y-14.767
X-90.388 Y-14.94
X-90.413 Y-15.011
X-90.422 Y-15.161
X-90.367 Y-15.3
X-90.276 Y-15.419
X-90.162 Y-15.517
X-90.031 Y-15.59
X-89.887 Y-15.632
X-89.831 Y-15.634
X-89.698 Y-15.61
X-89.589 Y-15.53
X-89.527 Y-15.41
X-89.525 Y-15.379
X-89.532 Y-15.349
X-89.549 Y-15.323
X-89.573 Y-15.303
X-89.719 Y-15.214
X-90.245 Y-14.895
X-90.277 Y-14.883
X-90.311 Y-14.882
X-90.343 Y-14.892
X-90.37 Y-14.912
X-90.388 Y-14.94
X-90.439 Y-15.065
X-90.476 Y-15.196
X-90.493 Y-15.269
X-90.482 Y-15.419
X-90.416 Y-15.554
X-90.318 Y-15.667
X-90.197 Y-15.756
X-90.062 Y-15.82
X-89.915 Y-15.851
X-89.87
X-89.744 Y-15.821
X-89.642 Y-15.741
X-89.583 Y-15.626
X-89.525 Y-15.403
X-89.457 Y-15.15
X-89.386 Y-14.896
X-89.361 Y-14.812
X-89.259 Y-14.474
X-89.224 Y-14.361
X-89.221 Y-14.326
X-89.231 Y-14.291
X-89.252 Y-14.262
X-89.283 Y-14.243
X-89.318 Y-14.235
X-89.353 Y-14.241
X-89.385 Y-14.259
X-89.792 Y-14.601
X-89.887 Y-14.681
X-90.445 Y-15.15
X-90.464 Y-15.171
X-90.476 Y-15.196
X-90.511 Y-15.318
X-90.533 Y-15.403
X-90.544 Y-15.449
X-90.557 Y-15.523
X-90.534 Y-15.671
X-90.459 Y-15.801
X-90.355 Y-15.909
X-90.229 Y-15.991
X-90.09 Y-16.048
X-89.942 Y-16.072
X-89.906 Y-16.069
X-89.784 Y-16.034
X-89.687 Y-15.953
X-89.633 Y-15.838
X-89.591 Y-15.656
X-89.583 Y-15.626
X-89.581 Y-15.593
X-89.589 Y-15.562
X-89.607 Y-15.535
X-89.633 Y-15.516
X-89.664 Y-15.505
X-89.801 Y-15.482
X-90.431 Y-15.377
X-90.467 Y-15.378
X-90.501 Y-15.391
X-90.528 Y-15.416
X-90.544 Y-15.449
X-90.592 Y-15.656
X-90.619 Y-15.804
X-90.572 Y-15.946
X-90.483 Y-16.067
X-90.369 Y-16.164
X-90.237 Y-16.236
X-90.094 Y-16.282
X-89.945 Y-16.294
X-89.928 Y-16.291
X-89.818 Y-16.249
X-89.732 Y-16.168
X-89.685 Y-16.061
X-89.633 Y-15.838
Y-15.799
X-89.649 Y-15.762
X-89.677 Y-15.735
X-89.714 Y-15.72
X-89.851 Y-15.696
X-90.478 Y-15.584
X-90.515
X-90.549 Y-15.598
X-90.576 Y-15.623
X-90.592 Y-15.656
X-90.652 Y-15.91
X-90.666 Y-15.983
X-90.639 Y-16.131
X-90.56 Y-16.258
X-90.451 Y-16.362
X-90.324 Y-16.442
X-90.184 Y-16.496
X-90.036 Y-16.519
X-90.001 Y-16.516
X-89.878 Y-16.477
X-89.782 Y-16.392
X-89.732 Y-16.274
X-89.726 Y-16.246
X-89.685 Y-16.061
X-89.684 Y-16.029
X-89.693 Y-15.998
X-89.712 Y-15.972
X-89.738 Y-15.953
X-89.769 Y-15.943
X-89.907 Y-15.924
X-90.542 Y-15.837
X-90.578 Y-15.839
X-90.611 Y-15.853
X-90.637 Y-15.877
X-90.652 Y-15.91
X-90.703 Y-16.125
X-90.716 Y-16.199
X-90.692 Y-16.347
X-90.614 Y-16.475
X-90.507 Y-16.58
X-90.381 Y-16.661
X-90.242 Y-16.717
X-90.093 Y-16.739
X-90.048 Y-16.736
X-89.923 Y-16.699
X-89.826 Y-16.613
X-89.774 Y-16.494
X-89.732 Y-16.274
X-89.733 Y-16.234
X-89.75 Y-16.198
X-89.779 Y-16.172
X-89.817 Y-16.159
X-89.957 Y-16.14
X-90.593 Y-16.052
X-90.628 Y-16.054
X-90.661 Y-16.068
X-90.687 Y-16.093
X-90.703 Y-16.125
X-90.752 Y-16.332
X-90.765 Y-16.406
X-90.748 Y-16.555
X-90.674 Y-16.685
X-90.57 Y-16.793
X-90.445 Y-16.876
X-90.307 Y-16.935
X-90.159 Y-16.961
X-90.1 Y-16.958
X-89.971 Y-16.924
X-89.87 Y-16.837
X-89.816 Y-16.715
X-89.774 Y-16.494
X-89.776 Y-16.455
X-89.792 Y-16.419
X-89.821 Y-16.393
X-89.858 Y-16.379
X-90.008 Y-16.356
X-90.64 Y-16.26
X-90.676 Y-16.261
X-90.71 Y-16.274
X-90.736 Y-16.299
X-90.752 Y-16.332
X-90.79 Y-16.501
X-90.805 Y-16.585
X-90.814 Y-16.66
X-90.785 Y-16.807
X-90.705 Y-16.934
X-90.595 Y-17.036
X-90.466 Y-17.113
X-90.326 Y-17.165
X-90.177 Y-17.184
X-90.121 Y-17.179
X-89.991 Y-17.138
X-89.893 Y-17.044
X-89.847 Y-16.916
X-89.849 Y-16.884
X-89.861 Y-16.855
X-89.882 Y-16.831
X-89.91 Y-16.815
X-90.102 Y-16.738
X-90.67 Y-16.513
X-90.704 Y-16.506
X-90.739 Y-16.511
X-90.769 Y-16.527
X-90.792 Y-16.553
X-90.805 Y-16.585
X-90.835 Y-16.754
X-90.847 Y-16.839
X-90.853 Y-16.914
X-90.815 Y-17.059
X-90.728 Y-17.181
X-90.614 Y-17.278
X-90.482 Y-17.349
X-90.339 Y-17.395
X-90.19 Y-17.408
X-90.136 Y-17.402
X-90.011 Y-17.357
X-89.917 Y-17.264
X-89.873 Y-17.139
X-89.837 Y-16.839
X-89.824 Y-16.754
X-89.816 Y-16.715
X-89.818 Y-16.677
X-89.833 Y-16.642
X-89.861 Y-16.616
X-89.896 Y-16.601
X-89.934
X-90.114 Y-16.635
X-90.767 Y-16.758
X-90.795 Y-16.768
X-90.819 Y-16.786
X-90.837 Y-16.81
X-90.847 Y-16.839
X-90.876 Y-17.054
X-90.881 Y-17.092
X-90.887 Y-17.139
X-90.89 Y-17.176
X-90.838 Y-17.317
X-90.743 Y-17.433
X-90.72 Y-17.45
X-90.665 Y-17.483
X-90.603 Y-17.504
X-90.539 Y-17.511
X-90.502 Y-17.502
X-90.47 Y-17.481
X-90.45 Y-17.449
X-90.442 Y-17.411
X-90.45 Y-17.374
X-90.47 Y-17.342
X-90.717 Y-17.086
X-90.746 Y-17.065
X-90.782 Y-17.056
X-90.818 Y-17.06
X-90.85 Y-17.077
X-90.875 Y-17.104
X-90.887 Y-17.139
X-90.908 Y-17.29
X-90.911 Y-17.313
X-90.915 Y-17.346
X-90.917 Y-17.368
X-90.916 Y-17.402
X-90.909 Y-17.436
X-90.896 Y-17.467
X-90.866 Y-17.49
X-90.83 Y-17.5
X-90.793 Y-17.496
X-90.76 Y-17.478
X-90.736 Y-17.45
X-90.723 Y-17.415
X-90.718 Y-17.378
X-90.719 Y-17.339
X-90.736 Y-17.304
X-90.764 Y-17.277
X-90.801 Y-17.264
X-90.839 Y-17.265
X-90.875 Y-17.281
X-90.901 Y-17.309
X-90.915 Y-17.346
X-90.921 Y-17.388
Y-17.398
X-90.92 Y-17.409
X-90.918 Y-17.42
X-90.915 Y-17.43
X-90.911 Y-17.44
X-90.896 Y-17.467
X-90.882 Y-17.484
X-90.868 Y-17.495
X-90.858 Y-17.501
X-90.847 Y-17.505
X-90.837 Y-17.508
X-90.826 Y-17.51
X-90.657 Y-17.511
X-90.103
X-90.065
X-90.022
X-89.991 Y-17.508
X-89.967 Y-17.494
X-89.952 Y-17.47
X-89.95 Y-17.442
X-89.962 Y-17.417
X-89.984 Y-17.4
X-90.012 Y-17.397
X-90.027 Y-17.398
X-90.053 Y-17.408
X-90.071 Y-17.43
X-90.077 Y-17.457
X-90.069 Y-17.484
X-90.049 Y-17.503
X-90.022 Y-17.511
X-90.001 Y-17.51
X-89.991 Y-17.507
X-89.98 Y-17.504
X-89.968 Y-17.498
X-89.957 Y-17.491
X-89.944 Y-17.479
X-89.934 Y-17.467
X-89.919 Y-17.449
X-89.91 Y-17.43
X-89.907 Y-17.42
X-89.903 Y-17.388
X-89.873 Y-17.139
X-89.875 Y-17.111
X-89.885 Y-17.084
X-89.912 Y-17.064 Z-0.983
X-89.935 Y-17.046 Z-0.966
X-89.952 Y-17.033 Z-0.939
X-89.962 Y-17.031 Z-0.915
X-89.965 Z-0.89
G0 Z2
X-61.597 Y-14.742
Z0.5
G3 X-61.113 Y-14.866 Z0.29 I0.242 J-0.062 F333.3
X-61.597 Y-14.742 Z0.079 I-0.242 J0.062
X-61.113 Y-14.866 Z-0.131 I0.242 J-0.062
X-61.597 Y-14.742 Z-0.342 I-0.242 J0.062
X-61.113 Y-14.866 Z-0.552 I0.242 J-0.062
X-61.597 Y-14.742 Z-0.763 I-0.242 J0.062
X-61.386 Y-15.052 Z-0.876 I0.242 J-0.062
X-61.105 Y-14.804 Z-0.99 I0.031 J0.248
X-61.605 I-0.25
X-61.105 I0.25
G1 X-61.067 Y-14.659 F1000
X-61.08 Y-14.585
X-61.117 Y-14.52
X-61.224 Y-14.414
X-61.369 Y-14.375
X-61.518 Y-14.396
X-61.648 Y-14.47
X-61.745 Y-14.585
X-61.797 Y-14.725
X-61.799 Y-14.875
X-61.751 Y-15.017
X-61.659 Y-15.136
X-61.534 Y-15.218
X-61.388 Y-15.254
X-61.239 Y-15.24
X-61.102 Y-15.177
X-60.994 Y-15.074
X-60.915 Y-14.946
X-60.865 Y-14.805
X-60.854 Y-14.655
X-60.89 Y-14.509
X-60.96 Y-14.377
X-61.069 Y-14.273
X-61.2 Y-14.2
X-61.346 Y-14.166
X-61.496 Y-14.174
X-61.64 Y-14.215
X-61.769 Y-14.29
X-61.792 Y-14.313
X-61.843 Y-14.38
X-61.874 Y-14.459
X-61.881 Y-14.543
X-61.88 Y-14.558
X-61.878 Y-14.812
X-61.887 Y-14.943
X-61.89 Y-15.093
X-61.826 Y-15.228
X-61.724 Y-15.338
X-61.597 Y-15.418
X-61.453 Y-15.46
X-61.303 Y-15.468
X-61.155 Y-15.443
X-61.018 Y-15.383
X-60.992 Y-15.364
X-60.935 Y-15.309
X-60.894 Y-15.241
X-60.872 Y-15.165
X-60.838 Y-14.896
X-60.829 Y-14.812
X-60.834 Y-14.727
X-60.84 Y-14.643
X-60.869 Y-14.389
X-60.895 Y-14.242
X-60.978 Y-14.117
X-61.098 Y-14.027
X-61.237 Y-13.971
X-61.386 Y-13.947
X-61.535 Y-13.951
X-61.681 Y-13.986
X-61.721 Y-14.004
X-61.819 Y-14.077
X-61.881 Y-14.183
X-61.897 Y-14.305
X-61.885 Y-14.474
X-61.881 Y-14.543
X-61.872 Y-14.575
X-61.854 Y-14.602
X-61.828 Y-14.622
X-61.797 Y-14.633
X-61.765
X-61.58 Y-14.602
X-60.952 Y-14.496
X-60.918 Y-14.483
X-60.89 Y-14.459
X-60.873 Y-14.426
X-60.869 Y-14.389
X-60.88 Y-14.305
X-60.891 Y-14.22
X-60.909 Y-14.136
X-60.921 Y-14.089
X-60.931 Y-14.051
X-60.987 Y-13.912
X-61.103 Y-13.818
X-61.24 Y-13.756
X-61.387 Y-13.725
X-61.536 Y-13.72
X-61.684 Y-13.747
X-61.749 Y-13.774
X-61.861 Y-13.853
X-61.925 Y-13.973
X-61.93 Y-14.11
X-61.908 Y-14.22
X-61.897 Y-14.305
X-61.885 Y-14.338
X-61.863 Y-14.364
X-61.833 Y-14.382
X-61.799 Y-14.388
X-61.765 Y-14.382
X-61.61 Y-14.327
X-61.014 Y-14.113
X-60.981 Y-14.094
X-60.958 Y-14.064
X-60.948 Y-14.028
X-60.952 Y-13.99
X-60.962 Y-13.961
X-61.023 Y-13.798
X-61.084 Y-13.661
X-61.205 Y-13.572
X-61.345 Y-13.518
X-61.493 Y-13.496
X-61.643 Y-13.504
X-61.787 Y-13.545
X-61.827 Y-13.567
X-61.924 Y-13.651
X-61.977 Y-13.769
X-61.975 Y-13.898
X-61.959 Y-13.967
X-61.93 Y-14.11
X-61.917 Y-14.141
X-61.894 Y-14.166
X-61.865 Y-14.182
X-61.832 Y-14.187
X-61.799 Y-14.181
X-61.677 Y-14.137
X-61.084 Y-13.925
X-61.051 Y-13.905
X-61.028 Y-13.874
X-61.018 Y-13.836
X-61.023 Y-13.798
X-61.089 Y-13.629
X-61.125 Y-13.545
X-61.131 Y-13.53
X-61.146 Y-13.495
X-61.167 Y-13.458
X-61.173 Y-13.45
X-61.201 Y-13.424
X-61.236 Y-13.41
X-61.274 Y-13.411
X-61.309 Y-13.426
X-61.336 Y-13.453
X-61.351 Y-13.487
X-61.352 Y-13.525
X-61.339 Y-13.561
X-61.325 Y-13.584
X-61.3 Y-13.611
X-61.267 Y-13.628
X-61.23 Y-13.631
X-61.195 Y-13.621
X-61.165 Y-13.599
X-61.146 Y-13.567
X-61.139 Y-13.531
X-61.146 Y-13.495
X-61.155 Y-13.478
X-61.166 Y-13.46
X-61.193 Y-13.42
X-61.216 Y-13.39
X-61.348 Y-13.319
X-61.494 Y-13.283
X-61.644 Y-13.279
X-61.791 Y-13.308
X-61.928 Y-13.369
X-61.953 Y-13.39
X-62.032 Y-13.491
X-62.061 Y-13.616
X-62.035 Y-13.742
X-61.984 Y-13.861
X-61.975 Y-13.898
X-61.959 Y-13.932
X-61.931 Y-13.957
X-61.896 Y-13.971
X-61.858 Y-13.97
X-61.823 Y-13.955
X-61.748 Y-13.905
X-61.222 Y-13.557
X-61.195 Y-13.529
X-61.18 Y-13.494
X-61.179 Y-13.456
X-61.193 Y-13.42
X-61.223 Y-13.376
X-61.3 Y-13.271
X-61.397 Y-13.156
X-61.534 Y-13.095
X-61.683 Y-13.076
X-61.832 Y-13.092
X-61.973 Y-13.144
X-62.024 Y-13.18
X-62.118 Y-13.284
X-62.154 Y-13.421
X-62.124 Y-13.558
X-62.048 Y-13.714
X-62.035 Y-13.742
X-62.016 Y-13.769
X-61.988 Y-13.789
X-61.955 Y-13.798
X-61.922 Y-13.795
X-61.891 Y-13.782
X-61.85 Y-13.755
X-61.327 Y-13.412
X-61.304 Y-13.391
X-61.288 Y-13.363
X-61.282 Y-13.331
X-61.286 Y-13.3
X-61.3 Y-13.271
X-61.47 Y-13.049
X-61.571 Y-12.939
X-61.714 Y-12.892
X-61.864 Y-12.889
X-62.009 Y-12.925
X-62.141 Y-12.997
X-62.169 Y-13.026
X-62.242 Y-13.142
X-62.256 Y-13.278
X-62.208 Y-13.406
X-62.172 Y-13.46
X-62.124 Y-13.558
X-62.102 Y-13.586
X-62.072 Y-13.604
X-62.037 Y-13.611
X-62.002 Y-13.606
X-61.972 Y-13.588
X-61.487 Y-13.184
X-61.463 Y-13.155
X-61.452 Y-13.12
X-61.454 Y-13.083
X-61.47 Y-13.049
X-61.554 Y-12.948
X-61.648 Y-12.869
X-61.723 Y-12.81
X-61.785 Y-12.768
X-61.93 Y-12.728
X-62.079 Y-12.742
X-62.217 Y-12.801
X-62.333 Y-12.896
X-62.377 Y-13.007
X-62.375 Y-13.123
X-62.329 Y-13.23
X-62.208 Y-13.406
X-62.181 Y-13.432
X-62.146 Y-13.446
X-62.109
X-62.074 Y-13.432
X-62.046 Y-13.407
X-61.707 Y-12.946
X-61.691 Y-12.913
X-61.688 Y-12.875
X-61.7 Y-12.839
X-61.723 Y-12.81
X-61.757 Y-12.784
X-61.918 Y-12.667
X-61.981 Y-12.626
X-62.127 Y-12.593
X-62.275 Y-12.62
X-62.407 Y-12.691
X-62.419 Y-12.703
X-62.486 Y-12.825
X-62.491 Y-12.965
X-62.433 Y-13.091
X-62.4 Y-13.133
X-62.344 Y-13.207
X-62.329 Y-13.23
X-62.3 Y-13.256
X-62.264 Y-13.269
X-62.225 Y-13.268
X-62.19 Y-13.252
X-62.164 Y-13.224
X-61.895 Y-12.8
X-61.882 Y-12.766
X-61.881 Y-12.729
X-61.894 Y-12.695
X-61.918 Y-12.667
X-61.989 Y-12.616
X-62.089 Y-12.546
X-62.153 Y-12.507
X-62.298 Y-12.469
X-62.445 Y-12.5
X-62.567 Y-12.587
X-62.585 Y-12.613
X-62.634 Y-12.751
X-62.611 Y-12.896
X-62.523 Y-13.013
X-62.451 Y-13.071
X-62.439 Y-13.083
X-62.433 Y-13.091
X-62.403 Y-13.115
X-62.365 Y-13.126
X-62.326 Y-13.122
X-62.292 Y-13.103
X-62.268 Y-13.073
X-62.059 Y-12.673
X-62.049 Y-12.639
X-62.05 Y-12.604
X-62.064 Y-12.572
X-62.089 Y-12.546
X-62.146 Y-12.507
X-62.224 Y-12.447
X-62.231 Y-12.44
X-62.287 Y-12.39
X-62.357 Y-12.363
X-62.507 Y-12.357
X-62.646 Y-12.413
X-62.751 Y-12.52
X-62.758 Y-12.535
X-62.785 Y-12.666
X-62.753 Y-12.796
X-62.667 Y-12.898
X-62.523 Y-13.013
X-62.49 Y-13.029
X-62.453 Y-13.032
X-62.417 Y-13.022
X-62.388 Y-12.999
X-62.369 Y-12.967
X-62.212 Y-12.541
X-62.206 Y-12.505
X-62.213 Y-12.47
X-62.231 Y-12.44
X-62.268 Y-12.401
X-62.299 Y-12.362
X-62.316 Y-12.335
X-62.336 Y-12.304
X-62.394 Y-12.256
X-62.536 Y-12.209
X-62.685 Y-12.232
X-62.817 Y-12.302
X-62.914 Y-12.416
X-62.923 Y-12.438
X-62.946 Y-12.578
X-62.901 Y-12.712
X-62.8 Y-12.811
X-62.739 Y-12.848
X-62.706 Y-12.869
X-62.667 Y-12.898
X-62.635 Y-12.913
X-62.601 Y-12.916
X-62.567 Y-12.908
X-62.538 Y-12.888
X-62.518 Y-12.859
X-62.314 Y-12.422
X-62.306 Y-12.394
Y-12.364
X-62.316 Y-12.335
X-62.347 Y-12.278
X-62.365 Y-12.231
X-62.395 Y-12.163
X-62.453 Y-12.115
X-62.589 Y-12.052
X-62.739 Y-12.055
X-62.88 Y-12.106
X-63.002 Y-12.193
X-63.089 Y-12.315
X-63.101 Y-12.346
X-63.118 Y-12.483
X-63.072 Y-12.612
X-62.973 Y-12.708
X-62.8 Y-12.811
X-62.765 Y-12.823
X-62.727 Y-12.821
X-62.693 Y-12.805
X-62.668 Y-12.777
X-62.375 Y-12.317
X-62.363 Y-12.29
X-62.359 Y-12.26
X-62.365 Y-12.231
X-62.379 Y-12.193
X-62.389 Y-12.151
X-62.396 Y-12.109
X-62.402 Y-12.072
X-62.438 Y-12.006
X-62.55 Y-11.907
X-62.695 Y-11.869
X-62.845 Y-11.877
X-62.988 Y-11.923
X-63.114 Y-12.004
X-63.218 Y-12.112
X-63.29 Y-12.244
X-63.3 Y-12.284
X-63.301 Y-12.42
X-63.241 Y-12.543
X-63.132 Y-12.626
X-63.077 Y-12.652
X-62.986 Y-12.7
X-62.973 Y-12.708
X-62.941 Y-12.719
X-62.907
X-62.875 Y-12.707
X-62.848 Y-12.685
X-62.419 Y-12.173
X-62.402 Y-12.143
X-62.396 Y-12.109
X-62.399 Y-12.024
X-62.396 Y-11.982
X-62.393 Y-11.945
X-62.418 Y-11.874
X-62.511 Y-11.757
X-62.646 Y-11.691
X-62.733 Y-11.677
X-62.804 Y-11.675
X-62.874 Y-11.69
X-62.938 Y-11.72
X-62.992 Y-11.754
X-63.162 Y-11.837
X-63.293 Y-11.909
X-63.402 Y-12.013
X-63.475 Y-12.144
X-63.514 Y-12.288
X-63.513 Y-12.302
X-63.48 Y-12.426
X-63.398 Y-12.525
X-63.282 Y-12.58
X-63.246 Y-12.589
X-63.162 Y-12.613
X-63.132 Y-12.626
X-63.1 Y-12.634
X-63.067 Y-12.63
X-63.037 Y-12.616
X-63.013 Y-12.592
X-62.998 Y-12.563
X-62.994 Y-12.53
X-62.995 Y-12.514
X-63.021 Y-11.924
X-63.03 Y-11.886
X-63.053 Y-11.855
X-63.086 Y-11.834
X-63.124 Y-11.828
X-63.162 Y-11.837
X-63.246 Y-11.878
X-63.257 Y-11.883
X-63.331 Y-11.902
X-63.377 Y-11.912
X-63.522 Y-11.952
X-63.629 Y-12.057
X-63.693 Y-12.193
X-63.696 Y-12.216
X-63.676 Y-12.357
X-63.593 Y-12.473
X-63.466 Y-12.537
X-63.282 Y-12.58
X-63.243
X-63.207 Y-12.565
X-63.179 Y-12.538
X-63.165 Y-12.501
Y-12.462
X-63.261 Y-11.99
X-63.276 Y-11.955
X-63.303 Y-11.927
X-63.339 Y-11.912
X-63.377
X-63.501 Y-11.94
X-63.585 Y-11.951
X-63.631 Y-11.957
X-63.705 Y-11.97
X-63.821 Y-12.065
X-63.874 Y-12.205
Y-12.221
X-63.838 Y-12.36
X-63.742 Y-12.467
X-63.607 Y-12.516
X-63.5 Y-12.529
X-63.466 Y-12.537
X-63.429 Y-12.538
X-63.395 Y-12.525
X-63.368 Y-12.501
X-63.351 Y-12.469
X-63.346 Y-12.433
X-63.355 Y-12.398
X-63.532 Y-12.015
X-63.549 Y-11.989
X-63.572 Y-11.97
X-63.601 Y-11.959
X-63.631 Y-11.957
X-63.754 Y-11.972
X-63.8 Y-11.975
X-63.838 Y-11.979
X-63.904 Y-12.013
X-63.958 Y-12.065
X-63.994 Y-12.205
X-63.959 Y-12.345
X-63.863 Y-12.453
X-63.727 Y-12.503
X-63.607 Y-12.516
X-63.571 Y-12.512
X-63.539 Y-12.496
X-63.514 Y-12.469
X-63.501 Y-12.436
Y-12.4
X-63.513 Y-12.366
X-63.712 Y-12.024
X-63.734 Y-11.997
X-63.765 Y-11.98
X-63.8 Y-11.975
X-63.838 Y-11.977
X-63.923 Y-11.978
X-63.96 Y-11.981
X-64.027 Y-12.014
X-64.081 Y-12.067
X-64.111 Y-12.209
X-64.071 Y-12.349
X-63.969 Y-12.453
X-63.831 Y-12.496
X-63.754 Y-12.5
X-63.727 Y-12.503
X-63.691 Y-12.499
X-63.658 Y-12.482
X-63.634 Y-12.454
X-63.621 Y-12.42
X-63.622 Y-12.384
X-63.635 Y-12.35
X-63.84 Y-12.025
X-63.862 Y-12
X-63.891 Y-11.984
X-63.923 Y-11.978
X-64.008 Y-11.98
X-64.054 Y-11.978
X-64.092 Y-11.979
X-64.156 Y-12.018
X-64.206 Y-12.074
X-64.23 Y-12.217
X-64.184 Y-12.356
X-64.078 Y-12.455
X-63.937 Y-12.494
X-63.831 Y-12.496
X-63.794 Y-12.49
X-63.763 Y-12.471
X-63.74 Y-12.442
X-63.729 Y-12.407
X-63.732 Y-12.37
X-63.748 Y-12.337
X-63.979 Y-12.019
X-64 Y-11.998
X-64.026 Y-11.984
X-64.054 Y-11.978
X-64.092 Y-11.977
X-64.139 Y-11.973
X-64.176 Y-11.971
X-64.249 Y-11.989
X-64.305 Y-12.038
X-64.386 Y-12.165
Y-12.175
X-64.369 Y-12.297
X-64.303 Y-12.402
X-64.201 Y-12.471
X-64.08 Y-12.494
X-64.008 Y-12.492
X-63.937 Y-12.494
X-63.902 Y-12.487
X-63.872 Y-12.468
X-63.85 Y-12.44
X-63.839 Y-12.406
X-63.841 Y-12.371
X-63.855 Y-12.338
X-64.068 Y-12.017
X-64.087 Y-11.996
X-64.111 Y-11.981
X-64.139 Y-11.973
X-64.261 Y-11.961
X-64.336 Y-11.956
X-64.405 Y-11.985
X-64.463 Y-12.034
X-64.54 Y-12.162
X-64.541 Y-12.191
X-64.521 Y-12.317
X-64.45 Y-12.422
X-64.342 Y-12.489
X-64.215 Y-12.505
X-64.092 Y-12.494
X-64.08
X-64.047 Y-12.486
X-64.019 Y-12.468
X-63.998 Y-12.442
X-63.987 Y-12.41
X-63.988 Y-12.376
X-63.999 Y-12.344
X-64.19 Y-12.011
X-64.208 Y-11.987
X-64.233 Y-11.97
X-64.261 Y-11.961
X-64.346 Y-11.951
X-64.398 Y-11.94
X-64.435 Y-11.933
X-64.508 Y-11.949
X-64.575 Y-11.983
X-64.628 Y-12.036
X-64.7 Y-12.168
X-64.707 Y-12.319
X-64.63 Y-12.444
X-64.503 Y-12.517
X-64.356 Y-12.521
X-64.346 Y-12.519
X-64.261 Y-12.509
X-64.215 Y-12.505
X-64.179 Y-12.493
X-64.149 Y-12.468
X-64.132 Y-12.434
X-64.128 Y-12.396
X-64.139 Y-12.359
X-64.334 Y-11.99
X-64.35 Y-11.967
X-64.372 Y-11.95
X-64.398 Y-11.94
X-64.515 Y-11.914
X-64.589 Y-11.901
X-64.662 Y-11.92
