%
(n-001-005)
(T1  D=1 CR=0 - ZMIN=-2 - flat end mill)
G90 G94
G17
G21
G28 G91 Z0
G90

(Clear)
M9
T1 M6
S5000 M3
G54
M8
G0 X-114.28 Y-9.584
Z12
Z2
Z0.5
G3 X-113.796 Y-9.709 Z0.29 I0.242 J-0.062 F333.3
X-114.28 Y-9.584 Z0.079 I-0.242 J0.062
X-113.796 Y-9.709 Z-0.131 I0.242 J-0.062
X-114.28 Y-9.584 Z-0.342 I-0.242 J0.062
X-113.796 Y-9.709 Z-0.552 I0.242 J-0.062
X-114.28 Y-9.584 Z-0.763 I-0.242 J0.062
X-114.07 Y-9.894 Z-0.876 I0.242 J-0.062
X-113.788 Y-9.646 Z-0.99 I0.031 J0.248
X-114.288 I-0.25
X-113.788 I0.25
G1 X-113.751 Y-9.501 F1000
X-113.764 Y-9.427
X-113.801 Y-9.362
X-113.908 Y-9.257
X-114.053 Y-9.217
X-114.201 Y-9.238
X-114.332 Y-9.312
X-114.428 Y-9.427
X-114.48 Y-9.568
X-114.482 Y-9.718
X-114.435 Y-9.86
X-114.343 Y-9.978
X-114.217 Y-10.06
X-114.071 Y-10.096
X-113.922 Y-10.082
X-113.786 Y-10.02
X-113.677 Y-9.916
X-113.599 Y-9.788
X-113.549 Y-9.647
X-113.538 Y-9.497
X-113.573 Y-9.351
X-113.644 Y-9.219
X-113.752 Y-9.115
X-113.883 Y-9.042
X-114.029 Y-9.009
X-114.179 Y-9.016
X-114.324 Y-9.057
X-114.453 Y-9.133
X-114.559 Y-9.238
X-114.641 Y-9.364
X-114.691 Y-9.505
X-114.706 Y-9.655
X-114.689 Y-9.804
X-114.639 Y-9.945
X-114.556 Y-10.07
X-114.45 Y-10.176
X-114.322 Y-10.255
X-114.179 Y-10.301
X-114.03 Y-10.318
X-113.881 Y-10.3
X-113.741 Y-10.247
X-113.614 Y-10.167
X-113.505 Y-10.063
X-113.418 Y-9.942
X-113.355 Y-9.805
X-113.317 Y-9.66
X-113.309 Y-9.511
X-113.331 Y-9.362
X-113.38 Y-9.221
X-113.457 Y-9.091
X-113.558 Y-8.98
X-113.678 Y-8.891
X-113.813 Y-8.825
X-113.958 Y-8.787
X-114.108 Y-8.778
X-114.257 Y-8.795
X-114.291 Y-8.805
X-114.346 Y-8.828
X-114.396 Y-8.861
X-114.438 Y-8.903
X-114.514 Y-8.996
X-114.587 Y-9.068
X-114.684 Y-9.15
X-114.793 Y-9.253
X-114.869 Y-9.382
X-114.914 Y-9.525
X-114.931 Y-9.674
X-114.92 Y-9.824
X-114.88 Y-9.969
X-114.837 Y-10.059
X-114.795 Y-10.125
X-114.738 Y-10.177
X-114.67 Y-10.213
X-114.633 Y-10.218
X-114.597 Y-10.209
X-114.566 Y-10.187
X-114.546 Y-10.156
X-114.538 Y-10.12
X-114.532 Y-9.79
X-114.522 Y-9.231
X-114.528 Y-9.194
X-114.547 Y-9.162
X-114.577 Y-9.139
X-114.613 Y-9.129
X-114.65 Y-9.133
X-114.684 Y-9.15
X-114.786 Y-9.237
X-114.853 Y-9.286
X-114.937 Y-9.344
X-115.057 Y-9.434
X-115.118 Y-9.571
X-115.143 Y-9.719
X-115.14 Y-9.869
X-115.122 Y-9.954
X-115.066 Y-10.074
X-114.963 Y-10.159
X-114.834 Y-10.19
X-114.802 Y-10.185
X-114.774 Y-10.169
X-114.752 Y-10.145
X-114.739 Y-10.115
X-114.736 Y-10.083
X-114.742 Y-9.999
X-114.785 Y-9.421
X-114.793 Y-9.388
X-114.812 Y-9.36
X-114.839 Y-9.339
X-114.872 Y-9.329
X-114.906 Y-9.331
X-114.937 Y-9.344
X-115.029 Y-9.406
X-115.107 Y-9.455
X-115.144 Y-9.475
X-115.209 Y-9.512
X-115.298 Y-9.633
X-115.341 Y-9.776
Y-9.926
X-115.334 Y-9.958
X-115.275 Y-10.076
X-115.171 Y-10.158
X-115.043 Y-10.187
X-115.011 Y-10.181
X-114.982 Y-10.164
X-114.961 Y-10.139
X-114.949 Y-10.109
X-114.947 Y-10.076
X-115.002 Y-9.555
X-115.013 Y-9.518
X-115.036 Y-9.489
X-115.069 Y-9.47
X-115.107 Y-9.465
X-115.144 Y-9.475
X-115.174 Y-9.49
X-115.301 Y-9.545
X-115.369 Y-9.577
X-115.478 Y-9.68
X-115.532 Y-9.82
Y-9.97
X-115.53 Y-9.976
X-115.469 Y-10.086
X-115.367 Y-10.16
X-115.244 Y-10.187
X-115.206 Y-10.178
X-115.174 Y-10.155
X-115.154 Y-10.121
X-115.148 Y-10.083
X-115.166 Y-9.634
X-115.175 Y-9.597
X-115.196 Y-9.567
X-115.228 Y-9.546
X-115.264 Y-9.538
X-115.301 Y-9.545
X-115.36 Y-9.569
X-115.491 Y-9.617
X-115.56 Y-9.647
X-115.67 Y-9.749
X-115.72 Y-9.891
X-115.718 Y-9.909
X-115.671 Y-10.05
X-115.563 Y-10.15
X-115.419 Y-10.187
X-115.387 Y-10.18
X-115.359 Y-10.164
X-115.338 Y-10.14
X-115.325 Y-10.109
X-115.323 Y-10.077
X-115.361 Y-9.702
X-115.37 Y-9.668
X-115.392 Y-9.64
X-115.421 Y-9.62
X-115.456 Y-9.612
X-115.491 Y-9.617
X-115.53 Y-9.631
X-115.614 Y-9.66
X-115.661 Y-9.672
X-115.732 Y-9.695
X-115.791 Y-9.741
X-115.872 Y-9.868
Y-9.871
X-115.854 Y-9.991
X-115.79 Y-10.093
X-115.691 Y-10.162
X-115.572 Y-10.187
X-115.539 Y-10.18
X-115.509 Y-10.162
X-115.488 Y-10.135
X-115.477 Y-10.102
X-115.478 Y-10.067
X-115.54 Y-9.75
X-115.556 Y-9.713
X-115.584 Y-9.685
X-115.621 Y-9.671
X-115.661 Y-9.672
X-115.83 Y-9.716
X-115.901 Y-9.739
X-115.955 Y-9.791
X-115.989 Y-9.858
X-115.984 Y-9.979
X-115.928 Y-10.087
X-115.832 Y-10.161
X-115.714 Y-10.187
X-115.678 Y-10.179
X-115.647 Y-10.158
X-115.626 Y-10.128
X-115.617 Y-10.092
X-115.622 Y-10.055
X-115.713 Y-9.782
X-115.731 Y-9.75
X-115.759 Y-9.727
X-115.793 Y-9.715
X-115.83 Y-9.716
X-115.868 Y-9.726
X-115.953 Y-9.742
X-115.989 Y-9.749
X-116.054 Y-9.787
X-116.097 Y-9.849
X-116.102 Y-9.97
X-116.053 Y-10.081
X-115.96 Y-10.159
X-115.841 Y-10.187
X-115.804 Y-10.178
X-115.773 Y-10.157
X-115.752 Y-10.125
X-115.745 Y-10.088
X-115.752 Y-10.05
X-115.848 Y-9.805
X-115.865 Y-9.777
X-115.89 Y-9.755
X-115.92 Y-9.743
X-115.953 Y-9.742
X-116.084 Y-9.761
X-116.12 Y-9.769
X-116.178 Y-9.817
X-116.216 Y-9.882
X-116.215 Y-9.993
X-116.166 Y-10.093
X-116.079 Y-10.162
X-115.97 Y-10.187
X-115.933 Y-10.178
X-115.901 Y-10.156
X-115.88 Y-10.123
X-115.874 Y-10.085
X-115.882 Y-10.047
X-115.981 Y-9.821
X-115.998 Y-9.794
X-116.022 Y-9.774
X-116.052 Y-9.763
X-116.084 Y-9.761
X-116.206 Y-9.779
X-116.243 Y-9.785
X-116.298 Y-9.836
X-116.334 Y-9.902
X-116.33 Y-10.007
X-116.282 Y-10.1
X-116.199 Y-10.164
X-116.097 Y-10.187
X-116.058 Y-10.178
X-116.027 Y-10.155
X-116.006 Y-10.121
X-116 Y-10.083
X-116.01 Y-10.044
X-116.107 Y-9.836
X-116.124 Y-9.811
X-116.148 Y-9.792
X-116.176 Y-9.781
X-116.206 Y-9.779
X-116.291 Y-9.789
X-116.328 Y-9.795
X-116.395 Y-9.829
X-116.438 Y-9.89
X-116.442 Y-9.997
X-116.398 Y-10.095
X-116.316 Y-10.162
X-116.212 Y-10.187
X-116.175 Y-10.179
X-116.145 Y-10.158
X-116.124 Y-10.127
X-116.115 Y-10.091
X-116.12 Y-10.055
X-116.188 Y-9.856
X-116.203 Y-9.827
X-116.228 Y-9.805
X-116.258 Y-9.792
X-116.291 Y-9.789
X-116.422 Y-9.805
X-116.459 Y-9.811
X-116.517 Y-9.858
X-116.554 Y-9.924
X-116.55 Y-10.021
X-116.507 Y-10.107
X-116.43 Y-10.166
X-116.336 Y-10.187
X-116.306 Y-10.181
X-116.279 Y-10.166
G3 X-116.422 Y-9.805 I-0.126 J0.159
G1 X-116.507 Y-9.815
X-116.544 Y-9.821
X-116.612 Y-9.851
X-116.656 Y-9.912
X-116.659 Y-10.011
X-116.618 Y-10.101
X-116.542 Y-10.164
X-116.445 Y-10.187
X-116.426 Y-10.184
X-116.407 Y-10.177
G3 X-116.507 Y-9.815 I-0.085 J0.172
G1 X-116.545 Y-9.819
X-116.629 Y-9.827
X-116.651 Y-9.828
X-116.682 Y-9.831
X-116.704 Y-9.839
X-116.726 Y-9.858
X-116.736 Y-9.884
X-116.733 Y-9.912
X-116.717 Y-9.936
X-116.692 Y-9.95
X-116.664 Y-9.951
X-116.638 Y-9.939
X-116.621 Y-9.916
X-116.616 Y-9.889
X-116.624 Y-9.861
X-116.644 Y-9.841
X-116.662 Y-9.833
X-116.682 Y-9.831
X-116.698 Y-9.836
X-116.714 Y-9.844
X-116.735 Y-9.858
X-116.745 Y-9.867
X-116.756 Y-9.878
X-116.767 Y-9.895
X-116.773 Y-9.913
X-116.776 Y-9.923
X-116.777 Y-9.934
Y-9.997
X-116.771 Y-10.105
X-116.749 Y-10.136
X-116.717 Y-10.157
X-116.68 Y-10.164
X-116.642 Y-10.157
X-116.61 Y-10.136
X-116.589 Y-10.105
X-116.58 Y-10.068
X-116.577 Y-10.004
X-116.584 Y-9.966
X-116.604 Y-9.933
X-116.636 Y-9.91
X-116.674 Y-9.901
X-116.712 Y-9.907
X-116.746 Y-9.927
X-116.768 Y-9.959
X-116.777 Y-9.997
Y-10.082
X-116.775 Y-10.092
X-116.772 Y-10.103
X-116.768 Y-10.113
X-116.762 Y-10.124
X-116.754 Y-10.134
X-116.745 Y-10.145
X-116.723 Y-10.166
X-116.714 Y-10.172
X-116.703 Y-10.178
X-116.693 Y-10.182
X-116.682 Y-10.185
X-116.672 Y-10.186
X-115.022 Y-10.187
X-114.768 Y-10.192
X-114.726 Y-10.198
X-114.684 Y-10.208
X-114.599 Y-10.239
X-114.574 Y-10.25
X-114.514 Y-10.287
X-114.456 Y-10.335
X-114.43 Y-10.361
X-114.323 Y-10.466
X-114.182 Y-10.518
X-114.034 Y-10.541
X-113.884 Y-10.532
X-113.738 Y-10.497
X-113.601 Y-10.437
X-113.473 Y-10.358
X-113.36 Y-10.26
X-113.312 Y-10.202
X-113.273 Y-10.144
X-113.249 Y-10.079
X-113.241 Y-10.009
Y-9.237
X-113.249 Y-9.087
X-113.309 Y-8.95
X-113.398 Y-8.829
X-113.509 Y-8.728
X-113.635 Y-8.648
X-113.774 Y-8.589
X-113.919 Y-8.552
X-113.992 Y-8.544
X-114.099 Y-8.552
X-114.197 Y-8.597
X-114.272 Y-8.674
X-114.286 Y-8.711
X-114.285 Y-8.75
X-114.268 Y-8.786
X-114.239 Y-8.813
X-113.888 Y-9.023
X-113.392 Y-9.319
X-113.36 Y-9.332
X-113.326
X-113.293 Y-9.321
X-113.266 Y-9.3
X-113.248 Y-9.271
X-113.241 Y-9.237
Y-8.937
X-113.249 Y-8.787
X-113.314 Y-8.652
X-113.413 Y-8.54
X-113.533 Y-8.449
X-113.665 Y-8.379
X-113.808 Y-8.332
X-113.856 Y-8.325
X-113.983 Y-8.335
X-114.094 Y-8.395
X-114.17 Y-8.496
X-114.178 Y-8.532
X-114.172 Y-8.568
X-114.154 Y-8.6
X-114.125 Y-8.623
X-113.901 Y-8.744
X-113.389 Y-9.022
X-113.357 Y-9.032
X-113.323
X-113.291 Y-9.02
X-113.265 Y-8.999
X-113.248 Y-8.97
X-113.241 Y-8.937
Y-8.646
X-113.249 Y-8.496
X-113.326 Y-8.367
X-113.432 Y-8.262
X-113.558 Y-8.179
X-113.698 Y-8.126
X-113.752 Y-8.117
X-113.888 Y-8.125
X-114.006 Y-8.194
X-114.082 Y-8.307
X-114.087 Y-8.343
X-114.079 Y-8.378
X-114.059 Y-8.409
X-114.03 Y-8.43
X-113.916 Y-8.483
X-113.383 Y-8.733
X-113.345 Y-8.742
X-113.307 Y-8.736
X-113.273 Y-8.716
X-113.25 Y-8.684
X-113.241 Y-8.646
Y-8.392
Y-8.346
Y-8.308
X-113.245 Y-8.233
X-113.325 Y-8.106
X-113.37 Y-8.066
X-113.43 Y-8.025
X-113.497 Y-8
X-113.569 Y-7.991
X-113.607 Y-8
X-113.639 Y-8.022
X-113.659 Y-8.055
X-113.666 Y-8.094
X-113.657 Y-8.132
X-113.635 Y-8.163
X-113.41 Y-8.377
X-113.378 Y-8.397
X-113.34 Y-8.404
X-113.303 Y-8.397
X-113.271 Y-8.376
X-113.25 Y-8.345
X-113.241 Y-8.308
Y-8.139
Y-8.108
X-113.242 Y-8.093
X-113.249 Y-8.072
X-113.259 Y-8.053
X-113.271 Y-8.035
X-113.299 Y-8.021
X-113.33 Y-8.019
X-113.36 Y-8.03
X-113.382 Y-8.052
X-113.394 Y-8.081
X-113.393 Y-8.113
X-113.38 Y-8.141
X-113.356 Y-8.162
X-113.326 Y-8.171
X-113.294 Y-8.167
X-113.266 Y-8.15
X-113.248 Y-8.124
X-113.242 Y-8.093
X-113.245 Y-8.077
X-113.25 Y-8.066
X-113.255 Y-8.054
X-113.271 Y-8.035
X-113.293 Y-8.016
X-113.311 Y-8.003
X-113.33 Y-7.995
X-113.341 Y-7.993
X-113.351 Y-7.991
X-113.88
X-113.901 Y-7.992
X-113.912 Y-7.994
X-113.922 Y-7.998
X-113.939 Y-8.006
X-113.955 Y-8.019
X-113.974 Y-8.037
X-113.988 Y-8.054
X-113.994 Y-8.066
X-114.051 Y-8.223
X-114.082 Y-8.308
X-114.2 Y-8.561
X-114.261 Y-8.657
X-114.369 Y-8.815
X-114.438 Y-8.903
X-114.454 Y-8.932
X-114.459 Y-8.964
X-114.455 Y-9.58
X-114.45 Y-10.301
X-114.445 Y-10.332
X-114.43 Y-10.361
X-114.382 Y-10.419
X-114.345 Y-10.479
X-114.332 Y-10.504
X-114.299 Y-10.571
X-114.192 Y-10.676
X-114.052 Y-10.731
X-113.903 Y-10.748
X-113.754 Y-10.735
X-113.609 Y-10.698
X-113.47 Y-10.639
X-113.388 Y-10.591
X-113.31 Y-10.524
X-113.259 Y-10.434
X-113.241 Y-10.333
Y-10.009
X-113.248 Y-9.977
X-113.265 Y-9.948
X-113.29 Y-9.927
X-113.322 Y-9.915
X-113.355 Y-9.914
X-113.387 Y-9.924
X-113.71 Y-10.09
X-114.283 Y-10.383
X-114.311 Y-10.405
X-114.33 Y-10.435
X-114.337 Y-10.469
X-114.332 Y-10.504
X-114.301 Y-10.588
X-114.291 Y-10.631
X-114.284 Y-10.673
X-114.279 Y-10.71
X-114.201 Y-10.838
X-114.073 Y-10.916
X-113.928 Y-10.956
X-113.778 Y-10.964
X-113.629 Y-10.947
X-113.484 Y-10.908
X-113.418 Y-10.879
X-113.325 Y-10.813
X-113.263 Y-10.717
X-113.241 Y-10.605
Y-10.333
X-113.25 Y-10.295
X-113.271 Y-10.264
X-113.303 Y-10.243
X-113.341 Y-10.236
X-113.378 Y-10.243
X-113.602 Y-10.333
X-114.222 Y-10.581
X-114.254 Y-10.602
X-114.276 Y-10.635
X-114.284 Y-10.673
X-114.281 Y-10.804
X-114.276 Y-10.879
X-114.213 Y-11.015
X-114.094 Y-11.107
X-113.955 Y-11.163
X-113.807 Y-11.189
X-113.657
X-113.509 Y-11.165
X-113.441 Y-11.142
X-113.337 Y-11.078
X-113.266 Y-10.978
X-113.241 Y-10.859
Y-10.605
X-113.248 Y-10.571
X-113.267 Y-10.541
X-113.295 Y-10.52
X-113.329 Y-10.509
X-113.364 Y-10.511
X-113.569 Y-10.559
X-114.204 Y-10.707
X-114.235 Y-10.72
X-114.259 Y-10.742
X-114.275 Y-10.771
X-114.281 Y-10.804
X-114.28 Y-10.926
Y-11.011
X-114.276 Y-11.086
X-114.208 Y-11.219
X-114.092 Y-11.315
X-113.956 Y-11.378
X-113.81 Y-11.413
X-113.661 Y-11.424
X-113.512 Y-11.406
X-113.452 Y-11.388
X-113.342 Y-11.326
X-113.268 Y-11.224
X-113.241 Y-11.101
Y-10.859
X-113.248 Y-10.825
X-113.266 Y-10.796
X-113.292 Y-10.775
X-113.325 Y-10.763
X-113.359 Y-10.764
X-113.558 Y-10.8
X-114.198 Y-10.916
X-114.229 Y-10.927
X-114.255 Y-10.949
X-114.273 Y-10.978
X-114.28 Y-11.011
Y-11.226
X-114.276 Y-11.301
X-114.205 Y-11.433
X-114.092 Y-11.531
X-113.958 Y-11.599
X-113.814 Y-11.64
X-113.664 Y-11.656
X-113.515 Y-11.643
X-113.458 Y-11.626
X-113.345 Y-11.565
X-113.268 Y-11.463
X-113.241 Y-11.338
Y-11.101
X-113.248 Y-11.068
X-113.265 Y-11.04
X-113.291 Y-11.018
X-113.322 Y-11.006
X-113.356
X-113.555 Y-11.035
X-114.195 Y-11.131
X-114.227 Y-11.142
X-114.254 Y-11.163
X-114.273 Y-11.192
X-114.28 Y-11.226
Y-11.433
X-114.276 Y-11.508
X-114.211 Y-11.643
X-114.102 Y-11.746
X-113.971 Y-11.819
X-113.828 Y-11.866
X-113.68 Y-11.888
X-113.53 Y-11.879
X-113.466 Y-11.863
X-113.35 Y-11.803
X-113.27 Y-11.7
X-113.241 Y-11.572
Y-11.338
X-113.248 Y-11.306
X-113.264 Y-11.277
X-113.289 Y-11.256
X-113.32 Y-11.244
X-113.352 Y-11.242
X-113.552 Y-11.265
X-114.191 Y-11.337
X-114.225 Y-11.347
X-114.253 Y-11.369
X-114.272 Y-11.398
X-114.28 Y-11.433
Y-11.648
X-114.276 Y-11.723
X-114.215 Y-11.86
X-114.109 Y-11.966
X-113.98 Y-12.043
X-113.839 Y-12.093
X-113.691 Y-12.118
X-113.541 Y-12.113
X-113.473 Y-12.097
X-113.353 Y-12.038
X-113.271 Y-11.934
X-113.241 Y-11.805
Y-11.572
X-113.247 Y-11.54
X-113.264 Y-11.512
X-113.288 Y-11.491
X-113.318 Y-11.478
X-113.35 Y-11.476
X-113.551 Y-11.494
X-114.189 Y-11.552
X-114.223 Y-11.562
X-114.252 Y-11.583
X-114.272 Y-11.613
X-114.28 Y-11.648
Y-11.855
X-114.276 Y-11.93
X-114.225 Y-12.071
X-114.124 Y-12.182
X-113.998 Y-12.263
X-113.858 Y-12.318
X-113.711 Y-12.348
X-113.561 Y-12.347
X-113.414 Y-12.317
X-113.407 Y-12.313
X-113.319 Y-12.247
X-113.261 Y-12.153
X-113.241 Y-12.045
Y-11.805
X-113.25 Y-11.766
X-113.274 Y-11.734
X-113.308 Y-11.714
X-113.347 Y-11.708
X-113.549 Y-11.72
X-114.186 Y-11.759
X-114.221 Y-11.768
X-114.251 Y-11.789
X-114.272 Y-11.82
X-114.28 Y-11.855
Y-12.109
X-114.276 Y-12.184
X-114.214 Y-12.32
X-114.108 Y-12.427
X-113.98 Y-12.505
X-113.839 Y-12.555
X-113.691 Y-12.58
X-113.541 Y-12.581
X-113.472 Y-12.565
X-113.353 Y-12.506
X-113.27 Y-12.402
X-113.241 Y-12.273
Y-12.045
X-113.247 Y-12.014
X-113.263 Y-11.986
X-113.287 Y-11.964
X-113.317 Y-11.952
X-113.349 Y-11.949
X-113.55 Y-11.964
X-114.187 Y-12.013
X-114.222 Y-12.022
X-114.252 Y-12.043
X-114.272 Y-12.073
X-114.28 Y-12.109
Y-12.324
X-114.276 Y-12.399
X-114.221 Y-12.539
X-114.118 Y-12.648
X-113.992 Y-12.728
X-113.852 Y-12.783
X-113.705 Y-12.813
X-113.555 Y-12.812
X-113.408 Y-12.782
X-113.404 Y-12.78
X-113.318 Y-12.714
X-113.261 Y-12.62
X-113.241 Y-12.513
Y-12.273
X-113.25 Y-12.234
X-113.274 Y-12.202
X-113.308 Y-12.182
X-113.347 Y-12.177
X-113.549 Y-12.189
X-114.186 Y-12.228
X-114.221 Y-12.237
X-114.251 Y-12.258
X-114.272 Y-12.288
X-114.28 Y-12.324
Y-12.578
X-114.276 Y-12.652
X-114.211 Y-12.788
X-114.104 Y-12.893
X-113.976 Y-12.97
X-113.834 Y-13.021
X-113.686 Y-13.046
X-113.536 Y-13.047
X-113.471 Y-13.031
X-113.352 Y-12.972
X-113.27 Y-12.868
X-113.241 Y-12.739
Y-12.513
X-113.247 Y-12.482
X-113.263 Y-12.454
X-113.287 Y-12.432
X-113.317 Y-12.42
X-113.349 Y-12.417
X-113.55 Y-12.432
X-114.187 Y-12.481
X-114.223 Y-12.491
X-114.252 Y-12.512
X-114.272 Y-12.542
X-114.28 Y-12.578
Y-12.784
X-114.276 Y-12.859
X-114.223 Y-13
X-114.121 Y-13.11
X-113.995 Y-13.191
X-113.855 Y-13.246
X-113.709 Y-13.278
X-113.559 Y-13.279
X-113.412 Y-13.25
X-113.406 Y-13.247
X-113.319 Y-13.18
X-113.261 Y-13.087
X-113.241 Y-12.979
Y-12.739
X-113.25 Y-12.701
X-113.274 Y-12.669
X-113.307 Y-12.649
X-113.346 Y-12.643
X-113.549 Y-12.654
X-114.185 Y-12.688
X-114.221 Y-12.697
X-114.251 Y-12.718
X-114.272 Y-12.749
X-114.28 Y-12.784
Y-13
X-114.272 Y-13.15
X-114.194 Y-13.278
X-114.081 Y-13.377
X-113.95 Y-13.449
X-113.807 Y-13.495
X-113.658 Y-13.514
X-113.508 Y-13.51
X-113.459 Y-13.495
X-113.346 Y-13.434
X-113.268 Y-13.332
X-113.241 Y-13.207
Y-12.979
X-113.25 Y-12.941
X-113.272 Y-12.91
X-113.305 Y-12.889
X-113.344 Y-12.882
X-113.548 Y-12.887
X-114.182 Y-12.903
X-114.219 Y-12.911
X-114.25 Y-12.932
X-114.271 Y-12.963
X-114.28 Y-13
Y-13.253
X-114.276 Y-13.328
X-114.222 Y-13.468
X-114.12 Y-13.578
X-113.994 Y-13.659
X-113.855 Y-13.715
X-113.708 Y-13.746
X-113.558 Y-13.747
X-113.411 Y-13.717
X-113.406 Y-13.715
X-113.319 Y-13.648
X-113.261 Y-13.555
X-113.241 Y-13.447
Y-13.207
X-113.25 Y-13.168
X-113.274 Y-13.137
X-113.307 Y-13.116
X-113.347 Y-13.111
X-113.549 Y-13.122
X-114.185 Y-13.157
X-114.221 Y-13.166
X-114.251 Y-13.187
X-114.272 Y-13.217
X-114.28 Y-13.253
Y-13.507
X-114.276 Y-13.582
X-114.212 Y-13.717
X-114.106 Y-13.823
X-113.978 Y-13.902
X-113.837 Y-13.953
X-113.69 Y-13.979
X-113.54 Y-13.981
X-113.472 Y-13.965
X-113.353 Y-13.907
X-113.27 Y-13.803
X-113.241 Y-13.673
Y-13.447
X-113.247 Y-13.415
X-113.263 Y-13.388
X-113.287 Y-13.366
X-113.316 Y-13.353
X-113.348 Y-13.35
X-113.55 Y-13.365
X-114.187 Y-13.41
X-114.222 Y-13.42
X-114.252 Y-13.441
X-114.272 Y-13.471
X-114.28 Y-13.507
Y-13.714
X-114.276 Y-13.788
X-114.224 Y-13.929
X-114.123 Y-14.04
X-113.998 Y-14.122
X-113.859 Y-14.179
X-113.712 Y-14.211
X-113.562 Y-14.213
X-113.415 Y-14.184
X-113.408 Y-14.181
X-113.32 Y-14.114
X-113.261 Y-14.021
X-113.241 Y-13.912
Y-13.673
X-113.25 Y-13.635
X-113.273 Y-13.603
X-113.307 Y-13.583
X-113.346 Y-13.577
X-113.549 Y-13.586
X-114.185 Y-13.617
X-114.221 Y-13.626
X-114.251 Y-13.647
X-114.272 Y-13.678
X-114.28 Y-13.714
Y-13.967
X-114.276 Y-14.042
X-114.214 Y-14.179
X-114.109 Y-14.286
X-113.982 Y-14.365
X-113.842 Y-14.418
X-113.694 Y-14.444
X-113.544 Y-14.447
X-113.474 Y-14.431
X-113.354 Y-14.373
X-113.271 Y-14.268
X-113.241 Y-14.138
Y-13.912
X-113.25 Y-13.873
X-113.274 Y-13.841
X-113.308 Y-13.821
X-113.348 Y-13.816
X-113.549 Y-13.829
X-114.186 Y-13.871
X-114.222 Y-13.88
X-114.252 Y-13.901
X-114.272 Y-13.931
X-114.28 Y-13.967
Y-14.182
X-114.276 Y-14.257
X-114.222 Y-14.397
X-114.121 Y-14.508
X-113.995 Y-14.589
X-113.856 Y-14.645
X-113.709 Y-14.677
X-113.559 Y-14.678
X-113.412 Y-14.649
X-113.406 Y-14.646
X-113.319 Y-14.579
X-113.261 Y-14.486
X-113.241 Y-14.378
Y-14.138
X-113.25 Y-14.1
X-113.273 Y-14.068
X-113.307 Y-14.048
X-113.346 Y-14.042
X-113.549 Y-14.053
X-114.185 Y-14.086
X-114.221 Y-14.095
X-114.251 Y-14.116
X-114.272 Y-14.146
X-114.28 Y-14.182
Y-14.436
X-114.276 Y-14.511
X-114.213 Y-14.647
X-114.107 Y-14.753
X-113.98 Y-14.832
X-113.839 Y-14.884
X-113.691 Y-14.91
X-113.541 Y-14.912
X-113.473 Y-14.896
X-113.353 Y-14.838
X-113.271 Y-14.734
X-113.241 Y-14.604
Y-14.378
X-113.247 Y-14.346
X-113.263 Y-14.318
X-113.287 Y-14.297
X-113.316 Y-14.284
X-113.348 Y-14.281
X-113.55 Y-14.295
X-114.187 Y-14.34
X-114.222 Y-14.349
X-114.252 Y-14.37
X-114.272 Y-14.4
X-114.28 Y-14.436
Y-14.643
X-114.276 Y-14.718
X-114.225 Y-14.859
X-114.125 Y-14.97
X-113.999 Y-15.052
X-113.86 Y-15.109
X-113.714 Y-15.142
X-113.564 Y-15.144
X-113.417 Y-15.116
X-113.409 Y-15.112
X-113.32 Y-15.045
X-113.262 Y-14.951
X-113.241 Y-14.842
Y-14.604
X-113.25 Y-14.566
X-113.273 Y-14.534
X-113.307 Y-14.513
X-113.346 Y-14.507
X-113.549 Y-14.517
X-114.184 Y-14.546
X-114.22 Y-14.555
X-114.251 Y-14.576
X-114.272 Y-14.607
X-114.28 Y-14.643
Y-14.896
X-114.276 Y-14.971
X-114.215 Y-15.108
X-114.111 Y-15.216
X-113.983 Y-15.295
X-113.843 Y-15.348
X-113.695 Y-15.375
X-113.545 Y-15.378
X-113.474 Y-15.362
X-113.354 Y-15.304
X-113.271 Y-15.199
X-113.241 Y-15.069
Y-14.842
X-113.25 Y-14.804
X-113.274 Y-14.772
X-113.308 Y-14.752
X-113.347 Y-14.746
X-113.549 Y-14.759
X-114.186 Y-14.8
X-114.222 Y-14.809
X-114.252 Y-14.83
X-114.272 Y-14.86
X-114.28 Y-14.896
Y-15.111
X-114.276 Y-15.186
X-114.223 Y-15.327
X-114.122 Y-15.438
X-113.996 Y-15.519
X-113.857 Y-15.575
X-113.711 Y-15.608
X-113.561
X-113.413 Y-15.58
X-113.407 Y-15.576
X-113.319 Y-15.51
X-113.261 Y-15.416
X-113.241 Y-15.308
Y-15.069
X-113.25 Y-15.031
X-113.273 Y-14.999
X-113.307 Y-14.978
X-113.346 Y-14.973
X-113.549 Y-14.983
X-114.185 Y-15.015
X-114.221 Y-15.024
X-114.251 Y-15.045
X-114.272 Y-15.075
X-114.28 Y-15.111
Y-15.365
X-114.276 Y-15.44
X-114.214 Y-15.576
X-114.108 Y-15.683
X-113.981 Y-15.762
X-113.84 Y-15.814
X-113.692 Y-15.84
X-113.542 Y-15.843
X-113.473 Y-15.827
X-113.353 Y-15.768
X-113.271 Y-15.664
X-113.241 Y-15.534
Y-15.308
X-113.247 Y-15.277
X-113.263 Y-15.249
X-113.287 Y-15.228
X-113.316 Y-15.215
X-113.348 Y-15.212
X-113.549 Y-15.225
X-114.187 Y-15.269
X-114.222 Y-15.278
X-114.252 Y-15.299
X-114.272 Y-15.329
X-114.28 Y-15.365
Y-15.572
X-114.272 Y-15.722
X-114.191 Y-15.848
X-114.077 Y-15.945
X-113.944 Y-16.015
X-113.801 Y-16.059
X-113.652 Y-16.079
X-113.502 Y-16.066
X-113.456 Y-16.052
X-113.345 Y-15.991
X-113.268 Y-15.889
X-113.241 Y-15.765
Y-15.534
X-113.25 Y-15.496
X-113.273 Y-15.464
X-113.307 Y-15.444
X-113.345 Y-15.438
X-113.549 Y-15.447
X-114.184 Y-15.475
X-114.22 Y-15.484
X-114.251 Y-15.505
X-114.272 Y-15.536
X-114.28 Y-15.572
Y-15.825
X-114.276 Y-15.9
X-114.218 Y-16.039
X-114.114 Y-16.147
X-113.987 Y-16.226
X-113.847 Y-16.28
X-113.7 Y-16.308
X-113.55 Y-16.306
X-113.402 Y-16.273
X-113.317 Y-16.206
X-113.261 Y-16.113
X-113.241 Y-16.007
Y-15.765
X-113.247 Y-15.733
X-113.263 Y-15.705
X-113.287 Y-15.684
X-113.316 Y-15.671
X-113.348 Y-15.668
X-113.55 Y-15.683
X-114.187 Y-15.729
X-114.222 Y-15.738
X-114.252 Y-15.759
X-114.272 Y-15.79
X-114.28 Y-15.825
Y-16.041
X-114.276 Y-16.116
X-114.225 Y-16.257
X-114.125 Y-16.368
X-114 Y-16.451
X-113.861 Y-16.507
X-113.714 Y-16.538
X-113.564 Y-16.543
X-113.417 Y-16.515
X-113.324 Y-16.449
X-113.263 Y-16.353
X-113.241 Y-16.242
Y-16.007
X-113.25 Y-15.969
X-113.273 Y-15.937
X-113.306 Y-15.917
X-113.345 Y-15.911
X-113.549 Y-15.919
X-114.184 Y-15.944
X-114.22 Y-15.953
X-114.251 Y-15.974
X-114.272 Y-16.004
X-114.28 Y-16.041
Y-16.294
X-114.276 Y-16.369
X-114.216 Y-16.506
X-114.111 Y-16.614
X-113.983 Y-16.693
X-113.843 Y-16.745
X-113.696 Y-16.773
X-113.546 Y-16.776
X-113.475 Y-16.76
X-113.354 Y-16.703
X-113.271 Y-16.598
X-113.241 Y-16.468
Y-16.242
X-113.25 Y-16.203
X-113.274 Y-16.171
X-113.308 Y-16.151
X-113.347 Y-16.145
X-113.549 Y-16.158
X-114.186 Y-16.198
X-114.222 Y-16.207
X-114.251 Y-16.228
X-114.272 Y-16.258
X-114.28 Y-16.294
Y-16.501
X-114.272 Y-16.651
X-114.192 Y-16.778
X-114.078 Y-16.875
X-113.946 Y-16.946
X-113.803 Y-16.992
X-113.654 Y-17.011
X-113.505 Y-16.999
X-113.458 Y-16.986
X-113.345 Y-16.925
X-113.268 Y-16.823
X-113.241 Y-16.698
Y-16.468
X-113.25 Y-16.43
X-113.273 Y-16.398
X-113.306 Y-16.377
X-113.345 Y-16.371
X-113.549 Y-16.379
X-114.184 Y-16.405
X-114.22 Y-16.413
X-114.251 Y-16.434
X-114.272 Y-16.465
X-114.28 Y-16.501
Y-16.754
X-114.276 Y-16.829
X-114.22 Y-16.968
X-114.116 Y-17.077
X-113.99 Y-17.157
X-113.85 Y-17.212
X-113.703 Y-17.24
X-113.553 Y-17.239
X-113.406 Y-17.208
X-113.403 Y-17.206
X-113.317 Y-17.139
X-113.261 Y-17.046
X-113.241 Y-16.939
Y-16.698
X-113.247 Y-16.666
X-113.263 Y-16.639
X-113.287 Y-16.617
X-113.316 Y-16.604
X-113.348 Y-16.601
X-113.549 Y-16.615
X-114.187 Y-16.658
X-114.222 Y-16.667
X-114.252 Y-16.688
X-114.272 Y-16.719
X-114.28 Y-16.754
Y-16.97
X-114.272 Y-17.12
X-114.192 Y-17.246
X-114.078 Y-17.344
X-113.946 Y-17.415
X-113.802 Y-17.458
X-113.653 Y-17.476
X-113.503 Y-17.47
X-113.456 Y-17.456
X-113.344 Y-17.395
X-113.268 Y-17.293
X-113.241 Y-17.168
Y-16.939
X-113.25 Y-16.901
X-113.273 Y-16.87
X-113.306 Y-16.849
X-113.345 Y-16.843
X-113.548 Y-16.85
X-114.183 Y-16.873
X-114.22 Y-16.882
X-114.251 Y-16.903
X-114.272 Y-16.933
X-114.28 Y-16.97
Y-17.223
Y-17.261
Y-17.308
X-114.278 Y-17.338
X-114.264 Y-17.362
X-114.197 Y-17.441
X-114.107 Y-17.493
X-114.005 Y-17.511
G3 X-113.834 Y-17.186 I-0.007 J0.211
X-114.28 Y-17.308 I-0.204 J-0.13
G1 Y-17.388
X-114.279 Y-17.409
X-114.277 Y-17.42
X-114.274 Y-17.43
X-114.268 Y-17.443
X-114.261 Y-17.455
X-114.251 Y-17.466
X-114.218 Y-17.494
X-114.208 Y-17.5
X-114.197 Y-17.505
X-114.187 Y-17.508
X-114.176 Y-17.51
X-114.007 Y-17.511
X-113.415
X-113.372
X-113.338 Y-17.509
X-113.302 Y-17.492
X-113.274 Y-17.464
X-113.256 Y-17.427
X-113.252 Y-17.388
X-113.262 Y-17.348
X-113.285 Y-17.314
X-113.318 Y-17.29
X-113.358 Y-17.279
X-113.399 Y-17.283
X-113.436 Y-17.3
X-113.465 Y-17.33
X-113.481 Y-17.367
X-113.484 Y-17.408
X-113.472 Y-17.448
X-113.447 Y-17.48
X-113.412 Y-17.502
X-113.372 Y-17.511
X-113.351
X-113.341 Y-17.509
X-113.33 Y-17.507
X-113.32 Y-17.503
X-113.309 Y-17.498
X-113.299 Y-17.491
X-113.275 Y-17.471
X-113.261 Y-17.456
X-113.253 Y-17.443
X-113.245 Y-17.425
X-113.241 Y-17.405
Y-17.168
X-113.246 Y-17.14
X-113.259 Y-17.115
X-113.288 Y-17.098 Z-0.983
X-113.313 Y-17.083 Z-0.966
X-113.332 Y-17.072 Z-0.939
X-113.341 Z-0.916
X-113.345 Z-0.89
G0 Z2
X-91.329 Y-16.741
Z0.5
G3 X-90.845 Y-16.865 Z0.29 I0.242 J-0.062 F333.3
X-91.329 Y-16.741 Z0.079 I-0.242 J0.062
X-90.845 Y-16.865 Z-0.131 I0.242 J-0.062
X-91.329 Y-16.741 Z-0.342 I-0.242 J0.062
X-90.845 Y-16.865 Z-0.552 I0.242 J-0.062
X-91.329 Y-16.741 Z-0.763 I-0.242 J0.062
X-91.118 Y-17.051 Z-0.876 I0.242 J-0.062
X-90.837 Y-16.803 Z-0.99 I0.031 J0.248
X-91.337 I-0.25
X-90.837 I0.25
G1 X-90.8 Y-16.658 F1000
X-90.813 Y-16.584
X-90.85 Y-16.519
X-90.957 Y-16.414
X-91.101 Y-16.374
X-91.25 Y-16.395
X-91.38 Y-16.469
X-91.477 Y-16.584
X-91.529 Y-16.724
X-91.531 Y-16.874
X-91.483 Y-17.017
X-91.391 Y-17.135
X-91.266 Y-17.217
X-91.12 Y-17.253
X-90.971 Y-17.239
X-90.834 Y-17.177
X-90.726 Y-17.073
X-90.647 Y-16.945
X-90.597 Y-16.804
X-90.587 Y-16.654
X-90.622 Y-16.508
X-90.692 Y-16.376
X-90.801 Y-16.272
X-90.932 Y-16.199
X-91.078 Y-16.166
X-91.228 Y-16.173
X-91.372 Y-16.214
X-91.501 Y-16.29
X-91.608 Y-16.395
X-91.69 Y-16.521
X-91.74 Y-16.662
X-91.754 Y-16.812
X-91.738 Y-16.961
X-91.687 Y-17.102
X-91.605 Y-17.227
X-91.498 Y-17.333
X-91.371 Y-17.412
X-91.228 Y-17.458
X-91.079 Y-17.474
X-90.93 Y-17.457
X-90.79 Y-17.404
X-90.663 Y-17.324
X-90.554 Y-17.22
X-90.466 Y-17.099
X-90.404 Y-16.962
X-90.366 Y-16.817
X-90.361 Y-16.733
X-90.365 Y-16.668
X-90.382 Y-16.606
X-90.413 Y-16.548
X-90.445 Y-16.501
X-90.457 Y-16.48
X-90.462 Y-16.469
X-90.464 Y-16.459
X-90.505 Y-16.314
X-90.586 Y-16.188
X-90.693 Y-16.083
X-90.821 Y-16.006
X-90.964 Y-15.958
X-91.112 Y-15.938
X-91.262 Y-15.945
X-91.408 Y-15.98
X-91.414 Y-15.983
X-91.464 Y-16.012
X-91.507 Y-16.05
X-91.542 Y-16.095
X-91.613 Y-16.207
X-91.634 Y-16.248
X-91.672 Y-16.344
X-91.731 Y-16.501
X-91.821 Y-16.754
X-91.849 Y-16.839
X-91.889 Y-16.983
X-91.877 Y-17.133
X-91.825 Y-17.274
X-91.744 Y-17.4
X-91.727 Y-17.418
X-91.664 Y-17.469
X-91.59 Y-17.5
X-91.51 Y-17.511
X-91.472 Y-17.502
X-91.441 Y-17.479
X-91.42 Y-17.446
X-91.414 Y-17.408
X-91.422 Y-17.37
X-91.439 Y-17.333
X-91.664 Y-16.833
X-91.687 Y-16.801
X-91.72 Y-16.78
X-91.758 Y-16.774
X-91.797 Y-16.783
X-91.828 Y-16.805
X-91.849 Y-16.839
X-91.905 Y-17.008
X-91.928 Y-17.092
X-91.948 Y-17.177
X-91.956 Y-17.223
X-91.962 Y-17.261
X-91.971 Y-17.336
X-91.915 Y-17.427
X-91.828 Y-17.489
X-91.723 Y-17.511
G3 X-91.526 Y-17.281 I-0.007 J0.206
X-91.962 Y-17.261 I-0.22 J-0.026
G1 X-91.976 Y-17.346
X-91.981 Y-17.388
Y-17.398
Y-17.409
X-91.979 Y-17.42
X-91.975 Y-17.43
X-91.968 Y-17.445
X-91.958 Y-17.461
X-91.942 Y-17.477
X-91.926 Y-17.491
X-91.915 Y-17.498
X-91.905 Y-17.503
X-91.894 Y-17.507
X-91.884 Y-17.509
X-91.873 Y-17.511
X-90.78
X-90.63 Y-17.504
X-90.494 Y-17.439
X-90.378 Y-17.345
X-90.281 Y-17.23
X-90.206 Y-17.1
X-90.174 Y-17.012
X-90.158 Y-16.884
X-90.2 Y-16.761
X-90.291 Y-16.67
X-90.318 Y-16.647
X-90.382 Y-16.585
X-90.403 Y-16.562
X-90.413 Y-16.548
X-90.439 Y-16.523
X-90.472 Y-16.509
X-90.508 Y-16.508
X-90.542 Y-16.52
X-90.57 Y-16.543
X-90.588 Y-16.574
X-90.672 Y-16.814
X-90.87 Y-17.378
X-90.876 Y-17.415
X-90.868 Y-17.451
X-90.847 Y-17.482
X-90.816 Y-17.503
X-90.78 Y-17.511
X-90.488
X-90.338 Y-17.504
X-90.205 Y-17.433
X-90.096 Y-17.33
X-90.013 Y-17.205
X-89.986 Y-17.137
X-89.965 Y-17.022
X-89.988 Y-16.907
X-90.053 Y-16.809
X-90.149 Y-16.743
X-90.185 Y-16.736
X-90.221 Y-16.742
X-90.252 Y-16.761
X-90.275 Y-16.79
X-90.304 Y-16.847
X-90.573 Y-17.365
X-90.583 Y-17.397
X-90.582 Y-17.43
X-90.571 Y-17.462
X-90.549 Y-17.487
X-90.52 Y-17.504
X-90.488 Y-17.511
X-90.187
X-90.112 Y-17.507
X-89.975 Y-17.447
X-89.867 Y-17.343
X-89.792 Y-17.213
X-89.76 Y-17.067
X-89.762 Y-17.043
X-89.804 Y-16.911
X-89.9 Y-16.812
X-90.031 Y-16.767
X-90.065 Y-16.771
X-90.096 Y-16.785
X-90.12 Y-16.81
X-90.134 Y-16.841
X-90.28 Y-17.385
X-90.283 Y-17.421
X-90.274 Y-17.455
X-90.252 Y-17.484
X-90.222 Y-17.503
X-90.187 Y-17.511
X-89.98
X-89.905 Y-17.507
X-89.763 Y-17.458
X-89.656 Y-17.354
X-89.584 Y-17.222
X-89.56 Y-17.074
X-89.564 Y-17.037
X-89.615 Y-16.903
X-89.723 Y-16.807
X-89.862 Y-16.773
X-89.98 Y-16.772
X-90.031 Y-16.767
X-90.066 Y-16.771
X-90.097 Y-16.786
X-90.121 Y-16.811
X-90.135 Y-16.843
X-90.137 Y-16.878
X-90.076 Y-17.422
X-90.066 Y-17.456
X-90.045 Y-17.484
X-90.015 Y-17.504
X-89.98 Y-17.511
X-89.764
X-89.689 Y-17.507
X-89.548 Y-17.458
X-89.443 Y-17.351
X-89.377 Y-17.216
X-89.36 Y-17.067
X-89.366 Y-17.028
X-89.419 Y-16.898
X-89.525 Y-16.806
X-89.662 Y-16.773
X-89.862
X-89.896 Y-16.78
X-89.925 Y-16.797
X-89.946 Y-16.824
X-89.957 Y-16.856
Y-16.89
X-89.859 Y-17.429
X-89.848 Y-17.461
X-89.826 Y-17.487
X-89.797 Y-17.504
X-89.764 Y-17.511
X-89.511
X-89.436 Y-17.507
X-89.305 Y-17.434
X-89.215 Y-17.313
X-89.164 Y-17.172
X-89.16 Y-17.022
X-89.166 Y-16.997
X-89.226 Y-16.881
X-89.329 Y-16.801
X-89.457 Y-16.773
X-89.662
X-89.698 Y-16.78
X-89.728 Y-16.8
X-89.749 Y-16.829
X-89.758 Y-16.864
X-89.755 Y-16.9
X-89.603 Y-17.438
X-89.59 Y-17.467
X-89.569 Y-17.49
X-89.541 Y-17.505
X-89.511 Y-17.511
X-89.341
X-89.266 Y-17.507
X-89.126 Y-17.455
X-89.025 Y-17.344
X-88.966 Y-17.206
X-88.951 Y-17.057
X-88.957 Y-17.02
X-89.012 Y-16.893
X-89.118 Y-16.805
X-89.253 Y-16.773
X-89.457
X-89.491 Y-16.78
X-89.52 Y-16.798
X-89.542 Y-16.826
X-89.552 Y-16.859
X-89.551 Y-16.894
X-89.436 Y-17.432
X-89.423 Y-17.463
X-89.402 Y-17.488
X-89.374 Y-17.504
X-89.341 Y-17.511
X-89.134
X-89.059 Y-17.507
X-88.92 Y-17.453
X-88.821 Y-17.34
X-88.761 Y-17.202
X-88.749 Y-17.053
X-88.755 Y-17.019
X-88.81 Y-16.892
X-88.916 Y-16.804
X-89.05 Y-16.773
X-89.253
X-89.287 Y-16.78
X-89.317 Y-16.798
X-89.338 Y-16.826
X-89.348 Y-16.859
X-89.347 Y-16.894
X-89.228 Y-17.433
X-89.216 Y-17.463
X-89.195 Y-17.488
X-89.166 Y-17.505
X-89.134 Y-17.511
X-88.918
X-88.843 Y-17.507
X-88.707 Y-17.444
X-88.611 Y-17.329
X-88.555 Y-17.19
X-88.547 Y-17.04
X-88.553 Y-17.011
X-88.61 Y-16.888
X-88.715 Y-16.803
X-88.846 Y-16.773
X-89.05
X-89.085 Y-16.78
X-89.114 Y-16.799
X-89.136 Y-16.827
X-89.146 Y-16.861
X-89.144 Y-16.896
X-89.012 Y-17.435
X-88.999 Y-17.465
X-88.978 Y-17.489
X-88.95 Y-17.505
X-88.918 Y-17.511
X-88.711
X-88.636 Y-17.507
X-88.501 Y-17.442
X-88.406 Y-17.326
X-88.351 Y-17.187
X-88.343 Y-17.037
X-88.349 Y-17.009
X-88.406 Y-16.887
X-88.511 Y-16.803
X-88.642 Y-16.773
X-88.846
X-88.881 Y-16.78
X-88.911 Y-16.799
X-88.932 Y-16.828
X-88.942 Y-16.862
X-88.94 Y-16.897
X-88.805 Y-17.435
X-88.792 Y-17.465
X-88.77 Y-17.489
X-88.743 Y-17.505
X-88.711 Y-17.511
X-88.495
X-88.42 Y-17.507
X-88.289 Y-17.435
X-88.197 Y-17.317
X-88.145 Y-17.176
X-88.14 Y-17.026
X-88.146 Y-17.003
X-88.204 Y-16.884
X-88.308 Y-16.802
X-88.437 Y-16.773
X-88.642
X-88.677 Y-16.78
X-88.707 Y-16.8
X-88.729 Y-16.829
X-88.738 Y-16.863
X-88.735 Y-16.899
X-88.588 Y-17.437
X-88.575 Y-17.466
X-88.554 Y-17.49
X-88.526 Y-17.505
X-88.495 Y-17.511
X-88.326
X-88.251 Y-17.507
X-88.11 Y-17.458
X-88.008 Y-17.348
X-87.947 Y-17.211
X-87.931 Y-17.062
X-87.938 Y-17.023
X-87.992 Y-16.895
X-88.098 Y-16.805
X-88.234 Y-16.773
X-88.437
X-88.471 Y-16.78
X-88.501 Y-16.798
X-88.522 Y-16.825
X-88.533 Y-16.858
X-88.532 Y-16.893
X-88.421 Y-17.431
X-88.409 Y-17.462
X-88.387 Y-17.488
X-88.359 Y-17.504
X-88.326 Y-17.511
X-88.119
X-88.044 Y-17.507
X-87.903 Y-17.456
X-87.803 Y-17.344
X-87.742 Y-17.207
X-87.729 Y-17.058
X-87.735 Y-17.021
X-87.79 Y-16.894
X-87.896 Y-16.805
X-88.031 Y-16.773
X-88.234
X-88.268 Y-16.78
X-88.297 Y-16.798
X-88.318 Y-16.826
X-88.329 Y-16.859
X-88.328 Y-16.893
X-88.213 Y-17.432
X-88.201 Y-17.463
X-88.18 Y-17.488
X-88.151 Y-17.504
X-88.119 Y-17.511
X-87.903
X-87.828 Y-17.507
X-87.691 Y-17.447
X-87.594 Y-17.333
X-87.537 Y-17.194
X-87.527 Y-17.044
X-87.533 Y-17.013
X-87.59 Y-16.89
X-87.695 Y-16.803
X-87.827 Y-16.773
X-88.031
X-88.065 Y-16.78
X-88.095 Y-16.799
X-88.116 Y-16.827
X-88.127 Y-16.861
X-88.125 Y-16.896
X-87.997 Y-17.434
X-87.984 Y-17.464
X-87.963 Y-17.488
X-87.935 Y-17.505
X-87.903 Y-17.511
X-87.696
X-87.621 Y-17.507
X-87.485 Y-17.445
X-87.388 Y-17.33
X-87.332 Y-17.191
X-87.324 Y-17.041
X-87.33 Y-17.011
X-87.387 Y-16.889
X-87.492 Y-16.803
X-87.623 Y-16.773
X-87.827
X-87.862 Y-16.78
X-87.892 Y-16.799
X-87.913 Y-16.827
X-87.923 Y-16.861
X-87.921 Y-16.896
X-87.79 Y-17.435
X-87.777 Y-17.465
X-87.755 Y-17.489
X-87.728 Y-17.505
X-87.696 Y-17.511
X-87.48
X-87.405 Y-17.507
X-87.272 Y-17.438
X-87.18 Y-17.32
X-87.126 Y-17.179
X-87.121 Y-17.03
X-87.127 Y-17.004
X-87.185 Y-16.885
X-87.289 Y-16.802
X-87.419 Y-16.773
X-87.623
X-87.658 Y-16.78
X-87.688 Y-16.8
X-87.71 Y-16.828
X-87.72 Y-16.863
X-87.717 Y-16.898
X-87.573 Y-17.437
X-87.56 Y-17.466
X-87.539 Y-17.489
X-87.511 Y-17.505
X-87.48 Y-17.511
X-87.273
X-87.198 Y-17.507
X-87.066 Y-17.436
X-86.974 Y-17.317
X-86.921 Y-17.177
X-86.916 Y-17.027
X-86.922 Y-17.003
X-86.98 Y-16.884
X-87.085 Y-16.802
X-87.214 Y-16.773
X-87.419
X-87.454 Y-16.78
X-87.484 Y-16.8
X-87.505 Y-16.829
X-87.515 Y-16.863
X-87.512 Y-16.899
X-87.366 Y-17.437
X-87.353 Y-17.466
X-87.332 Y-17.489
X-87.304 Y-17.505
X-87.273 Y-17.511
X-87.104
X-87.029 Y-17.507
X-86.887 Y-17.459
X-86.785 Y-17.349
X-86.724 Y-17.212
X-86.708 Y-17.063
X-86.714 Y-17.024
X-86.768 Y-16.895
X-86.875 Y-16.805
X-87.01 Y-16.773
X-87.214
X-87.248 Y-16.78
X-87.277 Y-16.798
X-87.299 Y-16.825
X-87.309 Y-16.858
X-87.308 Y-16.893
X-87.198 Y-17.431
X-87.186 Y-17.462
X-87.165 Y-17.487
X-87.136 Y-17.504
X-87.104 Y-17.511
X-86.888
X-86.813 Y-17.507
X-86.674 Y-17.451
X-86.576 Y-17.337
X-86.517 Y-17.199
X-86.506 Y-17.049
X-86.513 Y-17.016
X-86.568 Y-16.891
X-86.674 Y-16.804
X-86.807 Y-16.773
X-87.01
X-87.045 Y-16.78
X-87.074 Y-16.799
X-87.096 Y-16.826
X-87.106 Y-16.86
X-87.104 Y-16.895
X-86.982 Y-17.433
X-86.97 Y-17.464
X-86.948 Y-17.488
X-86.92 Y-17.505
X-86.888 Y-17.511
X-86.681
X-86.606 Y-17.507
X-86.468 Y-17.448
X-86.371 Y-17.334
X-86.313 Y-17.195
X-86.303 Y-17.045
X-86.31 Y-17.014
X-86.366 Y-16.89
X-86.471 Y-16.804
X-86.604 Y-16.773
X-86.807
X-86.842 Y-16.78
X-86.871 Y-16.799
X-86.893 Y-16.827
X-86.903 Y-16.86
X-86.901 Y-16.896
X-86.774 Y-17.434
X-86.762 Y-17.464
X-86.741 Y-17.488
X-86.712 Y-17.505
X-86.681 Y-17.511
X-86.465
X-86.39 Y-17.507
X-86.256 Y-17.44
X-86.162 Y-17.323
X-86.108 Y-17.183
X-86.101 Y-17.034
X-86.107 Y-17.007
X-86.165 Y-16.886
X-86.269 Y-16.803
X-86.4 Y-16.773
X-86.604
X-86.639 Y-16.78
X-86.669 Y-16.799
X-86.69 Y-16.828
X-86.7 Y-16.862
X-86.697 Y-16.898
X-86.558 Y-17.436
X-86.545 Y-17.465
X-86.524 Y-17.489
X-86.496 Y-17.505
X-86.465 Y-17.511
X-86.258
X-86.183 Y-17.507
X-86.05 Y-17.438
X-85.956 Y-17.321
X-85.903 Y-17.181
X-85.897 Y-17.031
X-85.903 Y-17.006
X-85.961 Y-16.885
X-86.065 Y-16.802
X-86.195 Y-16.773
X-86.4
X-86.434 Y-16.78
X-86.464 Y-16.8
X-86.486 Y-16.828
X-86.496 Y-16.863
X-86.493 Y-16.898
X-86.351 Y-17.437
X-86.338 Y-17.466
X-86.317 Y-17.489
X-86.289 Y-17.505
X-86.258 Y-17.511
X-86.042
X-86.004
X-85.983 Y-17.51
X-85.958 Y-17.504
X-85.951 Y-17.501
X-85.93 Y-17.48
X-85.922 Y-17.452
X-85.927 Y-17.423
X-85.945 Y-17.399
X-85.972 Y-17.387
X-86.002 Y-17.389
X-86.027 Y-17.405
X-86.042 Y-17.43
X-86.044 Y-17.459
X-86.032 Y-17.486
X-86.01 Y-17.504
X-85.983 Y-17.51
X-85.972 Y-17.508
X-85.962 Y-17.505
X-85.951 Y-17.501
X-85.94 Y-17.495
X-85.93 Y-17.487
X-85.919 Y-17.476
X-85.902 Y-17.453
X-85.896 Y-17.442
X-85.891 Y-17.43
X-85.887 Y-17.42
X-85.885 Y-17.409
Y-17.388
Y-16.923
Y-16.881
X-85.889 Y-16.86
X-85.896 Y-16.841
X-85.906 Y-16.823
X-85.932 Y-16.804
X-85.963 Y-16.796
X-85.995 Y-16.801
X-86.025 Y-16.82
X-86.043 Y-16.85
X-86.048 Y-16.885
X-86.038 Y-16.919
X-86.015 Y-16.945
X-85.982 Y-16.959
X-85.947 Y-16.958
X-85.915 Y-16.942
X-85.893 Y-16.915
X-85.885 Y-16.881
X-85.886 Y-16.87
X-85.888 Y-16.86
X-85.891 Y-16.849
X-85.896 Y-16.839
X-85.906 Y-16.823
X-85.919 Y-16.807
X-85.93 Y-16.797
X-85.94 Y-16.789
X-85.951 Y-16.783
X-85.962 Y-16.778
X-85.972 Y-16.775
X-85.983 Y-16.773
X-86.004
X-86.195
X-86.221 Y-16.776
X-86.245 Y-16.786
X-86.281 Y-16.799
X-86.969 Y-16.892
X-90.286 Y-17.343
X-90.32 Y-17.342
X-90.352 Y-17.329
X-90.378 Y-17.306
X-90.394 Y-17.276
X-90.399 Y-17.241
G3 X-90.464 Y-16.459 I-3.644 J0.092
G1 X-90.517 Y-16.226
Y-16.216
X-90.51 Y-16.141
X-90.554 Y-15.998
X-90.651 Y-15.884
X-90.775 Y-15.799
X-90.913 Y-15.741
X-91.06 Y-15.709
X-91.118 Y-15.707
X-91.22 Y-15.72
X-91.311 Y-15.767
X-91.381 Y-15.843
X-91.425 Y-15.91
X-91.542 Y-16.095
X-91.554 Y-16.127
X-91.555 Y-16.161
X-91.544 Y-16.193
X-91.523 Y-16.22
X-91.495 Y-16.238
X-91.461 Y-16.245
X-91.266 Y-16.256
X-90.619 Y-16.29
X-90.585 Y-16.286
X-90.554 Y-16.271
X-90.531 Y-16.247
X-90.517 Y-16.216
X-90.475 Y-16.032
X-90.462 Y-15.958
X-90.498 Y-15.813
X-90.587 Y-15.692
X-90.704 Y-15.599
X-90.838 Y-15.53
X-90.915 Y-15.509
X-91.035 Y-15.502
X-91.148 Y-15.542
X-91.237 Y-15.623
X-91.259 Y-15.656
X-91.381 Y-15.843
X-91.395 Y-15.879
X-91.393 Y-15.918
X-91.376 Y-15.954
X-91.348 Y-15.98
X-91.311 Y-15.993
X-91.218 Y-16.008
X-90.587 Y-16.105
X-90.55 Y-16.104
X-90.517 Y-16.09
X-90.49 Y-16.065
X-90.475 Y-16.032
X-90.461 Y-15.973
X-90.449 Y-15.952
X-90.434 Y-15.929
X-90.396 Y-15.864
X-90.386 Y-15.714
X-90.446 Y-15.577
X-90.542 Y-15.462
X-90.662 Y-15.371
X-90.728 Y-15.342
X-90.855 Y-15.316
X-90.981 Y-15.347
X-91.083 Y-15.427
X-91.199 Y-15.572
X-91.237 Y-15.623
X-91.251 Y-15.658
X-91.252 Y-15.695
X-91.24 Y-15.73
X-91.215 Y-15.758
X-91.182 Y-15.775
X-91.177 Y-15.776
X-90.544 Y-15.967
X-90.514 Y-15.971
X-90.483 Y-15.965
X-90.456 Y-15.951
X-90.434 Y-15.929
X-90.339 Y-15.787
X-90.301 Y-15.723
X-90.275 Y-15.575
X-90.32 Y-15.432
X-90.403 Y-15.307
X-90.516 Y-15.208
X-90.57 Y-15.18
X-90.702 Y-15.145
X-90.836 Y-15.172
X-90.944 Y-15.256
X-91.083 Y-15.427
X-91.099 Y-15.46
X-91.102 Y-15.496
X-91.093 Y-15.531
X-91.072 Y-15.56
X-91.041 Y-15.58
X-90.459 Y-15.821
X-90.426 Y-15.828
X-90.393 Y-15.825
X-90.363 Y-15.811
X-90.339 Y-15.787
X-90.308 Y-15.741
X-90.234 Y-15.64
X-90.192 Y-15.578
X-90.156 Y-15.432
X-90.189 Y-15.286
X-90.264 Y-15.156
X-90.371 Y-15.051
X-90.414 Y-15.026
X-90.541 Y-14.985
X-90.674 Y-15.004
X-90.785 Y-15.078
X-90.853 Y-15.15
X-90.911 Y-15.215
X-90.944 Y-15.256
X-90.96 Y-15.288
X-90.964 Y-15.323
X-90.955 Y-15.357
X-90.936 Y-15.386
X-90.907 Y-15.407
X-90.354 Y-15.667
X-90.322 Y-15.676
X-90.289 Y-15.674
X-90.259 Y-15.662
X-90.234 Y-15.64
X-90.182 Y-15.572
X-90.149 Y-15.534
X-90.126 Y-15.508
X-90.078 Y-15.451
X-90.024 Y-15.311
X-90.043 Y-15.162
X-90.107 Y-15.026
X-90.207 Y-14.914
X-90.241 Y-14.89
X-90.363 Y-14.842
X-90.495 Y-14.85
X-90.61 Y-14.913
X-90.685 Y-14.981
X-90.741 Y-15.032
X-90.785 Y-15.078
X-90.803 Y-15.108
X-90.81 Y-15.143
X-90.804 Y-15.177
X-90.786 Y-15.208
X-90.759 Y-15.231
X-90.246 Y-15.525
X-90.216 Y-15.536
X-90.183 Y-15.537
X-90.152 Y-15.527
X-90.126 Y-15.508
X-90.065 Y-15.443
X-90 Y-15.378
X-89.95 Y-15.323
X-89.885 Y-15.187
X-89.895 Y-15.038
X-89.95 Y-14.898
X-90.044 Y-14.781
X-90.069 Y-14.762
X-90.19 Y-14.708
X-90.323 Y-14.712
X-90.441 Y-14.772
X-90.59 Y-14.896
X-90.61 Y-14.913
X-90.63 Y-14.942
X-90.64 Y-14.976
X-90.637 Y-15.012
X-90.622 Y-15.044
X-90.597 Y-15.069
X-90.125 Y-15.388
X-90.094 Y-15.402
X-90.061 Y-15.405
X-90.028 Y-15.397
X-90 Y-15.378
X-89.895 Y-15.274
X-89.849 Y-15.234
X-89.795 Y-15.182
X-89.739 Y-15.043
X-89.749 Y-14.893
X-89.803 Y-14.753
X-89.898 Y-14.638
X-89.915 Y-14.626
X-90.035 Y-14.575
X-90.164 Y-14.58
X-90.279 Y-14.639
X-90.441 Y-14.772
X-90.463 Y-14.801
X-90.473 Y-14.835
X-90.471 Y-14.871
X-90.456 Y-14.904
X-90.43 Y-14.93
X-89.967 Y-15.239
X-89.939 Y-15.252
X-89.907 Y-15.256
X-89.876 Y-15.25
X-89.849 Y-15.234
X-89.811 Y-15.201
X-89.726 Y-15.132
X-89.701 Y-15.112
X-89.644 Y-15.062
X-89.585 Y-14.924
X-89.589 Y-14.774
X-89.639 Y-14.633
X-89.731 Y-14.514
X-89.749 Y-14.5
X-89.87 Y-14.446
X-90.002 Y-14.449
X-90.121 Y-14.508
X-90.279 Y-14.639
X-90.302 Y-14.667
X-90.312 Y-14.701
X-90.31 Y-14.737
X-90.296 Y-14.77
X-90.271 Y-14.796
X-89.817 Y-15.113
X-89.79 Y-15.127
X-89.759 Y-15.131
X-89.728 Y-15.126
X-89.701 Y-15.112
X-89.557 Y-14.999
X-89.5 Y-14.95
X-89.429 Y-14.818
X-89.425 Y-14.668
X-89.469 Y-14.525
X-89.554 Y-14.402
X-89.578 Y-14.382
X-89.697 Y-14.321
X-89.83 Y-14.319
X-89.952 Y-14.374
X-90.079 Y-14.474
X-90.121 Y-14.508
X-90.143 Y-14.536
X-90.154 Y-14.569
X-90.152 Y-14.604
X-90.139 Y-14.637
X-90.115 Y-14.663
X-89.676 Y-14.997
X-89.648 Y-15.012
X-89.617 Y-15.018
X-89.585 Y-15.013
X-89.557 Y-14.999
X-89.388 Y-14.869
X-89.33 Y-14.821
X-89.268 Y-14.685
X-89.267 Y-14.535
X-89.312 Y-14.391
X-89.399 Y-14.27
X-89.418 Y-14.254
X-89.537 Y-14.196
X-89.669 Y-14.194
X-89.789 Y-14.249
X-89.952 Y-14.374
X-89.975 Y-14.401
X-89.987 Y-14.435
Y-14.471
X-89.973 Y-14.505
X-89.949 Y-14.531
X-89.505 Y-14.867
X-89.478 Y-14.881
X-89.447 Y-14.887
X-89.416 Y-14.883
X-89.388 Y-14.869
X-89.257 Y-14.771
X-89.219 Y-14.743
X-89.161 Y-14.696
X-89.104 Y-14.557
X-89.105 Y-14.407
X-89.15 Y-14.264
X-89.238 Y-14.143
X-89.254 Y-14.131
X-89.369 Y-14.074
X-89.497 Y-14.07
X-89.615 Y-14.121
X-89.751 Y-14.22
X-89.789 Y-14.249
X-89.812 Y-14.277
X-89.824 Y-14.311
X-89.823 Y-14.347
X-89.81 Y-14.381
X-89.785 Y-14.407
X-89.335 Y-14.741
X-89.307 Y-14.755
X-89.277 Y-14.761
X-89.246 Y-14.756
X-89.219 Y-14.743
X-89.082 Y-14.643
X-89.024 Y-14.595
X-88.946 Y-14.467
X-88.934 Y-14.318
X-88.971 Y-14.172
X-89.05 Y-14.045
X-89.071 Y-14.025
X-89.189 Y-13.958
X-89.324 Y-13.95
X-89.449 Y-14.002
X-89.615 Y-14.121
X-89.639 Y-14.147
X-89.652 Y-14.18
X-89.653 Y-14.215
X-89.642 Y-14.248
X-89.62 Y-14.276
X-89.204 Y-14.636
X-89.176 Y-14.653
X-89.144 Y-14.66
X-89.112 Y-14.656
X-89.082 Y-14.643
X-88.907 Y-14.517
X-88.848 Y-14.47
X-88.779 Y-14.337
X-88.772 Y-14.187
X-88.81 Y-14.042
X-88.893 Y-13.917
X-88.911 Y-13.901
X-89.028 Y-13.838
X-89.161 Y-13.832
X-89.283 Y-13.883
X-89.449 Y-14.002
X-89.473 Y-14.028
X-89.486 Y-14.062
X-89.487 Y-14.097
X-89.475 Y-14.131
X-89.452 Y-14.158
X-89.026 Y-14.51
X-88.998 Y-14.526
X-88.967 Y-14.533
X-88.936 Y-14.53
X-88.907 Y-14.517
X-88.759 Y-14.411
X-88.7 Y-14.364
X-88.618 Y-14.239
X-88.602 Y-14.09
X-88.635 Y-13.943
X-88.712 Y-13.815
X-88.737 Y-13.79
X-88.858 Y-13.72
X-88.997 Y-13.712
X-89.125 Y-13.767
X-89.219 Y-13.837
X-89.283 Y-13.883
X-89.307 Y-13.909
X-89.32 Y-13.941
X-89.321 Y-13.976
X-89.31 Y-14.01
X-89.289 Y-14.037
X-88.88 Y-14.402
X-88.853 Y-14.42
X-88.821 Y-14.427
X-88.788 Y-14.424
X-88.759 Y-14.411
X-88.572 Y-14.278
X-88.513 Y-14.232
X-88.446 Y-14.098
X-88.441 Y-13.948
X-88.479 Y-13.803
X-88.563 Y-13.678
X-88.585 Y-13.659
X-88.704 Y-13.595
X-88.839 Y-13.591
X-88.962 Y-13.645
X-89.125 Y-13.767
X-89.148 Y-13.794
X-89.16 Y-13.828
Y-13.863
X-89.148 Y-13.896
X-89.124 Y-13.923
X-88.69 Y-14.273
X-88.663 Y-14.288
X-88.632 Y-14.295
X-88.601 Y-14.291
X-88.572 Y-14.278
X-88.432 Y-14.179
X-88.373 Y-14.132
X-88.287 Y-14.009
X-88.269 Y-13.86
X-88.3 Y-13.714
X-88.374 Y-13.583
X-88.408 Y-13.549
X-88.53 Y-13.475
X-88.672 Y-13.466
X-88.803 Y-13.524
X-88.962 Y-13.645
X-88.985 Y-13.671
X-88.997 Y-13.703
X-88.998 Y-13.738
X-88.987 Y-13.77
X-88.966 Y-13.797
X-88.554 Y-14.169
X-88.526 Y-14.187
X-88.494 Y-14.195
X-88.462 Y-14.192
X-88.432 Y-14.179
X-88.253 Y-14.051
X-88.194 Y-14.005
X-88.118 Y-13.876
X-88.106 Y-13.726
X-88.14 Y-13.58
X-88.219 Y-13.452
X-88.25 Y-13.422
X-88.372 Y-13.35
X-88.513 Y-13.343
X-88.642 Y-13.4
X-88.803 Y-13.524
X-88.825 Y-13.55
X-88.837 Y-13.583
X-88.838 Y-13.618
X-88.826 Y-13.65
X-88.804 Y-13.677
X-88.373 Y-14.044
X-88.345 Y-14.061
X-88.314 Y-14.068
X-88.282 Y-14.065
X-88.253 Y-14.051
X-88.093 Y-13.938
X-88.034 Y-13.892
X-87.954 Y-13.765
X-87.938 Y-13.616
X-87.97 Y-13.469
X-88.046 Y-13.34
X-88.151 Y-13.233
X-88.262 Y-13.2
X-88.378 Y-13.213
X-88.48 Y-13.268
X-88.626 Y-13.388
X-88.642 Y-13.4
X-88.664 Y-13.426
X-88.676 Y-13.458
X-88.677 Y-13.493
X-88.665 Y-13.525
X-88.644 Y-13.552
X-88.214 Y-13.93
X-88.187 Y-13.947
X-88.155 Y-13.954
X-88.123 Y-13.951
X-88.093 Y-13.938
X-87.921 Y-13.815
X-87.862 Y-13.768
X-87.786 Y-13.639
X-87.774 Y-13.49
X-87.807 Y-13.343
X-87.875 Y-13.21
X-87.92 Y-13.163
X-88.046 Y-13.086
X-88.193 Y-13.078
X-88.327 Y-13.141
X-88.48 Y-13.268
X-88.501 Y-13.294
X-88.512 Y-13.326
Y-13.359
X-88.501 Y-13.391
X-88.48 Y-13.417
X-88.043 Y-13.807
X-88.015 Y-13.824
X-87.983 Y-13.832
X-87.95 Y-13.829
X-87.921 Y-13.815
X-87.78 Y-13.713
X-87.755 Y-13.694
X-87.697 Y-13.646
X-87.621 Y-13.517
X-87.608 Y-13.367
X-87.637 Y-13.22
X-87.709 Y-13.089
X-87.811 Y-12.978
X-87.825 Y-12.97
X-87.942 Y-12.934
X-88.064 Y-12.947
X-88.17 Y-13.008
X-88.204 Y-13.038
X-88.327 Y-13.141
X-88.348 Y-13.167
X-88.359 Y-13.199
Y-13.233
X-88.348 Y-13.265
X-88.326 Y-13.291
X-87.878 Y-13.686
X-87.85 Y-13.704
X-87.818 Y-13.711
X-87.785 Y-13.708
X-87.755 Y-13.694
X-87.668 Y-13.629
X-87.582 Y-13.563
X-87.525 Y-13.514
X-87.453 Y-13.383
X-87.442 Y-13.233
X-87.475 Y-13.087
X-87.542 Y-12.953
X-87.645 Y-12.844
X-87.657 Y-12.836
X-87.776 Y-12.795
X-87.902 Y-12.806
X-88.012 Y-12.868
X-88.17 Y-13.008
X-88.19 Y-13.035
X-88.2 Y-13.066
Y-13.099
X-88.188 Y-13.13
X-88.167 Y-13.156
X-87.706 Y-13.557
X-87.678 Y-13.575
X-87.645 Y-13.582
X-87.612 Y-13.578
X-87.582 Y-13.563
X-87.416 Y-13.435
X-87.36 Y-13.386
X-87.287 Y-13.254
X-87.276 Y-13.105
X-87.306 Y-12.958
X-87.371 Y-12.823
X-87.473 Y-12.712
X-87.492 Y-12.7
X-87.613 Y-12.655
X-87.741 Y-12.664
X-87.854 Y-12.727
X-88.012 Y-12.868
X-88.032 Y-12.894
X-88.042 Y-12.926
Y-12.959
X-88.03 Y-12.99
X-88.009 Y-13.015
X-87.541 Y-13.429
X-87.513 Y-13.446
X-87.48 Y-13.454
X-87.447 Y-13.45
X-87.416 Y-13.435
X-87.341 Y-13.376
X-87.237 Y-13.291
X-87.181 Y-13.241
X-87.117 Y-13.105
X-87.11 Y-12.956
X-87.145 Y-12.81
X-87.213 Y-12.676
X-87.317 Y-12.567
X-87.342 Y-12.551
X-87.477 Y-12.507
X-87.617 Y-12.529
X-87.731 Y-12.613
X-87.78 Y-12.662
X-87.854 Y-12.727
X-87.874 Y-12.754
X-87.884 Y-12.786
X-87.883 Y-12.82
X-87.871 Y-12.851
X-87.849 Y-12.876
X-87.361 Y-13.288
X-87.332 Y-13.305
X-87.299 Y-13.311
X-87.266 Y-13.307
X-87.237 Y-13.291
X-87.132 Y-13.207
X-87.104 Y-13.181
X-87.071 Y-13.149
X-87.02 Y-13.093
X-86.955 Y-12.958
X-86.949 Y-12.808
X-86.986 Y-12.663
X-87.055 Y-12.53
X-87.16 Y-12.422
X-87.287 Y-12.342
X-87.402 Y-12.335
X-87.511 Y-12.372
X-87.599 Y-12.447
X-87.696 Y-12.571
X-87.731 Y-12.613
X-87.749 Y-12.647
X-87.751 Y-12.686
X-87.739 Y-12.723
X-87.714 Y-12.753
X-87.708 Y-12.757
X-87.2 Y-13.154
X-87.169 Y-13.171
X-87.135 Y-13.175
X-87.1 Y-13.168
X-87.071 Y-13.149
X-86.902 Y-12.98
X-86.852 Y-12.924
X-86.795 Y-12.786
X-86.796 Y-12.636
X-86.839 Y-12.492
X-86.915 Y-12.363
X-87.016 Y-12.252
X-87.077 Y-12.214
X-87.215 Y-12.169
X-87.358 Y-12.195
X-87.472 Y-12.285
X-87.599 Y-12.447
X-87.615 Y-12.482
X-87.617 Y-12.521
X-87.603 Y-12.558
X-87.577 Y-12.587
X-87.552 Y-12.605
X-87.03 Y-12.987
X-86.999 Y-13.003
X-86.965 Y-13.007
X-86.931 Y-12.999
X-86.902 Y-12.98
X-86.793 Y-12.869
X-86.737 Y-12.809
X-86.688 Y-12.752
X-86.639 Y-12.61
X-86.648 Y-12.461
X-86.695 Y-12.318
X-86.772 Y-12.19
X-86.879 Y-12.085
X-87.007 Y-12.005
X-87.036 Y-11.997
X-87.165 Y-11.992
X-87.284 Y-12.04
X-87.371 Y-12.134
X-87.406 Y-12.193
X-87.442 Y-12.246
X-87.472 Y-12.285
X-87.489 Y-12.321
X-87.49 Y-12.361
X-87.475 Y-12.398
X-87.447 Y-12.426
X-87.4 Y-12.458
X-86.863 Y-12.821
X-86.832 Y-12.835
X-86.798 Y-12.838
X-86.765 Y-12.829
X-86.737 Y-12.809
X-86.596 Y-12.661
X-86.548 Y-12.604
X-86.491 Y-12.465
X-86.494 Y-12.315
X-86.538 Y-12.172
X-86.613 Y-12.042
X-86.713 Y-11.929
X-86.835 Y-11.843
X-86.895 Y-11.82
X-87.033 Y-11.802
X-87.164 Y-11.847
X-87.261 Y-11.947
X-87.371 Y-12.134
X-87.383 Y-12.17
X-87.381 Y-12.207
X-87.365 Y-12.24
X-87.339 Y-12.266
X-87.263 Y-12.316
X-86.721 Y-12.673
X-86.69 Y-12.687
X-86.656 Y-12.689
X-86.624 Y-12.68
X-86.596 Y-12.661
X-86.553 Y-12.616
X-86.511 Y-12.569
X-86.484 Y-12.531
X-86.427 Y-12.438
X-86.358 Y-12.305
X-86.353 Y-12.155
X-86.394 Y-12.01
X-86.465 Y-11.879
X-86.561 Y-11.763
X-86.681 Y-11.673
X-86.768 Y-11.634
X-86.879 Y-11.607
X-86.993 Y-11.624
X-87.092 Y-11.681
X-87.162 Y-11.771
X-87.188 Y-11.822
X-87.261 Y-11.947
X-87.272 Y-11.984
X-87.269 Y-12.022
X-87.252 Y-12.056
X-87.223 Y-12.082
X-87.107 Y-12.15
X-86.561 Y-12.47
X-86.526 Y-12.483
X-86.488 Y-12.481
X-86.453 Y-12.465
X-86.427 Y-12.438
X-86.382 Y-12.362
X-86.335 Y-12.278
X-86.29 Y-12.193
X-86.226 Y-12.058
X-86.237 Y-11.908
X-86.289 Y-11.767
X-86.373 Y-11.643
X-86.48 Y-11.538
X-86.606 Y-11.457
X-86.747 Y-11.407
X-86.792 Y-11.402
X-86.929 Y-11.42
X-87.043 Y-11.496
X-87.111 Y-11.616
X-87.131 Y-11.686
X-87.162 Y-11.771
X-87.167 Y-11.806
X-87.159 Y-11.841
X-87.14 Y-11.87
X-87.111 Y-11.892
X-86.99 Y-11.951
X-86.421 Y-12.233
X-86.385 Y-12.243
X-86.348 Y-12.239
X-86.315 Y-12.221
X-86.29 Y-12.193
X-86.2 Y-12.024
X-86.173 Y-11.969
X-86.114 Y-11.831
X-86.13 Y-11.682
X-86.189 Y-11.545
X-86.279 Y-11.424
X-86.39 Y-11.324
X-86.518 Y-11.245
X-86.66 Y-11.197
X-86.809 Y-11.181
X-86.919 Y-11.223
X-87.002 Y-11.301
X-87.05 Y-11.406
X-87.057 Y-11.433
X-87.111 Y-11.616
X-87.113 Y-11.652
X-87.102 Y-11.687
X-87.08 Y-11.716
X-87.049 Y-11.734
X-86.897 Y-11.791
X-86.296 Y-12.015
X-86.261 Y-12.022
X-86.226 Y-12.015
X-86.195 Y-11.997
X-86.173 Y-11.969
X-86.075 Y-11.771
X-86.056 Y-11.729
X-86.028 Y-11.581
X-86.051 Y-11.433
X-86.118 Y-11.299
X-86.214 Y-11.183
X-86.331 Y-11.09
X-86.463 Y-11.019
X-86.605 Y-10.97
X-86.755 Y-10.959
X-86.76 Y-10.96
X-86.87 Y-11.002
X-86.955 Y-11.083
X-87.002 Y-11.191
X-87.037 Y-11.349
X-87.05 Y-11.406
X-87.051 Y-11.442
X-87.039 Y-11.477
X-87.015 Y-11.504
X-86.983 Y-11.521
X-86.789 Y-11.583
X-86.176 Y-11.779
X-86.141 Y-11.784
X-86.107 Y-11.776
X-86.077 Y-11.757
X-86.056 Y-11.729
X-86.046 Y-11.686
X-86.027 Y-11.602
X-85.996 Y-11.433
X-85.988 Y-11.387
X-85.973 Y-11.237
X-86.032 Y-11.1
X-86.125 Y-10.982
X-86.239 Y-10.884
X-86.367 Y-10.807
X-86.508 Y-10.754
X-86.656 Y-10.733
X-86.701 Y-10.737
X-86.827 Y-10.778
X-86.923 Y-10.87
X-86.97 Y-10.995
X-86.984 Y-11.095
X-87.002 Y-11.191
Y-11.23
X-86.986 Y-11.266
X-86.959 Y-11.293
X-86.923 Y-11.307
X-86.722 Y-11.346
X-86.106 Y-11.466
X-86.067
X-86.031 Y-11.45
X-86.003 Y-11.423
X-85.988 Y-11.387
X-85.949 Y-11.133
X-85.934 Y-10.984
X-85.995 Y-10.847
X-86.09 Y-10.731
X-86.208 Y-10.638
X-86.341 Y-10.568
X-86.483 Y-10.521
X-86.633 Y-10.509
X-86.683 Y-10.515
X-86.808 Y-10.561
X-86.902 Y-10.657
X-86.944 Y-10.783
X-86.95 Y-10.842
X-86.97 Y-10.995
X-86.967 Y-11.033
X-86.949 Y-11.067
X-86.92 Y-11.092
X-86.884 Y-11.104
X-86.688 Y-11.13
X-86.06 Y-11.214
X-86.023 Y-11.212
X-85.989 Y-11.196
X-85.963 Y-11.168
X-85.949 Y-11.133
X-85.931 Y-11.011
X-85.916 Y-10.869
X-85.913 Y-10.842
X-85.91 Y-10.8
X-85.927 Y-10.65
X-86.016 Y-10.529
X-86.129 Y-10.431
X-86.258 Y-10.355
X-86.399 Y-10.303
X-86.547 Y-10.28
X-86.697 Y-10.288
X-86.74 Y-10.302
X-86.852 Y-10.369
X-86.926 Y-10.478
X-86.946 Y-10.607
X-86.941 Y-10.673
Y-10.757
X-86.944 Y-10.783
X-86.94 Y-10.816
X-86.926 Y-10.846
X-86.903 Y-10.87
X-86.874 Y-10.885
X-86.841 Y-10.89
X-86.638 Y-10.883
X-86.009 Y-10.861
X-85.972 Y-10.852
X-85.94 Y-10.83
X-85.919 Y-10.797
X-85.913 Y-10.759
X-85.934 Y-10.542
X-85.956 Y-10.394
X-86.04 Y-10.269
X-86.155 Y-10.173
X-86.288 Y-10.104
X-86.432 Y-10.063
X-86.582 Y-10.048
X-86.73 Y-10.069
X-86.77 Y-10.084
X-86.879 Y-10.154
X-86.948 Y-10.263
X-86.965 Y-10.392
X-86.946 Y-10.607
X-86.935 Y-10.643
X-86.911 Y-10.673
X-86.878 Y-10.692
X-86.84 Y-10.697
X-86.655 Y-10.686
X-86.028 Y-10.648
X-85.99 Y-10.638
X-85.959 Y-10.614
X-85.939 Y-10.581
X-85.934 Y-10.542
X-85.954 Y-10.335
X-85.966 Y-10.25
X-86.004 Y-10.105
X-86.1 Y-9.99
X-86.224 Y-9.906
X-86.363 Y-9.849
X-86.511 Y-9.823
X-86.661
X-86.806 Y-9.858
X-86.841 Y-9.876
X-86.939 Y-9.959
X-86.995 Y-10.075
X-86.996 Y-10.204
X-86.97 Y-10.335
X-86.965 Y-10.392
X-86.952 Y-10.429
X-86.926 Y-10.459
X-86.89 Y-10.476
X-86.851 Y-10.478
X-86.676 Y-10.452
X-86.051 Y-10.36
X-86.015 Y-10.348
X-85.987 Y-10.323
X-85.97 Y-10.289
X-85.966 Y-10.25
X-86.018 Y-9.997
X-86.062 Y-9.854
X-86.159 Y-9.739
X-86.286 Y-9.66
X-86.428 Y-9.612
X-86.577 Y-9.593
X-86.727 Y-9.602
X-86.847 Y-9.638
X-86.946 Y-9.691
X-87.017 Y-9.778
X-87.05 Y-9.885
X-87.04 Y-9.997
X-87.019 Y-10.093
X-86.996 Y-10.204
X-86.98 Y-10.238
X-86.952 Y-10.264
X-86.916 Y-10.278
X-86.878
X-86.715 Y-10.243
X-86.096 Y-10.112
X-86.061 Y-10.097
X-86.034 Y-10.07
X-86.019 Y-10.035
X-86.018 Y-9.997
X-86.088 Y-9.718
X-86.097 Y-9.686
X-86.104 Y-9.659
X-86.183 Y-9.532
X-86.306 Y-9.446
X-86.446 Y-9.393
X-86.594 Y-9.369
X-86.744 Y-9.374
X-86.89 Y-9.409
X-87.023 Y-9.478
X-87.032 Y-9.486
X-87.106 Y-9.588
X-87.131 Y-9.71
X-87.104 Y-9.833
X-87.068 Y-9.913
X-87.053 Y-9.955
X-87.04 Y-9.997
X-87.025 Y-10.026
X-87.001 Y-10.048
X-86.971 Y-10.062
X-86.939 Y-10.065
X-86.907 Y-10.058
X-86.751 Y-9.994
X-86.177 Y-9.758
X-86.149 Y-9.74
X-86.128 Y-9.715
X-86.117 Y-9.684
X-86.116 Y-9.651
X-86.126 Y-9.62
X-86.246 Y-9.406
X-86.331 Y-9.282
X-86.458 Y-9.202
X-86.602 Y-9.161
X-86.752 Y-9.152
X-86.9 Y-9.175
X-87.041 Y-9.227
X-87.164 Y-9.313
X-87.217 Y-9.413
X-87.23 Y-9.525
X-87.2 Y-9.634
X-87.146 Y-9.744
X-87.104 Y-9.833
X-87.08 Y-9.864
X-87.046 Y-9.883
X-87.008 Y-9.888
X-86.97 Y-9.878
X-86.852 Y-9.819
X-86.291 Y-9.542
X-86.259 Y-9.518
X-86.24 Y-9.483
X-86.235 Y-9.444
X-86.246 Y-9.406
X-86.402 Y-9.152
X-86.427 Y-9.114
X-86.477 Y-9.057
X-86.606 Y-8.981
X-86.752 Y-8.949
X-86.902 Y-8.952
X-87.048 Y-8.987
X-87.185 Y-9.049
X-87.229 Y-9.086
X-87.314 Y-9.203
X-87.335 Y-9.346
X-87.286 Y-9.482
X-87.273 Y-9.502
X-87.229 Y-9.575
X-87.2 Y-9.634
X-87.179 Y-9.661
X-87.149 Y-9.68
X-87.115 Y-9.687
X-87.081 Y-9.682
X-87.05 Y-9.665
X-86.972 Y-9.604
X-86.476 Y-9.214
X-86.451 Y-9.184
X-86.439 Y-9.148
X-86.441 Y-9.11
X-86.458 Y-9.075
X-86.596 Y-8.903
X-86.646 Y-8.847
X-86.778 Y-8.776
X-86.927 Y-8.754
X-87.076 Y-8.768
X-87.218 Y-8.816
X-87.344 Y-8.898
X-87.375 Y-8.931
X-87.442 Y-9.046
X-87.453 Y-9.178
X-87.406 Y-9.303
X-87.286 Y-9.482
X-87.263 Y-9.505
X-87.233 Y-9.52
X-87.2 Y-9.524
X-87.167 Y-9.516
X-87.139 Y-9.499
X-87.09 Y-9.456
X-86.61 Y-9.038
X-86.587 Y-9.009
X-86.577 Y-8.973
X-86.58 Y-8.936
X-86.596 Y-8.903
X-86.721 Y-8.747
X-86.737 Y-8.73
X-86.812 Y-8.678
X-86.939 Y-8.599
X-87.088 Y-8.578
X-87.236 Y-8.601
X-87.375 Y-8.656
X-87.495 Y-8.747
X-87.526 Y-8.786
X-87.587 Y-8.919
X-87.578 Y-9.066
X-87.5 Y-9.19
X-87.473 Y-9.207
X-87.441 Y-9.215
X-87.409 Y-9.212
X-87.38 Y-9.2
X-87.317 Y-9.16
X-86.818 Y-8.843
X-86.79 Y-8.816
X-86.774 Y-8.781
X-86.773 Y-8.743
X-86.786 Y-8.707
X-86.812 Y-8.678
X-87.045 Y-8.517
X-87.172 Y-8.439
X-87.322 Y-8.433
X-87.467 Y-8.474
X-87.595 Y-8.552
X-87.699 Y-8.66
X-87.718 Y-8.698
X-87.75 Y-8.826
X-87.725 Y-8.956
X-87.646 Y-9.062
X-87.527 Y-9.164
X-87.5 Y-9.19
X-87.47 Y-9.208
X-87.437 Y-9.215
X-87.403 Y-9.21
X-87.372 Y-9.194
X-87.349 Y-9.169
X-87.02 Y-8.652
X-87.006 Y-8.617
Y-8.58
X-87.019 Y-8.545
X-87.045 Y-8.517
X-87.104 Y-8.477
X-87.273 Y-8.378
X-87.339 Y-8.344
X-87.487 Y-8.316
X-87.633 Y-8.352
X-87.763 Y-8.426
X-87.825 Y-8.496
X-87.889 Y-8.606
X-87.903 Y-8.733
X-87.865 Y-8.855
X-87.78 Y-8.951
X-87.738 Y-8.984
X-87.646 Y-9.062
X-87.614 Y-9.079
X-87.579 Y-9.084
X-87.545 Y-9.076
X-87.515 Y-9.057
X-87.494 Y-9.028
X-87.237 Y-8.507
X-87.227 Y-8.472
X-87.23 Y-8.436
X-87.246 Y-8.403
X-87.273 Y-8.378
X-87.395 Y-8.308
X-87.489 Y-8.262
X-87.558 Y-8.232
X-87.706 Y-8.215
X-87.849 Y-8.262
X-87.968 Y-8.353
X-88.053 Y-8.476
X-88.063 Y-8.506
X-88.077 Y-8.639
X-88.031 Y-8.765
X-87.934 Y-8.859
X-87.78 Y-8.951
X-87.748 Y-8.962
X-87.714
X-87.682 Y-8.951
X-87.656 Y-8.929
X-87.638 Y-8.899
X-87.442 Y-8.386
X-87.436 Y-8.351
X-87.442 Y-8.315
X-87.46 Y-8.284
X-87.489 Y-8.262
X-87.696 Y-8.161
X-87.741 Y-8.139
X-87.78 Y-8.122
X-87.854 Y-8.108
X-88 Y-8.145
X-88.124 Y-8.229
X-88.216 Y-8.348
X-88.232 Y-8.388
X-88.253 Y-8.532
X-88.203 Y-8.669
X-88.095 Y-8.766
X-88.034 Y-8.798
X-87.934 Y-8.859
X-87.897 Y-8.871
X-87.858 Y-8.868
X-87.823 Y-8.85
X-87.798 Y-8.82
X-87.786 Y-8.782
X-87.724 Y-8.223
X-87.725 Y-8.192
X-87.736 Y-8.163
X-87.755 Y-8.139
X-87.78 Y-8.122
X-87.865 Y-8.102
X-87.996 Y-8.074
X-88.07 Y-8.062
X-88.216 Y-8.099
X-88.335 Y-8.189
X-88.415 Y-8.316
X-88.426 Y-8.361
X-88.432 Y-8.476
X-88.394 Y-8.584
X-88.317 Y-8.67
X-88.215 Y-8.722
X-88.185 Y-8.73
X-88.119 Y-8.753
X-88.095 Y-8.766
X-88.058 Y-8.776
X-88.019 Y-8.771
X-87.985 Y-8.751
X-87.961 Y-8.72
X-87.951 Y-8.682
X-87.921 Y-8.177
X-87.925 Y-8.143
X-87.94 Y-8.112
X-87.965 Y-8.088
X-87.996 Y-8.074
X-88.203 Y-8.029
X-88.278 Y-8.019
X-88.423 Y-8.058
X-88.537 Y-8.155
X-88.609 Y-8.287
X-88.617 Y-8.337
X-88.614 Y-8.45
X-88.57 Y-8.553
X-88.491 Y-8.633
X-88.388 Y-8.678
X-88.288 Y-8.701
X-88.215 Y-8.722
X-88.177 Y-8.723
X-88.142 Y-8.711
X-88.113 Y-8.687
X-88.096 Y-8.654
X-88.092 Y-8.617
X-88.128 Y-8.119
X-88.135 Y-8.089
X-88.151 Y-8.062
X-88.175 Y-8.042
X-88.203 Y-8.029
X-88.288 Y-8.013
X-88.419 Y-7.996
X-88.494 Y-7.99
X-88.636 Y-8.037
X-88.743 Y-8.142
X-88.805 Y-8.279
X-88.808 Y-8.319
X-88.796 Y-8.431
X-88.744 Y-8.531
X-88.659 Y-8.604
X-88.553 Y-8.641
X-88.531 Y-8.646
X-88.388 Y-8.678
X-88.35
X-88.315 Y-8.664
X-88.288 Y-8.638
X-88.272 Y-8.604
X-88.27 Y-8.566
X-88.337 Y-8.081
X-88.346 Y-8.051
X-88.364 Y-8.025
X-88.389 Y-8.006
X-88.419 Y-7.996
X-88.542 Y-7.98
X-88.626 Y-7.973
X-88.701 Y-7.971
X-88.842 Y-8.022
X-88.945 Y-8.132
X-88.997 Y-8.272
X-88.998 Y-8.317
X-88.965 Y-8.461
X-88.866 Y-8.572
X-88.726 Y-8.621
X-88.626 Y-8.631
X-88.553 Y-8.641
X-88.516 Y-8.639
X-88.482 Y-8.622
X-88.457 Y-8.594
X-88.444 Y-8.559
Y-8.522
X-88.54 Y-8.052
X-88.551 Y-8.023
X-88.571 Y-7.999
X-88.596 Y-7.981
X-88.626 Y-7.973
X-88.842 Y-7.956
X-88.917 Y-7.954
X-89.053 Y-8.018
X-89.147 Y-8.134
X-89.188 Y-8.279
X-89.187 Y-8.315
X-89.164 Y-8.426
X-89.1 Y-8.521
X-89.006 Y-8.585
X-88.894 Y-8.609
X-88.88
X-88.796 Y-8.615
X-88.726 Y-8.621
X-88.688 Y-8.616
X-88.655 Y-8.598
X-88.632 Y-8.568
X-88.621 Y-8.532
X-88.624 Y-8.494
X-88.757 Y-8.028
X-88.775 Y-7.993
X-88.805 Y-7.968
X-88.842 Y-7.956
X-89.007 Y-7.943
X-89.049 Y-7.945
X-89.124 Y-7.956
X-89.258 Y-8.023
X-89.346 Y-8.145
X-89.371 Y-8.246
Y-8.387
X-89.306 Y-8.514
X-89.19 Y-8.595
X-89.049 Y-8.614
X-89.016 Y-8.604
X-88.987 Y-8.582
X-88.968 Y-8.552
X-88.961 Y-8.518
X-88.95 Y-8.047
X-88.957 Y-8.008
X-88.978 Y-7.975
X-89.011 Y-7.953
X-89.049 Y-7.945
X-89.254 Y-7.967
X-89.328 Y-7.979
X-89.395 Y-8.013
X-89.504 Y-8.115
X-89.562 Y-8.253
X-89.564 Y-8.403
X-89.558 Y-8.423
X-89.49 Y-8.542
X-89.375 Y-8.618
X-89.239 Y-8.635
X-89.049 Y-8.614
X-88.965 Y-8.607
X-88.894 Y-8.609
X-88.858 Y-8.602
X-88.827 Y-8.582
X-88.805 Y-8.552
X-88.796 Y-8.516
X-88.8 Y-8.48
X-88.817 Y-8.447
X-89.168 Y-8.004
X-89.192 Y-7.983
X-89.221 Y-7.97
X-89.254 Y-7.967
X-89.388 Y-7.981
X-89.472 Y-7.992
X-89.546 Y-8.006
X-89.67 Y-8.09
X-89.742 Y-8.222
X-89.763 Y-8.371
X-89.755 Y-8.413
X-89.711 Y-8.523
X-89.628 Y-8.608
X-89.519 Y-8.653
X-89.4
X-89.368 Y-8.639
X-89.342 Y-8.614
X-89.327 Y-8.582
X-89.324 Y-8.547
X-89.364 Y-8.083
X-89.375 Y-8.046
X-89.399 Y-8.015
X-89.434 Y-7.996
X-89.472 Y-7.992
X-89.642 Y-8.016
X-89.688 Y-8.023
X-89.762 Y-8.038
X-89.876 Y-8.135
X-89.941 Y-8.27
X-89.952 Y-8.42
X-89.937 Y-8.478
X-89.885 Y-8.584
X-89.796 Y-8.662
X-89.685 Y-8.699
X-89.567 Y-8.691
X-89.536 Y-8.674
X-89.512 Y-8.648
X-89.499 Y-8.615
X-89.498 Y-8.579
X-89.578 Y-8.106
X-89.591 Y-8.07
X-89.616 Y-8.042
X-89.65 Y-8.026
X-89.688 Y-8.023
X-89.726 Y-8.029
X-89.859 Y-8.054
X-89.931 Y-8.072
X-90.058 Y-8.152
X-90.129 Y-8.285
X-90.144 Y-8.434
X-90.116 Y-8.581
X-90.102 Y-8.607
X-90.007 Y-8.711
X-89.876 Y-8.76
X-89.737 Y-8.745
X-89.708 Y-8.728
X-89.687 Y-8.702
X-89.676 Y-8.671
X-89.675 Y-8.638
X-89.744 Y-8.139
X-89.757 Y-8.102
X-89.783 Y-8.073
X-89.819 Y-8.056
X-89.859 Y-8.054
X-89.98 Y-8.078
X-90.065 Y-8.103
X-90.111 Y-8.117
X-90.182 Y-8.143
X-90.283 Y-8.254
X-90.33 Y-8.397
X-90.332 Y-8.546
X-90.286 Y-8.689
X-90.274 Y-8.705
X-90.178 Y-8.792
X-90.055 Y-8.831
X-89.926 Y-8.814
X-89.896 Y-8.795
X-89.875 Y-8.767
X-89.865 Y-8.733
X-89.867 Y-8.698
X-89.988 Y-8.191
X-90 Y-8.161
X-90.021 Y-8.137
X-90.048 Y-8.121
X-90.079 Y-8.114
X-90.111 Y-8.117
X-90.28 Y-8.17
X-90.351 Y-8.196
X-90.464 Y-8.295
X-90.521 Y-8.433
X-90.53 Y-8.583
X-90.492 Y-8.728
X-90.416 Y-8.857
X-90.408 Y-8.864
X-90.292 Y-8.927
X-90.16 Y-8.933
X-90.039 Y-8.883
X-90.018 Y-8.862
X-90.004 Y-8.835
X-89.999 Y-8.805
X-90.003 Y-8.776
X-90.158 Y-8.239
X-90.176 Y-8.204
X-90.205 Y-8.179
X-90.242 Y-8.167
X-90.28 Y-8.17
X-90.452 Y-8.223
X-90.488 Y-8.236
X-90.509 Y-8.246
X-90.553 Y-8.281
X-90.666 Y-8.38
X-90.715 Y-8.522
X-90.719 Y-8.672
X-90.685 Y-8.818
X-90.61 Y-8.947
X-90.581 Y-8.975
X-90.456 Y-9.047
X-90.311 Y-9.053
X-90.18 Y-8.99
X-90.149 Y-8.965
X-90.061 Y-8.899
X-89.98 Y-8.842
X-89.929 Y-8.815
X-89.695 Y-8.73
X-89.642 Y-8.711
X-89.557 Y-8.688
X-89.472 Y-8.668
X-89.388 Y-8.65
X-89.239 Y-8.635
X-89.205 Y-8.623
X-89.178 Y-8.601
X-89.159 Y-8.571
X-89.153 Y-8.535
X-89.16 Y-8.5
X-89.178 Y-8.47
X-89.205 Y-8.448
X-89.239 Y-8.437
X-89.734 Y-8.367
X-89.779 Y-8.361
X-90.48 Y-8.262
X-90.518 Y-8.264
X-90.553 Y-8.281
X-90.741 Y-8.43
X-90.798 Y-8.48
X-90.878 Y-8.607
X-90.897 Y-8.756
X-90.871 Y-8.903
X-90.803 Y-9.037
X-90.702 Y-9.148
X-90.676 Y-9.163
X-90.552 Y-9.201
X-90.424 Y-9.18
X-90.318 Y-9.107
X-90.234 Y-9.034
X-90.18 Y-8.99
X-90.16 Y-8.964
X-90.148 Y-8.933
Y-8.899
X-90.159 Y-8.868
X-90.179 Y-8.842
X-90.614 Y-8.437
X-90.643 Y-8.419
X-90.676 Y-8.411
X-90.711 Y-8.415
X-90.741 Y-8.43
X-90.936 Y-8.585
X-90.992 Y-8.635
X-91.056 Y-8.771
X-91.06 Y-8.921
X-91.021 Y-9.066
X-90.95 Y-9.198
X-90.842 Y-9.302
X-90.82 Y-9.315
X-90.684 Y-9.353
X-90.547 Y-9.325
X-90.437 Y-9.237
X-90.423 Y-9.21
X-90.418 Y-9.179
X-90.422 Y-9.149
X-90.436 Y-9.121
X-90.795 Y-8.608
X-90.823 Y-8.581
X-90.861 Y-8.567
X-90.9 Y-8.568
X-90.936 Y-8.585
X-91.021 Y-8.654
X-91.032 Y-8.665
X-91.109 Y-8.756
X-91.2 Y-8.875
X-91.221 Y-9.023
X-91.196 Y-9.171
X-91.131 Y-9.307
X-91.034 Y-9.421
X-90.911 Y-9.506
X-90.894 Y-9.511
X-90.774 Y-9.523
X-90.66 Y-9.486
X-90.569 Y-9.408
X-90.555 Y-9.38
X-90.55 Y-9.349
X-90.555 Y-9.318
X-90.569 Y-9.29
X-90.595 Y-9.255
X-90.954 Y-8.764
X-90.979 Y-8.74
X-91.012 Y-8.726
X-91.047 Y-8.724
X-91.081 Y-8.734
X-91.109 Y-8.756
X-91.164 Y-8.822
X-91.275 Y-8.958
X-91.319 Y-9.018
X-91.361 Y-9.162
X-91.343 Y-9.311
X-91.284 Y-9.449
X-91.194 Y-9.569
X-91.075 Y-9.661
X-91.048 Y-9.672
X-90.917 Y-9.694
X-90.788 Y-9.657
X-90.689 Y-9.567
X-90.676 Y-9.538
X-90.673 Y-9.506
X-90.68 Y-9.474
X-90.697 Y-9.447
X-90.72 Y-9.42
X-91.124 Y-8.957
X-91.15 Y-8.936
X-91.182 Y-8.925
X-91.216
X-91.248 Y-8.936
X-91.275 Y-8.958
X-91.418 Y-9.135
X-91.463 Y-9.196
X-91.498 Y-9.341
X-91.476 Y-9.49
X-91.413 Y-9.626
X-91.322 Y-9.745
X-91.2 Y-9.833
X-91.061 Y-9.889
X-91.055
X-90.926 Y-9.872
X-90.816 Y-9.802
X-90.746 Y-9.693
X-90.742 Y-9.655
X-90.751 Y-9.619
X-90.774 Y-9.588
X-90.815 Y-9.55
X-91.275 Y-9.127
X-91.309 Y-9.106
X-91.348 Y-9.101
X-91.387 Y-9.111
X-91.418 Y-9.135
X-91.503 Y-9.24
X-91.518 Y-9.26
X-91.527 Y-9.28
X-91.577 Y-9.406
X-91.622 Y-9.549
X-91.592 Y-9.696
X-91.522 Y-9.828
X-91.423 Y-9.941
X-91.303 Y-10.03
X-91.162 Y-10.083
X-91.128 Y-10.087
X-90.993 Y-10.071
X-90.879 Y-9.997
X-90.809 Y-9.88
X-90.806 Y-9.849
X-90.812 Y-9.819
X-90.826 Y-9.792
X-90.848 Y-9.771
X-90.93 Y-9.714
X-91.427 Y-9.364
X-91.459 Y-9.349
X-91.495 Y-9.346
X-91.529 Y-9.356
X-91.557 Y-9.376
X-91.577 Y-9.406
X-91.588 Y-9.435
X-91.665 Y-9.659
X-91.686 Y-9.731
X-91.678 Y-9.881
X-91.615 Y-10.017
X-91.52 Y-10.133
X-91.401 Y-10.224
X-91.262 Y-10.28
X-91.202 Y-10.289
X-91.06 Y-10.276
X-90.94 Y-10.199
X-90.869 Y-10.075
X-90.867 Y-10.043
X-90.874 Y-10.012
X-90.891 Y-9.985
X-90.916 Y-9.965
X-90.994 Y-9.919
X-91.521 Y-9.609
X-91.553 Y-9.597
X-91.588
X-91.621 Y-9.608
X-91.647 Y-9.63
X-91.665 Y-9.659
X-91.739 Y-9.875
X-91.76 Y-9.947
X-91.752 Y-10.096
X-91.688 Y-10.232
X-91.589 Y-10.345
X-91.468 Y-10.433
X-91.328 Y-10.486
X-91.179 Y-10.508
X-91.164 Y-10.506
X-91.053 Y-10.465
X-90.966 Y-10.385
X-90.917 Y-10.277
X-90.916 Y-10.246
X-90.925 Y-10.216
X-90.942 Y-10.19
X-90.967 Y-10.17
X-91.059 Y-10.119
X-91.598 Y-9.823
X-91.63 Y-9.812
X-91.664
X-91.696 Y-9.824
X-91.722 Y-9.845
X-91.739 Y-9.875
X-91.757 Y-9.927
X-91.778 Y-9.997
X-91.808 Y-10.128
X-91.822 Y-10.202
X-91.801 Y-10.35
X-91.727 Y-10.481
X-91.67 Y-10.535
X-91.608 Y-10.581
X-91.538 Y-10.609
X-91.462 Y-10.619
X-91.427 Y-10.611
X-91.398 Y-10.593
X-91.376 Y-10.564
X-91.366 Y-10.531
X-91.368 Y-10.495
X-91.382 Y-10.463
X-91.629 Y-10.098
X-91.656 Y-10.071
X-91.69 Y-10.056
X-91.728 Y-10.055
X-91.764 Y-10.069
X-91.792 Y-10.094
X-91.808 Y-10.128
X-91.841 Y-10.27
X-91.852 Y-10.335
X-91.859 Y-10.381
X-91.864 Y-10.419
X-91.869 Y-10.466
Y-10.475
X-91.864 Y-10.523
X-91.844 Y-10.567
X-91.811 Y-10.602
X-91.771 Y-10.615
X-91.729 Y-10.616
X-91.688 Y-10.605
G3 X-91.79 Y-10.363 I-0.051 J0.121
X-91.869 Y-10.466 I0.051 J-0.121
G1 X-91.873 Y-10.504
X-91.871 Y-10.523
X-91.866 Y-10.541
X-91.857 Y-10.56
X-91.841 Y-10.578
X-91.811 Y-10.602
X-91.793 Y-10.612
X-91.775 Y-10.617
X-91.757 Y-10.619
X-91.118
X-91.08
X-91.061 Y-10.618
X-91.036 Y-10.61
X-91.014 Y-10.589
X-91.005 Y-10.561
X-91.011 Y-10.531
X-91.031 Y-10.508
X-91.059 Y-10.498
X-91.089 Y-10.503
X-91.112 Y-10.522
X-91.123 Y-10.549
X-91.12 Y-10.579
X-91.102 Y-10.604
X-91.083 Y-10.614
X-91.061 Y-10.618
X-91.041 Y-10.613
X-91.022 Y-10.603
X-90.995 Y-10.582
X-90.977 Y-10.563
X-90.967 Y-10.543
X-90.961 Y-10.523
X-90.948 Y-10.419
X-90.93 Y-10.335
X-90.871 Y-10.082
X-90.847 Y-9.997
X-90.793 Y-9.828
X-90.765 Y-9.744
X-90.734 Y-9.659
X-90.694 Y-9.575
X-90.657 Y-9.522
X-90.436 Y-9.237
X-90.318 Y-9.107
X-90.303 Y-9.082
X-90.296 Y-9.055
X-90.295 Y-9.042 Z-0.989
X-90.309 Y-9.012 Z-0.978
X-90.32 Y-8.987 Z-0.955
X-90.328 Y-8.971 Z-0.925
X-90.33 Y-8.966 Z-0.89
G0 Z2
X-61.204 Y-14.592
Z0.5
G3 X-60.72 Y-14.717 Z0.29 I0.242 J-0.062 F333.3
X-61.204 Y-14.592 Z0.079 I-0.242 J0.062
X-60.72 Y-14.717 Z-0.131 I0.242 J-0.062
X-61.204 Y-14.592 Z-0.342 I-0.242 J0.062
X-60.72 Y-14.717 Z-0.552 I0.242 J-0.062
X-61.204 Y-14.592 Z-0.763 I-0.242 J0.062
X-60.993 Y-14.903 Z-0.876 I0.242 J-0.062
X-60.712 Y-14.655 Z-0.99 I0.031 J0.248
X-61.212 I-0.25
X-60.712 I0.25
G1 X-60.675 Y-14.509 F1000
X-60.688 Y-14.435
X-60.725 Y-14.37
X-60.832 Y-14.265
X-60.976 Y-14.225
X-61.125 Y-14.247
X-61.255 Y-14.321
X-61.352 Y-14.435
X-61.404 Y-14.576
X-61.406 Y-14.726
X-61.358 Y-14.868
X-61.267 Y-14.987
X-61.141 Y-15.068
X-60.995 Y-15.104
X-60.846 Y-15.09
X-60.709 Y-15.028
X-60.601 Y-14.925
X-60.523 Y-14.796
X-60.472 Y-14.655
X-60.462 Y-14.506
X-60.497 Y-14.36
X-60.568 Y-14.227
X-60.676 Y-14.124
X-60.807 Y-14.05
X-60.953 Y-14.017
X-61.103 Y-14.024
X-61.247 Y-14.065
X-61.377 Y-14.141
X-61.437 Y-14.201
X-61.492 Y-14.274
X-61.521 Y-14.36
X-61.524 Y-14.451
X-61.501 Y-14.643
X-61.497 Y-14.727
X-61.499 Y-14.812
X-61.501 Y-14.962
X-61.429 Y-15.093
X-61.323 Y-15.199
X-61.193 Y-15.275
X-61.049 Y-15.314
X-60.899 Y-15.318
X-60.751 Y-15.29
X-60.615 Y-15.228
X-60.586 Y-15.206
X-60.532 Y-15.153
X-60.493 Y-15.088
X-60.471 Y-15.016
X-60.438 Y-14.812
X-60.424 Y-14.685
X-60.423 Y-14.664
Y-14.643
X-60.431 Y-14.558
X-60.441 Y-14.474
X-60.479 Y-14.22
X-60.511 Y-14.074
X-60.599 Y-13.953
X-60.722 Y-13.867
X-60.863 Y-13.816
X-61.012 Y-13.796
X-61.162 Y-13.805
X-61.307 Y-13.843
X-61.442 Y-13.908
X-61.448 Y-13.914
X-61.524 Y-13.999
X-61.562 Y-14.106
X-61.558 Y-14.22
X-61.554 Y-14.236
X-61.542 Y-14.305
X-61.524 Y-14.451
X-61.514 Y-14.482
X-61.494 Y-14.509
X-61.466 Y-14.527
X-61.435 Y-14.535
X-61.402 Y-14.533
X-61.177 Y-14.479
X-60.555 Y-14.329
X-60.522 Y-14.314
X-60.496 Y-14.289
X-60.481 Y-14.256
X-60.479 Y-14.22
X-60.521 Y-13.967
X-60.561 Y-13.822
X-60.657 Y-13.707
X-60.786 Y-13.63
X-60.929 Y-13.586
X-61.078 Y-13.571
X-61.228 Y-13.582
X-61.374 Y-13.617
X-61.509 Y-13.683
X-61.512 Y-13.685
X-61.585 Y-13.772
X-61.62 Y-13.88
X-61.613 Y-13.993
X-61.597 Y-14.051
X-61.558 Y-14.22
X-61.541 Y-14.255
X-61.512 Y-14.28
X-61.475 Y-14.293
X-61.437 Y-14.291
X-61.216 Y-14.235
X-60.595 Y-14.077
X-60.562 Y-14.062
X-60.537 Y-14.036
X-60.523 Y-14.003
X-60.521 Y-13.967
X-60.54 Y-13.883
X-60.56 Y-13.798
X-60.567 Y-13.777
X-60.575 Y-13.756
X-60.646 Y-13.629
X-60.729 Y-13.504
X-60.852 Y-13.418
X-60.994 Y-13.37
X-61.143 Y-13.351
X-61.293 Y-13.359
X-61.439 Y-13.392
X-61.574 Y-13.459
X-61.587 Y-13.47
X-61.662 Y-13.565
X-61.694 Y-13.681
X-61.678 Y-13.8
X-61.619 Y-13.967
X-61.613 Y-13.993
X-61.598 Y-14.022
X-61.575 Y-14.046
X-61.546 Y-14.06
X-61.514 Y-14.065
X-61.482 Y-14.058
X-61.278 Y-13.983
X-60.7 Y-13.769
X-60.671 Y-13.752
X-60.649 Y-13.726
X-60.637 Y-13.695
X-60.636 Y-13.661
X-60.646 Y-13.629
X-60.793 Y-13.384
X-60.798 Y-13.376
X-60.892 Y-13.259
X-61.021 Y-13.182
X-61.166 Y-13.145
X-61.316 Y-13.138
X-61.464 Y-13.162
X-61.604 Y-13.216
X-61.654 Y-13.251
X-61.749 Y-13.357
X-61.783 Y-13.495
X-61.751 Y-13.633
X-61.71 Y-13.714
X-61.678 Y-13.8
X-61.661 Y-13.829
X-61.635 Y-13.85
X-61.604 Y-13.862
X-61.571 Y-13.863
X-61.54 Y-13.853
X-61.396 Y-13.782
X-60.846 Y-13.507
X-60.819 Y-13.487
X-60.8 Y-13.459
X-60.791 Y-13.426
X-60.794 Y-13.393
X-60.808 Y-13.362
X-60.859 Y-13.291
X-60.993 Y-13.122
X-61.092 Y-13.01
X-61.231 Y-12.953
X-61.38 Y-12.936
X-61.529 Y-12.952
X-61.671 Y-13.003
X-61.797 Y-13.083
X-61.832 Y-13.123
X-61.896 Y-13.244
X-61.899 Y-13.38
X-61.842 Y-13.505
X-61.769 Y-13.599
X-61.751 Y-13.633
X-61.73 Y-13.659
X-61.702 Y-13.677
X-61.67 Y-13.685
X-61.637 Y-13.682
X-61.607 Y-13.668
X-61.533 Y-13.617
X-61.017 Y-13.264
X-60.994 Y-13.242
X-60.979 Y-13.214
X-60.973 Y-13.182
X-60.978 Y-13.151
X-60.993 Y-13.122
X-61.047 Y-13.055
X-61.131 Y-12.97
X-61.254 Y-12.869
X-61.28 Y-12.848
X-61.3 Y-12.831
X-61.35 Y-12.799
X-61.372 Y-12.787
X-61.409 Y-12.778
X-61.446 Y-12.783
X-61.478 Y-12.802
X-61.502 Y-12.831
X-61.513 Y-12.867
X-61.51 Y-12.904
X-61.493 Y-12.938
X-61.466 Y-12.963
X-61.418 Y-12.992
X-61.384 Y-13.005
X-61.347
X-61.313 Y-12.991
X-61.286 Y-12.966
X-61.27 Y-12.932
X-61.267 Y-12.896
X-61.278 Y-12.86
X-61.3 Y-12.831
X-61.338 Y-12.803
X-61.376 Y-12.784
X-61.439 Y-12.759
X-61.589 Y-12.758
X-61.735 Y-12.794
X-61.868 Y-12.862
X-61.98 Y-12.962
X-62 Y-12.995
X-62.045 Y-13.118
X-62.034 Y-13.248
X-61.968 Y-13.361
X-61.893 Y-13.442
X-61.877 Y-13.46
X-61.842 Y-13.505
X-61.812 Y-13.529
X-61.776 Y-13.54
X-61.738 Y-13.537
X-61.704 Y-13.52
X-61.679 Y-13.491
X-61.659 Y-13.457
X-61.343 Y-12.921
X-61.331 Y-12.891
X-61.33 Y-12.858
X-61.339 Y-12.827
X-61.358 Y-12.8
X-61.384 Y-12.781
X-61.47 Y-12.746
X-61.616 Y-12.689
X-61.759 Y-12.642
X-61.906 Y-12.67
X-62.04 Y-12.738
X-62.146 Y-12.844
X-62.153 Y-12.856
X-62.19 Y-12.975
X-62.175 Y-13.1
X-62.111 Y-13.207
X-61.968 Y-13.361
X-61.936 Y-13.382
X-61.899 Y-13.39
X-61.862 Y-13.384
X-61.829 Y-13.364
X-61.807 Y-13.333
X-61.565 Y-12.824
X-61.556 Y-12.793
X-61.558 Y-12.761
X-61.569 Y-12.731
X-61.589 Y-12.707
X-61.616 Y-12.689
X-61.757 Y-12.635
X-61.774 Y-12.626
X-61.808 Y-12.604
X-61.87 Y-12.561
X-62.019 Y-12.545
X-62.16 Y-12.595
X-62.275 Y-12.692
X-62.294 Y-12.721
X-62.335 Y-12.827
Y-12.94
X-62.292 Y-13.046
X-62.213 Y-13.128
X-62.146 Y-13.175
X-62.111 Y-13.207
X-62.084 Y-13.226
X-62.052 Y-13.236
X-62.019 Y-13.234
X-61.988 Y-13.222
X-61.963 Y-13.2
X-61.946 Y-13.171
X-61.779 Y-12.714
X-61.773 Y-12.684
X-61.776 Y-12.654
X-61.788 Y-12.627
X-61.808 Y-12.604
X-61.849 Y-12.571
X-61.893 Y-12.528
X-61.911 Y-12.504
X-61.935 Y-12.475
X-62.003 Y-12.444
X-62.151 Y-12.418
X-62.295 Y-12.461
X-62.412 Y-12.554
X-62.497 Y-12.679
X-62.507 Y-12.803
X-62.466 Y-12.921
X-62.38 Y-13.012
X-62.213 Y-13.128
X-62.18 Y-13.142
X-62.144 Y-13.143
X-62.109 Y-13.131
X-62.082 Y-13.108
X-62.064 Y-13.076
X-61.899 Y-12.593
X-61.893 Y-12.562
X-61.898 Y-12.532
X-61.911 Y-12.504
X-61.953 Y-12.447
X-61.977 Y-12.404
X-61.996 Y-12.371
X-62.053 Y-12.323
X-62.193 Y-12.27
X-62.342 Y-12.286
X-62.478 Y-12.349
X-62.594 Y-12.445
X-62.672 Y-12.573
X-62.678 Y-12.697
X-62.634 Y-12.812
X-62.548 Y-12.899
X-62.4 Y-12.998
X-62.38 Y-13.012
X-62.35 Y-13.025
X-62.317 Y-13.027
X-62.285 Y-13.019
X-62.258 Y-13.001
X-62.238 Y-12.975
X-61.981 Y-12.491
X-61.971 Y-12.463
X-61.97 Y-12.433
X-61.977 Y-12.404
X-61.997 Y-12.362
X-62.012 Y-12.32
X-62.023 Y-12.278
X-62.033 Y-12.241
X-62.084 Y-12.187
X-62.215 Y-12.113
X-62.364 Y-12.102
X-62.51 Y-12.137
X-62.644 Y-12.205
X-62.757 Y-12.303
X-62.807 Y-12.381
X-62.852 Y-12.501
X-62.845 Y-12.628
X-62.786 Y-12.742
X-62.686 Y-12.821
X-62.621 Y-12.855
X-62.594 Y-12.869
X-62.548 Y-12.899
X-62.513 Y-12.913
X-62.476 Y-12.912
X-62.441 Y-12.898
X-62.414 Y-12.872
X-62.041 Y-12.35
X-62.025 Y-12.315
X-62.023 Y-12.278
X-62.031 Y-12.235
X-62.036 Y-12.193
X-62.044 Y-12.119
X-62.083 Y-12.055
X-62.198 Y-11.958
X-62.342 Y-11.917
X-62.492 Y-11.92
X-62.637 Y-11.957
X-62.772 Y-12.022
X-62.889 Y-12.117
X-62.982 Y-12.235
X-63.042 Y-12.372
X-63.053 Y-12.436
X-63.043 Y-12.582
X-62.965 Y-12.705
X-62.839 Y-12.777
X-62.696 Y-12.817
X-62.686 Y-12.821
X-62.648 Y-12.827
X-62.611 Y-12.818
X-62.58 Y-12.796
X-62.558 Y-12.773
X-62.063 Y-12.257
X-62.044 Y-12.228
X-62.036 Y-12.193
X-62.034 Y-12.109
X-62.026 Y-12.062
X-62.022 Y-12.025
X-62.04 Y-11.952
X-62.122 Y-11.827
X-62.25 Y-11.749
X-62.291 Y-11.739
X-62.377 Y-11.73
X-62.463 Y-11.746
X-62.54 Y-11.787
X-62.654 Y-11.869
X-62.739 Y-11.925
X-62.767 Y-11.94
X-62.823 Y-11.962
X-62.87 Y-11.975
X-63.012 Y-12.024
X-63.128 Y-12.118
X-63.212 Y-12.242
X-63.258 Y-12.385
X-63.259 Y-12.425
X-63.233 Y-12.558
X-63.15 Y-12.667
X-63.028 Y-12.727
X-62.991 Y-12.728
X-62.957 Y-12.715
X-62.929 Y-12.69
X-62.913 Y-12.657
X-62.911 Y-12.652
X-62.749 Y-12.1
X-62.746 Y-12.066
X-62.754 Y-12.032
X-62.773 Y-12.003
X-62.801 Y-11.982
X-62.835 Y-11.973
X-62.87 Y-11.975
X-63.047 Y-12.024
X-63.162 Y-12.055
X-63.233 Y-12.078
X-63.354 Y-12.167
X-63.429 Y-12.297
X-63.437 Y-12.338
X-63.436 Y-12.452
X-63.393 Y-12.557
X-63.314 Y-12.638
X-63.21 Y-12.684
X-63.177 Y-12.685
X-63.146 Y-12.676
X-63.119 Y-12.656
X-63.1 Y-12.629
X-63.091 Y-12.598
X-63.04 Y-12.164
X-63.043 Y-12.126
X-63.06 Y-12.092
X-63.088 Y-12.067
X-63.124 Y-12.054
X-63.162 Y-12.055
X-63.246 Y-12.077
X-63.375 Y-12.102
X-63.447 Y-12.12
X-63.564 Y-12.214
X-63.621 Y-12.353
Y-12.356
X-63.59 Y-12.491
X-63.502 Y-12.597
X-63.375 Y-12.653
X-63.34 Y-12.652
X-63.309 Y-12.639
X-63.283 Y-12.617
X-63.266 Y-12.588
X-63.26 Y-12.554
X-63.259 Y-12.201
X-63.265 Y-12.167
X-63.282 Y-12.137
X-63.308 Y-12.115
X-63.34 Y-12.103
X-63.375 Y-12.102
X-63.5 Y-12.126
X-63.547 Y-12.134
X-63.62 Y-12.15
X-63.681 Y-12.193
X-63.77 Y-12.314
X-63.761 Y-12.423
X-63.711 Y-12.521
X-63.628 Y-12.592
X-63.524 Y-12.627
X-63.49 Y-12.624
X-63.459 Y-12.61
X-63.434 Y-12.586
X-63.419 Y-12.555
X-63.415 Y-12.521
X-63.433 Y-12.227
X-63.441 Y-12.195
X-63.458 Y-12.167
X-63.483 Y-12.146
X-63.514 Y-12.135
X-63.547 Y-12.134
X-63.585 Y-12.14
X-63.669 Y-12.152
X-63.716 Y-12.156
X-63.754 Y-12.159
X-63.772 Y-12.161
X-63.799 Y-12.172
X-63.808 Y-12.177
X-63.822 Y-12.197
X-63.826 Y-12.221
X-63.821 Y-12.245
X-63.803 Y-12.268
X-63.777 Y-12.28
X-63.748 Y-12.278
X-63.723 Y-12.263
X-63.708 Y-12.238
X-63.707 Y-12.209
X-63.72 Y-12.183
X-63.743 Y-12.165
X-63.772 Y-12.161
X-63.79 Y-12.167
X-63.808 Y-12.177
X-63.826 Y-12.193
X-63.838 Y-12.207
X-63.852 Y-12.225
X-63.861 Y-12.242
X-63.865 Y-12.26
X-63.867 Y-12.278
Y-12.447
Y-12.489
Y-12.499
X-63.862 Y-12.517
X-63.857 Y-12.532
X-63.851 Y-12.546
X-63.828 Y-12.564
X-63.8 Y-12.571
X-63.772 Y-12.568
X-63.745 Y-12.551
X-63.728 Y-12.525
X-63.723 Y-12.495
X-63.732 Y-12.465
X-63.753 Y-12.442
X-63.782 Y-12.429
X-63.813 Y-12.43
X-63.84 Y-12.444
X-63.86 Y-12.469
X-63.867 Y-12.499
X-63.865 Y-12.51
X-63.863 Y-12.521
X-63.859 Y-12.531
X-63.851 Y-12.546
X-63.838 Y-12.561
X-63.807 Y-12.587
X-63.796 Y-12.593
X-63.786 Y-12.598
X-63.775 Y-12.601
X-63.764 Y-12.603
X-63.669 Y-12.61
X-63.585 Y-12.619
X-63.5 Y-12.63
X-63.246 Y-12.676
X-62.992 Y-12.736
X-62.87 Y-12.769
X-62.839 Y-12.777
X-62.806 Y-12.78
X-62.775 Y-12.772
X-62.747 Y-12.754
X-62.588 Y-12.606
X-62.057 Y-12.116
X-62.037 Y-12.092
X-62.026 Y-12.062
X-62.02 Y-12.024
X-62.007 Y-11.982
X-61.991 Y-11.94
X-61.978 Y-11.905
X-61.984 Y-11.83
X-62.061 Y-11.723
X-62.177 Y-11.66
X-62.309 Y-11.654
X-62.43 Y-11.706
X-62.54 Y-11.787
X-62.563 Y-11.812
X-62.576 Y-11.844
X-62.578 Y-11.878
X-62.568 Y-11.91
X-62.548 Y-11.938
X-62.519 Y-11.957
X-62.486 Y-11.965
X-62.088 Y-11.995
X-62.049 Y-11.99
X-62.015 Y-11.971
X-61.991 Y-11.94
X-61.977 Y-11.909
X-61.946 Y-11.855
X-61.927 Y-11.823
X-61.922 Y-11.748
X-61.989 Y-11.644
X-62.097 Y-11.583
X-62.221 Y-11.578
X-62.333 Y-11.63
X-62.403 Y-11.686
X-62.43 Y-11.706
X-62.453 Y-11.732
X-62.466 Y-11.764
X-62.467 Y-11.799
X-62.456 Y-11.832
X-62.434 Y-11.86
X-62.404 Y-11.878
X-62.37 Y-11.885
X-62.025 Y-11.891
X-61.995 Y-11.888
X-61.968 Y-11.875
X-61.946 Y-11.855
X-61.893 Y-11.787
X-61.87 Y-11.757
X-61.856 Y-11.683
X-61.919 Y-11.572
X-62.03 Y-11.507
X-62.158
X-62.269 Y-11.57
X-62.316 Y-11.616
X-62.333 Y-11.63
X-62.355 Y-11.657
X-62.366 Y-11.689
Y-11.723
X-62.355 Y-11.756
X-62.333 Y-11.782
X-62.303 Y-11.799
X-62.27 Y-11.806
X-61.962 Y-11.812
X-61.925 Y-11.806
X-61.893 Y-11.787
X-61.876 Y-11.771
X-61.839 Y-11.739
X-61.811 Y-11.713
X-61.787 Y-11.642
X-61.793 Y-11.567
X-61.868 Y-11.471
X-61.979 Y-11.422
X-62.101 Y-11.433
X-62.202 Y-11.501
X-62.231 Y-11.533
X-62.269 Y-11.57
X-62.289 Y-11.602
X-62.296 Y-11.638
X-62.289 Y-11.675
X-62.269 Y-11.707
X-62.239 Y-11.729
X-62.203 Y-11.738
X-61.908 Y-11.76
X-61.871 Y-11.756
X-61.839 Y-11.739
X-61.808 Y-11.713
X-61.769 Y-11.686
X-61.738 Y-11.666
X-61.699 Y-11.601
X-61.697 Y-11.526
X-61.718 Y-11.454
X-61.805 Y-11.369
X-61.921 Y-11.333
X-62.04 Y-11.354
X-62.137 Y-11.428
X-62.202 Y-11.501
X-62.22 Y-11.532
X-62.225 Y-11.568
X-62.218 Y-11.603
X-62.199 Y-11.633
X-62.17 Y-11.655
X-62.136 Y-11.665
X-61.827 Y-11.698
X-61.797 Y-11.696
X-61.769 Y-11.686
X-61.698 Y-11.646
X-61.665 Y-11.628
X-61.633 Y-11.608
X-61.599 Y-11.542
X-61.593 Y-11.467
X-61.645 Y-11.356
X-61.74 Y-11.279
X-61.859 Y-11.25
X-61.979 Y-11.276
X-62.075 Y-11.352
X-62.137 Y-11.428
X-62.153 Y-11.459
X-62.157 Y-11.493
X-62.15 Y-11.526
X-62.132 Y-11.555
X-62.105 Y-11.576
X-62.072 Y-11.587
X-61.725 Y-11.638
X-61.694 Y-11.637
X-61.665 Y-11.628
X-61.583 Y-11.583
X-61.551 Y-11.563
X-61.506 Y-11.503
X-61.491 Y-11.429
X-61.543 Y-11.297
X-61.649 Y-11.203
X-61.786 Y-11.168
X-61.924 Y-11.2
X-62.032 Y-11.292
X-62.075 Y-11.352
X-62.092 Y-11.387
X-62.094 Y-11.427
X-62.081 Y-11.464
X-62.053 Y-11.493
X-62.017 Y-11.51
X-61.65 Y-11.591
X-61.616 Y-11.593
X-61.583 Y-11.583
X-61.47 Y-11.519
X-61.466 Y-11.517
X-61.438 Y-11.494
X-61.404 Y-11.426
X-61.393 Y-11.352
X-61.419 Y-11.204
X-61.458 Y-11.151
X-61.572 Y-11.058
X-61.717 Y-11.03
X-61.857 Y-11.075
X-61.96 Y-11.181
X-61.977 Y-11.212
X-62.011 Y-11.264
X-62.032 Y-11.292
X-62.047 Y-11.328
Y-11.367
X-62.032 Y-11.404
X-62.004 Y-11.431
X-61.968 Y-11.446
X-61.535 Y-11.529
X-61.5
X-61.466 Y-11.517
X-61.385 Y-11.457
X-61.36 Y-11.433
X-61.308 Y-11.379
X-61.28 Y-11.309
X-61.269 Y-11.16
X-61.329 Y-11.022
X-61.436 Y-10.918
X-61.57 Y-10.85
X-61.587 Y-10.848
X-61.72 Y-10.861
X-61.834 Y-10.932
X-61.906 Y-11.045
X-61.924 Y-11.095
X-61.96 Y-11.181
X-61.97 Y-11.214
X-61.969 Y-11.25
X-61.955 Y-11.282
X-61.931 Y-11.308
X-61.899 Y-11.323
X-61.454 Y-11.454
X-61.421 Y-11.458
X-61.388 Y-11.451
X-61.36 Y-11.433
X-61.241 Y-11.319
X-61.216 Y-11.294
X-61.189 Y-11.264
X-61.15 Y-11.2
X-61.133 Y-11.051
X-61.182 Y-10.909
X-61.273 Y-10.791
X-61.392 Y-10.699
X-61.534 Y-10.651
X-61.55
X-61.675 Y-10.674
X-61.779 Y-10.747
X-61.843 Y-10.857
X-61.894 Y-11.011
X-61.906 Y-11.045
X-61.911 Y-11.078
X-61.904 Y-11.11
X-61.888 Y-11.139
X-61.863 Y-11.161
X-61.832 Y-11.173
X-61.282 Y-11.293
X-61.249 Y-11.294
X-61.216 Y-11.284
X-61.189 Y-11.264
X-61.131 Y-11.18
X-61.081 Y-11.095
X-61.045 Y-11.029
X-61.027 Y-10.88
X-61.075 Y-10.738
X-61.162 Y-10.616
X-61.278 Y-10.521
X-61.416 Y-10.462
X-61.47 Y-10.455
X-61.584 Y-10.462
X-61.687 Y-10.511
X-61.764 Y-10.595
X-61.805 Y-10.702
X-61.808 Y-10.722
X-61.838 Y-10.842
X-61.843 Y-10.857
X-61.847 Y-10.897
X-61.834 Y-10.934
X-61.809 Y-10.964
X-61.773 Y-10.982
X-61.191 Y-11.137
X-61.159 Y-11.141
X-61.129 Y-11.134
X-61.102 Y-11.118
X-61.081 Y-11.095
X-60.98 Y-10.926
X-60.947 Y-10.859
X-60.922 Y-10.711
X-60.965 Y-10.567
X-61.048 Y-10.443
X-61.16 Y-10.342
X-61.293 Y-10.274
X-61.439 Y-10.239
X-61.496 Y-10.242
X-61.63 Y-10.281
X-61.732 Y-10.377
X-61.78 Y-10.509
X-61.788 Y-10.588
X-61.8 Y-10.673
X-61.805 Y-10.702
X-61.803 Y-10.738
X-61.788 Y-10.772
X-61.762 Y-10.798
X-61.729 Y-10.812
X-61.087 Y-10.969
X-61.057 Y-10.972
X-61.027 Y-10.965
X-61 Y-10.949
X-60.98 Y-10.926
X-60.877 Y-10.738
X-60.862 Y-10.705
X-60.854 Y-10.689
X-60.843 Y-10.645
X-60.844 Y-10.605
X-60.86 Y-10.569
X-60.889 Y-10.542
X-60.926 Y-10.529
X-60.966 Y-10.53
X-61.001 Y-10.547
X-61.028 Y-10.576
X-61.041 Y-10.614
X-61.043 Y-10.632
X-61.042 Y-10.667
X-61.028 Y-10.7
X-61.005 Y-10.725
X-60.973 Y-10.741
X-60.938 Y-10.745
X-60.904 Y-10.737
X-60.875 Y-10.718
X-60.854 Y-10.689
X-60.849 Y-10.673
X-60.839 Y-10.626
X-60.827 Y-10.552
X-60.857 Y-10.405
X-60.932 Y-10.275
X-61.037 Y-10.168
X-61.164 Y-10.088
X-61.304 Y-10.036
X-61.454 Y-10.022
X-61.5 Y-10.028
X-61.626 Y-10.076
X-61.719 Y-10.174
X-61.759 Y-10.303
X-61.762 Y-10.335
X-61.78 Y-10.509
X-61.775 Y-10.547
X-61.757 Y-10.58
X-61.728 Y-10.604
X-61.691 Y-10.616
X-61.585 Y-10.628
X-60.948 Y-10.701
X-60.912 Y-10.699
X-60.879 Y-10.684
X-60.854 Y-10.659
X-60.839 Y-10.626
X-60.831 Y-10.588
X-60.797 Y-10.386
X-60.789 Y-10.311
X-60.815 Y-10.164
X-60.895 Y-10.037
X-61.006 Y-9.935
X-61.136 Y-9.861
X-61.278 Y-9.813
X-61.428 Y-9.801
X-61.576 Y-9.82
X-61.677 Y-9.893
X-61.74 Y-9.998
X-61.755 Y-10.119
X-61.751 Y-10.166
X-61.755 Y-10.25
X-61.759 Y-10.303
X-61.754 Y-10.341
X-61.734 Y-10.373
X-61.704 Y-10.397
X-61.667 Y-10.407
X-61.542 Y-10.416
X-60.903 Y-10.466
X-60.867 Y-10.462
X-60.835 Y-10.446
X-60.811 Y-10.419
X-60.797 Y-10.386
X-60.776 Y-10.25
X-60.763 Y-10.166
X-60.759 Y-10.12
X-60.755 Y-10.082
X-60.752 Y-10.039
X-60.76 Y-9.965
X-60.835 Y-9.835
X-60.943 Y-9.73
X-61.069 Y-9.65
X-61.21 Y-9.597
X-61.357 Y-9.572
X-61.507 Y-9.576
X-61.564 Y-9.592
X-61.685 Y-9.662
X-61.762 Y-9.779
X-61.777 Y-9.918
X-61.767 Y-9.997
X-61.758 Y-10.082
X-61.755 Y-10.119
X-61.743 Y-10.156
X-61.718 Y-10.186
X-61.684 Y-10.204
X-61.646 Y-10.207
X-61.488 Y-10.192
X-60.841 Y-10.127
X-60.809 Y-10.118
X-60.781 Y-10.099
X-60.761 Y-10.072
X-60.752 Y-10.039
X-60.755 Y-9.997
X-60.778 Y-9.782
X-60.79 Y-9.708
X-60.862 Y-9.576
X-60.972 Y-9.474
X-61.104 Y-9.402
X-61.247 Y-9.357
X-61.396 Y-9.34
X-61.545 Y-9.357
X-61.607 Y-9.378
X-61.73 Y-9.457
X-61.802 Y-9.585
X-61.803 Y-9.732
X-61.801 Y-9.744
X-61.788 Y-9.828
X-61.777 Y-9.918
X-61.763 Y-9.954
X-61.737 Y-9.982
X-61.703 Y-9.999
X-61.664 Y-10.001
X-61.493 Y-9.977
X-60.864 Y-9.888
X-60.829 Y-9.876
X-60.8 Y-9.852
X-60.783 Y-9.819
X-60.778 Y-9.782
X-60.783 Y-9.744
X-60.796 Y-9.659
X-60.817 Y-9.528
X-60.833 Y-9.455
X-60.904 Y-9.323
X-61.018 Y-9.226
X-61.153 Y-9.159
X-61.298 Y-9.123
X-61.448 Y-9.114
X-61.596 Y-9.139
X-61.736 Y-9.192
X-61.747 Y-9.201
X-61.823 Y-9.286
X-61.861 Y-9.394
X-61.857 Y-9.508
X-61.803 Y-9.732
X-61.787 Y-9.765
X-61.759 Y-9.79
X-61.724 Y-9.804
X-61.687 Y-9.803
X-61.519 Y-9.768
X-60.896 Y-9.639
X-60.862 Y-9.625
X-60.835 Y-9.599
X-60.819 Y-9.565
X-60.817 Y-9.528
X-60.823 Y-9.49
X-60.841 Y-9.406
X-60.888 Y-9.237
X-60.911 Y-9.166
X-60.999 Y-9.044
X-61.124 Y-8.961
X-61.265 Y-8.909
X-61.413 Y-8.889
X-61.563 Y-8.896
X-61.709 Y-8.931
X-61.842 Y-9.001
X-61.855 Y-9.013
X-61.927 Y-9.117
X-61.949 Y-9.242
X-61.918 Y-9.365
X-61.897 Y-9.406
X-61.861 Y-9.49
X-61.857 Y-9.508
X-61.839 Y-9.544
X-61.809 Y-9.569
X-61.772 Y-9.581
X-61.733 Y-9.578
X-61.565 Y-9.53
X-60.957 Y-9.357
X-60.923 Y-9.339
X-60.898 Y-9.311
X-60.886 Y-9.275
X-60.888 Y-9.237
X-60.923 Y-9.11
X-60.93 Y-9.089
X-60.935 Y-9.079
X-61.047 Y-8.9
X-61.133 Y-8.777
X-61.266 Y-8.708
X-61.412 Y-8.673
X-61.562 Y-8.667
X-61.71 Y-8.691
X-61.851 Y-8.742
X-61.974 Y-8.828
X-61.985 Y-8.84
X-62.044 Y-8.951
X-62.052 Y-9.076
X-62.009 Y-9.193
X-61.982 Y-9.237
X-61.918 Y-9.365
X-61.893 Y-9.395
X-61.859 Y-9.413
X-61.82 Y-9.417
X-61.783 Y-9.406
X-61.639 Y-9.329
X-61.086 Y-9.038
X-61.061 Y-9.019
X-61.043 Y-8.993
X-61.034 Y-8.962
X-61.035 Y-8.93
X-61.047 Y-8.9
X-61.153 Y-8.73
X-61.216 Y-8.653
X-61.321 Y-8.546
X-61.458 Y-8.484
X-61.606 Y-8.463
X-61.756 Y-8.474
X-61.9 Y-8.516
X-62.032 Y-8.588
X-62.078 Y-8.631
X-62.155 Y-8.746
X-62.172 Y-8.883
X-62.125 Y-9.013
X-62.009 Y-9.193
X-61.982 Y-9.221
X-61.946 Y-9.235
X-61.907
X-61.871 Y-9.22
X-61.757 Y-9.144
X-61.24 Y-8.796
X-61.216 Y-8.774
X-61.201 Y-8.745
X-61.196 Y-8.713
X-61.201 Y-8.682
X-61.216 Y-8.653
X-61.404 Y-8.441
X-61.428 Y-8.414
X-61.448 Y-8.392
X-61.47 Y-8.368
X-61.498 Y-8.342
X-61.514 Y-8.329
X-61.531 Y-8.318
X-61.566 Y-8.306
X-61.603 Y-8.307
X-61.637 Y-8.322
X-61.664 Y-8.348
X-61.679 Y-8.382
X-61.68 Y-8.419
X-61.668 Y-8.454
X-61.644 Y-8.483
X-61.609 Y-8.51
X-61.577 Y-8.528
X-61.54 Y-8.532
X-61.505 Y-8.523
X-61.475 Y-8.502
X-61.454 Y-8.472
X-61.446 Y-8.436
X-61.452 Y-8.4
X-61.47 Y-8.368
X-61.489 Y-8.348
X-61.508 Y-8.332
X-61.547 Y-8.308
X-61.613 Y-8.271
X-61.762 Y-8.261
X-61.91 Y-8.285
X-62.051 Y-8.337
X-62.176 Y-8.421
X-62.279 Y-8.529
X-62.311 Y-8.642
X-62.295 Y-8.759
X-62.234 Y-8.859
X-62.203 Y-8.899
X-62.145 Y-8.984
X-62.125 Y-9.013
X-62.099 Y-9.039
X-62.064 Y-9.054
X-62.027 Y-9.055
X-61.992 Y-9.042
X-61.964 Y-9.018
X-61.906 Y-8.943
X-61.524 Y-8.452
X-61.509 Y-8.423
X-61.503 Y-8.391
X-61.508 Y-8.359
X-61.524 Y-8.33
X-61.547 Y-8.308
X-61.723 Y-8.197
X-61.856 Y-8.127
X-62.006 Y-8.12
X-62.151 Y-8.157
X-62.284 Y-8.227
X-62.395 Y-8.327
X-62.414 Y-8.357
X-62.46 Y-8.495
X-62.436 Y-8.638
X-62.347 Y-8.753
X-62.316 Y-8.778
X-62.276 Y-8.815
X-62.234 Y-8.859
X-62.206 Y-8.878
X-62.173 Y-8.887
X-62.14 Y-8.884
X-62.109 Y-8.871
X-62.084 Y-8.848
X-62.076 Y-8.837
X-61.7 Y-8.34
X-61.685 Y-8.311
X-61.68 Y-8.28
X-61.685 Y-8.248
X-61.7 Y-8.219
X-61.723 Y-8.197
X-61.821 Y-8.139
X-61.969 Y-8.054
X-62.036 Y-8.02
X-62.184 Y-7.998
X-62.33 Y-8.032
X-62.462 Y-8.104
X-62.565 Y-8.213
X-62.587 Y-8.255
X-62.624 Y-8.397
X-62.588 Y-8.539
X-62.49 Y-8.647
X-62.4 Y-8.711
X-62.347 Y-8.753
X-62.316 Y-8.769
X-62.281 Y-8.772
X-62.248 Y-8.764
X-62.219 Y-8.745
X-62.198 Y-8.717
X-61.932 Y-8.184
X-61.922 Y-8.149
X-61.925 Y-8.112
X-61.942 Y-8.079
X-61.969 Y-8.054
X-62.062 Y-8.003
X-62.231 Y-7.927
X-62.301 Y-7.9
X-62.451 Y-7.901
X-62.589 Y-7.959
X-62.702 Y-8.058
X-62.784 Y-8.184
X-62.789 Y-8.205
X-62.795 Y-8.331
X-62.748 Y-8.449
X-62.657 Y-8.537
X-62.49 Y-8.647
X-62.456 Y-8.661
X-62.419
X-62.385 Y-8.648
X-62.358 Y-8.623
X-62.342 Y-8.591
X-62.179 Y-8.046
X-62.175 Y-8.011
X-62.183 Y-7.977
X-62.203 Y-7.948
X-62.231 Y-7.927
X-62.442 Y-7.833
X-62.464 Y-7.826
X-62.537 Y-7.813
X-62.686 Y-7.83
X-62.817 Y-7.904
X-62.92 Y-8.013
X-62.941 Y-8.056
X-62.968 Y-8.166
X-62.954 Y-8.278
X-62.899 Y-8.376
X-62.811 Y-8.447
X-62.739 Y-8.486
X-62.657 Y-8.537
X-62.62 Y-8.549
X-62.582 Y-8.546
X-62.547 Y-8.529
X-62.521 Y-8.501
X-62.509 Y-8.464
X-62.43 Y-7.929
X-62.432 Y-7.892
X-62.447 Y-7.858
X-62.473 Y-7.832
X-62.506 Y-7.817
X-62.654 Y-7.789
X-62.739 Y-7.776
X-62.813 Y-7.769
X-62.958 Y-7.809
X-63.07 Y-7.908
X-63.142 Y-8.04
X-63.144 Y-8.049
X-63.135 Y-8.193
X-63.058 Y-8.317
X-62.933 Y-8.39
X-62.897 Y-8.393
X-62.862 Y-8.382
X-62.833 Y-8.359
X-62.814 Y-8.327
X-62.663 Y-7.909
X-62.657 Y-7.875
X-62.663 Y-7.841
X-62.68 Y-7.811
X-62.706 Y-7.788
X-62.739 Y-7.776
X-62.954 Y-7.745
X-63.029 Y-7.739
X-63.17 Y-7.789
X-63.277 Y-7.894
X-63.332 Y-8.033
X-63.333 Y-8.05
X-63.305 Y-8.182
X-63.222 Y-8.288
X-63.101 Y-8.348
X-63.064
X-63.029 Y-8.334
X-63.001 Y-8.309
X-62.985 Y-8.276
X-62.875 Y-7.87
X-62.871 Y-7.837
X-62.879 Y-7.805
X-62.897 Y-7.777
X-62.923 Y-7.756
X-62.954 Y-7.745
X-63.162 Y-7.717
X-63.236 Y-7.711
X-63.376 Y-7.767
X-63.475 Y-7.879
X-63.519 Y-8.022
X-63.518 Y-8.028
X-63.48 Y-8.163
X-63.384 Y-8.266
X-63.252 Y-8.314
X-63.246 Y-8.315
X-63.162 Y-8.333
X-62.992 Y-8.373
X-62.933 Y-8.39
X-62.895 Y-8.392
X-62.858 Y-8.38
X-62.829 Y-8.354
X-62.812 Y-8.319
X-62.809 Y-8.281
X-62.821 Y-8.244
X-63.091 Y-7.767
X-63.109 Y-7.743
X-63.134 Y-7.726
X-63.162 Y-7.717
X-63.246 Y-7.707
X-63.377 Y-7.695
X-63.452 Y-7.692
X-63.585 Y-7.761
X-63.674 Y-7.882
X-63.705 Y-8.028
X-63.704 Y-8.036
X-63.658 Y-8.159
X-63.564 Y-8.25
X-63.441 Y-8.293
X-63.252 Y-8.314
X-63.213 Y-8.309
X-63.179 Y-8.29
X-63.155 Y-8.259
X-63.145 Y-8.221
X-63.15 Y-8.182
X-63.296 Y-7.762
X-63.314 Y-7.73
X-63.342 Y-7.706
X-63.377 Y-7.695
X-63.5 Y-7.684
X-63.547
X-63.621 Y-7.687
X-63.692 Y-7.713
X-63.81 Y-7.805
X-63.832 Y-7.849
X-63.864 Y-7.965
X-63.848 Y-8.085
X-63.786 Y-8.189
X-63.687 Y-8.259
X-63.569 Y-8.285
X-63.5 Y-8.286
X-63.441 Y-8.293
X-63.402 Y-8.289
X-63.369 Y-8.27
X-63.345 Y-8.241
X-63.333 Y-8.204
X-63.337 Y-8.166
X-63.454 Y-7.756
X-63.467 Y-7.728
X-63.489 Y-7.705
X-63.516 Y-7.69
X-63.547 Y-7.684
X-63.754 Y-7.683
X-63.829 Y-7.69
X-63.893 Y-7.728
X-64 Y-7.833
X-64.047 Y-7.976
X-64.045 Y-8.005
X-63.998 Y-8.146
X-63.891 Y-8.247
X-63.748 Y-8.284
X-63.569 Y-8.285
X-63.531 Y-8.277
X-63.499 Y-8.254
X-63.478 Y-8.221
X-63.472 Y-8.182
X-63.481 Y-8.143
X-63.667 Y-7.741
X-63.688 Y-7.712
X-63.718 Y-7.691
X-63.754 Y-7.683
X-63.838 Y-7.687
X-63.923 Y-7.692
X-63.998 Y-7.7
X-64.13 Y-7.771
X-64.209 Y-7.898
X-64.228 Y-8.047
X-64.222 Y-8.07
X-64.157 Y-8.194
X-64.042 Y-8.275
X-63.904 Y-8.295
X-63.838 Y-8.289
X-63.748 Y-8.284
X-63.71 Y-8.275
X-63.678 Y-8.253
X-63.657 Y-8.22
X-63.651 Y-8.182
X-63.659 Y-8.144
X-63.829 Y-7.752
X-63.851 Y-7.72
X-63.884 Y-7.698
X-63.923 Y-7.692
X-64.008 Y-7.697
X-64.092 Y-7.703
X-64.139 Y-7.71
X-64.212 Y-7.724
X-64.336 Y-7.809
X-64.404 Y-7.943
X-64.407 Y-8.093
X-64.403 Y-8.106
X-64.326 Y-8.232
X-64.197 Y-8.306
X-64.049 Y-8.309
X-64.017 Y-8.294
X-63.992 Y-8.268
X-63.978 Y-8.235
X-63.976 Y-8.199
X-64.029 Y-7.796
X-64.041 Y-7.76
X-64.066 Y-7.731
X-64.1 Y-7.713
X-64.139 Y-7.71
X-64.346 Y-7.739
X-64.419 Y-7.759
X-64.535 Y-7.853
X-64.593 Y-7.991
X-64.587 Y-8.141
X-64.578 Y-8.164
X-64.497 Y-8.283
X-64.371 Y-8.351
X-64.227
X-64.194 Y-8.335
X-64.169 Y-8.308
X-64.155 Y-8.273
X-64.156 Y-8.236
X-64.237 Y-7.82
X-64.251 Y-7.785
X-64.276 Y-7.758
X-64.309 Y-7.742
X-64.346 Y-7.739
X-64.431 Y-7.757
X-64.562 Y-7.788
X-64.598 Y-7.798
X-64.658 Y-7.842
X-64.746 Y-7.963
X-64.776 Y-8.111
X-64.747 Y-8.258
X-64.742 Y-8.267
X-64.651 Y-8.361
X-64.529 Y-8.408
X-64.398 Y-8.398
X-64.366 Y-8.379
X-64.342 Y-8.35
X-64.331 Y-8.314
X-64.334 Y-8.277
X-64.446 Y-7.86
X-64.462 Y-7.826
X-64.49 Y-7.801
X-64.524 Y-7.787
X-64.562 Y-7.788
X-64.62 Y-7.801
X-64.731 Y-7.829
X-64.769 Y-7.839
X-64.838 Y-7.868
X-64.929 Y-7.987
X-64.964 Y-8.133
X-64.945 Y-8.282
X-64.93 Y-8.311
X-64.856 Y-8.406
X-64.751 Y-8.465
X-64.631 Y-8.477
X-64.516 Y-8.442
X-64.489 Y-8.418
X-64.472 Y-8.387
X-64.468 Y-8.351
X-64.476 Y-8.316
X-64.655 Y-7.897
X-64.674 Y-7.868
X-64.702 Y-7.847
X-64.735 Y-7.837
X-64.769 Y-7.839
X-64.854 Y-7.87
X-64.938 Y-7.907
X-65.005 Y-7.941
X-65.107 Y-8.051
X-65.146 Y-8.196
X-65.125 Y-8.344
X-65.058 Y-8.478
X-65.048 Y-8.489
X-64.934 Y-8.562
X-64.8 Y-8.579
X-64.672 Y-8.534
X-64.648 Y-8.511
X-64.633 Y-8.482
X-64.628 Y-8.449
X-64.635 Y-8.416
X-64.808 Y-7.964
X-64.829 Y-7.931
X-64.861 Y-7.908
X-64.9 Y-7.9
X-64.938 Y-7.907
X-65.023 Y-7.945
X-65.074 Y-7.97
X-65.133 Y-8
X-65.198 Y-8.038
X-65.292 Y-8.155
X-65.319 Y-8.302
X-65.298 Y-8.451
X-65.227 Y-8.583
X-65.213 Y-8.597
X-65.1 Y-8.669
X-64.966 Y-8.684
X-64.84 Y-8.64
X-64.815 Y-8.616
X-64.8 Y-8.586
X-64.796 Y-8.552
X-64.804 Y-8.519
X-64.998 Y-8.052
X-65.015 Y-8.025
X-65.04 Y-8.004
X-65.07 Y-7.993
X-65.102 Y-7.991
X-65.133 Y-8
X-65.239 Y-8.054
X-65.356 Y-8.139
X-65.415 Y-8.186
X-65.48 Y-8.321
X-65.484 Y-8.471
X-65.443 Y-8.615
X-65.357 Y-8.738
X-65.332 Y-8.756
X-65.207 Y-8.81
X-65.071 Y-8.803
X-64.951 Y-8.736
X-64.932 Y-8.709
X-64.922 Y-8.676
X-64.924 Y-8.643
X-64.937 Y-8.612
X-65.216 Y-8.169
X-65.243 Y-8.14
X-65.28 Y-8.124
X-65.32
X-65.356 Y-8.139
X-65.505 Y-8.247
X-65.53 Y-8.266
X-65.583 Y-8.319
X-65.643 Y-8.457
Y-8.607
X-65.598 Y-8.75
X-65.508 Y-8.87
X-65.483 Y-8.888
X-65.357 Y-8.945
X-65.22 Y-8.938
X-65.099 Y-8.871
X-65.079 Y-8.843
X-65.07 Y-8.81
X-65.072 Y-8.775
X-65.086 Y-8.744
X-65.391 Y-8.292
X-65.418 Y-8.265
X-65.455 Y-8.25
X-65.494 Y-8.251
X-65.53 Y-8.266
X-65.615 Y-8.344
X-65.7 Y-8.438
X-65.746 Y-8.497
X-65.796 Y-8.638
X-65.781 Y-8.788
X-65.722 Y-8.925
X-65.647 Y-9.009
X-65.535 Y-9.086
X-65.401 Y-9.103
X-65.273 Y-9.057
X-65.181 Y-8.959
X-65.164 Y-8.939
X-65.128 Y-8.899
X-65.107 Y-8.879
X-64.938 Y-8.724
X-64.849 Y-8.646
X-64.58 Y-8.477
X-64.483 Y-8.424
X-64.346 Y-8.382
X-64.261 Y-8.36
X-64.044 Y-8.308
X-63.904 Y-8.295
X-63.866 Y-8.282
X-63.837 Y-8.256
X-63.82 Y-8.22
X-63.818 Y-8.181
X-63.831 Y-8.143
X-63.858 Y-8.114
X-63.895 Y-8.098
X-63.934
X-64.393 Y-8.181
X-64.934 Y-8.279
X-65.645 Y-8.409
X-65.675 Y-8.419
X-65.7 Y-8.438
X-65.807 Y-8.561
X-65.841 Y-8.604
X-65.884 Y-8.666
X-65.931 Y-8.808
X-65.911 Y-8.957
X-65.843 Y-9.09
X-65.742 Y-9.201
X-65.611 Y-9.275
X-65.6 Y-9.277
X-65.476
X-65.362 Y-9.225
X-65.279 Y-9.132
X-65.269 Y-9.103
Y-9.072
X-65.278 Y-9.042
X-65.295 Y-9.017
X-65.692 Y-8.6
X-65.719 Y-8.58
X-65.751 Y-8.57
X-65.784 Y-8.571
X-65.815 Y-8.583
X-65.841 Y-8.604
X-65.873 Y-8.646
X-65.979 Y-8.787
X-65.999 Y-8.815
X-66.036 Y-8.88
X-66.055 Y-9.029
X-66.014 Y-9.173
X-65.933 Y-9.299
X-65.824 Y-9.402
X-65.688 Y-9.465
X-65.685 Y-9.466
X-65.562 Y-9.458
X-65.452 Y-9.402
X-65.375 Y-9.306
X-65.366 Y-9.275
X-65.368 Y-9.242
X-65.38 Y-9.212
X-65.401 Y-9.187
X-65.856 Y-8.801
X-65.891 Y-8.782
X-65.931 Y-8.778
X-65.969 Y-8.789
X-65.999 Y-8.815
X-66.038 Y-8.876
X-66.123 Y-9.027
X-66.156 Y-9.094
X-66.16 Y-9.244
X-66.108 Y-9.385
X-66.019 Y-9.506
X-65.904 Y-9.602
X-65.765 Y-9.658
X-65.751 Y-9.659
X-65.626 Y-9.644
X-65.518 Y-9.579
X-65.446 Y-9.475
X-65.44 Y-9.443
X-65.444 Y-9.411
X-65.458 Y-9.382
X-65.481 Y-9.359
X-65.978 Y-8.998
X-66.008 Y-8.983
X-66.04 Y-8.979
X-66.073 Y-8.986
X-66.101 Y-9.002
X-66.123 Y-9.027
X-66.191 Y-9.152
X-66.222 Y-9.213
X-66.234 Y-9.237
X-66.239 Y-9.247
X-66.258 Y-9.32
X-66.25 Y-9.47
X-66.188 Y-9.607
X-66.091 Y-9.721
X-65.97 Y-9.809
X-65.828 Y-9.857
X-65.81 Y-9.858
X-65.684 Y-9.837
X-65.578 Y-9.766
X-65.512 Y-9.658
X-65.507 Y-9.626
X-65.513 Y-9.593
X-65.53 Y-9.565
X-65.554 Y-9.543
X-65.572 Y-9.532
X-66.096 Y-9.206
X-66.127 Y-9.193
X-66.16 Y-9.191
X-66.192 Y-9.201
X-66.219 Y-9.22
X-66.239 Y-9.247
X-66.26 Y-9.321
X-66.292 Y-9.438
X-66.305 Y-9.49
X-66.32 Y-9.564
X-66.307 Y-9.713
X-66.236 Y-9.845
X-66.129 Y-9.951
X-66.124 Y-9.954
X-66.075 Y-9.977
X-66.024 Y-9.992
X-65.97 Y-9.996
X-65.936 Y-9.989
X-65.907 Y-9.971
X-65.885 Y-9.943
X-65.875 Y-9.91
X-65.876 Y-9.876
X-65.889 Y-9.843
X-66.125 Y-9.466
X-66.151 Y-9.438
X-66.185 Y-9.422
X-66.223 Y-9.419
X-66.259 Y-9.432
X-66.288 Y-9.457
X-66.305 Y-9.49
X-66.36 Y-9.706
X-66.37 Y-9.744
X-66.376 Y-9.772
X-66.387 Y-9.83
X-66.342 Y-9.916
X-66.265 Y-9.975
X-66.17 Y-9.996
G3 X-66.001 Y-9.812 I-0.006 J0.175
X-66.376 Y-9.772 I-0.191 J-0.01
G1 X-66.389 Y-9.828
X-66.398 Y-9.87
Y-9.881
X-66.397 Y-9.892
X-66.395 Y-9.902
X-66.391 Y-9.913
X-66.376 Y-9.942
X-66.37 Y-9.952
X-66.362 Y-9.963
X-66.348 Y-9.976
X-66.334 Y-9.985
X-66.324 Y-9.99
X-66.313 Y-9.993
X-66.302 Y-9.995
X-66.292 Y-9.996
X-65.738
X-65.7
X-65.678
X-65.654 Y-9.991
X-65.647 Y-9.988
X-65.624 Y-9.967
X-65.614 Y-9.938
X-65.619 Y-9.908
X-65.638 Y-9.883
X-65.666 Y-9.87
X-65.697 Y-9.872
X-65.723 Y-9.888
X-65.738 Y-9.915
X-65.739 Y-9.946
X-65.726 Y-9.973
X-65.705 Y-9.99
X-65.678 Y-9.996
X-65.668 Y-9.995
X-65.657 Y-9.992
X-65.647 Y-9.988
X-65.636 Y-9.983
X-65.626 Y-9.976
X-65.615 Y-9.966
X-65.592 Y-9.939
X-65.583 Y-9.926
X-65.576 Y-9.913
X-65.573 Y-9.902
X-65.561 Y-9.828
X-65.542 Y-9.744
X-65.452 Y-9.49
X-65.383 Y-9.321
X-65.339 Y-9.237
X-65.181 Y-8.959
X-65.17 Y-8.921
X-65.174 Y-8.882
X-65.193 Y-8.848
X-65.223 Y-8.824
X-65.257 Y-8.806 Z-0.982
X-65.286 Y-8.791 Z-0.961
X-65.305 Y-8.781 Z-0.928
X-65.311 Y-8.777 Z-0.89
G0 Z2
X-61.161 Y-13.996
Z-0.79
G1 Z-0.89 F1000
X-61.165 Y-14.003 Z-0.928
X-61.178 Y-14.02 Z-0.961
X-61.196 Y-14.047 Z-0.982
X-61.218 Y-14.078 Z-0.99
G3 X-61.499 Y-14.812 I1.292 J-0.914
G1 X-61.519 Y-15.065
X-61.525 Y-15.14
X-61.475 Y-15.281
X-61.376 Y-15.394
X-61.25 Y-15.476
X-61.109 Y-15.526
X-60.96 Y-15.546
X-60.81 Y-15.538
X-60.748 Y-15.524
X-60.642 Y-15.477
X-60.562 Y-15.394
X-60.519 Y-15.286
X-60.494 Y-15.15
X-60.471 Y-15.016
X-60.473 Y-14.98
X-60.487 Y-14.947
X-60.512 Y-14.922
X-60.544 Y-14.906
X-60.58 Y-14.903
