%
(n-011-015)
(T1  D=1 CR=0 - ZMIN=-2 - flat end mill)
G90 G94
G17
G21
G28 G91 Z0
G90

(Clear 4)
M9
T1 M6
S5000 M3
G54
M8
G0 X-119.176 Y-9.575
Z12
Z2
Z0.5
G3 X-118.691 Y-9.7 Z0.29 I0.242 J-0.062 F333.3
X-119.176 Y-9.575 Z0.079 I-0.242 J0.062
X-118.691 Y-9.7 Z-0.131 I0.242 J-0.062
X-119.176 Y-9.575 Z-0.342 I-0.242 J0.062
X-118.691 Y-9.7 Z-0.552 I0.242 J-0.062
X-119.176 Y-9.575 Z-0.763 I-0.242 J0.062
X-118.965 Y-9.886 Z-0.876 I0.242 J-0.062
X-118.684 Y-9.638 Z-0.99 I0.031 J0.248
X-119.184 I-0.25
X-118.684 I0.25
G1 X-118.646 Y-9.492 F1000
X-118.659 Y-9.418
X-118.696 Y-9.353
X-118.803 Y-9.248
X-118.948 Y-9.208
X-119.096 Y-9.23
X-119.227 Y-9.304
X-119.323 Y-9.418
X-119.376 Y-9.559
X-119.378 Y-9.709
X-119.33 Y-9.851
X-119.238 Y-9.97
X-119.112 Y-10.051
X-118.967 Y-10.087
X-118.817 Y-10.073
X-118.681 Y-10.011
X-118.572 Y-9.908
X-118.494 Y-9.779
X-118.444 Y-9.638
X-118.433 Y-9.489
X-118.468 Y-9.343
X-118.539 Y-9.21
X-118.648 Y-9.107
X-118.778 Y-9.033
X-118.925 Y-9
X-119.075 Y-9.007
X-119.219 Y-9.048
X-119.348 Y-9.124
X-119.455 Y-9.23
X-119.537 Y-9.355
X-119.587 Y-9.497
X-119.601 Y-9.646
X-119.584 Y-9.795
X-119.534 Y-9.936
X-119.451 Y-10.062
X-119.345 Y-10.167
X-119.217 Y-10.246
X-119.075 Y-10.293
X-118.926 Y-10.309
X-118.777 Y-10.291
X-118.636 Y-10.238
X-118.51 Y-10.158
X-118.401 Y-10.055
X-118.313 Y-9.933
X-118.251 Y-9.797
X-118.212 Y-9.652
X-118.204 Y-9.502
X-118.227 Y-9.354
X-118.276 Y-9.212
X-118.352 Y-9.083
X-118.453 Y-8.972
X-118.573 Y-8.882
X-118.708 Y-8.816
X-118.853 Y-8.779
X-119.003 Y-8.77
X-119.134 Y-8.784
X-119.21 Y-8.804
X-119.279 Y-8.843
X-119.335 Y-8.899
X-119.404 Y-8.984
X-119.421 Y-9.003
X-119.506 Y-9.078
X-119.59 Y-9.151
X-119.699 Y-9.254
X-119.772 Y-9.386
X-119.813 Y-9.53
X-119.826 Y-9.679
X-119.813 Y-9.829
X-119.771 Y-9.973
X-119.731 Y-10.053
X-119.687 Y-10.119
X-119.627 Y-10.171
X-119.556 Y-10.206
X-119.52 Y-10.209
X-119.484 Y-10.199
X-119.454 Y-10.177
X-119.435 Y-10.146
X-119.428 Y-10.11
Y-9.791
Y-9.23
X-119.435 Y-9.193
X-119.455 Y-9.162
X-119.485 Y-9.14
X-119.521 Y-9.13
X-119.558 Y-9.134
X-119.59 Y-9.151
X-119.818 Y-9.321
X-119.934 Y-9.417
X-120.004 Y-9.55
X-120.036 Y-9.696
Y-9.846
X-120.019 Y-9.936
X-119.964 Y-10.058
X-119.862 Y-10.145
X-119.731 Y-10.178
X-119.692 Y-10.17
X-119.66 Y-10.147
X-119.639 Y-10.113
X-119.633 Y-10.074
X-119.637 Y-9.971
X-119.662 Y-9.399
X-119.669 Y-9.365
X-119.689 Y-9.335
X-119.717 Y-9.314
X-119.751 Y-9.304
X-119.786 Y-9.307
X-119.818 Y-9.321
X-119.844 Y-9.341
X-119.94 Y-9.406
X-120.013 Y-9.453
X-120.058 Y-9.474
X-120.091 Y-9.491
X-120.186 Y-9.607
X-120.233 Y-9.75
X-120.238 Y-9.899
X-120.23 Y-9.939
X-120.173 Y-10.061
X-120.068 Y-10.146
X-119.936 Y-10.177
X-119.903 Y-10.17
X-119.874 Y-10.153
X-119.853 Y-10.127
X-119.841 Y-10.095
Y-10.061
X-119.92 Y-9.551
X-119.932 Y-9.517
X-119.955 Y-9.489
X-119.987 Y-9.471
X-120.022 Y-9.466
X-120.058 Y-9.474
X-120.098 Y-9.492
X-120.208 Y-9.538
X-120.276 Y-9.57
X-120.378 Y-9.68
X-120.427 Y-9.822
X-120.425 Y-9.972
X-120.424 Y-9.976
X-120.36 Y-10.081
X-120.261 Y-10.152
X-120.141 Y-10.177
X-120.109 Y-10.171
X-120.082 Y-10.155
X-120.06 Y-10.131
X-120.047 Y-10.102
X-120.044 Y-10.07
X-120.074 Y-9.626
X-120.084 Y-9.59
X-120.105 Y-9.56
X-120.136 Y-9.54
X-120.172 Y-9.533
X-120.208 Y-9.538
X-120.352 Y-9.596
X-120.398 Y-9.614
X-120.467 Y-9.643
X-120.57 Y-9.752
X-120.616 Y-9.895
X-120.615 Y-9.908
X-120.565 Y-10.044
X-120.457 Y-10.142
X-120.316 Y-10.177
X-120.284 Y-10.17
X-120.255 Y-10.153
X-120.234 Y-10.128
X-120.222 Y-10.097
X-120.22 Y-10.064
X-120.267 Y-9.696
X-120.278 Y-9.662
X-120.299 Y-9.634
X-120.329 Y-9.616
X-120.364 Y-9.608
X-120.398 Y-9.614
X-120.436 Y-9.628
X-120.577 Y-9.67
X-120.647 Y-9.695
X-120.701 Y-9.747
X-120.771 Y-9.88
X-120.748 Y-9.994
X-120.683 Y-10.09
X-120.587 Y-10.154
X-120.473 Y-10.177
X-120.438 Y-10.169
X-120.409 Y-10.15
X-120.387 Y-10.122
X-120.377 Y-10.089
X-120.379 Y-10.053
X-120.454 Y-9.743
X-120.471 Y-9.707
X-120.5 Y-9.681
X-120.537 Y-9.668
X-120.577 Y-9.67
X-120.69 Y-9.703
X-120.737 Y-9.711
X-120.773 Y-9.719
X-120.836 Y-9.761
X-120.874 Y-9.869
X-120.865 Y-9.984
X-120.809 Y-10.084
X-120.717 Y-10.153
X-120.604 Y-10.177
X-120.567 Y-10.168
X-120.535 Y-10.146
X-120.515 Y-10.113
X-120.508 Y-10.075
X-120.516 Y-10.037
X-120.632 Y-9.77
X-120.649 Y-9.743
X-120.674 Y-9.723
X-120.705 Y-9.712
X-120.737 Y-9.711
X-120.859 Y-9.732
X-120.896 Y-9.74
X-120.953 Y-9.789
X-120.99 Y-9.854
Y-9.972
X-120.938 Y-10.077
X-120.846 Y-10.151
X-120.731 Y-10.177
X-120.693 Y-10.168
X-120.661 Y-10.145
X-120.641 Y-10.112
X-120.634 Y-10.073
X-120.643 Y-10.035
X-120.755 Y-9.789
X-120.773 Y-9.763
X-120.798 Y-9.743
X-120.828 Y-9.733
X-120.859 Y-9.732
X-120.944 Y-9.746
X-120.991 Y-9.753
X-121.027 Y-9.76
X-121.079 Y-9.814
X-121.113 Y-9.881
X-121.107 Y-9.99
X-121.056 Y-10.087
X-120.969 Y-10.153
X-120.862 Y-10.177
X-120.83 Y-10.17
X-120.801 Y-10.153
X-120.78 Y-10.128
X-120.768 Y-10.097
X-120.767 Y-10.063
X-120.777 Y-10.032
X-120.891 Y-9.807
X-120.908 Y-9.782
X-120.932 Y-9.764
X-120.961 Y-9.754
X-120.991 Y-9.753
X-121.075 Y-9.764
X-121.112 Y-9.771
X-121.177 Y-9.808
X-121.219 Y-9.87
X-121.222 Y-9.981
X-121.176 Y-10.082
X-121.09 Y-10.152
X-120.982 Y-10.177
X-120.946 Y-10.168
X-120.915 Y-10.147
X-120.894 Y-10.116
X-120.886 Y-10.079
X-120.892 Y-10.042
X-120.972 Y-9.829
X-120.988 Y-9.8
X-121.012 Y-9.779
X-121.043 Y-9.766
X-121.075 Y-9.764
X-121.198 Y-9.781
X-121.235 Y-9.787
X-121.294 Y-9.832
X-121.333 Y-9.897
X-121.332 Y-9.999
X-121.287 Y-10.091
X-121.206 Y-10.154
X-121.107 Y-10.177
X-121.069 Y-10.168
X-121.038 Y-10.146
X-121.017 Y-10.114
X-121.01 Y-10.077
X-121.017 Y-10.039
X-121.097 Y-9.843
X-121.113 Y-9.816
X-121.137 Y-9.795
X-121.166 Y-9.783
X-121.198 Y-9.781
X-121.329 Y-9.796
X-121.366 Y-9.802
X-121.419 Y-9.855
X-121.441 Y-9.965
X-121.407 Y-10.072
X-121.325 Y-10.149
X-121.216 Y-10.177
X-121.188 Y-10.172
X-121.162 Y-10.158
X-121.142 Y-10.138
G3 X-121.329 Y-9.796 I-0.172 J0.128
G1 X-121.414 Y-9.805
X-121.451 Y-9.811
X-121.511 Y-9.855
X-121.536 Y-9.964
X-121.504 Y-10.071
X-121.424 Y-10.149
X-121.316 Y-10.177
X-121.28 Y-10.168
X-121.251 Y-10.147
G3 X-121.414 Y-9.805 I-0.148 J0.139
G1 X-121.498 Y-9.814
X-121.536 Y-9.818
X-121.567 Y-9.82
X-121.588 Y-9.825
X-121.592 Y-9.833
X-121.6 Y-9.869
X-121.595 Y-9.905
X-121.577 Y-9.937
X-121.549 Y-9.96
X-121.514 Y-9.972
X-120.927 Y-10.056
X-120.815 Y-10.072
X-120.776 Y-10.07
X-120.742 Y-10.054
X-120.715 Y-10.025
X-120.702 Y-9.989
X-120.703 Y-9.951
X-120.719 Y-9.915
X-120.747 Y-9.889
X-120.783 Y-9.875
G3 X-121.567 Y-9.82 I-0.645 J-3.588
G1 X-121.582 Y-9.823
X-121.597 Y-9.828
X-121.609 Y-9.835
X-121.621 Y-9.843
X-121.646 Y-9.865
X-121.661 Y-9.89
X-121.663 Y-9.919
X-121.654 Y-9.946
X-121.634 Y-9.967
X-121.607 Y-9.977
X-121.578 Y-9.975
X-121.553 Y-9.962
X-121.54 Y-9.951
X-121.522 Y-9.928
X-121.516 Y-9.9
X-121.522 Y-9.872
X-121.539 Y-9.848
X-121.565 Y-9.835
X-121.594 Y-9.833
X-121.621 Y-9.843
X-121.639 Y-9.857
X-121.649 Y-9.867
X-121.656 Y-9.878
X-121.665 Y-9.895
X-121.67 Y-9.913
X-121.671 Y-9.923
X-121.672 Y-9.955
Y-9.997
X-121.667 Y-10.092
X-121.65 Y-10.123
X-121.622 Y-10.144
X-121.588 Y-10.153
X-121.553 Y-10.147
X-121.523 Y-10.128
X-121.504 Y-10.099
X-121.497 Y-10.065
Y-9.999
X-121.504 Y-9.966
X-121.523 Y-9.939
X-121.551 Y-9.92
X-121.584 Y-9.913
X-121.616 Y-9.919
X-121.645 Y-9.937
X-121.664 Y-9.964
X-121.672 Y-9.997
X-121.671 Y-10.071
X-121.67 Y-10.082
X-121.665 Y-10.099
X-121.656 Y-10.117
X-121.642 Y-10.135
X-121.611 Y-10.16
X-121.6 Y-10.166
X-121.584 Y-10.172
X-121.568 Y-10.176
X-121.536 Y-10.177
X-119.844
X-119.713 Y-10.179
X-119.675 Y-10.18
X-119.59 Y-10.194
X-119.506 Y-10.222
X-119.45 Y-10.25
X-119.421 Y-10.269
X-119.337 Y-10.338
X-119.225 Y-10.438
X-119.088 Y-10.499
X-118.94 Y-10.527
X-118.79 Y-10.522
X-118.644 Y-10.489
X-118.505 Y-10.432
X-118.377 Y-10.355
X-118.262 Y-10.258
X-118.208 Y-10.194
X-118.168 Y-10.135
X-118.144 Y-10.069
X-118.135 Y-9.999
Y-9.237
X-118.143 Y-9.087
X-118.2 Y-8.948
X-118.288 Y-8.827
X-118.398 Y-8.724
X-118.524 Y-8.643
X-118.661 Y-8.584
X-118.806 Y-8.545
X-118.889 Y-8.536
X-118.997 Y-8.543
X-119.096 Y-8.589
X-119.171 Y-8.666
X-119.185 Y-8.703
X-119.184 Y-8.742
X-119.167 Y-8.778
X-119.138 Y-8.805
X-118.781 Y-9.02
X-118.287 Y-9.319
X-118.255 Y-9.331
X-118.221 Y-9.332
X-118.188 Y-9.321
X-118.161 Y-9.3
X-118.143 Y-9.271
X-118.135 Y-9.237
Y-8.899
X-118.143 Y-8.749
X-118.22 Y-8.62
X-118.325 Y-8.513
X-118.448 Y-8.427
X-118.582 Y-8.361
X-118.726 Y-8.319
X-118.754 Y-8.316
X-118.874 Y-8.327
X-118.98 Y-8.383
X-119.056 Y-8.477
X-119.065 Y-8.514
X-119.06 Y-8.552
X-119.041 Y-8.585
X-119.011 Y-8.609
X-118.801 Y-8.717
X-118.281 Y-8.984
X-118.249 Y-8.995
X-118.216 Y-8.994
X-118.185 Y-8.982
X-118.159 Y-8.96
X-118.142 Y-8.932
X-118.135 Y-8.899
Y-8.646
X-118.143 Y-8.496
X-118.216 Y-8.365
X-118.321 Y-8.258
X-118.446 Y-8.175
X-118.585 Y-8.118
X-118.645 Y-8.108
X-118.781 Y-8.116
X-118.9 Y-8.183
X-118.976 Y-8.297
X-118.982 Y-8.332
X-118.974 Y-8.367
X-118.954 Y-8.398
X-118.925 Y-8.419
X-118.807 Y-8.476
X-118.279 Y-8.732
X-118.241 Y-8.742
X-118.202 Y-8.736
X-118.168 Y-8.716
X-118.145 Y-8.684
X-118.135 Y-8.646
Y-8.392
Y-8.346
Y-8.308
X-118.139 Y-8.233
X-118.216 Y-8.104
X-118.264 Y-8.06
X-118.325 Y-8.017
X-118.394 Y-7.99
X-118.468 Y-7.981
X-118.505 Y-7.99
X-118.537 Y-8.012
X-118.557 Y-8.045
X-118.564 Y-8.083
X-118.556 Y-8.121
X-118.534 Y-8.152
X-118.305 Y-8.376
X-118.273 Y-8.397
X-118.236 Y-8.404
X-118.198 Y-8.397
X-118.166 Y-8.376
X-118.144 Y-8.345
X-118.135 Y-8.308
Y-8.139
Y-8.097
X-118.136 Y-8.086
X-118.145 Y-8.058
X-118.158 Y-8.032
X-118.177 Y-8.01
X-118.206 Y-7.99
X-118.24 Y-7.982
X-118.275 Y-7.986
X-118.306 Y-8.002
X-118.33 Y-8.028
X-118.344 Y-8.06
X-118.468 Y-8.62
X-118.504 Y-8.782
X-118.505 Y-8.818
X-118.494 Y-8.852
X-118.472 Y-8.879
X-118.441 Y-8.897
X-118.405 Y-8.904
X-118.37 Y-8.897
X-118.34 Y-8.878
X-118.318 Y-8.85
G3 X-118.136 Y-8.086 I-1.401 J0.737
G1 X-118.138 Y-8.075
X-118.141 Y-8.065
X-118.145 Y-8.054
X-118.152 Y-8.041
X-118.168 Y-8.018
X-118.181 Y-8.005
X-118.194 Y-7.995
X-118.205 Y-7.99
X-118.216 Y-7.986
X-118.226 Y-7.983
X-118.237 Y-7.981
X-118.744
X-118.787
X-118.797 Y-7.982
X-118.808 Y-7.984
X-118.818 Y-7.987
X-118.829 Y-7.992
X-118.847 Y-8.005
X-118.866 Y-8.023
X-118.879 Y-8.039
X-118.888 Y-8.054
X-118.948 Y-8.223
X-118.981 Y-8.308
X-119.056 Y-8.477
X-119.101 Y-8.561
X-119.271 Y-8.815
X-119.335 Y-8.899
X-119.348 Y-8.926
X-119.353 Y-8.955
X-119.358 Y-9.56
X-119.364 Y-10.269
X-119.357 Y-10.306
X-119.337 Y-10.338
X-119.316 Y-10.358
X-119.299 Y-10.379
X-119.269 Y-10.419
X-119.252 Y-10.447
X-119.222 Y-10.504
X-119.188 Y-10.57
X-119.076 Y-10.671
X-118.935 Y-10.722
X-118.786 Y-10.738
X-118.637 Y-10.723
X-118.492 Y-10.684
X-118.354 Y-10.624
X-118.279 Y-10.578
X-118.202 Y-10.511
X-118.153 Y-10.422
X-118.135 Y-10.322
Y-9.999
X-118.142 Y-9.966
X-118.16 Y-9.937
X-118.185 Y-9.916
X-118.217 Y-9.904
X-118.25
X-118.282 Y-9.914
X-118.602 Y-10.083
X-119.174 Y-10.386
X-119.201 Y-10.407
X-119.219 Y-10.436
X-119.227 Y-10.47
X-119.222 Y-10.504
X-119.193 Y-10.588
X-119.184 Y-10.631
X-119.177 Y-10.673
X-119.172 Y-10.71
X-119.087 Y-10.834
X-118.958 Y-10.909
X-118.812 Y-10.947
X-118.663 Y-10.954
X-118.514 Y-10.935
X-118.369 Y-10.895
X-118.31 Y-10.867
X-118.218 Y-10.801
X-118.157 Y-10.706
X-118.135 Y-10.595
Y-10.322
X-118.144 Y-10.285
X-118.166 Y-10.253
X-118.198 Y-10.233
X-118.236 Y-10.226
X-118.274 Y-10.233
X-118.498 Y-10.326
X-119.115 Y-10.58
X-119.148 Y-10.602
X-119.17 Y-10.634
X-119.177 Y-10.673
X-119.174 Y-10.757
Y-10.804
X-119.17 Y-10.879
X-119.101 Y-11.011
X-118.98 Y-11.101
X-118.84 Y-11.155
X-118.692 Y-11.179
X-118.542 Y-11.178
X-118.394 Y-11.153
X-118.332 Y-11.13
X-118.229 Y-11.067
X-118.16 Y-10.967
X-118.135 Y-10.849
Y-10.595
X-118.143 Y-10.56
X-118.162 Y-10.531
X-118.19 Y-10.509
X-118.224 Y-10.499
X-118.26 Y-10.501
X-118.462 Y-10.552
X-119.098 Y-10.71
X-119.128 Y-10.723
X-119.152 Y-10.744
X-119.168 Y-10.772
X-119.174 Y-10.804
Y-11.011
X-119.17 Y-11.086
X-119.097 Y-11.216
X-118.979 Y-11.31
X-118.842 Y-11.371
X-118.696 Y-11.404
X-118.546 Y-11.413
X-118.398 Y-11.394
X-118.343 Y-11.377
X-118.235 Y-11.314
X-118.161 Y-11.213
X-118.135 Y-11.091
Y-10.849
X-118.143 Y-10.815
X-118.161 Y-10.786
X-118.187 Y-10.764
X-118.22 Y-10.753
X-118.254 Y-10.754
X-118.454 Y-10.793
X-119.093 Y-10.916
X-119.125 Y-10.928
X-119.15 Y-10.949
X-119.167 Y-10.978
X-119.174 Y-11.011
Y-11.18
X-119.17 Y-11.255
X-119.122 Y-11.396
X-119.015 Y-11.502
X-118.885 Y-11.577
X-118.743 Y-11.625
X-118.595 Y-11.646
X-118.445 Y-11.64
X-118.299 Y-11.605
X-118.295 Y-11.603
X-118.21 Y-11.536
X-118.155 Y-11.444
X-118.135 Y-11.338
Y-11.091
X-118.142 Y-11.059
X-118.158 Y-11.031
X-118.183 Y-11.01
X-118.213 Y-10.997
X-118.246 Y-10.995
X-118.446 Y-11.016
X-119.085 Y-11.084
X-119.119 Y-11.094
X-119.147 Y-11.115
X-119.167 Y-11.145
X-119.174 Y-11.18
Y-11.395
X-119.17 Y-11.47
X-119.121 Y-11.611
X-119.018 Y-11.721
X-118.89 Y-11.799
X-118.749 Y-11.851
X-118.602 Y-11.877
X-118.452 Y-11.878
X-118.372 Y-11.861
X-118.25 Y-11.804
X-118.166 Y-11.699
X-118.135 Y-11.568
Y-11.338
X-118.142 Y-11.307
X-118.157 Y-11.279
X-118.181 Y-11.257
X-118.21 Y-11.245
X-118.242 Y-11.242
X-118.444 Y-11.255
X-119.081 Y-11.299
X-119.116 Y-11.308
X-119.146 Y-11.329
X-119.166 Y-11.359
X-119.174 Y-11.395
Y-11.648
X-119.17 Y-11.723
X-119.106 Y-11.859
X-118.999 Y-11.963
X-118.869 Y-12.039
X-118.727 Y-12.088
X-118.579 Y-12.112
X-118.429 Y-12.105
X-118.366 Y-12.09
X-118.247 Y-12.032
X-118.165 Y-11.928
X-118.135 Y-11.798
Y-11.568
X-118.142 Y-11.536
X-118.158 Y-11.508
X-118.183 Y-11.486
X-118.213 Y-11.474
X-118.245 Y-11.472
X-118.445 Y-11.491
X-119.084 Y-11.552
X-119.118 Y-11.562
X-119.147 Y-11.583
X-119.167 Y-11.613
X-119.174 Y-11.648
Y-11.855
X-119.17 Y-11.93
X-119.116 Y-12.07
X-119.013 Y-12.179
X-118.887 Y-12.26
X-118.747 Y-12.313
X-118.599 Y-12.341
X-118.449 Y-12.339
X-118.302 Y-12.309
X-118.298 Y-12.306
X-118.212 Y-12.24
X-118.155 Y-12.147
X-118.135 Y-12.04
Y-11.798
X-118.142 Y-11.767
X-118.157 Y-11.739
X-118.181 Y-11.718
X-118.21 Y-11.705
X-118.242 Y-11.702
X-118.444 Y-11.716
X-119.081 Y-11.759
X-119.116 Y-11.768
X-119.146 Y-11.789
X-119.166 Y-11.82
X-119.174 Y-11.855
Y-12.071
X-119.167 Y-12.221
X-119.087 Y-12.348
X-118.973 Y-12.445
X-118.841 Y-12.516
X-118.697 Y-12.559
X-118.548 Y-12.577
X-118.398 Y-12.571
X-118.35 Y-12.556
X-118.239 Y-12.495
X-118.163 Y-12.393
X-118.135 Y-12.269
Y-12.04
X-118.144 Y-12.002
X-118.167 Y-11.97
X-118.201 Y-11.949
X-118.239 Y-11.943
X-118.443 Y-11.951
X-119.078 Y-11.974
X-119.114 Y-11.983
X-119.145 Y-12.004
X-119.166 Y-12.034
X-119.174 Y-12.071
Y-12.324
X-119.17 Y-12.399
X-119.115 Y-12.538
X-119.011 Y-12.647
X-118.884 Y-12.726
X-118.743 Y-12.78
X-118.596 Y-12.809
X-118.446
X-118.3 Y-12.777
X-118.212 Y-12.71
X-118.155 Y-12.617
X-118.135 Y-12.51
Y-12.269
X-118.145 Y-12.23
X-118.168 Y-12.198
X-118.203 Y-12.178
X-118.242 Y-12.172
X-118.444 Y-12.186
X-119.081 Y-12.228
X-119.116 Y-12.237
X-119.146 Y-12.258
X-119.166 Y-12.288
X-119.174 Y-12.324
Y-12.578
X-119.17 Y-12.652
X-119.104 Y-12.787
X-118.996 Y-12.891
X-118.867 Y-12.968
X-118.726 Y-13.018
X-118.578 Y-13.043
X-118.428
X-118.364 Y-13.027
X-118.246 Y-12.968
X-118.164 Y-12.865
X-118.135 Y-12.736
Y-12.51
X-118.142 Y-12.478
X-118.158 Y-12.45
X-118.182 Y-12.429
X-118.211 Y-12.416
X-118.243 Y-12.414
X-118.444 Y-12.43
X-119.082 Y-12.481
X-119.117 Y-12.491
X-119.147 Y-12.512
X-119.166 Y-12.542
X-119.174 Y-12.578
Y-12.784
X-119.17 Y-12.859
X-119.115 Y-12.999
X-119.013 Y-13.108
X-118.886 Y-13.189
X-118.747 Y-13.244
X-118.6 Y-13.275
X-118.45
X-118.303 Y-13.245
X-118.299 Y-13.243
X-118.212 Y-13.177
X-118.155 Y-13.083
X-118.135 Y-12.976
Y-12.736
X-118.145 Y-12.698
X-118.168 Y-12.666
X-118.202 Y-12.645
X-118.241 Y-12.64
X-118.443 Y-12.651
X-119.08 Y-12.688
X-119.116 Y-12.697
X-119.146 Y-12.718
X-119.166 Y-12.749
X-119.174 Y-12.784
Y-13
X-119.167 Y-13.15
X-119.087 Y-13.277
X-118.974 Y-13.375
X-118.842 Y-13.447
X-118.699 Y-13.492
X-118.55 Y-13.511
X-118.4 Y-13.506
X-118.352 Y-13.492
X-118.24 Y-13.431
X-118.163 Y-13.329
X-118.135 Y-13.204
Y-12.976
X-118.144 Y-12.938
X-118.167 Y-12.907
X-118.2 Y-12.886
X-118.238 Y-12.88
X-118.443 Y-12.885
X-119.077 Y-12.903
X-119.114 Y-12.911
X-119.145 Y-12.932
X-119.166 Y-12.963
X-119.174 Y-13
Y-13.253
X-119.17 Y-13.328
X-119.115 Y-13.468
X-119.012 Y-13.577
X-118.886 Y-13.657
X-118.746 Y-13.712
X-118.599 Y-13.743
X-118.449 Y-13.744
X-118.303 Y-13.713
X-118.299 Y-13.711
X-118.212 Y-13.645
X-118.155 Y-13.552
X-118.135 Y-13.444
Y-13.204
X-118.145 Y-13.165
X-118.168 Y-13.133
X-118.202 Y-13.113
X-118.241 Y-13.108
X-118.444 Y-13.119
X-119.08 Y-13.157
X-119.116 Y-13.166
X-119.146 Y-13.187
X-119.166 Y-13.217
X-119.174 Y-13.253
Y-13.507
X-119.17 Y-13.582
X-119.105 Y-13.717
X-118.999 Y-13.822
X-118.87 Y-13.9
X-118.729 Y-13.951
X-118.581 Y-13.976
X-118.431 Y-13.978
X-118.365 Y-13.962
X-118.247 Y-13.903
X-118.165 Y-13.799
X-118.135 Y-13.67
Y-13.444
X-118.142 Y-13.413
X-118.158 Y-13.385
X-118.181 Y-13.363
X-118.211 Y-13.351
X-118.243 Y-13.348
X-118.444 Y-13.363
X-119.082 Y-13.41
X-119.117 Y-13.42
X-119.146 Y-13.441
X-119.166 Y-13.471
X-119.174 Y-13.507
Y-13.714
X-119.17 Y-13.788
X-119.117 Y-13.929
X-119.016 Y-14.039
X-118.89 Y-14.121
X-118.75 Y-14.177
X-118.604 Y-14.209
X-118.454 Y-14.21
X-118.307 Y-14.181
X-118.301 Y-14.178
X-118.213 Y-14.111
X-118.156 Y-14.018
X-118.135 Y-13.909
Y-13.67
X-118.145 Y-13.632
X-118.168 Y-13.6
X-118.202 Y-13.58
X-118.241 Y-13.574
X-118.443 Y-13.584
X-119.079 Y-13.617
X-119.115 Y-13.626
X-119.146 Y-13.647
X-119.166 Y-13.678
X-119.174 Y-13.714
Y-13.967
X-119.17 Y-14.042
X-119.107 Y-14.178
X-119.002 Y-14.285
X-118.874 Y-14.364
X-118.733 Y-14.415
X-118.586 Y-14.442
X-118.436 Y-14.444
X-118.367 Y-14.428
X-118.248 Y-14.37
X-118.165 Y-14.265
X-118.135 Y-14.136
Y-13.909
X-118.142 Y-13.878
X-118.157 Y-13.85
X-118.181 Y-13.829
X-118.21 Y-13.816
X-118.242 Y-13.813
X-118.444 Y-13.827
X-119.081 Y-13.871
X-119.116 Y-13.88
X-119.146 Y-13.901
X-119.166 Y-13.931
X-119.174 Y-13.967
Y-14.182
X-119.17 Y-14.257
X-119.115 Y-14.397
X-119.013 Y-14.507
X-118.887 Y-14.588
X-118.748 Y-14.643
X-118.601 Y-14.675
X-118.451
X-118.304 Y-14.645
X-118.3 Y-14.643
X-118.213 Y-14.576
X-118.155 Y-14.483
X-118.135 Y-14.375
Y-14.136
X-118.145 Y-14.097
X-118.168 Y-14.065
X-118.202 Y-14.045
X-118.241 Y-14.039
X-118.443 Y-14.051
X-119.08 Y-14.086
X-119.116 Y-14.095
X-119.146 Y-14.116
X-119.166 Y-14.146
X-119.174 Y-14.182
Y-14.436
X-119.17 Y-14.511
X-119.106 Y-14.646
X-119 Y-14.752
X-118.872 Y-14.83
X-118.731 Y-14.881
X-118.583 Y-14.907
X-118.433 Y-14.909
X-118.366 Y-14.893
X-118.247 Y-14.835
X-118.165 Y-14.731
X-118.135 Y-14.601
Y-14.375
X-118.142 Y-14.344
X-118.158 Y-14.316
X-118.181 Y-14.295
X-118.211 Y-14.282
X-118.243 Y-14.279
X-118.444 Y-14.294
X-119.081 Y-14.34
X-119.117 Y-14.349
X-119.146 Y-14.37
X-119.166 Y-14.4
X-119.174 Y-14.436
Y-14.643
X-119.17 Y-14.718
X-119.118 Y-14.858
X-119.017 Y-14.969
X-118.891 Y-15.051
X-118.752 Y-15.107
X-118.606 Y-15.14
X-118.456 Y-15.141
X-118.309 Y-15.112
X-118.302 Y-15.109
X-118.214 Y-15.042
X-118.156 Y-14.949
X-118.135 Y-14.84
Y-14.601
X-118.145 Y-14.563
X-118.168 Y-14.531
X-118.201 Y-14.511
X-118.24 Y-14.505
X-118.443 Y-14.515
X-119.079 Y-14.546
X-119.115 Y-14.555
X-119.145 Y-14.576
X-119.166 Y-14.607
X-119.174 Y-14.643
Y-14.896
X-119.17 Y-14.971
X-119.108 Y-15.108
X-119.003 Y-15.214
X-118.876 Y-15.294
X-118.735 Y-15.346
X-118.587 Y-15.372
X-118.437 Y-15.375
X-118.368 Y-15.359
X-118.248 Y-15.301
X-118.165 Y-15.196
X-118.135 Y-15.067
Y-14.84
X-118.145 Y-14.801
X-118.168 Y-14.769
X-118.203 Y-14.749
X-118.242 Y-14.744
X-118.444 Y-14.757
X-119.081 Y-14.8
X-119.116 Y-14.809
X-119.146 Y-14.83
X-119.166 Y-14.86
X-119.174 Y-14.896
Y-15.111
X-119.17 Y-15.186
X-119.116 Y-15.326
X-119.015 Y-15.436
X-118.889 Y-15.518
X-118.749 Y-15.573
X-118.603 Y-15.605
X-118.453 Y-15.606
X-118.305 Y-15.576
X-118.3 Y-15.574
X-118.213 Y-15.507
X-118.156 Y-15.414
X-118.135 Y-15.306
Y-15.067
X-118.145 Y-15.028
X-118.168 Y-14.996
X-118.202 Y-14.976
X-118.241 Y-14.97
X-118.443 Y-14.981
X-119.08 Y-15.015
X-119.115 Y-15.024
X-119.146 Y-15.045
X-119.166 Y-15.076
X-119.174 Y-15.111
Y-15.365
X-119.17 Y-15.44
X-119.107 Y-15.576
X-119.001 Y-15.682
X-118.873 Y-15.761
X-118.732 Y-15.812
X-118.585 Y-15.838
X-118.435 Y-15.84
X-118.367 Y-15.824
X-118.247 Y-15.766
X-118.165 Y-15.662
X-118.135 Y-15.532
Y-15.306
X-118.142 Y-15.275
X-118.157 Y-15.247
X-118.181 Y-15.225
X-118.211 Y-15.213
X-118.242 Y-15.21
X-118.444 Y-15.224
X-119.081 Y-15.269
X-119.117 Y-15.278
X-119.146 Y-15.299
X-119.166 Y-15.329
X-119.174 Y-15.365
Y-15.572
X-119.17 Y-15.647
X-119.119 Y-15.788
X-119.018 Y-15.899
X-118.893 Y-15.981
X-118.754 Y-16.037
X-118.607 Y-16.07
X-118.457 Y-16.072
X-118.31 Y-16.043
X-118.303 Y-16.04
X-118.214 Y-15.973
X-118.156 Y-15.879
X-118.135 Y-15.771
Y-15.532
X-118.145 Y-15.494
X-118.168 Y-15.462
X-118.201 Y-15.441
X-118.24 Y-15.436
X-118.443 Y-15.445
X-119.079 Y-15.475
X-119.115 Y-15.484
X-119.145 Y-15.505
X-119.166 Y-15.536
X-119.174 Y-15.572
Y-15.825
X-119.17 Y-15.9
X-119.109 Y-16.037
X-119.004 Y-16.144
X-118.877 Y-16.224
X-118.736 Y-16.276
X-118.589 Y-16.303
X-118.439 Y-16.306
X-118.368 Y-16.29
X-118.248 Y-16.232
X-118.165 Y-16.127
X-118.135 Y-15.997
Y-15.771
X-118.145 Y-15.732
X-118.168 Y-15.7
X-118.203 Y-15.68
X-118.242 Y-15.674
X-118.444 Y-15.688
X-119.081 Y-15.729
X-119.116 Y-15.738
X-119.146 Y-15.759
X-119.166 Y-15.79
X-119.174 Y-15.825
Y-16.041
X-119.17 Y-16.116
X-119.117 Y-16.256
X-119.016 Y-16.366
X-118.89 Y-16.448
X-118.751 Y-16.504
X-118.604 Y-16.536
X-118.454
X-118.307 Y-16.508
X-118.301 Y-16.505
X-118.213 Y-16.438
X-118.156 Y-16.344
X-118.135 Y-16.236
Y-15.997
X-118.145 Y-15.959
X-118.168 Y-15.927
X-118.202 Y-15.907
X-118.241 Y-15.901
X-118.443 Y-15.911
X-119.079 Y-15.944
X-119.115 Y-15.953
X-119.146 Y-15.974
X-119.166 Y-16.005
X-119.174 Y-16.041
Y-16.294
X-119.17 Y-16.369
X-119.108 Y-16.505
X-119.002 Y-16.612
X-118.874 Y-16.691
X-118.734 Y-16.742
X-118.586 Y-16.768
X-118.436 Y-16.771
X-118.367 Y-16.755
X-118.248 Y-16.697
X-118.165 Y-16.592
X-118.135 Y-16.463
Y-16.236
X-118.142 Y-16.205
X-118.157 Y-16.177
X-118.181 Y-16.156
X-118.21 Y-16.143
X-118.242 Y-16.14
X-118.444 Y-16.154
X-119.081 Y-16.198
X-119.116 Y-16.207
X-119.146 Y-16.228
X-119.166 Y-16.258
X-119.174 Y-16.294
Y-16.501
X-119.17 Y-16.576
X-119.12 Y-16.717
X-119.019 Y-16.828
X-118.894 Y-16.911
X-118.755 Y-16.968
X-118.609 Y-17.001
X-118.459 Y-17.003
X-118.312 Y-16.974
X-118.303 Y-16.97
X-118.214 Y-16.904
X-118.156 Y-16.81
X-118.135 Y-16.701
Y-16.463
X-118.145 Y-16.424
X-118.168 Y-16.393
X-118.201 Y-16.372
X-118.24 Y-16.366
X-118.443 Y-16.375
X-119.079 Y-16.405
X-119.115 Y-16.413
X-119.145 Y-16.434
X-119.166 Y-16.465
X-119.174 Y-16.501
Y-16.754
X-119.17 Y-16.829
X-119.11 Y-16.966
X-119.005 Y-17.074
X-118.878 Y-17.154
X-118.738 Y-17.206
X-118.59 Y-17.233
X-118.44 Y-17.237
X-118.369 Y-17.22
X-118.249 Y-17.162
X-118.165 Y-17.058
X-118.135 Y-16.928
Y-16.701
X-118.145 Y-16.663
X-118.168 Y-16.631
X-118.202 Y-16.61
X-118.242 Y-16.605
X-118.444 Y-16.618
X-119.081 Y-16.658
X-119.116 Y-16.667
X-119.146 Y-16.688
X-119.166 Y-16.719
X-119.174 Y-16.754
Y-16.97
X-119.17 Y-17.045
X-119.118 Y-17.185
X-119.017 Y-17.296
X-118.891 Y-17.378
X-118.752 Y-17.434
X-118.606 Y-17.466
X-118.456 Y-17.467
X-118.308 Y-17.439
X-118.302 Y-17.435
X-118.214 Y-17.369
X-118.156 Y-17.275
X-118.135 Y-17.167
Y-16.928
X-118.145 Y-16.889
X-118.168 Y-16.858
X-118.201 Y-16.837
X-118.24 Y-16.831
X-118.443 Y-16.842
X-119.079 Y-16.873
X-119.115 Y-16.882
X-119.145 Y-16.903
X-119.166 Y-16.934
X-119.174 Y-16.97
Y-17.223
Y-17.261
Y-17.308
X-119.173 Y-17.336
X-119.159 Y-17.358
X-119.092 Y-17.434
X-119.003 Y-17.484
X-118.903 Y-17.501
G3 X-118.743 Y-17.182 I-0.007 J0.204
X-119.174 Y-17.308 I-0.195 J-0.134
G1 Y-17.385
X-119.173 Y-17.405
X-119.167 Y-17.425
X-119.158 Y-17.442
X-119.149 Y-17.455
X-119.124 Y-17.479
X-119.114 Y-17.486
X-119.103 Y-17.492
X-119.093 Y-17.496
X-119.083 Y-17.499
X-119.072 Y-17.5
X-119.04 Y-17.501
X-118.275
X-118.237
X-118.213 Y-17.495
X-118.205 Y-17.492
X-118.184 Y-17.472
X-118.174 Y-17.444
X-118.179 Y-17.415
X-118.196 Y-17.391
X-118.223 Y-17.378
X-118.252 Y-17.38
X-118.278 Y-17.394
X-118.294 Y-17.419
X-118.296 Y-17.448
X-118.285 Y-17.475
X-118.264 Y-17.494
X-118.237 Y-17.501
X-118.226 Y-17.499
X-118.216 Y-17.496
X-118.205 Y-17.492
X-118.194 Y-17.487
X-118.182 Y-17.478
X-118.17 Y-17.465
X-118.152 Y-17.444
X-118.145 Y-17.43
X-118.14 Y-17.42
X-118.138 Y-17.409
X-118.136 Y-17.398
X-118.135 Y-17.167
X-118.141 Y-17.139
X-118.153 Y-17.113
X-118.182 Y-17.096 Z-0.983
X-118.207 Y-17.082 Z-0.966
X-118.226 Y-17.071 Z-0.939
X-118.235 Y-17.07 Z-0.916
X-118.239 Z-0.89
G0 Z2
X-110.833 Y-9.575
Z0.5
G3 X-110.349 Y-9.7 Z0.29 I0.242 J-0.062 F333.3
X-110.833 Y-9.575 Z0.079 I-0.242 J0.062
X-110.349 Y-9.7 Z-0.131 I0.242 J-0.062
X-110.833 Y-9.575 Z-0.342 I-0.242 J0.062
X-110.349 Y-9.7 Z-0.552 I0.242 J-0.062
X-110.833 Y-9.575 Z-0.763 I-0.242 J0.062
X-110.622 Y-9.885 Z-0.876 I0.242 J-0.062
X-110.341 Y-9.637 Z-0.99 I0.031 J0.248
X-110.841 I-0.25
X-110.341 I0.25
G1 X-110.303 Y-9.492 F1000
X-110.316 Y-9.418
X-110.353 Y-9.353
X-110.46 Y-9.248
X-110.605 Y-9.208
X-110.753 Y-9.229
X-110.884 Y-9.303
X-110.981 Y-9.418
X-111.033 Y-9.559
X-111.035 Y-9.709
X-110.987 Y-9.851
X-110.895 Y-9.969
X-110.769 Y-10.051
X-110.624 Y-10.087
X-110.474 Y-10.073
X-110.338 Y-10.011
X-110.229 Y-9.907
X-110.151 Y-9.779
X-110.101 Y-9.638
X-110.09 Y-9.488
X-110.126 Y-9.343
X-110.196 Y-9.21
X-110.305 Y-9.107
X-110.436 Y-9.033
X-110.582 Y-9
X-110.732 Y-9.007
X-110.876 Y-9.048
X-111.005 Y-9.124
X-111.112 Y-9.23
X-111.194 Y-9.355
X-111.244 Y-9.497
X-111.258 Y-9.646
X-111.242 Y-9.795
X-111.191 Y-9.936
X-111.109 Y-10.062
X-111.002 Y-10.167
X-110.875 Y-10.246
X-110.732 Y-10.292
X-110.583 Y-10.309
X-110.434 Y-10.291
X-110.293 Y-10.238
X-110.167 Y-10.158
X-110.058 Y-10.055
X-109.97 Y-9.933
X-109.908 Y-9.797
X-109.869 Y-9.652
X-109.861 Y-9.502
X-109.884 Y-9.353
X-109.933 Y-9.212
X-110.009 Y-9.082
X-110.11 Y-8.972
X-110.23 Y-8.882
X-110.365 Y-8.816
X-110.51 Y-8.779
X-110.66 Y-8.769
X-110.788 Y-8.784
X-110.865 Y-8.803
X-110.935 Y-8.842
X-110.991 Y-8.898
X-111.046 Y-8.966
X-111.062 Y-8.984
X-111.13 Y-9.05
X-111.215 Y-9.122
X-111.327 Y-9.221
X-111.409 Y-9.347
X-111.461 Y-9.488
X-111.484 Y-9.636
X-111.477 Y-9.786
X-111.442 Y-9.932
X-111.383 Y-10.07
X-111.367 Y-10.095
X-111.318 Y-10.154
X-111.257 Y-10.198
X-111.186 Y-10.226
X-111.151 Y-10.227
X-111.117 Y-10.216
X-111.09 Y-10.194
X-111.072 Y-10.164
X-111.065 Y-10.129
X-111.061 Y-9.766
X-111.055 Y-9.203
X-111.061 Y-9.167
X-111.081 Y-9.135
X-111.11 Y-9.113
X-111.145 Y-9.102
X-111.182 Y-9.105
X-111.215 Y-9.122
X-111.384 Y-9.258
X-111.47 Y-9.321
X-111.591 Y-9.411
X-111.66 Y-9.544
X-111.691 Y-9.691
X-111.692 Y-9.841
X-111.677 Y-9.93
X-111.623 Y-10.056
X-111.518 Y-10.145
X-111.384 Y-10.177
X-111.348 Y-10.176
X-111.315 Y-10.163
X-111.289 Y-10.138
X-111.273 Y-10.106
X-111.269 Y-10.071
X-111.276 Y-9.978
X-111.318 Y-9.399
X-111.326 Y-9.366
X-111.345 Y-9.338
X-111.372 Y-9.317
X-111.405 Y-9.307
X-111.439 Y-9.309
X-111.47 Y-9.321
X-111.553 Y-9.377
X-111.638 Y-9.43
X-111.696 Y-9.463
X-111.759 Y-9.503
X-111.848 Y-9.624
X-111.891 Y-9.768
X-111.892 Y-9.918
X-111.884 Y-9.949
X-111.825 Y-10.067
X-111.722 Y-10.148
X-111.593 Y-10.177
X-111.561 Y-10.17
X-111.533 Y-10.154
X-111.512 Y-10.129
X-111.499 Y-10.099
X-111.497 Y-10.067
X-111.55 Y-9.542
X-111.561 Y-9.505
X-111.586 Y-9.475
X-111.62 Y-9.456
X-111.659 Y-9.452
X-111.696 Y-9.463
X-111.723 Y-9.478
X-111.865 Y-9.539
X-111.933 Y-9.572
X-112.035 Y-9.682
X-112.084 Y-9.824
X-112.081 Y-9.973
X-112.017 Y-10.081
X-111.917 Y-10.152
X-111.797 Y-10.177
X-111.759 Y-10.168
X-111.727 Y-10.144
X-111.706 Y-10.11
X-111.701 Y-10.071
X-111.729 Y-9.626
X-111.739 Y-9.59
X-111.76 Y-9.56
X-111.792 Y-9.54
X-111.828 Y-9.532
X-111.865 Y-9.539
X-111.948 Y-9.575
X-111.976 Y-9.586
X-112.061 Y-9.615
X-112.131 Y-9.642
X-112.23 Y-9.755
X-112.274 Y-9.898
X-112.272 Y-9.91
X-112.222 Y-10.046
X-112.114 Y-10.142
X-111.974 Y-10.177
X-111.941 Y-10.17
X-111.912 Y-10.153
X-111.891 Y-10.127
X-111.879 Y-10.096
Y-10.062
X-111.933 Y-9.696
X-111.944 Y-9.663
X-111.965 Y-9.636
X-111.994 Y-9.618
X-112.027 Y-9.61
X-112.061 Y-9.615
X-112.146 Y-9.643
X-112.23 Y-9.669
X-112.302 Y-9.69
X-112.356 Y-9.742
X-112.429 Y-9.874
X-112.407 Y-9.989
X-112.342 Y-10.088
X-112.245 Y-10.154
X-112.129 Y-10.177
X-112.094 Y-10.169
X-112.065 Y-10.15
X-112.043 Y-10.122
X-112.033 Y-10.088
X-112.036 Y-10.052
X-112.114 Y-9.742
X-112.13 Y-9.708
X-112.157 Y-9.682
X-112.192 Y-9.669
X-112.23
X-112.361 Y-9.699
X-112.434 Y-9.719
X-112.496 Y-9.761
X-112.535 Y-9.825
X-112.542 Y-9.951
X-112.492 Y-10.067
X-112.395 Y-10.148
X-112.273 Y-10.177
X-112.238 Y-10.169
X-112.208 Y-10.151
X-112.187 Y-10.123
X-112.177 Y-10.089
X-112.179 Y-10.054
X-112.245 Y-9.774
X-112.261 Y-9.739
X-112.288 Y-9.713
X-112.323 Y-9.699
X-112.361
X-112.484 Y-9.726
X-112.53 Y-9.734
X-112.567 Y-9.743
X-112.622 Y-9.793
X-112.659 Y-9.859
X-112.658 Y-9.975
X-112.607 Y-10.079
X-112.515 Y-10.151
X-112.402 Y-10.177
X-112.364 Y-10.168
X-112.333 Y-10.145
X-112.312 Y-10.112
X-112.306 Y-10.073
X-112.315 Y-10.035
X-112.426 Y-9.792
X-112.443 Y-9.766
X-112.469 Y-9.746
X-112.499 Y-9.735
X-112.53 Y-9.734
X-112.586 Y-9.744
X-112.623 Y-9.749
X-112.66 Y-9.756
X-112.725 Y-9.794
X-112.768 Y-9.855
X-112.772 Y-9.971
X-112.725 Y-10.077
X-112.636 Y-10.15
X-112.523 Y-10.177
X-112.487 Y-10.168
X-112.456 Y-10.147
X-112.435 Y-10.116
X-112.427 Y-10.079
X-112.433 Y-10.042
X-112.518 Y-9.814
X-112.534 Y-9.785
X-112.559 Y-9.763
X-112.59 Y-9.751
X-112.623 Y-9.749
X-112.738 Y-9.766
X-112.775 Y-9.773
X-112.838 Y-9.814
X-112.88 Y-9.876
X-112.882 Y-9.985
X-112.836 Y-10.084
X-112.752 Y-10.152
X-112.645 Y-10.177
X-112.609 Y-10.168
X-112.578 Y-10.147
X-112.557 Y-10.116
X-112.549 Y-10.079
X-112.555 Y-10.042
X-112.634 Y-9.831
X-112.65 Y-9.802
X-112.675 Y-9.781
X-112.705 Y-9.768
X-112.738 Y-9.766
X-112.822 Y-9.778
X-112.869 Y-9.783
X-112.906 Y-9.789
X-112.962 Y-9.839
X-112.997 Y-9.905
X-112.994 Y-10.005
X-112.948 Y-10.094
X-112.869 Y-10.155
X-112.771 Y-10.177
X-112.733 Y-10.168
X-112.702 Y-10.145
X-112.681 Y-10.112
X-112.674 Y-10.074
X-112.683 Y-10.036
X-112.77 Y-9.842
X-112.786 Y-9.816
X-112.81 Y-9.797
X-112.838 Y-9.785
X-112.869 Y-9.783
X-112.953 Y-9.793
X-112.99 Y-9.799
X-113.058 Y-9.832
X-113.101 Y-9.893
X-113.104 Y-9.995
X-113.062 Y-10.089
X-112.983 Y-10.154
X-112.883 Y-10.177
X-112.859 Y-10.173
X-112.837 Y-10.164
G3 X-112.953 Y-9.793 I-0.1 J0.172
G1 X-113.076 Y-9.807
X-113.113 Y-9.812
X-113.174 Y-9.856
X-113.213 Y-9.92
X-113.201 Y-10.044
X-113.122 Y-10.141
X-113.003 Y-10.177
X-112.977 Y-10.172
X-112.953 Y-10.16
G3 X-113.076 Y-9.807 I-0.11 J0.16
G1 X-113.161 Y-9.815
X-113.203 Y-9.818
X-113.224 Y-9.82
X-113.235 Y-9.821
X-113.259 Y-9.828
X-113.278 Y-9.846
X-113.288 Y-9.87
X-113.286 Y-9.895
X-113.271 Y-9.92
X-113.247 Y-9.934
X-113.218 Y-9.935
X-113.192 Y-9.922
X-113.176 Y-9.899
X-113.173 Y-9.87
X-113.184 Y-9.844
X-113.206 Y-9.826
X-113.235 Y-9.821
X-113.245 Y-9.823
X-113.259 Y-9.828
X-113.272 Y-9.835
X-113.284 Y-9.844
X-113.297 Y-9.857
X-113.315 Y-9.879
X-113.325 Y-9.908
X-113.322 Y-9.939
X-113.306 Y-9.965
X-113.28 Y-9.983
X-113.25 Y-9.988
X-113.22 Y-9.98
X-113.196 Y-9.96
X-113.191 Y-9.953
X-113.178 Y-9.926
Y-9.895
X-113.19 Y-9.868
X-113.213 Y-9.847
X-113.241 Y-9.838
X-113.271 Y-9.842
X-113.297 Y-9.857
X-113.309 Y-9.87
X-113.316 Y-9.881
X-113.321 Y-9.892
X-113.325 Y-9.902
X-113.328 Y-9.913
X-113.329 Y-9.923
Y-9.997
X-113.325 Y-10.094
X-113.304 Y-10.126
X-113.272 Y-10.148
X-113.234 Y-10.156
X-113.196 Y-10.149
X-113.164 Y-10.129
X-113.141 Y-10.098
X-113.132 Y-10.06
X-113.13 Y-10.005
X-113.136 Y-9.966
X-113.156 Y-9.933
X-113.188 Y-9.91
X-113.226 Y-9.901
X-113.264 Y-9.907
X-113.298 Y-9.927
X-113.32 Y-9.959
X-113.329 Y-9.997
Y-10.071
X-113.328 Y-10.082
X-113.325 Y-10.092
X-113.321 Y-10.103
X-113.316 Y-10.113
X-113.309 Y-10.124
X-113.299 Y-10.137
X-113.286 Y-10.15
X-113.275 Y-10.159
X-113.264 Y-10.166
X-113.245 Y-10.173
X-113.235 Y-10.176
X-113.224 Y-10.177
X-111.384
X-111.342 Y-10.187
X-111.13 Y-10.24
X-111.119 Y-10.244
X-111.107 Y-10.25
X-111.046 Y-10.292
X-110.997 Y-10.335
X-110.977 Y-10.356
X-110.869 Y-10.46
X-110.728 Y-10.511
X-110.58 Y-10.532
X-110.43 Y-10.523
X-110.285 Y-10.486
X-110.147 Y-10.426
X-110.021 Y-10.345
X-109.908 Y-10.246
X-109.863 Y-10.192
X-109.825 Y-10.134
X-109.801 Y-10.069
X-109.793 Y-10
Y-9.237
X-109.801 Y-9.087
X-109.858 Y-8.948
X-109.945 Y-8.827
X-110.055 Y-8.724
X-110.181 Y-8.643
X-110.319 Y-8.583
X-110.464 Y-8.545
X-110.544 Y-8.536
X-110.654 Y-8.544
X-110.754 Y-8.592
X-110.829 Y-8.672
X-110.842 Y-8.709
X-110.84 Y-8.748
X-110.823 Y-8.783
X-110.795 Y-8.809
X-110.44 Y-9.022
X-109.945 Y-9.319
X-109.912 Y-9.332
X-109.878
X-109.845 Y-9.321
X-109.818 Y-9.3
X-109.8 Y-9.271
X-109.793 Y-9.237
Y-8.899
X-109.801 Y-8.749
X-109.877 Y-8.62
X-109.982 Y-8.513
X-110.105 Y-8.427
X-110.24 Y-8.361
X-110.384 Y-8.319
X-110.42 Y-8.315
X-110.542 Y-8.327
X-110.649 Y-8.387
X-110.723 Y-8.485
X-110.731 Y-8.522
X-110.725 Y-8.559
X-110.706 Y-8.591
X-110.676 Y-8.614
X-110.461 Y-8.722
X-109.938 Y-8.985
X-109.9 Y-8.995
X-109.86 Y-8.99
X-109.826 Y-8.97
X-109.802 Y-8.938
X-109.793 Y-8.899
Y-8.646
X-109.801 Y-8.496
X-109.873 Y-8.365
X-109.979 Y-8.258
X-110.103 Y-8.175
X-110.242 Y-8.118
X-110.301 Y-8.107
X-110.432 Y-8.114
X-110.549 Y-8.176
X-110.627 Y-8.281
X-110.634 Y-8.318
X-110.628 Y-8.354
X-110.609 Y-8.385
X-110.579 Y-8.408
X-110.461 Y-8.468
X-109.938 Y-8.731
X-109.9 Y-8.742
X-109.86 Y-8.737
X-109.826 Y-8.716
X-109.802 Y-8.684
X-109.793 Y-8.646
Y-8.392
Y-8.346
Y-8.308
X-109.797 Y-8.233
X-109.874 Y-8.104
X-109.922 Y-8.06
X-109.982 Y-8.017
X-110.051 Y-7.99
X-110.125 Y-7.981
X-110.163 Y-7.99
X-110.194 Y-8.012
X-110.215 Y-8.045
X-110.222 Y-8.083
X-110.213 Y-8.121
X-110.191 Y-8.152
X-109.963 Y-8.376
X-109.931 Y-8.397
X-109.894 Y-8.404
X-109.856 Y-8.397
X-109.824 Y-8.376
X-109.802 Y-8.345
X-109.793 Y-8.308
Y-8.139
Y-8.097
X-109.794 Y-8.086
X-109.798 Y-8.068
X-109.804 Y-8.053
X-109.811 Y-8.039
X-109.834 Y-8.022
X-109.862 Y-8.016
X-109.89 Y-8.02
X-109.916 Y-8.037
X-109.932 Y-8.064
X-109.936 Y-8.094
X-109.926 Y-8.124
X-109.905 Y-8.146
X-109.876 Y-8.158
X-109.846 Y-8.156
X-109.818 Y-8.141
X-109.8 Y-8.116
X-109.794 Y-8.086
X-109.795 Y-8.075
X-109.798 Y-8.065
X-109.803 Y-8.054
X-109.811 Y-8.039
X-109.824 Y-8.024
X-109.843 Y-8.007
X-109.861 Y-7.994
X-109.872 Y-7.989
X-109.882 Y-7.985
X-109.893 Y-7.982
X-109.904 Y-7.981
X-110.415
X-110.454 Y-7.982
X-110.464 Y-7.983
X-110.475 Y-7.986
X-110.485 Y-7.991
X-110.496 Y-7.996
X-110.508 Y-8.005
X-110.52 Y-8.018
X-110.538 Y-8.04
X-110.546 Y-8.054
X-110.615 Y-8.25
X-110.623 Y-8.271
X-110.639 Y-8.308
X-110.759 Y-8.561
X-110.877 Y-8.746
X-110.927 Y-8.815
X-110.991 Y-8.898
X-111.005 Y-8.926
X-111.01 Y-8.957
X-111.006 Y-9.577
X-111.002 Y-10.291
X-110.995 Y-10.326
X-110.977 Y-10.356
X-110.961 Y-10.373
X-110.926 Y-10.419
X-110.9 Y-10.462
X-110.879 Y-10.504
X-110.846 Y-10.571
X-110.735 Y-10.672
X-110.595 Y-10.725
X-110.445 Y-10.74
X-110.296 Y-10.725
X-110.151 Y-10.686
X-110.014 Y-10.626
X-109.938 Y-10.58
X-109.861 Y-10.513
X-109.811 Y-10.424
X-109.793 Y-10.323
Y-10
X-109.8 Y-9.967
X-109.817 Y-9.939
X-109.843 Y-9.917
X-109.874 Y-9.906
X-109.908 Y-9.905
X-109.939 Y-9.915
X-110.263 Y-10.084
X-110.832 Y-10.38
X-110.86 Y-10.402
X-110.879 Y-10.433
X-110.885 Y-10.468
X-110.879 Y-10.504
X-110.851 Y-10.588
X-110.841 Y-10.631
X-110.835 Y-10.673
X-110.829 Y-10.71
X-110.746 Y-10.835
X-110.617 Y-10.911
X-110.472 Y-10.949
X-110.322 Y-10.955
X-110.173 Y-10.937
X-110.029 Y-10.897
X-109.968 Y-10.869
X-109.876 Y-10.803
X-109.815 Y-10.707
X-109.793 Y-10.596
Y-10.323
X-109.802 Y-10.286
X-109.824 Y-10.255
X-109.856 Y-10.234
X-109.894 Y-10.227
X-109.931 Y-10.234
X-110.156 Y-10.327
X-110.773 Y-10.58
X-110.806 Y-10.602
X-110.827 Y-10.634
X-110.835 Y-10.673
X-110.832 Y-10.757
Y-10.804
X-110.828 Y-10.879
X-110.76 Y-11.012
X-110.64 Y-11.102
X-110.5 Y-11.156
X-110.352 Y-11.181
X-110.202 Y-11.18
X-110.054 Y-11.155
X-109.991 Y-11.132
X-109.887 Y-11.068
X-109.818 Y-10.969
X-109.793 Y-10.85
Y-10.596
X-109.801 Y-10.562
X-109.82 Y-10.532
X-109.848 Y-10.51
X-109.882 Y-10.5
X-109.917 Y-10.503
X-110.119 Y-10.553
X-110.756 Y-10.71
X-110.786 Y-10.723
X-110.81 Y-10.744
X-110.826 Y-10.772
X-110.832 Y-10.804
Y-11.011
X-110.828 Y-11.086
X-110.755 Y-11.217
X-110.638 Y-11.31
X-110.501 Y-11.372
X-110.355 Y-11.405
X-110.206 Y-11.415
X-110.057 Y-11.396
X-110.001 Y-11.378
X-109.893 Y-11.316
X-109.819 Y-11.215
X-109.793 Y-11.093
Y-10.85
X-109.8 Y-10.816
X-109.818 Y-10.787
X-109.845 Y-10.766
X-109.878 Y-10.755
X-109.912
X-110.112 Y-10.793
X-110.751 Y-10.916
X-110.782 Y-10.928
X-110.808 Y-10.949
X-110.825 Y-10.978
X-110.832 Y-11.011
Y-11.18
X-110.828 Y-11.255
X-110.78 Y-11.397
X-110.674 Y-11.503
X-110.545 Y-11.578
X-110.402 Y-11.626
X-110.254 Y-11.647
X-110.104 Y-11.642
X-109.958 Y-11.607
X-109.953 Y-11.604
X-109.868 Y-11.538
X-109.813 Y-11.445
X-109.793 Y-11.339
Y-11.093
X-109.8 Y-11.061
X-109.816 Y-11.032
X-109.841 Y-11.011
X-109.871 Y-10.999
X-109.903 Y-10.997
X-110.104 Y-11.017
X-110.742 Y-11.084
X-110.776 Y-11.094
X-110.805 Y-11.115
X-110.824 Y-11.145
X-110.832 Y-11.18
Y-11.395
X-110.828 Y-11.47
X-110.779 Y-11.612
X-110.677 Y-11.721
X-110.549 Y-11.8
X-110.408 Y-11.852
X-110.261 Y-11.878
X-110.111 Y-11.88
X-110.03 Y-11.862
X-109.908 Y-11.805
X-109.823 Y-11.7
X-109.793 Y-11.569
Y-11.339
X-109.802 Y-11.3
X-109.826 Y-11.268
X-109.86 Y-11.248
X-109.9 Y-11.243
X-110.102 Y-11.256
X-110.739 Y-11.299
X-110.774 Y-11.308
X-110.804 Y-11.329
X-110.824 Y-11.359
X-110.832 Y-11.395
Y-11.648
X-110.828 Y-11.723
X-110.765 Y-11.859
X-110.657 Y-11.964
X-110.528 Y-12.04
X-110.386 Y-12.089
X-110.238 Y-12.113
X-110.088 Y-12.107
X-110.024 Y-12.092
X-109.905 Y-12.033
X-109.823 Y-11.929
X-109.793 Y-11.8
Y-11.569
X-109.8 Y-11.537
X-109.816 Y-11.509
X-109.84 Y-11.488
X-109.87 Y-11.475
X-109.903 Y-11.473
X-110.103 Y-11.492
X-110.741 Y-11.552
X-110.776 Y-11.562
X-110.805 Y-11.583
X-110.824 Y-11.613
X-110.832 Y-11.648
Y-11.855
X-110.828 Y-11.93
X-110.775 Y-12.07
X-110.672 Y-12.18
X-110.546 Y-12.26
X-110.406 Y-12.314
X-110.258 Y-12.343
X-110.108 Y-12.341
X-109.961 Y-12.31
X-109.957 Y-12.308
X-109.87 Y-12.241
X-109.813 Y-12.148
X-109.793 Y-12.041
Y-11.8
X-109.802 Y-11.761
X-109.826 Y-11.729
X-109.86 Y-11.709
X-109.9 Y-11.703
X-110.102 Y-11.717
X-110.739 Y-11.759
X-110.774 Y-11.768
X-110.804 Y-11.789
X-110.824 Y-11.82
X-110.832 Y-11.855
Y-12.071
X-110.824 Y-12.221
X-110.745 Y-12.348
X-110.632 Y-12.446
X-110.499 Y-12.517
X-110.356 Y-12.56
X-110.207 Y-12.578
X-110.057 Y-12.572
X-110.008 Y-12.558
X-109.897 Y-12.497
X-109.82 Y-12.394
X-109.793 Y-12.27
Y-12.041
X-109.802 Y-12.003
X-109.825 Y-11.971
X-109.858 Y-11.951
X-109.897 Y-11.944
X-110.101 Y-11.952
X-110.735 Y-11.974
X-110.772 Y-11.983
X-110.803 Y-12.004
X-110.824 Y-12.034
X-110.832 Y-12.071
Y-12.324
X-110.828 Y-12.399
X-110.773 Y-12.538
X-110.669 Y-12.647
X-110.542 Y-12.727
X-110.402 Y-12.781
X-110.255 Y-12.81
X-110.105 Y-12.811
X-109.959 Y-12.779
X-109.956 Y-12.778
X-109.87 Y-12.711
X-109.813 Y-12.618
X-109.793 Y-12.511
Y-12.27
X-109.802 Y-12.231
X-109.826 Y-12.199
X-109.86 Y-12.179
X-109.9 Y-12.174
X-110.101 Y-12.187
X-110.738 Y-12.228
X-110.774 Y-12.237
X-110.804 Y-12.258
X-110.824 Y-12.288
X-110.832 Y-12.324
Y-12.578
X-110.828 Y-12.652
X-110.762 Y-12.787
X-110.655 Y-12.892
X-110.526 Y-12.969
X-110.385 Y-13.019
X-110.237 Y-13.044
X-110.087
X-110.022 Y-13.029
X-109.904 Y-12.97
X-109.822 Y-12.866
X-109.793 Y-12.737
Y-12.511
X-109.799 Y-12.479
X-109.815 Y-12.451
X-109.839 Y-12.43
X-109.869 Y-12.417
X-109.901 Y-12.415
X-110.102 Y-12.431
X-110.74 Y-12.481
X-110.775 Y-12.491
X-110.804 Y-12.512
X-110.824 Y-12.542
X-110.832 Y-12.578
Y-12.784
X-110.828 Y-12.859
X-110.774 Y-12.999
X-110.671 Y-13.109
X-110.545 Y-13.19
X-110.405 Y-13.245
X-110.259 Y-13.276
X-110.109 Y-13.277
X-109.962 Y-13.247
X-109.957 Y-13.245
X-109.87 Y-13.178
X-109.813 Y-13.085
X-109.793 Y-12.977
Y-12.737
X-109.802 Y-12.699
X-109.826 Y-12.667
X-109.86 Y-12.646
X-109.899 Y-12.641
X-110.101 Y-12.652
X-110.738 Y-12.688
X-110.773 Y-12.697
X-110.803 Y-12.718
X-110.824 Y-12.749
X-110.832 Y-12.784
Y-13
X-110.824 Y-13.15
X-110.745 Y-13.277
X-110.632 Y-13.376
X-110.501 Y-13.448
X-110.358 Y-13.493
X-110.209 Y-13.512
X-110.059 Y-13.507
X-110.01 Y-13.493
X-109.897 Y-13.432
X-109.82 Y-13.33
X-109.793 Y-13.205
Y-12.977
X-109.802 Y-12.939
X-109.825 Y-12.908
X-109.858 Y-12.887
X-109.896 Y-12.881
X-110.1 Y-12.886
X-110.735 Y-12.903
X-110.771 Y-12.911
X-110.802 Y-12.932
X-110.824 Y-12.963
X-110.832 Y-13
Y-13.253
X-110.828 Y-13.328
X-110.773 Y-13.468
X-110.671 Y-13.577
X-110.545 Y-13.658
X-110.405 Y-13.713
X-110.258 Y-13.744
X-110.108 Y-13.745
X-109.961 Y-13.715
X-109.957 Y-13.713
X-109.87 Y-13.646
X-109.813 Y-13.553
X-109.793 Y-13.445
Y-13.205
X-109.802 Y-13.166
X-109.826 Y-13.135
X-109.86 Y-13.114
X-109.899 Y-13.109
X-110.101 Y-13.12
X-110.738 Y-13.157
X-110.773 Y-13.166
X-110.803 Y-13.187
X-110.824 Y-13.217
X-110.832 Y-13.253
Y-13.507
X-110.828 Y-13.582
X-110.763 Y-13.717
X-110.657 Y-13.823
X-110.529 Y-13.901
X-110.388 Y-13.952
X-110.24 Y-13.977
X-110.09 Y-13.979
X-110.024 Y-13.963
X-109.905 Y-13.905
X-109.822 Y-13.801
X-109.793 Y-13.671
Y-13.445
X-109.799 Y-13.414
X-109.815 Y-13.386
X-109.839 Y-13.364
X-109.869 Y-13.352
X-109.9 Y-13.349
X-110.102 Y-13.364
X-110.739 Y-13.41
X-110.774 Y-13.42
X-110.804 Y-13.441
X-110.824 Y-13.471
X-110.832 Y-13.507
Y-13.714
X-110.828 Y-13.788
X-110.775 Y-13.929
X-110.674 Y-14.039
X-110.548 Y-14.121
X-110.409 Y-14.177
X-110.263 Y-14.21
X-110.113 Y-14.211
X-109.966 Y-14.182
X-109.959 Y-14.179
X-109.871 Y-14.112
X-109.813 Y-14.019
X-109.793 Y-13.91
Y-13.671
X-109.802 Y-13.633
X-109.825 Y-13.601
X-109.859 Y-13.581
X-109.898 Y-13.575
X-110.101 Y-13.585
X-110.737 Y-13.617
X-110.773 Y-13.626
X-110.803 Y-13.647
X-110.824 Y-13.678
X-110.832 Y-13.714
Y-13.967
X-110.828 Y-14.042
X-110.766 Y-14.178
X-110.66 Y-14.285
X-110.533 Y-14.364
X-110.392 Y-14.416
X-110.244 Y-14.442
X-110.094 Y-14.445
X-110.025 Y-14.429
X-109.906 Y-14.371
X-109.823 Y-14.267
X-109.793 Y-14.137
Y-13.91
X-109.799 Y-13.879
X-109.815 Y-13.851
X-109.839 Y-13.83
X-109.868 Y-13.817
X-109.9 Y-13.814
X-110.102 Y-13.828
X-110.739 Y-13.871
X-110.774 Y-13.88
X-110.804 Y-13.901
X-110.824 Y-13.931
X-110.832 Y-13.967
Y-14.182
X-110.828 Y-14.257
X-110.774 Y-14.397
X-110.672 Y-14.507
X-110.546 Y-14.588
X-110.406 Y-14.644
X-110.26 Y-14.675
X-110.11 Y-14.676
X-109.963 Y-14.646
X-109.958 Y-14.644
X-109.871 Y-14.577
X-109.813 Y-14.484
X-109.793 Y-14.376
Y-14.137
X-109.802 Y-14.098
X-109.826 Y-14.066
X-109.859 Y-14.046
X-109.899 Y-14.04
X-110.101 Y-14.051
X-110.737 Y-14.086
X-110.773 Y-14.095
X-110.803 Y-14.116
X-110.824 Y-14.146
X-110.832 Y-14.182
Y-14.436
X-110.828 Y-14.511
X-110.764 Y-14.646
X-110.658 Y-14.752
X-110.53 Y-14.831
X-110.389 Y-14.882
X-110.242 Y-14.908
X-110.092 Y-14.91
X-110.024 Y-14.894
X-109.905 Y-14.836
X-109.823 Y-14.732
X-109.793 Y-14.602
Y-14.376
X-109.799 Y-14.345
X-109.815 Y-14.317
X-109.839 Y-14.296
X-109.868 Y-14.283
X-109.9 Y-14.28
X-110.102 Y-14.294
X-110.739 Y-14.34
X-110.774 Y-14.349
X-110.804 Y-14.37
X-110.824 Y-14.4
X-110.832 Y-14.436
Y-14.643
X-110.828 Y-14.718
X-110.776 Y-14.858
X-110.675 Y-14.969
X-110.55 Y-15.051
X-110.411 Y-15.108
X-110.264 Y-15.14
X-110.114 Y-15.142
X-109.967 Y-15.113
X-109.96 Y-15.11
X-109.872 Y-15.043
X-109.814 Y-14.95
X-109.793 Y-14.841
Y-14.602
X-109.802 Y-14.564
X-109.825 Y-14.532
X-109.859 Y-14.512
X-109.898 Y-14.506
X-110.101 Y-14.516
X-110.737 Y-14.546
X-110.773 Y-14.555
X-110.803 Y-14.576
X-110.824 Y-14.607
X-110.832 Y-14.643
Y-14.896
X-110.828 Y-14.971
X-110.766 Y-15.108
X-110.661 Y-15.215
X-110.534 Y-15.294
X-110.394 Y-15.347
X-110.246 Y-15.373
X-110.096 Y-15.376
X-110.026 Y-15.36
X-109.906 Y-15.302
X-109.823 Y-15.197
X-109.793 Y-15.067
Y-14.841
X-109.802 Y-14.802
X-109.826 Y-14.77
X-109.86 Y-14.75
X-109.9 Y-14.745
X-110.101 Y-14.758
X-110.738 Y-14.8
X-110.774 Y-14.809
X-110.804 Y-14.83
X-110.824 Y-14.86
X-110.832 Y-14.896
Y-15.111
X-110.828 Y-15.186
X-110.775 Y-15.327
X-110.673 Y-15.437
X-110.547 Y-15.518
X-110.408 Y-15.574
X-110.261 Y-15.606
X-110.111 Y-15.607
X-109.964 Y-15.578
X-109.958 Y-15.575
X-109.871 Y-15.508
X-109.813 Y-15.415
X-109.793 Y-15.307
Y-15.067
X-109.802 Y-15.029
X-109.826 Y-14.997
X-109.859 Y-14.977
X-109.898 Y-14.971
X-110.101 Y-14.982
X-110.737 Y-15.015
X-110.773 Y-15.024
X-110.803 Y-15.045
X-110.824 Y-15.076
X-110.832 Y-15.111
Y-15.365
X-110.828 Y-15.44
X-110.765 Y-15.576
X-110.659 Y-15.682
X-110.532 Y-15.761
X-110.391 Y-15.813
X-110.243 Y-15.839
X-110.093 Y-15.841
X-110.025 Y-15.825
X-109.905 Y-15.767
X-109.823 Y-15.663
X-109.793 Y-15.533
Y-15.307
X-109.799 Y-15.275
X-109.815 Y-15.248
X-109.839 Y-15.226
X-109.868 Y-15.213
X-109.9 Y-15.21
X-110.102 Y-15.224
X-110.739 Y-15.269
X-110.774 Y-15.278
X-110.804 Y-15.299
X-110.824 Y-15.329
X-110.832 Y-15.365
Y-15.572
X-110.828 Y-15.647
X-110.777 Y-15.788
X-110.677 Y-15.899
X-110.551 Y-15.982
X-110.412 Y-16.038
X-110.266 Y-16.071
X-110.116 Y-16.073
X-109.969 Y-16.045
X-109.961 Y-16.041
X-109.872 Y-15.974
X-109.814 Y-15.88
X-109.793 Y-15.771
Y-15.533
X-109.802 Y-15.495
X-109.825 Y-15.463
X-109.859 Y-15.442
X-109.898 Y-15.436
X-110.101 Y-15.446
X-110.737 Y-15.475
X-110.773 Y-15.484
X-110.803 Y-15.505
X-110.824 Y-15.536
X-110.832 Y-15.572
Y-15.825
X-110.828 Y-15.9
X-110.767 Y-16.037
X-110.663 Y-16.145
X-110.535 Y-16.224
X-110.395 Y-16.277
X-110.247 Y-16.304
X-110.097 Y-16.307
X-110.026 Y-16.291
X-109.906 Y-16.233
X-109.823 Y-16.128
X-109.793 Y-15.998
Y-15.771
X-109.802 Y-15.733
X-109.826 Y-15.701
X-109.86 Y-15.681
X-109.9 Y-15.675
X-110.101 Y-15.688
X-110.738 Y-15.729
X-110.774 Y-15.738
X-110.804 Y-15.759
X-110.824 Y-15.79
X-110.832 Y-15.825
Y-16.041
X-110.828 Y-16.116
X-110.775 Y-16.256
X-110.674 Y-16.367
X-110.548 Y-16.448
X-110.409 Y-16.504
X-110.263 Y-16.537
X-110.113
X-109.965 Y-16.509
X-109.959 Y-16.505
X-109.871 Y-16.439
X-109.813 Y-16.345
X-109.793 Y-16.237
Y-15.998
X-109.802 Y-15.96
X-109.826 Y-15.928
X-109.859 Y-15.907
X-109.898 Y-15.902
X-110.101 Y-15.912
X-110.737 Y-15.944
X-110.773 Y-15.953
X-110.803 Y-15.974
X-110.824 Y-16.005
X-110.832 Y-16.041
Y-16.294
X-110.828 Y-16.369
X-110.766 Y-16.505
X-110.66 Y-16.612
X-110.533 Y-16.691
X-110.392 Y-16.743
X-110.244 Y-16.769
X-110.094 Y-16.772
X-110.025 Y-16.756
X-109.906 Y-16.697
X-109.823 Y-16.593
X-109.793 Y-16.463
Y-16.237
X-109.799 Y-16.206
X-109.815 Y-16.178
X-109.839 Y-16.157
X-109.868 Y-16.144
X-109.9 Y-16.141
X-110.102 Y-16.154
X-110.739 Y-16.198
X-110.774 Y-16.207
X-110.804 Y-16.228
X-110.824 Y-16.258
X-110.832 Y-16.294
Y-16.501
X-110.824 Y-16.651
X-110.743 Y-16.777
X-110.629 Y-16.874
X-110.496 Y-16.944
X-110.353 Y-16.988
X-110.204 Y-17.008
X-110.054 Y-16.995
X-110.008 Y-16.981
X-109.897 Y-16.92
X-109.82 Y-16.818
X-109.793 Y-16.694
Y-16.463
X-109.802 Y-16.425
X-109.825 Y-16.393
X-109.859 Y-16.373
X-109.898 Y-16.367
X-110.101 Y-16.376
X-110.736 Y-16.405
X-110.772 Y-16.413
X-110.803 Y-16.434
X-110.824 Y-16.465
X-110.832 Y-16.501
Y-16.754
X-110.828 Y-16.829
X-110.771 Y-16.968
X-110.666 Y-17.076
X-110.539 Y-17.155
X-110.399 Y-17.209
X-110.252 Y-17.237
X-110.102 Y-17.235
X-109.954 Y-17.202
X-109.869 Y-17.135
X-109.813 Y-17.042
X-109.793 Y-16.936
Y-16.694
X-109.799 Y-16.662
X-109.815 Y-16.634
X-109.839 Y-16.613
X-109.868 Y-16.6
X-109.9 Y-16.597
X-110.102 Y-16.612
X-110.739 Y-16.658
X-110.774 Y-16.667
X-110.804 Y-16.688
X-110.824 Y-16.719
X-110.832 Y-16.754
Y-16.97
X-110.828 Y-17.045
X-110.777 Y-17.186
X-110.677 Y-17.297
X-110.552 Y-17.38
X-110.413 Y-17.436
X-110.266 Y-17.467
X-110.116 Y-17.472
X-109.969 Y-17.444
X-109.876 Y-17.378
X-109.815 Y-17.282
X-109.793 Y-17.171
Y-16.936
X-109.802 Y-16.898
X-109.825 Y-16.866
X-109.858 Y-16.846
X-109.897 Y-16.84
X-110.101 Y-16.848
X-110.736 Y-16.873
X-110.772 Y-16.882
X-110.803 Y-16.903
X-110.824 Y-16.933
X-110.832 Y-16.97
Y-17.223
Y-17.261
Y-17.308
X-110.83 Y-17.336
X-110.819 Y-17.355
X-110.752 Y-17.433
X-110.663 Y-17.484
X-110.562 Y-17.501
G3 X-110.401 Y-17.182 I-0.007 J0.204
X-110.832 Y-17.308 I-0.195 J-0.134
G1 X-110.831 Y-17.398
X-110.83 Y-17.409
X-110.827 Y-17.42
X-110.823 Y-17.43
X-110.811 Y-17.45
X-110.792 Y-17.47
X-110.781 Y-17.479
X-110.771 Y-17.487
X-110.76 Y-17.492
X-110.75 Y-17.496
X-110.739 Y-17.499
X-110.728 Y-17.501
X-109.946
X-109.904
X-109.893 Y-17.5
X-109.867 Y-17.49
X-109.822 Y-17.457
X-109.801 Y-17.425
X-109.793 Y-17.387
X-109.801 Y-17.349
X-109.822 Y-17.317
X-109.854 Y-17.295
X-110.015 Y-17.227
X-110.124 Y-17.181
X-110.159 Y-17.173
X-110.195 Y-17.178
X-110.227 Y-17.196
X-110.25 Y-17.224
X-110.262 Y-17.258
X-110.26 Y-17.294
X-110.246 Y-17.328
G3 X-109.893 Y-17.5 I0.321 J0.211
G1 X-109.882 Y-17.497
X-109.872 Y-17.493
X-109.861 Y-17.488
X-109.832 Y-17.467
X-109.813 Y-17.449
X-109.802 Y-17.43
X-109.798 Y-17.42
X-109.795 Y-17.409
X-109.794 Y-17.398
X-109.793 Y-17.171
X-109.798 Y-17.143
X-109.811 Y-17.117
X-109.84 Y-17.1 Z-0.983
X-109.865 Y-17.085 Z-0.966
X-109.884 Y-17.075 Z-0.939
X-109.893 Y-17.074 Z-0.916
X-109.897 Z-0.89
G0 Z2
X-94.187 Y-9.575
Z0.5
G3 X-93.702 Y-9.699 Z0.29 I0.242 J-0.062 F333.3
X-94.187 Y-9.575 Z0.079 I-0.242 J0.062
X-93.702 Y-9.699 Z-0.131 I0.242 J-0.062
X-94.187 Y-9.575 Z-0.342 I-0.242 J0.062
X-93.702 Y-9.699 Z-0.552 I0.242 J-0.062
X-94.187 Y-9.575 Z-0.763 I-0.242 J0.062
X-93.976 Y-9.885 Z-0.876 I0.242 J-0.062
X-93.694 Y-9.637 Z-0.99 I0.031 J0.248
X-94.194 I-0.25
X-93.694 I0.25
G1 X-93.657 Y-9.492 F1000
X-93.67 Y-9.418
X-93.707 Y-9.352
X-93.814 Y-9.247
X-93.959 Y-9.207
X-94.107 Y-9.229
X-94.238 Y-9.303
X-94.334 Y-9.417
X-94.386 Y-9.558
X-94.389 Y-9.708
X-94.341 Y-9.85
X-94.249 Y-9.969
X-94.123 Y-10.051
X-93.978 Y-10.086
X-93.828 Y-10.073
X-93.692 Y-10.01
X-93.583 Y-9.907
X-93.505 Y-9.779
X-93.455 Y-9.637
X-93.444 Y-9.488
X-93.479 Y-9.342
X-93.55 Y-9.21
X-93.658 Y-9.106
X-93.789 Y-9.033
X-93.936 Y-8.999
X-94.085 Y-9.007
X-94.23 Y-9.047
X-94.359 Y-9.123
X-94.466 Y-9.229
X-94.548 Y-9.355
X-94.597 Y-9.496
X-94.612 Y-9.645
X-94.595 Y-9.794
X-94.545 Y-9.936
X-94.462 Y-10.061
X-94.356 Y-10.167
X-94.228 Y-10.246
X-94.086 Y-10.292
X-93.937 Y-10.308
X-93.788 Y-10.29
X-93.647 Y-10.238
X-93.52 Y-10.157
X-93.412 Y-10.054
X-93.324 Y-9.932
X-93.261 Y-9.796
X-93.223 Y-9.651
X-93.215 Y-9.501
X-93.237 Y-9.353
X-93.286 Y-9.211
X-93.363 Y-9.082
X-93.464 Y-8.971
X-93.584 Y-8.882
X-93.719 Y-8.816
X-93.864 Y-8.778
X-94.014 Y-8.769
X-94.163 Y-8.786
X-94.192 Y-8.794
X-94.249 Y-8.818
X-94.3 Y-8.853
X-94.344 Y-8.897
X-94.379 Y-8.943
X-94.416 Y-8.984
X-94.506 Y-9.068
X-94.549 Y-9.106
X-94.581 Y-9.132
X-94.694 Y-9.23
X-94.771 Y-9.359
X-94.819 Y-9.501
X-94.838 Y-9.65
X-94.829 Y-9.799
X-94.792 Y-9.945
X-94.729 Y-10.083
X-94.683 Y-10.138
X-94.625 Y-10.18
X-94.56 Y-10.207
X-94.524 Y-10.209
X-94.49 Y-10.199
X-94.462 Y-10.177
X-94.443 Y-10.147
X-94.436 Y-10.112
X-94.431 Y-9.777
X-94.422 Y-9.214
X-94.428 Y-9.178
X-94.447 Y-9.146
X-94.476 Y-9.124
X-94.511 Y-9.113
X-94.548 Y-9.116
X-94.581 Y-9.132
X-94.802 Y-9.306
X-94.823 Y-9.321
X-94.858 Y-9.345
X-94.918 Y-9.39
X-95.001 Y-9.515
X-95.042 Y-9.659
X-95.049 Y-9.809
X-95.029 Y-9.958
X-95.023 Y-9.975
X-94.96 Y-10.08
X-94.862 Y-10.151
X-94.743 Y-10.178
X-94.71 Y-10.171
X-94.682 Y-10.155
X-94.66 Y-10.131
X-94.648 Y-10.101
X-94.645 Y-10.068
X-94.652 Y-10
X-94.706 Y-9.421
X-94.714 Y-9.388
X-94.733 Y-9.36
X-94.761 Y-9.34
X-94.793 Y-9.331
X-94.827 Y-9.332
X-94.858 Y-9.345
X-94.972 Y-9.421
X-95.056 Y-9.469
X-95.121 Y-9.506
X-95.207 Y-9.629
X-95.249 Y-9.773
X-95.25 Y-9.923
X-95.243 Y-9.951
X-95.184 Y-10.068
X-95.08 Y-10.148
X-94.952 Y-10.177
X-94.92 Y-10.17
X-94.892 Y-10.154
X-94.87 Y-10.129
X-94.858 Y-10.098
X-94.856 Y-10.065
X-94.917 Y-9.549
X-94.928 Y-9.513
X-94.951 Y-9.485
X-94.983 Y-9.466
X-95.02 Y-9.461
X-95.056 Y-9.469
X-95.101 Y-9.49
X-95.225 Y-9.543
X-95.293 Y-9.576
X-95.394 Y-9.687
X-95.443 Y-9.828
X-95.439 Y-9.979
X-95.375 Y-10.082
X-95.276 Y-10.152
X-95.157 Y-10.177
X-95.125 Y-10.171
X-95.097 Y-10.155
X-95.076 Y-10.131
X-95.063 Y-10.102
X-95.06 Y-10.07
X-95.09 Y-9.63
X-95.099 Y-9.594
X-95.121 Y-9.564
X-95.152 Y-9.544
X-95.189 Y-9.536
X-95.225 Y-9.543
X-95.31 Y-9.579
X-95.395 Y-9.61
X-95.465 Y-9.637
X-95.578 Y-9.735
X-95.63 Y-9.876
X-95.629 Y-9.896
X-95.6 Y-10.005
X-95.534 Y-10.096
X-95.44 Y-10.156
X-95.329 Y-10.177
X-95.297 Y-10.17
X-95.269 Y-10.154
X-95.248 Y-10.13
X-95.235 Y-10.1
X-95.233 Y-10.068
X-95.268 Y-9.697
X-95.277 Y-9.664
X-95.297 Y-9.635
X-95.326 Y-9.615
X-95.36 Y-9.607
X-95.395 Y-9.61
X-95.551 Y-9.659
X-95.61 Y-9.676
X-95.646 Y-9.688
X-95.704 Y-9.735
X-95.781 Y-9.863
X-95.782 Y-9.87
X-95.761 Y-9.987
X-95.696 Y-10.087
X-95.598 Y-10.153
X-95.482 Y-10.177
X-95.446 Y-10.169
X-95.415 Y-10.148
X-95.394 Y-10.118
X-95.385 Y-10.082
X-95.39 Y-10.045
X-95.492 Y-9.741
X-95.51 Y-9.709
X-95.539 Y-9.686
X-95.574 Y-9.674
X-95.61 Y-9.676
X-95.648 Y-9.686
X-95.733 Y-9.704
X-95.806 Y-9.723
X-95.862 Y-9.772
X-95.896 Y-9.839
Y-9.962
X-95.841 Y-10.073
X-95.745 Y-10.149
X-95.624 Y-10.177
X-95.589 Y-10.169
X-95.558 Y-10.148
X-95.537 Y-10.118
X-95.528 Y-10.083
X-95.533 Y-10.046
X-95.621 Y-9.772
X-95.638 Y-9.74
X-95.664 Y-9.717
X-95.697 Y-9.704
X-95.733
X-95.864 Y-9.731
X-95.9 Y-9.74
X-95.964 Y-9.779
X-96.007 Y-9.841
X-96.011 Y-9.962
X-95.962 Y-10.072
X-95.869 Y-10.149
X-95.751 Y-10.177
X-95.714 Y-10.168
X-95.683 Y-10.147
X-95.662 Y-10.116
X-95.654 Y-10.079
X-95.661 Y-10.042
X-95.754 Y-9.794
X-95.771 Y-9.765
X-95.798 Y-9.743
X-95.83 Y-9.731
X-95.864
X-95.902 Y-9.738
X-95.987 Y-9.751
X-96.024 Y-9.758
X-96.083 Y-9.803
X-96.123 Y-9.867
X-96.124 Y-9.98
X-96.075 Y-10.081
X-95.987 Y-10.152
X-95.878 Y-10.177
X-95.84 Y-10.168
X-95.809 Y-10.146
X-95.788 Y-10.114
X-95.781 Y-10.076
X-95.789 Y-10.038
X-95.884 Y-9.811
X-95.901 Y-9.784
X-95.925 Y-9.764
X-95.955 Y-9.752
X-95.987 Y-9.751
X-96.118 Y-9.769
X-96.155 Y-9.777
X-96.209 Y-9.829
X-96.243 Y-9.895
X-96.238 Y-9.999
X-96.19 Y-10.091
X-96.107 Y-10.154
X-96.006 Y-10.177
X-95.968 Y-10.168
X-95.936 Y-10.145
X-95.916 Y-10.111
X-95.91 Y-10.073
X-95.919 Y-10.034
X-96.017 Y-9.826
X-96.034 Y-9.801
X-96.058 Y-9.782
X-96.087 Y-9.771
X-96.118 Y-9.769
X-96.202 Y-9.78
X-96.239 Y-9.787
X-96.306 Y-9.822
X-96.348 Y-9.884
X-96.351 Y-9.99
X-96.307 Y-10.086
X-96.225 Y-10.153
X-96.122 Y-10.177
X-96.085 Y-10.169
X-96.054 Y-10.148
X-96.033 Y-10.117
X-96.025 Y-10.081
X-96.031 Y-10.044
X-96.099 Y-9.847
X-96.115 Y-9.818
X-96.14 Y-9.796
X-96.17 Y-9.783
X-96.202 Y-9.78
X-96.325 Y-9.795
X-96.362 Y-9.801
X-96.422 Y-9.846
X-96.461 Y-9.91
X-96.459 Y-10.008
X-96.416 Y-10.095
X-96.339 Y-10.155
X-96.244 Y-10.177
X-96.215 Y-10.171
X-96.189 Y-10.158
G3 X-96.325 Y-9.795 I-0.12 J0.162
G1 X-96.456 Y-9.809
X-96.493 Y-9.815
X-96.547 Y-9.868
X-96.566 Y-9.974
X-96.532 Y-10.076
X-96.454 Y-10.15
X-96.349 Y-10.177
X-96.322 Y-10.172
X-96.298 Y-10.159
X-96.278 Y-10.14
G3 X-96.456 Y-9.809 I-0.164 J0.125
G1 X-96.494 Y-9.813
X-96.541 Y-9.817
X-96.579 Y-9.82
X-96.593 Y-9.823
X-96.613 Y-9.832
X-96.634 Y-9.854
X-96.643 Y-9.884
X-96.637 Y-9.914
X-96.617 Y-9.938
X-96.588 Y-9.95
X-96.557 Y-9.947
X-96.531 Y-9.929
X-96.517 Y-9.902
Y-9.871
X-96.532 Y-9.843
X-96.558 Y-9.826
X-96.575 Y-9.822
X-96.593 Y-9.823
X-96.606 Y-9.828
X-96.621 Y-9.836
X-96.635 Y-9.846
X-96.649 Y-9.857
X-96.663 Y-9.875
X-96.674 Y-9.893
X-96.676 Y-9.919
X-96.667 Y-9.944
X-96.649 Y-9.963
X-96.619 Y-9.974
X-96.589 Y-9.97
X-96.563 Y-9.953
X-96.549 Y-9.925
Y-9.894
X-96.563 Y-9.866
X-96.589 Y-9.849
X-96.62 Y-9.846
X-96.649 Y-9.857
X-96.664 Y-9.874
X-96.674 Y-9.893
X-96.68 Y-9.913
X-96.682 Y-9.923
Y-9.997
Y-10.039
X-96.679 Y-10.077
X-96.674 Y-10.101
X-96.651 Y-10.131
X-96.619 Y-10.152
X-96.583 Y-10.164
X-96.546
X-96.505 Y-10.152
X-96.471 Y-10.126
X-96.448 Y-10.091
X-96.439 Y-10.049
X-96.444 Y-10.007
X-96.463 Y-9.97
X-96.495 Y-9.941
X-96.534 Y-9.925
X-96.576 Y-9.923
X-96.617 Y-9.936
X-96.65 Y-9.962
X-96.673 Y-9.998
X-96.682 Y-10.039
Y-10.071
X-96.68 Y-10.082
X-96.674 Y-10.101
X-96.664 Y-10.121
X-96.65 Y-10.136
X-96.623 Y-10.158
X-96.61 Y-10.166
X-96.594 Y-10.172
X-96.579 Y-10.176
X-96.494 Y-10.177
X-94.802
X-94.718 Y-10.178
X-94.675 Y-10.181
X-94.633 Y-10.186
X-94.549 Y-10.21
X-94.506 Y-10.227
X-94.46 Y-10.25
X-94.379 Y-10.308
X-94.35 Y-10.335
X-94.24 Y-10.437
X-94.103 Y-10.498
X-93.956 Y-10.526
X-93.806 Y-10.522
X-93.659 Y-10.49
X-93.52 Y-10.434
X-93.392 Y-10.357
X-93.277 Y-10.261
X-93.219 Y-10.194
X-93.179 Y-10.135
X-93.154 Y-10.068
X-93.146 Y-9.997
Y-9.237
X-93.153 Y-9.087
X-93.21 Y-8.948
X-93.298 Y-8.827
X-93.408 Y-8.724
X-93.534 Y-8.643
X-93.671 Y-8.583
X-93.816 Y-8.544
X-93.896 Y-8.535
X-94.006 Y-8.542
X-94.105 Y-8.589
X-94.181 Y-8.667
X-94.194 Y-8.704
X-94.193 Y-8.743
X-94.176 Y-8.779
X-94.147 Y-8.805
X-93.791 Y-9.02
X-93.297 Y-9.319
X-93.265 Y-9.331
X-93.231 Y-9.332
X-93.198 Y-9.321
X-93.171 Y-9.3
X-93.153 Y-9.271
X-93.146 Y-9.237
Y-8.899
X-93.153 Y-8.749
X-93.23 Y-8.62
X-93.335 Y-8.513
X-93.457 Y-8.427
X-93.592 Y-8.361
X-93.736 Y-8.318
X-93.771 Y-8.314
X-93.893 Y-8.326
X-94 Y-8.386
X-94.074 Y-8.483
X-94.082 Y-8.52
X-94.076 Y-8.557
X-94.057 Y-8.59
X-94.027 Y-8.612
X-93.813 Y-8.721
X-93.291 Y-8.985
X-93.259 Y-8.995
X-93.226 Y-8.994
X-93.195 Y-8.982
X-93.169 Y-8.96
X-93.152 Y-8.932
X-93.146 Y-8.899
Y-8.646
X-93.153 Y-8.496
X-93.226 Y-8.365
X-93.331 Y-8.258
X-93.456 Y-8.174
X-93.594 Y-8.117
X-93.653 Y-8.107
X-93.79 Y-8.114
X-93.909 Y-8.182
X-93.986 Y-8.295
X-93.991 Y-8.331
X-93.984 Y-8.366
X-93.964 Y-8.396
X-93.935 Y-8.418
X-93.817 Y-8.475
X-93.289 Y-8.732
X-93.251 Y-8.742
X-93.212 Y-8.736
X-93.178 Y-8.716
X-93.155 Y-8.684
X-93.146 Y-8.646
Y-8.392
Y-8.346
Y-8.308
X-93.149 Y-8.233
X-93.226 Y-8.104
X-93.273 Y-8.061
X-93.334 Y-8.017
X-93.403 Y-7.99
X-93.477 Y-7.981
X-93.515 Y-7.99
X-93.546 Y-8.012
X-93.567 Y-8.045
X-93.574 Y-8.083
X-93.565 Y-8.12
X-93.544 Y-8.152
X-93.316 Y-8.376
X-93.284 Y-8.397
X-93.246 Y-8.404
X-93.208 Y-8.397
X-93.176 Y-8.376
X-93.154 Y-8.345
X-93.146 Y-8.308
Y-8.139
Y-8.097
Y-8.086
X-93.155 Y-8.059
X-93.169 Y-8.033
X-93.187 Y-8.011
X-93.221 Y-7.99
X-93.261 Y-7.982
X-93.301 Y-7.989
X-93.336 Y-8.01
X-93.361 Y-8.041
X-93.373 Y-8.08
X-93.371 Y-8.12
X-93.354 Y-8.157
X-93.325 Y-8.186
X-93.288 Y-8.202
X-93.248 Y-8.204
X-93.207 Y-8.191
X-93.174 Y-8.164
X-93.153 Y-8.128
X-93.146 Y-8.086
X-93.148 Y-8.075
X-93.151 Y-8.065
X-93.155 Y-8.054
X-93.162 Y-8.042
X-93.182 Y-8.016
X-93.195 Y-8.004
X-93.205 Y-7.996
X-93.216 Y-7.99
X-93.227 Y-7.986
X-93.237 Y-7.983
X-93.248 Y-7.981
X-93.28
X-93.787
X-93.808 Y-7.982
X-93.819 Y-7.985
X-93.829 Y-7.988
X-93.84 Y-7.993
X-93.851 Y-8
X-93.872 Y-8.019
X-93.888 Y-8.037
X-93.898 Y-8.054
X-93.959 Y-8.223
X-93.991 Y-8.308
X-94.093 Y-8.523
X-94.111 Y-8.561
X-94.222 Y-8.73
X-94.279 Y-8.815
X-94.344 Y-8.897
X-94.358 Y-8.925
X-94.363 Y-8.955
X-94.367 Y-9.555
X-94.373 Y-10.271
X-94.367 Y-10.305
X-94.35 Y-10.335
X-94.295 Y-10.398
X-94.279 Y-10.419
X-94.253 Y-10.462
X-94.232 Y-10.504
X-94.199 Y-10.571
X-94.087 Y-10.671
X-93.946 Y-10.722
X-93.797 Y-10.737
X-93.647 Y-10.723
X-93.503 Y-10.684
X-93.365 Y-10.624
X-93.289 Y-10.577
X-93.212 Y-10.51
X-93.163 Y-10.421
X-93.146 Y-10.321
Y-9.997
X-93.152 Y-9.964
X-93.17 Y-9.936
X-93.195 Y-9.914
X-93.227 Y-9.903
X-93.26 Y-9.902
X-93.292 Y-9.912
X-93.615 Y-10.083
X-94.184 Y-10.383
X-94.212 Y-10.404
X-94.231 Y-10.434
X-94.238 Y-10.469
X-94.232 Y-10.504
X-94.21 Y-10.561
X-94.203 Y-10.588
X-94.194 Y-10.631
X-94.187 Y-10.673
X-94.182 Y-10.71
X-94.097 Y-10.834
X-93.968 Y-10.909
X-93.822 Y-10.947
X-93.673 Y-10.954
X-93.524 Y-10.935
X-93.379 Y-10.894
X-93.319 Y-10.866
X-93.228 Y-10.8
X-93.167 Y-10.705
X-93.146 Y-10.594
Y-10.321
X-93.154 Y-10.284
X-93.176 Y-10.252
X-93.209 Y-10.232
X-93.246 Y-10.225
X-93.284 Y-10.232
X-93.509 Y-10.325
X-94.126 Y-10.58
X-94.158 Y-10.602
X-94.18 Y-10.634
X-94.187 Y-10.673
X-94.184 Y-10.757
Y-10.804
X-94.181 Y-10.879
X-94.111 Y-11.011
X-93.99 Y-11.101
X-93.85 Y-11.155
X-93.702 Y-11.179
X-93.552 Y-11.178
X-93.404 Y-11.152
X-93.342 Y-11.13
X-93.239 Y-11.066
X-93.17 Y-10.967
X-93.146 Y-10.848
Y-10.594
X-93.153 Y-10.56
X-93.172 Y-10.53
X-93.2 Y-10.508
X-93.234 Y-10.498
X-93.27 Y-10.501
X-93.472 Y-10.551
X-94.109 Y-10.71
X-94.138 Y-10.723
X-94.162 Y-10.744
X-94.178 Y-10.772
X-94.184 Y-10.804
Y-10.973
X-94.181 Y-11.048
X-94.131 Y-11.189
X-94.021 Y-11.291
X-93.888 Y-11.36
X-93.743 Y-11.4
X-93.594 Y-11.414
X-93.444 Y-11.403
X-93.299 Y-11.362
X-93.217 Y-11.295
X-93.164 Y-11.204
X-93.146 Y-11.101
Y-10.848
X-93.152 Y-10.815
X-93.17 Y-10.787
X-93.195 Y-10.765
X-93.227 Y-10.753
X-93.26
X-93.46 Y-10.782
X-94.099 Y-10.877
X-94.132 Y-10.888
X-94.159 Y-10.91
X-94.177 Y-10.939
X-94.184 Y-10.973
Y-11.18
X-94.181 Y-11.255
X-94.131 Y-11.396
X-94.025 Y-11.502
X-93.895 Y-11.577
X-93.752 Y-11.624
X-93.604 Y-11.646
X-93.454 Y-11.643
X-93.377 Y-11.625
X-93.257 Y-11.566
X-93.175 Y-11.462
X-93.146 Y-11.333
Y-11.101
X-93.152 Y-11.069
X-93.168 Y-11.041
X-93.193 Y-11.019
X-93.223 Y-11.007
X-93.255 Y-11.004
X-93.455 Y-11.023
X-94.094 Y-11.084
X-94.128 Y-11.093
X-94.157 Y-11.115
X-94.177 Y-11.145
X-94.184 Y-11.18
Y-11.395
X-94.181 Y-11.47
X-94.131 Y-11.611
X-94.027 Y-11.72
X-93.9 Y-11.799
X-93.759 Y-11.851
X-93.611 Y-11.878
X-93.461 Y-11.876
X-93.315 Y-11.845
X-93.309 Y-11.842
X-93.222 Y-11.775
X-93.165 Y-11.682
X-93.146 Y-11.575
Y-11.333
X-93.152 Y-11.301
X-93.168 Y-11.274
X-93.192 Y-11.252
X-93.221 Y-11.239
X-93.253 Y-11.237
X-93.454 Y-11.252
X-94.092 Y-11.299
X-94.127 Y-11.308
X-94.156 Y-11.329
X-94.176 Y-11.36
X-94.184 Y-11.395
Y-11.648
X-94.181 Y-11.723
X-94.116 Y-11.859
X-94.009 Y-11.963
X-93.879 Y-12.039
X-93.737 Y-12.088
X-93.589 Y-12.111
X-93.439 Y-12.11
X-93.373 Y-12.094
X-93.255 Y-12.035
X-93.174 Y-11.931
X-93.146 Y-11.803
Y-11.575
X-93.152 Y-11.543
X-93.168 Y-11.515
X-93.192 Y-11.494
X-93.222 Y-11.481
X-93.254 Y-11.479
X-93.455 Y-11.496
X-94.093 Y-11.552
X-94.128 Y-11.562
X-94.157 Y-11.583
X-94.177 Y-11.613
X-94.184 Y-11.648
Y-11.855
X-94.181 Y-11.93
X-94.126 Y-12.07
X-94.023 Y-12.179
X-93.897 Y-12.259
X-93.757 Y-12.313
X-93.61 Y-12.344
X-93.46 Y-12.343
X-93.313 Y-12.312
X-93.309 Y-12.31
X-93.222 Y-12.244
X-93.165 Y-12.151
X-93.146 Y-12.043
Y-11.803
X-93.155 Y-11.764
X-93.178 Y-11.732
X-93.212 Y-11.712
X-93.252 Y-11.706
X-93.454 Y-11.719
X-94.091 Y-11.759
X-94.126 Y-11.768
X-94.156 Y-11.789
X-94.176 Y-11.82
X-94.184 Y-11.855
Y-12.071
X-94.177 Y-12.221
X-94.097 Y-12.348
X-93.983 Y-12.445
X-93.851 Y-12.517
X-93.708 Y-12.561
X-93.559 Y-12.579
X-93.409 Y-12.574
X-93.361 Y-12.56
X-93.249 Y-12.499
X-93.173 Y-12.396
X-93.146 Y-12.272
Y-12.043
X-93.155 Y-12.005
X-93.177 Y-11.974
X-93.21 Y-11.953
X-93.249 Y-11.947
X-93.453 Y-11.954
X-94.088 Y-11.974
X-94.124 Y-11.982
X-94.155 Y-12.003
X-94.176 Y-12.034
X-94.184 Y-12.071
Y-12.324
X-94.181 Y-12.399
X-94.125 Y-12.538
X-94.021 Y-12.647
X-93.895 Y-12.727
X-93.755 Y-12.781
X-93.608 Y-12.812
X-93.458
X-93.311 Y-12.781
X-93.308 Y-12.779
X-93.222 Y-12.713
X-93.165 Y-12.62
X-93.146 Y-12.512
Y-12.272
X-93.155 Y-12.233
X-93.178 Y-12.201
X-93.212 Y-12.181
X-93.252 Y-12.175
X-93.454 Y-12.188
X-94.091 Y-12.228
X-94.126 Y-12.237
X-94.156 Y-12.258
X-94.176 Y-12.288
X-94.184 Y-12.324
Y-12.578
X-94.181 Y-12.652
X-94.114 Y-12.787
X-94.007 Y-12.892
X-93.879 Y-12.969
X-93.737 Y-13.02
X-93.59 Y-13.045
X-93.44 Y-13.046
X-93.375 Y-13.03
X-93.256 Y-12.971
X-93.175 Y-12.867
X-93.146 Y-12.738
Y-12.512
X-93.152 Y-12.481
X-93.168 Y-12.453
X-93.192 Y-12.432
X-93.221 Y-12.419
X-93.253 Y-12.416
X-93.454 Y-12.432
X-94.092 Y-12.481
X-94.127 Y-12.491
X-94.157 Y-12.512
X-94.176 Y-12.542
X-94.184 Y-12.578
Y-12.784
X-94.181 Y-12.859
X-94.126 Y-12.999
X-94.024 Y-13.109
X-93.898 Y-13.19
X-93.758 Y-13.246
X-93.612 Y-13.277
X-93.462 Y-13.278
X-93.315 Y-13.248
X-93.31 Y-13.246
X-93.223 Y-13.179
X-93.166 Y-13.086
X-93.146 Y-12.978
Y-12.738
X-93.155 Y-12.7
X-93.178 Y-12.668
X-93.212 Y-12.648
X-93.251 Y-12.642
X-93.453 Y-12.653
X-94.09 Y-12.688
X-94.126 Y-12.697
X-94.156 Y-12.718
X-94.176 Y-12.749
X-94.184 Y-12.784
Y-13
X-94.177 Y-13.15
X-94.098 Y-13.277
X-93.985 Y-13.376
X-93.854 Y-13.449
X-93.711 Y-13.494
X-93.562 Y-13.513
X-93.412 Y-13.509
X-93.363 Y-13.494
X-93.25 Y-13.434
X-93.173 Y-13.331
X-93.146 Y-13.206
Y-12.978
X-93.154 Y-12.94
X-93.177 Y-12.909
X-93.21 Y-12.888
X-93.248 Y-12.882
X-93.453 Y-12.887
X-94.087 Y-12.903
X-94.124 Y-12.911
X-94.155 Y-12.932
X-94.176 Y-12.963
X-94.184 Y-13
Y-13.253
X-94.181 Y-13.328
X-94.126 Y-13.468
X-94.024 Y-13.578
X-93.898 Y-13.659
X-93.758 Y-13.714
X-93.612 Y-13.745
X-93.462 Y-13.746
X-93.315 Y-13.716
X-93.31 Y-13.714
X-93.223 Y-13.647
X-93.166 Y-13.554
X-93.146 Y-13.446
Y-13.206
X-93.155 Y-13.168
X-93.178 Y-13.136
X-93.212 Y-13.115
X-93.251 Y-13.11
X-93.454 Y-13.121
X-94.09 Y-13.157
X-94.126 Y-13.166
X-94.156 Y-13.187
X-94.176 Y-13.217
X-94.184 Y-13.253
Y-13.507
X-94.181 Y-13.582
X-94.116 Y-13.717
X-94.01 Y-13.823
X-93.882 Y-13.901
X-93.741 Y-13.952
X-93.593 Y-13.978
X-93.443 Y-13.98
X-93.376 Y-13.964
X-93.257 Y-13.906
X-93.175 Y-13.802
X-93.146 Y-13.672
Y-13.446
X-93.152 Y-13.415
X-93.168 Y-13.387
X-93.192 Y-13.365
X-93.221 Y-13.353
X-93.253 Y-13.35
X-93.454 Y-13.364
X-94.092 Y-13.41
X-94.127 Y-13.42
X-94.156 Y-13.441
X-94.176 Y-13.471
X-94.184 Y-13.507
Y-13.714
X-94.181 Y-13.788
X-94.128 Y-13.929
X-94.027 Y-14.04
X-93.902 Y-14.122
X-93.762 Y-14.178
X-93.616 Y-14.211
X-93.466 Y-14.212
X-93.319 Y-14.183
X-93.312 Y-14.18
X-93.224 Y-14.113
X-93.166 Y-14.02
X-93.146 Y-13.911
Y-13.672
X-93.155 Y-13.634
X-93.178 Y-13.602
X-93.212 Y-13.582
X-93.25 Y-13.576
X-93.453 Y-13.586
X-94.089 Y-13.617
X-94.125 Y-13.626
X-94.156 Y-13.647
X-94.176 Y-13.678
X-94.184 Y-13.714
Y-13.967
X-94.181 Y-14.042
X-94.118 Y-14.178
X-94.013 Y-14.285
X-93.886 Y-14.365
X-93.745 Y-14.417
X-93.598 Y-14.443
X-93.448 Y-14.446
X-93.378 Y-14.43
X-93.258 Y-14.372
X-93.175 Y-14.268
X-93.146 Y-14.138
Y-13.911
X-93.155 Y-13.873
X-93.179 Y-13.841
X-93.213 Y-13.82
X-93.252 Y-13.815
X-93.454 Y-13.828
X-94.091 Y-13.871
X-94.126 Y-13.88
X-94.156 Y-13.901
X-94.176 Y-13.931
X-94.184 Y-13.967
Y-14.182
X-94.181 Y-14.257
X-94.127 Y-14.397
X-94.025 Y-14.507
X-93.899 Y-14.589
X-93.76 Y-14.644
X-93.613 Y-14.676
X-93.463 Y-14.677
X-93.316 Y-14.647
X-93.311 Y-14.645
X-93.223 Y-14.578
X-93.166 Y-14.485
X-93.146 Y-14.377
Y-14.138
X-93.155 Y-14.099
X-93.178 Y-14.067
X-93.212 Y-14.047
X-93.251 Y-14.041
X-93.453 Y-14.052
X-94.09 Y-14.086
X-94.125 Y-14.095
X-94.156 Y-14.116
X-94.176 Y-14.146
X-94.184 Y-14.182
Y-14.436
X-94.181 Y-14.511
X-94.117 Y-14.647
X-94.011 Y-14.753
X-93.883 Y-14.832
X-93.743 Y-14.883
X-93.595 Y-14.909
X-93.445 Y-14.911
X-93.377 Y-14.895
X-93.258 Y-14.837
X-93.175 Y-14.733
X-93.146 Y-14.603
Y-14.377
X-93.152 Y-14.346
X-93.168 Y-14.318
X-93.191 Y-14.296
X-93.221 Y-14.284
X-93.253 Y-14.281
X-93.454 Y-14.295
X-94.091 Y-14.34
X-94.127 Y-14.349
X-94.156 Y-14.37
X-94.176 Y-14.4
X-94.184 Y-14.436
Y-14.643
X-94.181 Y-14.718
X-94.129 Y-14.859
X-94.028 Y-14.97
X-93.903 Y-15.052
X-93.764 Y-15.108
X-93.618 Y-15.141
X-93.468 Y-15.143
X-93.32 Y-15.115
X-93.313 Y-15.111
X-93.224 Y-15.044
X-93.166 Y-14.95
X-93.146 Y-14.842
Y-14.603
X-93.155 Y-14.565
X-93.178 Y-14.533
X-93.211 Y-14.513
X-93.25 Y-14.507
X-93.453 Y-14.516
X-94.089 Y-14.546
X-94.125 Y-14.555
X-94.155 Y-14.576
X-94.176 Y-14.607
X-94.184 Y-14.643
Y-14.896
X-94.181 Y-14.971
X-94.119 Y-15.108
X-94.014 Y-15.215
X-93.887 Y-15.295
X-93.747 Y-15.347
X-93.599 Y-15.374
X-93.449 Y-15.377
X-93.379 Y-15.361
X-93.258 Y-15.303
X-93.175 Y-15.198
X-93.146 Y-15.068
Y-14.842
X-93.155 Y-14.803
X-93.178 Y-14.771
X-93.213 Y-14.751
X-93.252 Y-14.745
X-93.454 Y-14.759
X-94.091 Y-14.8
X-94.126 Y-14.809
X-94.156 Y-14.83
X-94.176 Y-14.86
X-94.184 Y-14.896
Y-15.111
X-94.181 Y-15.186
X-94.127 Y-15.327
X-94.026 Y-15.437
X-93.9 Y-15.519
X-93.761 Y-15.575
X-93.614 Y-15.607
X-93.464 Y-15.608
X-93.317 Y-15.579
X-93.311 Y-15.576
X-93.224 Y-15.509
X-93.166 Y-15.416
X-93.146 Y-15.307
Y-15.068
X-93.155 Y-15.03
X-93.178 Y-14.998
X-93.212 Y-14.978
X-93.251 Y-14.972
X-93.453 Y-14.982
X-94.09 Y-15.015
X-94.125 Y-15.024
X-94.156 Y-15.045
X-94.176 Y-15.075
X-94.184 Y-15.111
Y-15.365
X-94.181 Y-15.44
X-94.118 Y-15.576
X-94.012 Y-15.683
X-93.885 Y-15.762
X-93.744 Y-15.813
X-93.596 Y-15.839
X-93.446 Y-15.842
X-93.378 Y-15.826
X-93.258 Y-15.768
X-93.175 Y-15.663
X-93.146 Y-15.534
Y-15.307
X-93.152 Y-15.276
X-93.168 Y-15.248
X-93.191 Y-15.227
X-93.221 Y-15.214
X-93.252 Y-15.211
X-93.454 Y-15.225
X-94.091 Y-15.269
X-94.127 Y-15.278
X-94.156 Y-15.299
X-94.176 Y-15.329
X-94.184 Y-15.365
Y-15.572
X-94.181 Y-15.647
X-94.13 Y-15.788
X-94.03 Y-15.899
X-93.904 Y-15.982
X-93.765 Y-16.039
X-93.619 Y-16.072
X-93.469 Y-16.074
X-93.322 Y-16.046
X-93.313 Y-16.041
X-93.225 Y-15.975
X-93.166 Y-15.881
X-93.146 Y-15.772
Y-15.534
X-93.155 Y-15.495
X-93.178 Y-15.464
X-93.211 Y-15.443
X-93.25 Y-15.437
X-93.453 Y-15.446
X-94.089 Y-15.475
X-94.125 Y-15.484
X-94.155 Y-15.505
X-94.176 Y-15.536
X-94.184 Y-15.572
Y-15.825
X-94.181 Y-15.9
X-94.12 Y-16.037
X-94.016 Y-16.145
X-93.889 Y-16.225
X-93.748 Y-16.278
X-93.601 Y-16.305
X-93.451 Y-16.308
X-93.379 Y-16.291
X-93.259 Y-16.233
X-93.175 Y-16.129
X-93.146 Y-15.999
Y-15.772
X-93.155 Y-15.734
X-93.178 Y-15.702
X-93.213 Y-15.681
X-93.252 Y-15.676
X-93.454 Y-15.689
X-94.091 Y-15.729
X-94.126 Y-15.738
X-94.156 Y-15.759
X-94.176 Y-15.789
X-94.184 Y-15.825
Y-16.041
X-94.181 Y-16.116
X-94.128 Y-16.256
X-94.027 Y-16.367
X-93.901 Y-16.449
X-93.762 Y-16.505
X-93.616 Y-16.537
X-93.466 Y-16.538
X-93.319 Y-16.51
X-93.312 Y-16.506
X-93.224 Y-16.44
X-93.166 Y-16.346
X-93.146 Y-16.238
Y-15.999
X-93.155 Y-15.96
X-93.178 Y-15.929
X-93.212 Y-15.908
X-93.251 Y-15.902
X-93.453 Y-15.913
X-94.089 Y-15.944
X-94.125 Y-15.953
X-94.156 Y-15.974
X-94.176 Y-16.005
X-94.184 Y-16.041
Y-16.294
X-94.181 Y-16.369
X-94.118 Y-16.505
X-94.013 Y-16.612
X-93.886 Y-16.692
X-93.745 Y-16.744
X-93.597 Y-16.77
X-93.447 Y-16.772
X-93.378 Y-16.756
X-93.258 Y-16.698
X-93.175 Y-16.594
X-93.146 Y-16.464
Y-16.238
X-93.152 Y-16.206
X-93.168 Y-16.179
X-93.191 Y-16.157
X-93.22 Y-16.144
X-93.252 Y-16.141
X-93.454 Y-16.155
X-94.091 Y-16.198
X-94.126 Y-16.207
X-94.156 Y-16.228
X-94.176 Y-16.258
X-94.184 Y-16.294
Y-16.501
X-94.177 Y-16.651
X-94.096 Y-16.777
X-93.981 Y-16.874
X-93.849 Y-16.944
X-93.706 Y-16.989
X-93.557 Y-17.008
X-93.407 Y-16.996
X-93.361 Y-16.982
X-93.249 Y-16.921
X-93.173 Y-16.819
X-93.146 Y-16.694
Y-16.464
X-93.155 Y-16.426
X-93.178 Y-16.394
X-93.211 Y-16.374
X-93.25 Y-16.368
X-93.453 Y-16.377
X-94.089 Y-16.405
X-94.125 Y-16.413
X-94.155 Y-16.434
X-94.176 Y-16.465
X-94.184 Y-16.501
Y-16.754
X-94.181 Y-16.829
X-94.123 Y-16.968
X-94.019 Y-17.076
X-93.892 Y-17.156
X-93.752 Y-17.21
X-93.605 Y-17.238
X-93.455 Y-17.236
X-93.308 Y-17.203
X-93.221 Y-17.136
X-93.165 Y-17.043
X-93.146 Y-16.937
Y-16.694
X-93.152 Y-16.663
X-93.168 Y-16.635
X-93.191 Y-16.614
X-93.221 Y-16.601
X-93.253 Y-16.598
X-93.454 Y-16.612
X-94.091 Y-16.658
X-94.127 Y-16.667
X-94.156 Y-16.688
X-94.176 Y-16.719
X-94.184 Y-16.754
Y-16.97
X-94.181 Y-17.045
X-94.13 Y-17.186
X-94.03 Y-17.298
X-93.905 Y-17.38
X-93.766 Y-17.436
X-93.619 Y-17.467
X-93.469 Y-17.473
X-93.321 Y-17.444
X-93.229 Y-17.378
X-93.167 Y-17.283
X-93.146 Y-17.171
Y-16.937
X-93.155 Y-16.899
X-93.178 Y-16.867
X-93.211 Y-16.846
X-93.249 Y-16.84
X-93.453 Y-16.848
X-94.088 Y-16.873
X-94.125 Y-16.882
X-94.155 Y-16.903
X-94.176 Y-16.933
X-94.184 Y-16.97
Y-17.223
Y-17.261
Y-17.308
X-94.183 Y-17.336
X-94.172 Y-17.355
X-94.105 Y-17.433
X-94.015 Y-17.483
X-93.914 Y-17.501
G3 X-93.753 Y-17.182 I-0.007 J0.204
X-94.184 Y-17.308 I-0.195 J-0.134
G1 Y-17.398
X-94.182 Y-17.409
X-94.179 Y-17.42
X-94.175 Y-17.43
X-94.167 Y-17.444
X-94.156 Y-17.458
X-94.141 Y-17.475
X-94.126 Y-17.486
X-94.115 Y-17.492
X-94.104 Y-17.496
X-94.094 Y-17.499
X-94.083 Y-17.501
X-93.28
X-93.258
X-93.248 Y-17.5
X-93.224 Y-17.494
X-93.216 Y-17.492
X-93.195 Y-17.472
X-93.185 Y-17.446
X-93.186 Y-17.418
X-93.202 Y-17.39
X-93.229 Y-17.374
X-93.261 Y-17.372
X-93.29 Y-17.385
X-93.309 Y-17.411
X-93.314 Y-17.442
X-93.303 Y-17.472
X-93.279 Y-17.493
X-93.248 Y-17.5
X-93.237 Y-17.499
X-93.227 Y-17.496
X-93.216 Y-17.492
X-93.205 Y-17.486
X-93.195 Y-17.478
X-93.17 Y-17.454
X-93.161 Y-17.442
X-93.155 Y-17.43
X-93.151 Y-17.42
X-93.148 Y-17.409
X-93.146 Y-17.398
Y-17.171
X-93.151 Y-17.143
X-93.163 Y-17.118
X-93.192 Y-17.101 Z-0.983
X-93.218 Y-17.086 Z-0.966
X-93.236 Y-17.075 Z-0.939
X-93.246 Z-0.916
X-93.249 Z-0.89
G0 Z2
X-88.182 Y-16.731
Z0.5
G3 X-87.698 Y-16.856 Z0.29 I0.242 J-0.062 F333.3
X-88.182 Y-16.731 Z0.079 I-0.242 J0.062
X-87.698 Y-16.856 Z-0.131 I0.242 J-0.062
X-88.182 Y-16.731 Z-0.342 I-0.242 J0.062
X-87.698 Y-16.856 Z-0.552 I0.242 J-0.062
X-88.182 Y-16.731 Z-0.763 I-0.242 J0.062
X-87.972 Y-17.041 Z-0.876 I0.242 J-0.062
X-87.69 Y-16.793 Z-0.99 I0.031 J0.248
X-88.19 I-0.25
X-87.69 I0.25
G1 X-87.653 Y-16.648 F1000
X-87.666 Y-16.574
X-87.703 Y-16.509
X-87.81 Y-16.404
X-87.955 Y-16.364
X-88.103 Y-16.385
X-88.234 Y-16.459
X-88.33 Y-16.574
X-88.382 Y-16.715
X-88.385 Y-16.865
X-88.337 Y-17.007
X-88.245 Y-17.125
X-88.119 Y-17.207
X-87.974 Y-17.243
X-87.824 Y-17.229
X-87.688 Y-17.167
X-87.579 Y-17.063
X-87.501 Y-16.935
X-87.451 Y-16.794
X-87.44 Y-16.644
X-87.475 Y-16.498
X-87.546 Y-16.366
X-87.654 Y-16.262
X-87.785 Y-16.189
X-87.931 Y-16.156
X-88.081 Y-16.163
X-88.226 Y-16.204
X-88.355 Y-16.28
X-88.462 Y-16.385
X-88.543 Y-16.511
X-88.593 Y-16.653
X-88.608 Y-16.802
X-88.591 Y-16.951
X-88.541 Y-17.092
X-88.458 Y-17.217
X-88.352 Y-17.323
X-88.224 Y-17.402
X-88.082 Y-17.448
X-87.932 Y-17.465
X-87.784 Y-17.447
X-87.643 Y-17.394
X-87.516 Y-17.314
X-87.408 Y-17.21
X-87.32 Y-17.089
X-87.257 Y-16.952
X-87.219 Y-16.807
X-87.215 Y-16.734
X-87.219 Y-16.662
X-87.239 Y-16.592
X-87.273 Y-16.529
X-87.292 Y-16.501
X-87.316 Y-16.459
X-87.335 Y-16.416
X-87.347 Y-16.374
X-87.396 Y-16.232
X-87.493 Y-16.118
X-87.614 Y-16.029
X-87.751 Y-15.966
X-87.897 Y-15.933
X-88.047 Y-15.928
X-88.195 Y-15.952
X-88.244 Y-15.969
X-88.305 Y-15.998
X-88.358 Y-16.039
X-88.4 Y-16.092
X-88.477 Y-16.215
X-88.491 Y-16.248
X-88.525 Y-16.332
X-88.588 Y-16.501
X-88.678 Y-16.754
X-88.706 Y-16.839
X-88.745 Y-16.983
X-88.73 Y-17.133
X-88.676 Y-17.272
X-88.592 Y-17.397
X-88.579 Y-17.411
X-88.516 Y-17.46
X-88.443 Y-17.491
X-88.365 Y-17.501
X-88.327 Y-17.492
X-88.295 Y-17.469
X-88.275 Y-17.436
X-88.268 Y-17.397
X-88.278 Y-17.359
X-88.291 Y-17.331
X-88.521 Y-16.832
X-88.544 Y-16.8
X-88.577 Y-16.78
X-88.616 Y-16.773
X-88.654 Y-16.783
X-88.685 Y-16.806
X-88.706 Y-16.839
X-88.761 Y-17.008
X-88.784 Y-17.092
X-88.803 Y-17.177
X-88.811 Y-17.223
X-88.817 Y-17.261
X-88.825 Y-17.335
X-88.77 Y-17.422
X-88.685 Y-17.48
X-88.584 Y-17.501
G3 X-88.395 Y-17.276 I-0.007 J0.198
X-88.817 Y-17.261 I-0.213 J-0.029
G1 X-88.83 Y-17.346
X-88.835 Y-17.388
Y-17.398
X-88.833 Y-17.409
X-88.83 Y-17.42
X-88.826 Y-17.43
X-88.814 Y-17.45
X-88.796 Y-17.47
X-88.785 Y-17.479
X-88.775 Y-17.487
X-88.764 Y-17.492
X-88.753 Y-17.496
X-88.743 Y-17.499
X-88.732 Y-17.501
X-87.649
X-87.5 Y-17.494
X-87.361 Y-17.435
X-87.242 Y-17.345
X-87.143 Y-17.231
X-87.067 Y-17.103
X-87.032 Y-17.013
X-87.013 Y-16.888
X-87.047 Y-16.766
X-87.129 Y-16.668
X-87.188 Y-16.622
X-87.226 Y-16.585
X-87.273 Y-16.529
X-87.3 Y-16.508
X-87.332 Y-16.496
X-87.366 Y-16.497
X-87.398 Y-16.509
X-87.424 Y-16.531
X-87.442 Y-16.561
X-87.533 Y-16.807
X-87.74 Y-17.366
X-87.746 Y-17.403
X-87.738 Y-17.44
X-87.717 Y-17.471
X-87.686 Y-17.493
X-87.649 Y-17.501
X-87.311
X-87.236 Y-17.497
X-87.096 Y-17.444
X-86.979 Y-17.35
X-86.888 Y-17.231
X-86.824 Y-17.095
X-86.816 Y-17.047
X-86.827 Y-16.91
X-86.9 Y-16.795
X-87.019 Y-16.726
X-87.056 Y-16.72
X-87.093 Y-16.728
X-87.125 Y-16.749
X-87.146 Y-16.78
X-87.163 Y-16.82
X-87.399 Y-17.361
X-87.407 Y-17.399
X-87.401 Y-17.437
X-87.38 Y-17.47
X-87.349 Y-17.492
X-87.311 Y-17.501
X-87.057
X-86.982 Y-17.497
X-86.842 Y-17.445
X-86.729 Y-17.346
X-86.649 Y-17.219
X-86.628 Y-17.143
X-86.621 Y-17.013
X-86.668 Y-16.892
X-86.762 Y-16.802
X-86.884 Y-16.759
X-86.918 Y-16.761
X-86.949 Y-16.776
X-86.974 Y-16.799
X-86.989 Y-16.83
X-87.15 Y-17.373
X-87.153 Y-17.409
X-87.144 Y-17.444
X-87.123 Y-17.473
X-87.093 Y-17.493
X-87.057 Y-17.501
X-86.803
X-86.728 Y-17.497
X-86.592 Y-17.435
X-86.491 Y-17.324
X-86.43 Y-17.187
X-86.415 Y-17.038
X-86.421 Y-17.007
X-86.476 Y-16.882
X-86.581 Y-16.794
X-86.714 Y-16.762
X-86.85 Y-16.761
X-86.884 Y-16.759
X-86.919 Y-16.764
X-86.95 Y-16.78
X-86.973 Y-16.807
X-86.986 Y-16.839
X-86.987 Y-16.875
X-86.899 Y-17.417
X-86.887 Y-17.449
X-86.866 Y-17.476
X-86.837 Y-17.494
X-86.803 Y-17.501
X-86.596
X-86.521 Y-17.497
X-86.384 Y-17.437
X-86.285 Y-17.325
X-86.225 Y-17.187
X-86.213 Y-17.038
X-86.219 Y-17.007
X-86.275 Y-16.881
X-86.38 Y-16.794
X-86.514 Y-16.763
X-86.714 Y-16.762
X-86.749 Y-16.769
X-86.778 Y-16.787
X-86.8 Y-16.815
X-86.81 Y-16.848
X-86.809 Y-16.883
X-86.69 Y-17.423
X-86.678 Y-17.453
X-86.657 Y-17.478
X-86.628 Y-17.495
X-86.596 Y-17.501
X-86.38
X-86.305 Y-17.497
X-86.17 Y-17.432
X-86.075 Y-17.316
X-86.019 Y-17.177
X-86.011 Y-17.027
X-86.017 Y-16.999
X-86.074 Y-16.877
X-86.179 Y-16.793
X-86.31 Y-16.763
X-86.514
X-86.548 Y-16.77
X-86.578 Y-16.789
X-86.599 Y-16.817
X-86.61 Y-16.851
X-86.607 Y-16.887
X-86.474 Y-17.425
X-86.461 Y-17.455
X-86.44 Y-17.479
X-86.412 Y-17.495
X-86.38 Y-17.501
X-86.173
X-86.098 Y-17.497
X-85.964 Y-17.43
X-85.869 Y-17.314
X-85.814 Y-17.174
X-85.807 Y-17.025
X-85.813 Y-16.998
X-85.871 Y-16.877
X-85.975 Y-16.793
X-86.106 Y-16.763
X-86.31
X-86.345 Y-16.77
X-86.375 Y-16.789
X-86.396 Y-16.818
X-86.406 Y-16.852
X-86.404 Y-16.887
X-86.266 Y-17.426
X-86.254 Y-17.455
X-86.232 Y-17.479
X-86.204 Y-17.495
X-86.173 Y-17.501
X-85.957
X-85.882 Y-17.497
X-85.751 Y-17.424
X-85.66 Y-17.305
X-85.608 Y-17.164
X-85.604 Y-17.014
X-85.61 Y-16.991
X-85.668 Y-16.873
X-85.772 Y-16.792
X-85.901 Y-16.763
X-86.106
X-86.141 Y-16.77
X-86.171 Y-16.79
X-86.193 Y-16.819
X-86.202 Y-16.853
X-86.199 Y-16.889
X-86.05 Y-17.428
X-86.037 Y-17.456
X-86.016 Y-17.48
X-85.988 Y-17.495
X-85.957 Y-17.501
X-85.788
X-85.713 Y-17.497
X-85.572 Y-17.447
X-85.471 Y-17.336
X-85.411 Y-17.199
X-85.395 Y-17.049
X-85.402 Y-17.012
X-85.456 Y-16.884
X-85.562 Y-16.795
X-85.697 Y-16.763
X-85.901
X-85.935 Y-16.77
X-85.964 Y-16.788
X-85.986 Y-16.816
X-85.997 Y-16.848
X-85.995 Y-16.883
X-85.882 Y-17.422
X-85.87 Y-17.452
X-85.849 Y-17.478
X-85.821 Y-17.494
X-85.788 Y-17.501
X-85.581
X-85.506 Y-17.497
X-85.366 Y-17.444
X-85.266 Y-17.332
X-85.206 Y-17.195
X-85.193 Y-17.046
X-85.199 Y-17.01
X-85.254 Y-16.883
X-85.36 Y-16.795
X-85.495 Y-16.763
X-85.697
X-85.731 Y-16.77
X-85.761 Y-16.788
X-85.782 Y-16.816
X-85.793 Y-16.849
X-85.792 Y-16.884
X-85.675 Y-17.422
X-85.663 Y-17.453
X-85.641 Y-17.478
X-85.613 Y-17.494
X-85.581 Y-17.501
X-85.365
X-85.29 Y-17.497
X-85.153 Y-17.436
X-85.057 Y-17.321
X-85 Y-17.182
X-84.991 Y-17.033
X-84.997 Y-17.002
X-85.054 Y-16.879
X-85.159 Y-16.793
X-85.291 Y-16.763
X-85.495
X-85.529 Y-16.77
X-85.559 Y-16.789
X-85.58 Y-16.817
X-85.59 Y-16.851
X-85.588 Y-16.886
X-85.459 Y-17.424
X-85.446 Y-17.454
X-85.425 Y-17.479
X-85.397 Y-17.495
X-85.365 Y-17.501
X-85.158
X-85.083 Y-17.497
X-84.947 Y-17.434
X-84.851 Y-17.318
X-84.796 Y-17.179
X-84.787 Y-17.029
X-84.794 Y-17
X-84.851 Y-16.878
X-84.955 Y-16.793
X-85.087 Y-16.763
X-85.291
X-85.326 Y-16.77
X-85.355 Y-16.789
X-85.377 Y-16.817
X-85.387 Y-16.851
X-85.385 Y-16.887
X-85.251 Y-17.425
X-85.239 Y-17.455
X-85.217 Y-17.479
X-85.189 Y-17.495
X-85.158 Y-17.501
X-84.942
X-84.867 Y-17.497
X-84.735 Y-17.427
X-84.643 Y-17.308
X-84.59 Y-17.168
X-84.585 Y-17.018
X-84.59 Y-16.994
X-84.649 Y-16.874
X-84.753 Y-16.792
X-84.882 Y-16.763
X-85.087
X-85.122 Y-16.77
X-85.152 Y-16.79
X-85.173 Y-16.819
X-85.183 Y-16.853
X-85.18 Y-16.889
X-85.035 Y-17.427
X-85.022 Y-17.456
X-85.001 Y-17.479
X-84.973 Y-17.495
X-84.942 Y-17.501
X-84.773
X-84.698 Y-17.497
X-84.556 Y-17.449
X-84.453 Y-17.34
X-84.393 Y-17.203
X-84.376 Y-17.054
X-84.383 Y-17.014
X-84.437 Y-16.886
X-84.543 Y-16.795
X-84.679 Y-16.763
X-84.882
X-84.916 Y-16.77
X-84.945 Y-16.788
X-84.967 Y-16.815
X-84.978 Y-16.848
X-84.977 Y-16.883
X-84.867 Y-17.421
X-84.855 Y-17.452
X-84.834 Y-17.477
X-84.805 Y-17.494
X-84.773 Y-17.501
X-84.519
X-84.444 Y-17.497
X-84.315 Y-17.42
X-84.228 Y-17.299
X-84.179 Y-17.157
X-84.176 Y-17.007
X-84.183 Y-16.984
X-84.243 Y-16.869
X-84.346 Y-16.791
X-84.472 Y-16.763
X-84.679
X-84.714 Y-16.77
X-84.744 Y-16.79
X-84.766 Y-16.82
X-84.775 Y-16.855
X-84.771 Y-16.891
X-84.611 Y-17.43
X-84.598 Y-17.458
X-84.577 Y-17.48
X-84.55 Y-17.495
X-84.519 Y-17.501
X-84.35
X-84.275 Y-17.497
X-84.136 Y-17.441
X-84.037 Y-17.328
X-83.98 Y-17.189
X-83.967 Y-17.04
X-83.973 Y-17.007
X-84.029 Y-16.881
X-84.134 Y-16.794
X-84.268 Y-16.763
X-84.472
X-84.506 Y-16.77
X-84.536 Y-16.789
X-84.557 Y-16.816
X-84.568 Y-16.85
X-84.566 Y-16.885
X-84.444 Y-17.423
X-84.432 Y-17.453
X-84.41 Y-17.478
X-84.382 Y-17.495
X-84.35 Y-17.501
X-84.143
X-84.068 Y-17.497
X-83.93 Y-17.438
X-83.833 Y-17.324
X-83.774 Y-17.186
X-83.764 Y-17.036
X-83.77 Y-17.005
X-83.826 Y-16.88
X-83.932 Y-16.794
X-84.065 Y-16.763
X-84.268
X-84.302 Y-16.77
X-84.332 Y-16.789
X-84.353 Y-16.817
X-84.364 Y-16.85
X-84.362 Y-16.885
X-84.237 Y-17.424
X-84.224 Y-17.454
X-84.203 Y-17.478
X-84.175 Y-17.495
X-84.143 Y-17.501
X-83.927
X-83.852 Y-17.497
X-83.718 Y-17.431
X-83.623 Y-17.314
X-83.569 Y-17.174
X-83.562 Y-17.024
X-83.568 Y-16.997
X-83.625 Y-16.876
X-83.73 Y-16.793
X-83.861 Y-16.763
X-84.065
X-84.099 Y-16.77
X-84.129 Y-16.789
X-84.151 Y-16.818
X-84.161 Y-16.852
X-84.158 Y-16.887
X-84.02 Y-17.426
X-84.007 Y-17.455
X-83.986 Y-17.479
X-83.958 Y-17.495
X-83.927 Y-17.501
X-83.72
X-83.645 Y-17.497
X-83.511 Y-17.429
X-83.418 Y-17.311
X-83.364 Y-17.171
X-83.358 Y-17.022
X-83.363 Y-16.996
X-83.421 Y-16.876
X-83.526 Y-16.792
X-83.656 Y-16.763
X-83.861
X-83.895 Y-16.77
X-83.925 Y-16.79
X-83.947 Y-16.818
X-83.957 Y-16.852
X-83.954 Y-16.888
X-83.813 Y-17.426
X-83.8 Y-17.456
X-83.779 Y-17.479
X-83.751 Y-17.495
X-83.72 Y-17.501
X-83.504
X-83.429 Y-17.497
X-83.299 Y-17.422
X-83.209 Y-17.303
X-83.158 Y-17.162
X-83.154 Y-17.012
X-83.16 Y-16.99
X-83.219 Y-16.872
X-83.322 Y-16.791
X-83.451 Y-16.763
X-83.656
X-83.691 Y-16.77
X-83.721 Y-16.79
X-83.743 Y-16.819
X-83.752 Y-16.854
X-83.749 Y-16.89
X-83.597 Y-17.428
X-83.583 Y-17.457
X-83.562 Y-17.48
X-83.535 Y-17.495
X-83.504 Y-17.501
X-83.335
X-83.26 Y-17.497
X-83.119 Y-17.445
X-83.019 Y-17.333
X-82.96 Y-17.195
X-82.945 Y-17.046
X-82.952 Y-17.01
X-83.006 Y-16.883
X-83.112 Y-16.795
X-83.247 Y-16.763
X-83.451
X-83.485 Y-16.77
X-83.514 Y-16.788
X-83.536 Y-16.816
X-83.546 Y-16.849
X-83.545 Y-16.884
X-83.429 Y-17.422
X-83.417 Y-17.453
X-83.395 Y-17.478
X-83.367 Y-17.494
X-83.335 Y-17.501
X-83.127
X-83.053 Y-17.497
X-82.913 Y-17.442
X-82.814 Y-17.329
X-82.755 Y-17.192
X-82.743 Y-17.042
X-82.749 Y-17.008
X-82.804 Y-16.882
X-82.91 Y-16.794
X-83.044 Y-16.763
X-83.247
X-83.281 Y-16.77
X-83.311 Y-16.789
X-83.332 Y-16.816
X-83.343 Y-16.849
X-83.341 Y-16.884
X-83.222 Y-17.423
X-83.209 Y-17.453
X-83.188 Y-17.478
X-83.16 Y-17.495
X-83.127 Y-17.501
X-82.912
X-82.874
X-82.852
X-82.828 Y-17.498
X-82.821 Y-17.497
X-82.791 Y-17.477
X-82.773 Y-17.446
X-82.77 Y-17.41
X-82.781 Y-17.379
X-82.803 Y-17.355
X-82.834 Y-17.342
X-82.867
X-82.897 Y-17.356
X-82.919 Y-17.38
X-82.929 Y-17.411
X-82.926 Y-17.444
X-82.911 Y-17.473
X-82.884 Y-17.493
X-82.852 Y-17.501
X-82.842
X-82.831 Y-17.499
X-82.821 Y-17.497
X-82.81 Y-17.493
X-82.8 Y-17.488
X-82.789 Y-17.481
X-82.776 Y-17.469
X-82.764 Y-17.455
X-82.754 Y-17.443
X-82.747 Y-17.43
X-82.743 Y-17.42
X-82.74 Y-17.409
X-82.738 Y-17.398
Y-16.881
X-82.739 Y-16.86
X-82.747 Y-16.835
X-82.752 Y-16.825
X-82.776 Y-16.806
X-82.805 Y-16.801
X-82.834 Y-16.812
X-82.854 Y-16.834
X-82.86 Y-16.864
X-82.852 Y-16.893
X-82.83 Y-16.914
X-82.801 Y-16.922
X-82.771 Y-16.915
X-82.754 Y-16.901
X-82.743 Y-16.882
X-82.739 Y-16.86
X-82.741 Y-16.849
X-82.745 Y-16.839
X-82.752 Y-16.825
X-82.762 Y-16.811
X-82.774 Y-16.797
X-82.789 Y-16.783
X-82.8 Y-16.776
X-82.81 Y-16.771
X-82.821 Y-16.767
X-82.831 Y-16.764
X-82.842 Y-16.763
X-83.044
X-83.07 Y-16.766
X-83.094 Y-16.776
X-83.113 Y-16.784
X-83.133 Y-16.789
X-83.82 Y-16.868
X-87.125 Y-17.247
X-87.158 Y-17.245
X-87.188 Y-17.233
X-87.213 Y-17.212
X-87.23 Y-17.183
X-87.236 Y-17.151
G3 X-87.347 Y-16.374 I-3.644 J-0.122
G1 X-87.359 Y-16.332
X-87.368 Y-16.29
X-87.373 Y-16.248
X-87.374 Y-16.205
X-87.371 Y-16.163
X-87.367 Y-16.088
X-87.43 Y-15.952
X-87.536 Y-15.846
X-87.664 Y-15.768
X-87.806 Y-15.719
X-87.954 Y-15.696
X-87.985
X-88.082 Y-15.713
X-88.169 Y-15.76
X-88.235 Y-15.833
X-88.4 Y-16.092
X-88.412 Y-16.125
Y-16.159
X-88.401 Y-16.192
X-88.378 Y-16.219
X-88.348 Y-16.236
X-88.314 Y-16.242
X-88.118 Y-16.243
X-87.469
X-87.436 Y-16.237
X-87.406 Y-16.221
X-87.384 Y-16.195
X-87.371 Y-16.163
X-87.357 Y-16.079
X-87.344 Y-16.036
X-87.323 Y-15.965
X-87.345 Y-15.816
X-87.429 Y-15.692
X-87.543 Y-15.595
X-87.676 Y-15.525
X-87.759 Y-15.5
X-87.883 Y-15.49
X-88 Y-15.53
X-88.091 Y-15.615
X-88.12 Y-15.656
X-88.235 Y-15.833
X-88.248 Y-15.87
X-88.246 Y-15.909
X-88.23 Y-15.944
X-88.201 Y-15.97
X-88.165 Y-15.983
X-88.096 Y-15.994
X-87.453 Y-16.097
X-87.419
X-87.388 Y-16.086
X-87.362 Y-16.065
X-87.344 Y-16.036
X-87.329 Y-15.994
X-87.308 Y-15.952
X-87.283 Y-15.91
X-87.245 Y-15.845
X-87.238 Y-15.695
X-87.3 Y-15.558
X-87.398 Y-15.445
X-87.519 Y-15.356
X-87.582 Y-15.329
X-87.708 Y-15.304
X-87.834 Y-15.335
X-87.934 Y-15.415
X-88.061 Y-15.572
X-88.091 Y-15.615
X-88.105 Y-15.649
X-88.106 Y-15.686
X-88.093 Y-15.721
X-88.068 Y-15.749
X-88.035 Y-15.765
X-88.029 Y-15.767
X-87.392 Y-15.948
X-87.361 Y-15.952
X-87.331 Y-15.946
X-87.304 Y-15.932
X-87.283 Y-15.91
X-87.188 Y-15.769
X-87.149 Y-15.705
X-87.127 Y-15.556
X-87.174 Y-15.414
X-87.259 Y-15.29
X-87.373 Y-15.193
X-87.424 Y-15.166
X-87.551 Y-15.133
X-87.679 Y-15.156
X-87.785 Y-15.232
X-87.934 Y-15.415
X-87.951 Y-15.448
X-87.954 Y-15.484
X-87.944 Y-15.52
X-87.922 Y-15.549
X-87.892 Y-15.568
X-87.306 Y-15.803
X-87.274 Y-15.81
X-87.241 Y-15.806
X-87.212 Y-15.792
X-87.188 Y-15.769
X-87.169 Y-15.741
X-87.104 Y-15.652
X-87.084 Y-15.627
X-87.04 Y-15.567
X-87.005 Y-15.421
X-87.038 Y-15.275
X-87.113 Y-15.145
X-87.22 Y-15.04
X-87.264 Y-15.014
X-87.394 Y-14.973
X-87.529 Y-14.993
X-87.641 Y-15.071
X-87.785 Y-15.232
X-87.803 Y-15.263
X-87.808 Y-15.299
X-87.801 Y-15.334
X-87.781 Y-15.364
X-87.752 Y-15.386
X-87.203 Y-15.652
X-87.172 Y-15.661
X-87.139 Y-15.66
X-87.109 Y-15.648
X-87.084 Y-15.627
X-87.039 Y-15.572
X-86.966 Y-15.487
X-86.92 Y-15.428
X-86.875 Y-15.285
X-86.899 Y-15.137
X-86.965 Y-15.003
X-87.068 Y-14.893
X-87.096 Y-14.875
X-87.216 Y-14.829
X-87.343 Y-14.838
X-87.456 Y-14.899
X-87.549 Y-14.981
X-87.611 Y-15.038
X-87.641 Y-15.071
X-87.658 Y-15.102
X-87.664 Y-15.136
X-87.657 Y-15.171
X-87.639 Y-15.201
X-87.612 Y-15.223
X-87.087 Y-15.507
X-87.056 Y-15.518
X-87.023
X-86.992 Y-15.508
X-86.966 Y-15.487
X-86.934 Y-15.45
X-86.826 Y-15.339
X-86.776 Y-15.283
X-86.736 Y-15.138
X-86.758 Y-14.99
X-86.822 Y-14.854
X-86.924 Y-14.744
X-86.937 Y-14.735
X-87.055 Y-14.692
X-87.18 Y-14.7
X-87.291 Y-14.76
X-87.456 Y-14.899
X-87.478 Y-14.929
X-87.487 Y-14.964
X-87.484 Y-15.001
X-87.467 Y-15.034
X-87.439 Y-15.058
X-86.946 Y-15.352
X-86.916 Y-15.364
X-86.883 Y-15.366
X-86.852 Y-15.357
X-86.826 Y-15.339
X-86.806 Y-15.318
X-86.712 Y-15.234
X-86.659 Y-15.181
X-86.592 Y-15.047
X-86.595 Y-14.897
X-86.646 Y-14.756
X-86.735 Y-14.635
X-86.756 Y-14.619
X-86.877 Y-14.564
X-87.01 Y-14.566
X-87.129 Y-14.626
X-87.291 Y-14.76
X-87.313 Y-14.788
X-87.323 Y-14.822
X-87.321 Y-14.857
X-87.307 Y-14.889
X-87.283 Y-14.915
X-86.835 Y-15.238
X-86.805 Y-15.253
X-86.773 Y-15.257
X-86.741 Y-15.251
X-86.712 Y-15.234
X-86.681 Y-15.206
X-86.615 Y-15.15
X-86.57 Y-15.115
X-86.514 Y-15.065
X-86.439 Y-14.935
X-86.435 Y-14.785
X-86.478 Y-14.642
X-86.564 Y-14.519
X-86.589 Y-14.498
X-86.712 Y-14.436
X-86.849
X-86.972 Y-14.496
X-87.129 Y-14.626
X-87.151 Y-14.653
X-87.162 Y-14.687
X-87.161 Y-14.722
X-87.147 Y-14.754
X-87.124 Y-14.78
X-86.691 Y-15.113
X-86.662 Y-15.128
X-86.631 Y-15.134
X-86.599 Y-15.129
X-86.57 Y-15.115
X-86.399 Y-14.981
X-86.342 Y-14.932
X-86.279 Y-14.795
X-86.28 Y-14.645
X-86.325 Y-14.502
X-86.414 Y-14.382
X-86.434 Y-14.366
X-86.553 Y-14.309
X-86.685 Y-14.308
X-86.804 Y-14.364
X-86.944 Y-14.474
X-86.972 Y-14.496
X-86.994 Y-14.524
X-87.005 Y-14.558
X-87.003 Y-14.594
X-86.989 Y-14.626
X-86.965 Y-14.652
X-86.516 Y-14.98
X-86.489 Y-14.994
X-86.458 Y-14.999
X-86.427 Y-14.995
X-86.399 Y-14.981
X-86.258 Y-14.871
X-86.2 Y-14.824
X-86.123 Y-14.695
X-86.113 Y-14.545
X-86.152 Y-14.401
X-86.234 Y-14.275
X-86.259 Y-14.252
X-86.379 Y-14.187
X-86.516 Y-14.182
X-86.641 Y-14.238
X-86.804 Y-14.364
X-86.827 Y-14.391
X-86.839 Y-14.424
X-86.838 Y-14.459
X-86.826 Y-14.492
X-86.803 Y-14.518
X-86.378 Y-14.867
X-86.35 Y-14.883
X-86.319 Y-14.889
X-86.287 Y-14.885
X-86.258 Y-14.871
X-86.088 Y-14.746
X-86.031 Y-14.698
X-85.959 Y-14.566
X-85.953 Y-14.416
X-85.993 Y-14.271
X-86.076 Y-14.147
X-86.097 Y-14.129
X-86.214 Y-14.066
X-86.347 Y-14.06
X-86.469 Y-14.111
X-86.596 Y-14.204
X-86.641 Y-14.238
X-86.663 Y-14.265
X-86.676 Y-14.298
X-86.675 Y-14.333
X-86.663 Y-14.366
X-86.64 Y-14.393
X-86.208 Y-14.741
X-86.18 Y-14.757
X-86.149 Y-14.763
X-86.117 Y-14.759
X-86.088 Y-14.746
X-85.919 Y-14.621
X-85.861 Y-14.574
X-85.795 Y-14.439
X-85.79 Y-14.289
X-85.831 Y-14.145
X-85.916 Y-14.021
X-85.933 Y-14.006
X-86.049 Y-13.946
X-86.18 Y-13.94
X-86.301 Y-13.991
X-86.469 Y-14.111
X-86.493 Y-14.138
X-86.506 Y-14.172
Y-14.208
X-86.494 Y-14.241
X-86.47 Y-14.269
X-86.037 Y-14.615
X-86.01 Y-14.631
X-85.979 Y-14.637
X-85.948 Y-14.634
X-85.919 Y-14.621
X-85.75 Y-14.499
X-85.691 Y-14.453
X-85.629 Y-14.316
X-85.625 Y-14.166
X-85.666 Y-14.022
X-85.752 Y-13.899
X-85.767 Y-13.886
X-85.883 Y-13.826
X-86.014 Y-13.821
X-86.134 Y-13.872
X-86.301 Y-13.991
X-86.326 Y-14.018
X-86.339 Y-14.052
Y-14.088
X-86.326 Y-14.122
X-86.303 Y-14.149
X-85.868 Y-14.494
X-85.84 Y-14.51
X-85.81 Y-14.516
X-85.779 Y-14.512
X-85.75 Y-14.499
X-85.596 Y-14.389
X-85.537 Y-14.343
X-85.465 Y-14.211
X-85.456 Y-14.061
X-85.494 Y-13.916
X-85.575 Y-13.79
X-85.596 Y-13.771
X-85.715 Y-13.706
X-85.851 Y-13.7
X-85.975 Y-13.755
X-86.088 Y-13.839
X-86.134 Y-13.872
X-86.158 Y-13.898
X-86.171 Y-13.931
X-86.172 Y-13.967
X-86.16 Y-14
X-86.138 Y-14.028
X-85.715 Y-14.382
X-85.688 Y-14.399
X-85.656 Y-14.406
X-85.625 Y-14.402
X-85.596 Y-14.389
X-85.441 Y-14.279
X-85.382 Y-14.233
X-85.302 Y-14.106
X-85.287 Y-13.957
X-85.321 Y-13.811
X-85.399 Y-13.683
X-85.426 Y-13.657
X-85.546 Y-13.586
X-85.685 Y-13.578
X-85.812 Y-13.633
X-85.975 Y-13.755
X-85.998 Y-13.781
X-86.011 Y-13.813
Y-13.848
X-86 Y-13.881
X-85.978 Y-13.908
X-85.562 Y-14.271
X-85.534 Y-14.288
X-85.503 Y-14.296
X-85.471 Y-14.293
X-85.441 Y-14.279
X-85.281 Y-14.165
X-85.222 Y-14.119
X-85.137 Y-13.995
X-85.12 Y-13.846
X-85.152 Y-13.699
X-85.228 Y-13.57
X-85.259 Y-13.538
X-85.381 Y-13.465
X-85.522 Y-13.455
X-85.652 Y-13.512
X-85.812 Y-13.633
X-85.835 Y-13.659
X-85.848 Y-13.691
X-85.849 Y-13.726
X-85.838 Y-13.759
X-85.817 Y-13.786
X-85.402 Y-14.156
X-85.375 Y-14.174
X-85.343 Y-14.182
X-85.31 Y-14.179
X-85.281 Y-14.165
X-85.094 Y-14.033
X-85.035 Y-13.987
X-84.966 Y-13.854
X-84.959 Y-13.704
X-84.996 Y-13.559
X-85.055 Y-13.467
X-85.143 Y-13.378
X-85.259 Y-13.332
X-85.384 Y-13.337
X-85.496 Y-13.392
X-85.621 Y-13.489
X-85.652 Y-13.512
X-85.675 Y-13.539
X-85.687 Y-13.572
Y-13.607
X-85.675 Y-13.64
X-85.652 Y-13.667
X-85.213 Y-14.027
X-85.185 Y-14.043
X-85.155 Y-14.049
X-85.123 Y-14.046
X-85.094 Y-14.033
X-84.931 Y-13.917
X-84.872 Y-13.87
X-84.801 Y-13.738
X-84.792 Y-13.588
X-84.832 Y-13.444
X-84.907 Y-13.314
X-84.948 Y-13.277
X-85.072 Y-13.207
X-85.214 Y-13.203
X-85.343 Y-13.265
X-85.496 Y-13.392
X-85.518 Y-13.419
X-85.529 Y-13.451
X-85.528 Y-13.486
X-85.516 Y-13.518
X-85.494 Y-13.544
X-85.049 Y-13.91
X-85.022 Y-13.926
X-84.991 Y-13.933
X-84.959 Y-13.93
X-84.931 Y-13.917
X-84.764 Y-13.798
X-84.705 Y-13.751
X-84.635 Y-13.619
X-84.627 Y-13.469
X-84.662 Y-13.323
X-84.739 Y-13.195
X-84.847 Y-13.088
X-84.958 Y-13.057
X-85.072 Y-13.07
X-85.173 Y-13.125
X-85.343 Y-13.265
X-85.364 Y-13.292
X-85.375 Y-13.325
X-85.374 Y-13.359
X-85.362 Y-13.391
X-85.34 Y-13.417
X-84.883 Y-13.792
X-84.856 Y-13.808
X-84.825 Y-13.815
X-84.793 Y-13.811
X-84.764 Y-13.798
X-84.591 Y-13.672
X-84.533 Y-13.625
X-84.468 Y-13.49
X-84.461 Y-13.34
X-84.498 Y-13.194
X-84.569 Y-13.062
X-84.616 Y-13.014
X-84.709 Y-12.951
X-84.819 Y-12.926
X-84.931 Y-12.944
X-85.028 Y-13.002
X-85.073 Y-13.042
X-85.173 Y-13.125
X-85.194 Y-13.152
X-85.205 Y-13.184
Y-13.218
X-85.193 Y-13.25
X-85.171 Y-13.276
X-84.713 Y-13.666
X-84.685 Y-13.682
X-84.653 Y-13.689
X-84.621 Y-13.686
X-84.591 Y-13.672
X-84.534 Y-13.629
X-84.45 Y-13.564
X-84.393 Y-13.515
X-84.309 Y-13.392
X-84.291 Y-13.243
X-84.317 Y-13.095
X-84.384 Y-12.961
X-84.482 Y-12.847
X-84.505 Y-12.832
X-84.626 Y-12.787
X-84.755 Y-12.797
X-84.868 Y-12.86
X-85.028 Y-13.002
X-85.047 Y-13.028
X-85.058 Y-13.059
X-85.057 Y-13.092
X-85.046 Y-13.123
X-85.026 Y-13.148
X-84.576 Y-13.557
X-84.547 Y-13.575
X-84.514 Y-13.583
X-84.481 Y-13.579
X-84.45 Y-13.564
X-84.254 Y-13.412
X-84.197 Y-13.363
X-84.133 Y-13.227
X-84.128 Y-13.077
X-84.165 Y-12.932
X-84.235 Y-12.799
X-84.34 Y-12.692
X-84.355 Y-12.683
X-84.474 Y-12.644
X-84.599 Y-12.656
X-84.707 Y-12.717
X-84.868 Y-12.86
X-84.888 Y-12.887
X-84.898 Y-12.919
X-84.896 Y-12.953
X-84.884 Y-12.984
X-84.862 Y-13.009
X-84.376 Y-13.408
X-84.348 Y-13.425
X-84.316 Y-13.431
X-84.283 Y-13.427
X-84.254 Y-13.412
X-84.102 Y-13.291
X-84.045 Y-13.242
X-83.972 Y-13.111
X-83.961 Y-12.961
X-83.991 Y-12.814
X-84.057 Y-12.68
X-84.157 Y-12.567
X-84.188 Y-12.546
X-84.32 Y-12.497
X-84.459 Y-12.514
X-84.575 Y-12.591
X-84.598 Y-12.616
X-84.688 Y-12.7
X-84.707 Y-12.717
X-84.727 Y-12.744
X-84.737 Y-12.775
Y-12.808
X-84.725 Y-12.839
X-84.705 Y-12.865
X-84.227 Y-13.286
X-84.199 Y-13.304
X-84.166 Y-13.311
X-84.132 Y-13.306
X-84.102 Y-13.291
X-83.995 Y-13.207
X-83.973 Y-13.187
X-83.907 Y-13.122
X-83.855 Y-13.067
X-83.8 Y-12.928
X-83.801 Y-12.778
X-83.845 Y-12.634
X-83.92 Y-12.504
X-84.027 Y-12.4
X-84.074 Y-12.373
X-84.21 Y-12.333
X-84.349 Y-12.36
X-84.46 Y-12.448
X-84.566 Y-12.58
X-84.575 Y-12.591
X-84.593 Y-12.619
X-84.6 Y-12.651
X-84.596 Y-12.683
X-84.582 Y-12.713
X-84.56 Y-12.737
X-84.553 Y-12.742
X-84.033 Y-13.128
X-84.003 Y-13.144
X-83.969 Y-13.148
X-83.936 Y-13.141
X-83.907 Y-13.122
X-83.804 Y-13.021
X-83.738 Y-12.953
X-83.688 Y-12.897
X-83.642 Y-12.755
X-83.65 Y-12.605
X-83.7 Y-12.463
X-83.779 Y-12.336
X-83.89 Y-12.235
X-83.944 Y-12.204
X-84.079 Y-12.165
X-84.218 Y-12.192
X-84.329 Y-12.28
X-84.46 Y-12.448
X-84.475 Y-12.476
X-84.479 Y-12.508
X-84.474 Y-12.54
X-84.458 Y-12.568
X-84.434 Y-12.59
X-84.407 Y-12.608
X-83.862 Y-12.965
X-83.831 Y-12.978
X-83.798 Y-12.981
X-83.766 Y-12.972
X-83.738 Y-12.953
X-83.602 Y-12.813
X-83.552 Y-12.756
X-83.493 Y-12.618
X-83.496 Y-12.468
X-83.539 Y-12.325
X-83.615 Y-12.196
X-83.72 Y-12.088
X-83.846 Y-12.007
X-83.885 Y-11.995
X-84.016 Y-11.986
X-84.138 Y-12.034
X-84.228 Y-12.129
X-84.266 Y-12.193
X-84.312 Y-12.258
X-84.329 Y-12.28
X-84.346 Y-12.316
X-84.347 Y-12.355
X-84.333 Y-12.392
X-84.305 Y-12.421
X-84.26 Y-12.452
X-83.728 Y-12.823
X-83.697 Y-12.837
X-83.663 Y-12.84
X-83.63 Y-12.832
X-83.602 Y-12.813
X-83.495 Y-12.7
X-83.438 Y-12.64
X-83.39 Y-12.582
X-83.34 Y-12.441
X-83.349 Y-12.291
X-83.398 Y-12.149
X-83.477 Y-12.022
X-83.579 Y-11.912
X-83.705 Y-11.831
X-83.758 Y-11.812
X-83.894 Y-11.797
X-84.023 Y-11.844
X-84.117 Y-11.943
X-84.228 Y-12.129
X-84.239 Y-12.165
X-84.237 Y-12.202
X-84.221 Y-12.236
X-84.193 Y-12.262
X-84.115 Y-12.31
X-83.562 Y-12.654
X-83.531 Y-12.667
X-83.498 Y-12.668
X-83.466 Y-12.659
X-83.438 Y-12.64
X-83.381 Y-12.578
X-83.361 Y-12.554
X-83.344 Y-12.531
X-83.277 Y-12.421
X-83.206 Y-12.289
X-83.207 Y-12.139
X-83.25 Y-11.995
X-83.323 Y-11.864
X-83.422 Y-11.751
X-83.543 Y-11.663
X-83.618 Y-11.63
X-83.732 Y-11.604
X-83.847 Y-11.622
X-83.948 Y-11.68
X-84.02 Y-11.771
X-84.058 Y-11.842
X-84.117 Y-11.943
X-84.129 Y-11.98
