%
(n-016-020)
(T1  D=1 CR=0 - ZMIN=-2 - flat end mill)
G90 G94
G17
G21
G28 G91 Z0
G90

(Clear 3)
M9
T1 M6
S5000 M3
G54
M8
G0 X-119.585 Y-9.286
Z12
Z2
Z0.5
G3 X-119.101 Y-9.411 Z0.29 I0.242 J-0.062 F333.3
X-119.585 Y-9.286 Z0.079 I-0.242 J0.062
X-119.101 Y-9.411 Z-0.131 I0.242 J-0.062
X-119.585 Y-9.286 Z-0.342 I-0.242 J0.062
X-119.101 Y-9.411 Z-0.552 I0.242 J-0.062
X-119.585 Y-9.286 Z-0.763 I-0.242 J0.062
X-119.375 Y-9.597 Z-0.876 I0.242 J-0.062
X-119.093 Y-9.349 Z-0.99 I0.031 J0.248
X-119.593 I-0.25
X-119.093 I0.25
G1 X-119.056 Y-9.203 F1000
X-119.069 Y-9.13
X-119.106 Y-9.064
X-119.213 Y-8.959
X-119.357 Y-8.919
X-119.506 Y-8.941
X-119.636 Y-9.015
X-119.733 Y-9.129
X-119.785 Y-9.27
X-119.787 Y-9.42
X-119.74 Y-9.562
X-119.648 Y-9.681
X-119.522 Y-9.763
X-119.376 Y-9.798
X-119.227 Y-9.784
X-119.09 Y-9.722
X-118.982 Y-9.619
X-118.904 Y-9.491
X-118.854 Y-9.349
X-118.843 Y-9.2
X-118.878 Y-9.054
X-118.949 Y-8.922
X-119.057 Y-8.818
X-119.188 Y-8.745
X-119.334 Y-8.711
X-119.484 Y-8.718
X-119.628 Y-8.759
X-119.758 Y-8.835
X-119.864 Y-8.941
X-119.946 Y-9.066
X-119.996 Y-9.208
X-120.011 Y-9.357
X-119.994 Y-9.506
X-119.944 Y-9.648
X-119.861 Y-9.773
X-119.755 Y-9.879
X-119.627 Y-9.957
X-119.484 Y-10.004
X-119.335 Y-10.02
X-119.186 Y-10.002
X-119.046 Y-9.949
X-118.919 Y-9.869
X-118.81 Y-9.766
X-118.723 Y-9.644
X-118.66 Y-9.508
X-118.622 Y-9.363
X-118.614 Y-9.213
X-118.636 Y-9.065
X-118.685 Y-8.923
X-118.761 Y-8.794
X-118.862 Y-8.683
X-118.983 Y-8.594
X-119.118 Y-8.527
X-119.263 Y-8.49
X-119.412 Y-8.481
X-119.562 Y-8.498
X-119.592 Y-8.506
X-119.65 Y-8.53
X-119.701 Y-8.565
X-119.744 Y-8.61
X-119.772 Y-8.646
X-119.847 Y-8.73
X-119.944 Y-8.815
X-119.982 Y-8.846
X-120.093 Y-8.947
X-120.171 Y-9.075
X-120.217 Y-9.218
X-120.236 Y-9.366
X-120.227 Y-9.516
X-120.189 Y-9.661
X-120.126 Y-9.798
X-120.114 Y-9.815
X-120.069 Y-9.869
X-120.013 Y-9.91
X-119.948 Y-9.937
X-119.912 Y-9.94
X-119.878 Y-9.929
X-119.849 Y-9.907
X-119.83 Y-9.876
X-119.824 Y-9.841
X-119.823 Y-9.489
X-119.821 Y-8.926
X-119.828 Y-8.889
X-119.848 Y-8.858
X-119.877 Y-8.836
X-119.912 Y-8.826
X-119.949 Y-8.829
X-119.982 Y-8.846
X-120.15 Y-8.984
X-120.208 Y-9.023
X-120.241 Y-9.045
X-120.361 Y-9.135
X-120.422 Y-9.272
X-120.448 Y-9.419
X-120.445 Y-9.569
X-120.43 Y-9.646
X-120.374 Y-9.77
X-120.27 Y-9.856
X-120.138 Y-9.889
X-120.107 Y-9.883
X-120.079 Y-9.867
X-120.057 Y-9.843
X-120.044 Y-9.813
X-120.041 Y-9.781
X-120.047 Y-9.701
X-120.088 Y-9.123
X-120.096 Y-9.09
X-120.115 Y-9.061
X-120.142 Y-9.041
X-120.175 Y-9.031
X-120.209 Y-9.032
X-120.241 Y-9.045
X-120.404 Y-9.152
X-120.436 Y-9.171
X-120.501 Y-9.209
X-120.597 Y-9.324
X-120.643 Y-9.467
X-120.647 Y-9.617
X-120.639 Y-9.654
X-120.581 Y-9.775
X-120.477 Y-9.859
X-120.346 Y-9.888
X-120.314 Y-9.882
X-120.286 Y-9.866
X-120.265 Y-9.841
X-120.252 Y-9.811
X-120.25 Y-9.779
X-120.3 Y-9.255
X-120.31 Y-9.219
X-120.333 Y-9.19
X-120.364 Y-9.171
X-120.4 Y-9.164
X-120.436 Y-9.171
X-120.606 Y-9.245
X-120.673 Y-9.278
X-120.782 Y-9.382
X-120.835 Y-9.522
X-120.836 Y-9.672
X-120.834 Y-9.679
X-120.772 Y-9.788
X-120.671 Y-9.862
X-120.548 Y-9.888
X-120.51 Y-9.88
X-120.478 Y-9.857
X-120.458 Y-9.823
X-120.451 Y-9.785
X-120.469 Y-9.334
X-120.478 Y-9.297
X-120.499 Y-9.266
X-120.531 Y-9.245
X-120.568 Y-9.238
X-120.606 Y-9.245
X-120.69 Y-9.282
X-120.803 Y-9.321
X-120.873 Y-9.349
X-120.977 Y-9.457
X-121.024 Y-9.599
X-121.023 Y-9.615
X-120.974 Y-9.754
X-120.866 Y-9.853
X-120.724 Y-9.888
X-120.692 Y-9.882
X-120.663 Y-9.865
X-120.642 Y-9.84
X-120.63 Y-9.809
X-120.628 Y-9.776
X-120.675 Y-9.405
X-120.685 Y-9.371
X-120.706 Y-9.344
X-120.735 Y-9.325
X-120.769 Y-9.317
X-120.803 Y-9.321
X-120.944 Y-9.369
X-120.991 Y-9.381
X-121.062 Y-9.403
X-121.115 Y-9.457
X-121.144 Y-9.574
X-121.126 Y-9.693
X-121.062 Y-9.796
X-120.963 Y-9.864
X-120.845 Y-9.888
X-120.808 Y-9.88
X-120.777 Y-9.858
X-120.756 Y-9.827
X-120.748 Y-9.79
X-120.755 Y-9.752
X-120.876 Y-9.442
X-120.894 Y-9.412
X-120.922 Y-9.39
X-120.955 Y-9.379
X-120.991 Y-9.381
X-121.113 Y-9.41
X-121.149 Y-9.421
X-121.211 Y-9.463
X-121.251 Y-9.527
X-121.26 Y-9.656
X-121.21 Y-9.775
X-121.111 Y-9.858
X-120.986 Y-9.888
X-120.949 Y-9.88
X-120.918 Y-9.859
X-120.897 Y-9.827
X-120.889 Y-9.791
X-120.895 Y-9.754
X-121 Y-9.474
X-121.018 Y-9.443
X-121.045 Y-9.421
X-121.078 Y-9.41
X-121.113
X-121.198 Y-9.431
X-121.244 Y-9.44
X-121.281 Y-9.449
X-121.337 Y-9.498
X-121.375 Y-9.563
Y-9.681
X-121.324 Y-9.788
X-121.231 Y-9.862
X-121.116 Y-9.888
X-121.078 Y-9.88
X-121.046 Y-9.857
X-121.026 Y-9.824
X-121.019 Y-9.786
X-121.028 Y-9.748
X-121.137 Y-9.498
X-121.155 Y-9.471
X-121.181 Y-9.451
X-121.212 Y-9.44
X-121.244
X-121.282 Y-9.447
X-121.367 Y-9.46
X-121.404 Y-9.467
X-121.459 Y-9.519
X-121.495 Y-9.584
X-121.492 Y-9.696
X-121.441 Y-9.796
X-121.353 Y-9.864
X-121.244 Y-9.888
X-121.206 Y-9.879
X-121.174 Y-9.856
X-121.154 Y-9.823
X-121.148 Y-9.784
X-121.157 Y-9.746
X-121.265 Y-9.517
X-121.283 Y-9.491
X-121.307 Y-9.472
X-121.336 Y-9.461
X-121.367 Y-9.46
X-121.452 Y-9.473
X-121.488 Y-9.48
X-121.556 Y-9.513
X-121.6 Y-9.574
X-121.605 Y-9.687
X-121.56 Y-9.79
X-121.473 Y-9.863
X-121.363 Y-9.888
X-121.327 Y-9.88
X-121.296 Y-9.86
X-121.275 Y-9.829
X-121.267 Y-9.793
X-121.272 Y-9.756
X-121.346 Y-9.539
X-121.362 Y-9.51
X-121.387 Y-9.488
X-121.418 Y-9.475
X-121.452 Y-9.473
X-121.536 Y-9.485
X-121.585 Y-9.49
X-121.622 Y-9.496
X-121.68 Y-9.544
X-121.717 Y-9.609
X-121.715 Y-9.711
X-121.669 Y-9.803
X-121.589 Y-9.866
X-121.489 Y-9.888
X-121.452 Y-9.88
X-121.42 Y-9.858
X-121.4 Y-9.825
X-121.393 Y-9.787
X-121.401 Y-9.749
X-121.485 Y-9.551
X-121.501 Y-9.525
X-121.525 Y-9.504
X-121.554 Y-9.493
X-121.585 Y-9.49
X-121.705 Y-9.504
X-121.742 Y-9.51
X-121.798 Y-9.561
X-121.833 Y-9.627
X-121.817 Y-9.754
X-121.735 Y-9.852
X-121.612 Y-9.888
X-121.579 Y-9.881
X-121.55 Y-9.863
G3 X-121.705 Y-9.504 I-0.139 J0.153
G1 X-121.79 Y-9.514
X-121.827 Y-9.52
X-121.861 Y-9.537
X-121.913 Y-9.59
X-121.945 Y-9.658
X-121.922 Y-9.772
X-121.844 Y-9.857
X-121.732 Y-9.888
X-121.696 Y-9.88
G3 X-121.79 Y-9.514 I-0.079 J0.175
G1 X-121.875 Y-9.523
X-121.921 Y-9.527
X-121.959 Y-9.53
X-121.98 Y-9.532
X-122.005 Y-9.538
X-122.012 Y-9.541
X-122.034 Y-9.561
X-122.045 Y-9.588
X-122.043 Y-9.618
X-122.029 Y-9.644
X-122.004 Y-9.662
X-121.975 Y-9.667
X-121.946 Y-9.659
X-121.923 Y-9.64
X-121.911 Y-9.612
X-121.912 Y-9.582
X-121.926 Y-9.555
X-121.951 Y-9.537
X-121.98 Y-9.532
X-121.991 Y-9.533
X-122.002 Y-9.536
X-122.012 Y-9.541
X-122.023 Y-9.546
X-122.033 Y-9.554
X-122.044 Y-9.564
X-122.063 Y-9.585
G0 Z2
X-122.044 Y-9.564
Z0.6
G1 Z0.5 F1000
Z-0.99 F333.3
X-122.055 Y-9.575 F1000
X-122.064 Y-9.585
X-122.07 Y-9.596
X-122.075 Y-9.606
X-122.08 Y-9.626
X-122.079 Y-9.654
X-122.066 Y-9.679
X-122.043 Y-9.695
X-122.016 Y-9.701
X-121.989 Y-9.694
X-121.967 Y-9.676
X-121.955 Y-9.651
Y-9.623
X-121.956 Y-9.621
X-121.97 Y-9.593
X-121.995 Y-9.576
X-122.026 Y-9.572
X-122.055 Y-9.583
X-122.075 Y-9.606
X-122.078 Y-9.617
X-122.081 Y-9.628
X-122.082 Y-9.638
Y-9.706
Y-9.744
X-122.078 Y-9.802
X-122.06 Y-9.836
X-122.031 Y-9.859
X-121.995 Y-9.869
X-121.957 Y-9.864
X-121.925 Y-9.844
X-121.903 Y-9.813
X-121.895 Y-9.777
Y-9.748
X-121.902 Y-9.712
X-121.921 Y-9.682
X-121.951 Y-9.661
X-121.986 Y-9.653
X-122.022 Y-9.66
X-122.053 Y-9.679
X-122.074 Y-9.708
X-122.082 Y-9.744
X-122.081 Y-9.786
X-122.08 Y-9.796
X-122.077 Y-9.807
X-122.073 Y-9.818
X-122.067 Y-9.828
X-122.057 Y-9.842
X-122.033 Y-9.866
X-122.023 Y-9.873
X-122.012 Y-9.879
X-122.002 Y-9.883
X-121.991 Y-9.886
X-121.98 Y-9.888
X-121.875
X-120.119 Y-9.889
X-120.109 Y-9.891
X-119.855 Y-9.965
X-119.844 Y-9.971
X-119.807 Y-9.997
X-119.76 Y-10.037
X-119.736 Y-10.061
X-119.627 Y-10.164
X-119.487 Y-10.218
X-119.339 Y-10.242
X-119.189 Y-10.234
X-119.043 Y-10.198
X-118.905 Y-10.139
X-118.778 Y-10.06
X-118.664 Y-9.962
X-118.616 Y-9.904
X-118.578 Y-9.846
X-118.554 Y-9.781
X-118.546 Y-9.711
Y-8.937
X-118.553 Y-8.787
X-118.614 Y-8.65
X-118.704 Y-8.53
X-118.815 Y-8.429
X-118.942 Y-8.349
X-119.08 Y-8.291
X-119.226 Y-8.254
X-119.297 Y-8.247
X-119.407 Y-8.256
X-119.506 Y-8.304
X-119.581 Y-8.384
X-119.594 Y-8.421
X-119.592 Y-8.46
X-119.575 Y-8.495
X-119.546 Y-8.521
X-119.195 Y-8.727
X-118.696 Y-9.02
X-118.664 Y-9.032
X-118.63
X-118.597 Y-9.021
X-118.571 Y-9
X-118.553 Y-8.971
X-118.546 Y-8.937
Y-8.599
X-118.553 Y-8.449
X-118.633 Y-8.323
X-118.74 Y-8.217
X-118.864 Y-8.133
X-119 Y-8.068
X-119.144 Y-8.028
X-119.177 Y-8.025
X-119.297 Y-8.039
X-119.402 Y-8.098
X-119.475 Y-8.195
X-119.483 Y-8.232
X-119.477 Y-8.269
X-119.457 Y-8.302
X-119.427 Y-8.324
X-119.216 Y-8.428
X-118.69 Y-8.686
X-118.651 Y-8.696
X-118.612 Y-8.69
X-118.578 Y-8.67
X-118.555 Y-8.638
X-118.546 Y-8.599
Y-8.346
X-118.553 Y-8.196
X-118.63 Y-8.067
X-118.737 Y-7.962
X-118.863 Y-7.881
X-119.002 Y-7.826
X-119.058 Y-7.816
X-119.189 Y-7.824
X-119.305 Y-7.888
X-119.382 Y-7.994
X-119.389 Y-8.03
X-119.382 Y-8.067
X-119.362 Y-8.098
X-119.332 Y-8.12
X-119.217 Y-8.176
X-118.689 Y-8.432
X-118.651 Y-8.442
X-118.612 Y-8.436
X-118.578 Y-8.416
X-118.555 Y-8.384
X-118.546 Y-8.346
Y-8.092
Y-8.054
Y-8.008
X-118.549 Y-7.933
X-118.63 Y-7.807
X-118.673 Y-7.768
X-118.733 Y-7.727
X-118.801 Y-7.701
X-118.873 Y-7.693
X-118.91 Y-7.701
X-118.942 Y-7.724
X-118.963 Y-7.757
X-118.969 Y-7.795
X-118.96 Y-7.833
X-118.938 Y-7.865
X-118.714 Y-8.077
X-118.682 Y-8.097
X-118.645 Y-8.104
X-118.608 Y-8.097
X-118.576 Y-8.076
X-118.554 Y-8.045
X-118.546 Y-8.008
Y-7.839
Y-7.801
X-118.549 Y-7.784
X-118.557 Y-7.766
X-118.565 Y-7.75
X-118.575 Y-7.735
X-118.606 Y-7.714
X-118.643 Y-7.707
X-118.679 Y-7.716
X-118.708 Y-7.738
X-118.727 Y-7.77
X-118.731 Y-7.807
X-118.72 Y-7.843
X-118.696 Y-7.871
X-118.662 Y-7.887
X-118.625 Y-7.888
X-118.591 Y-7.875
X-118.565 Y-7.851
X-118.551 Y-7.819
X-118.549 Y-7.784
X-118.554 Y-7.768
X-118.564 Y-7.751
X-118.575 Y-7.735
X-118.592 Y-7.717
X-118.609 Y-7.705
X-118.626 Y-7.697
X-118.643 Y-7.694
X-118.66 Y-7.693
X-119.167
X-119.21 Y-7.694
X-119.22 Y-7.697
X-119.231 Y-7.7
X-119.241 Y-7.705
X-119.257 Y-7.717
X-119.277 Y-7.738
X-119.294 Y-7.759
X-119.299 Y-7.769
X-119.34 Y-7.885
X-119.371 Y-7.97
X-119.408 Y-8.054
X-119.506 Y-8.26
X-119.533 Y-8.308
X-119.59 Y-8.399
X-119.644 Y-8.477
X-119.706 Y-8.561
X-119.744 Y-8.61
X-119.758 Y-8.638
X-119.763 Y-8.669
X-119.762 Y-9.282
X-119.761 Y-9.995
X-119.755 Y-10.03
X-119.736 Y-10.061
X-119.716 Y-10.082
X-119.675 Y-10.139
X-119.658 Y-10.166
X-119.631 Y-10.224
X-119.596 Y-10.29
X-119.482 Y-10.388
X-119.34 Y-10.438
X-119.191 Y-10.451
X-119.041 Y-10.435
X-118.897 Y-10.395
X-118.76 Y-10.334
X-118.688 Y-10.29
X-118.612 Y-10.223
X-118.563 Y-10.134
X-118.546 Y-10.034
Y-9.711
X-118.552 Y-9.678
X-118.57 Y-9.65
X-118.595 Y-9.628
X-118.627 Y-9.616
X-118.66
X-118.692 Y-9.626
X-119.022 Y-9.8
X-119.585 Y-10.096
X-119.614 Y-10.119
X-119.633 Y-10.151
X-119.638 Y-10.188
X-119.631 Y-10.224
X-119.618 Y-10.25
X-119.605 Y-10.293
X-119.595 Y-10.335
X-119.59 Y-10.363
X-119.579 Y-10.437
X-119.488 Y-10.557
X-119.356 Y-10.628
X-119.21 Y-10.662
X-119.06 Y-10.667
X-118.912 Y-10.646
X-118.768 Y-10.604
X-118.716 Y-10.579
X-118.626 Y-10.512
X-118.566 Y-10.418
X-118.546 Y-10.308
Y-10.034
X-118.554 Y-9.998
X-118.575 Y-9.967
X-118.607 Y-9.946
X-118.644 Y-9.938
X-118.681 Y-9.944
X-118.909 Y-10.031
X-119.526 Y-10.264
X-119.553 Y-10.28
X-119.574 Y-10.303
X-119.587 Y-10.332
X-119.59 Y-10.363
X-119.586 Y-10.419
X-119.584 Y-10.504
X-119.581 Y-10.579
X-119.518 Y-10.715
X-119.401 Y-10.809
X-119.262 Y-10.865
X-119.114 Y-10.891
X-118.964
X-118.816 Y-10.869
X-118.746 Y-10.844
X-118.641 Y-10.781
X-118.571 Y-10.681
X-118.546 Y-10.561
Y-10.308
X-118.553 Y-10.274
X-118.572 Y-10.244
X-118.6 Y-10.223
X-118.633 Y-10.212
X-118.668 Y-10.214
X-118.869 Y-10.261
X-119.507 Y-10.41
X-119.537 Y-10.422
X-119.562 Y-10.444
X-119.578 Y-10.472
X-119.584 Y-10.504
Y-10.719
X-119.581 Y-10.794
X-119.509 Y-10.926
X-119.393 Y-11.02
X-119.256 Y-11.082
X-119.11 Y-11.116
X-118.96 Y-11.126
X-118.811 Y-11.107
X-118.754 Y-11.089
X-118.646 Y-11.027
X-118.572 Y-10.926
X-118.546 Y-10.803
Y-10.561
X-118.553 Y-10.528
X-118.571 Y-10.498
X-118.597 Y-10.477
X-118.63 Y-10.466
X-118.664
X-118.864 Y-10.504
X-119.503 Y-10.624
X-119.534 Y-10.636
X-119.56 Y-10.658
X-119.577 Y-10.686
X-119.584 Y-10.719
Y-10.926
X-119.581 Y-11.001
X-119.511 Y-11.134
X-119.398 Y-11.233
X-119.264 Y-11.301
X-119.12 Y-11.342
X-118.971 Y-11.359
X-118.822 Y-11.346
X-118.763 Y-11.329
X-118.65 Y-11.268
X-118.573 Y-11.166
X-118.546 Y-11.041
Y-10.803
X-118.552 Y-10.771
X-118.57 Y-10.742
X-118.595 Y-10.721
X-118.627 Y-10.709
X-118.66 Y-10.708
X-118.859 Y-10.737
X-119.499 Y-10.831
X-119.532 Y-10.842
X-119.559 Y-10.863
X-119.577 Y-10.892
X-119.584 Y-10.926
Y-11.142
X-119.581 Y-11.217
X-119.513 Y-11.35
X-119.402 Y-11.452
X-119.271 Y-11.524
X-119.128 Y-11.57
X-118.979 Y-11.59
X-118.83 Y-11.581
X-118.769 Y-11.565
X-118.653 Y-11.505
X-118.574 Y-11.402
X-118.546 Y-11.275
Y-11.041
X-118.552 Y-11.008
X-118.569 Y-10.98
X-118.594 Y-10.958
X-118.625 Y-10.946
X-118.658 Y-10.945
X-118.857 Y-10.969
X-119.496 Y-11.046
X-119.53 Y-11.056
X-119.558 Y-11.077
X-119.577 Y-11.107
X-119.584 Y-11.142
Y-11.349
X-119.581 Y-11.423
X-119.521 Y-11.561
X-119.415 Y-11.667
X-119.287 Y-11.745
X-119.145 Y-11.795
X-118.998 Y-11.821
X-118.848 Y-11.816
X-118.778 Y-11.8
X-118.658 Y-11.741
X-118.575 Y-11.637
X-118.546 Y-11.507
Y-11.275
X-118.552 Y-11.243
X-118.568 Y-11.215
X-118.592 Y-11.193
X-118.622 Y-11.181
X-118.654 Y-11.178
X-118.855 Y-11.196
X-119.493 Y-11.252
X-119.528 Y-11.262
X-119.557 Y-11.283
X-119.577 Y-11.313
X-119.584 Y-11.349
Y-11.564
X-119.581 Y-11.639
X-119.527 Y-11.779
X-119.424 Y-11.888
X-119.297 Y-11.969
X-119.157 Y-12.022
X-119.01 Y-12.051
X-118.86 Y-12.049
X-118.713 Y-12.018
X-118.709 Y-12.016
X-118.622 Y-11.949
X-118.565 Y-11.856
X-118.546 Y-11.749
Y-11.507
X-118.552 Y-11.476
X-118.568 Y-11.448
X-118.591 Y-11.427
X-118.62 Y-11.414
X-118.652 Y-11.411
X-118.854 Y-11.425
X-119.491 Y-11.468
X-119.526 Y-11.477
X-119.556 Y-11.498
X-119.576 Y-11.528
X-119.584 Y-11.564
Y-11.817
X-119.581 Y-11.892
X-119.516 Y-12.028
X-119.409 Y-12.133
X-119.28 Y-12.21
X-119.139 Y-12.259
X-118.99 Y-12.283
X-118.84
X-118.774 Y-12.267
X-118.656 Y-12.208
X-118.575 Y-12.104
X-118.546 Y-11.976
Y-11.749
X-118.552 Y-11.717
X-118.568 Y-11.689
X-118.592 Y-11.668
X-118.622 Y-11.655
X-118.654 Y-11.652
X-118.855 Y-11.669
X-119.493 Y-11.721
X-119.527 Y-11.731
X-119.557 Y-11.752
X-119.577 Y-11.782
X-119.584 Y-11.817
Y-12.024
X-119.581 Y-12.099
X-119.527 Y-12.239
X-119.425 Y-12.349
X-119.298 Y-12.43
X-119.159 Y-12.484
X-119.012 Y-12.516
X-118.862
X-118.715 Y-12.486
X-118.71 Y-12.483
X-118.623 Y-12.417
X-118.566 Y-12.323
X-118.546 Y-12.216
Y-11.976
X-118.555 Y-11.937
X-118.578 Y-11.905
X-118.612 Y-11.885
X-118.651 Y-11.879
X-118.854 Y-11.891
X-119.49 Y-11.928
X-119.526 Y-11.937
X-119.556 Y-11.958
X-119.576 Y-11.988
X-119.584 Y-12.024
Y-12.24
X-119.577 Y-12.389
X-119.498 Y-12.517
X-119.385 Y-12.616
X-119.253 Y-12.688
X-119.11 Y-12.733
X-118.961 Y-12.752
X-118.811 Y-12.746
X-118.762 Y-12.732
X-118.65 Y-12.671
X-118.573 Y-12.569
X-118.546 Y-12.444
Y-12.216
X-118.554 Y-12.178
X-118.577 Y-12.146
X-118.61 Y-12.126
X-118.648 Y-12.119
X-118.853 Y-12.125
X-119.487 Y-12.143
X-119.524 Y-12.151
X-119.555 Y-12.172
X-119.576 Y-12.203
X-119.584 Y-12.24
Y-12.493
X-119.581 Y-12.568
X-119.526 Y-12.708
X-119.423 Y-12.817
X-119.297 Y-12.898
X-119.157 Y-12.953
X-119.011 Y-12.983
X-118.861 Y-12.984
X-118.714 Y-12.954
X-118.71 Y-12.952
X-118.623 Y-12.885
X-118.566 Y-12.792
X-118.546 Y-12.684
Y-12.444
X-118.555 Y-12.406
X-118.578 Y-12.374
X-118.612 Y-12.353
X-118.651 Y-12.348
X-118.854 Y-12.36
X-119.49 Y-12.397
X-119.526 Y-12.406
X-119.556 Y-12.427
X-119.576 Y-12.457
X-119.584 Y-12.493
Y-12.746
X-119.581 Y-12.821
X-119.516 Y-12.957
X-119.409 Y-13.062
X-119.281 Y-13.14
X-119.14 Y-13.191
X-118.992 Y-13.217
X-118.842 Y-13.218
X-118.776 Y-13.202
X-118.657 Y-13.144
X-118.575 Y-13.04
X-118.546 Y-12.911
Y-12.684
X-118.552 Y-12.653
X-118.568 Y-12.625
X-118.592 Y-12.604
X-118.621 Y-12.591
X-118.653 Y-12.588
X-118.854 Y-12.603
X-119.492 Y-12.65
X-119.527 Y-12.659
X-119.556 Y-12.681
X-119.576 Y-12.711
X-119.584 Y-12.746
Y-12.953
X-119.581 Y-13.028
X-119.528 Y-13.169
X-119.426 Y-13.279
X-119.3 Y-13.361
X-119.161 Y-13.417
X-119.015 Y-13.449
X-118.865 Y-13.45
X-118.718 Y-13.421
X-118.711 Y-13.418
X-118.624 Y-13.352
X-118.566 Y-13.258
X-118.546 Y-13.15
Y-12.911
X-118.555 Y-12.872
X-118.578 Y-12.84
X-118.612 Y-12.82
X-118.651 Y-12.814
X-118.853 Y-12.824
X-119.489 Y-12.857
X-119.525 Y-12.866
X-119.556 Y-12.887
X-119.576 Y-12.917
X-119.584 Y-12.953
Y-13.207
X-119.581 Y-13.282
X-119.518 Y-13.418
X-119.412 Y-13.525
X-119.285 Y-13.604
X-119.144 Y-13.656
X-118.997 Y-13.682
X-118.847 Y-13.684
X-118.778 Y-13.668
X-118.658 Y-13.61
X-118.575 Y-13.506
X-118.546 Y-13.376
Y-13.15
X-118.552 Y-13.118
X-118.568 Y-13.091
X-118.591 Y-13.069
X-118.621 Y-13.056
X-118.652 Y-13.053
X-118.854 Y-13.067
X-119.491 Y-13.111
X-119.526 Y-13.12
X-119.556 Y-13.141
X-119.576 Y-13.171
X-119.584 Y-13.207
Y-13.422
X-119.581 Y-13.497
X-119.526 Y-13.637
X-119.424 Y-13.747
X-119.298 Y-13.828
X-119.158 Y-13.883
X-119.012 Y-13.915
X-118.862
X-118.715 Y-13.885
X-118.71 Y-13.883
X-118.623 Y-13.817
X-118.566 Y-13.723
X-118.546 Y-13.616
Y-13.376
X-118.555 Y-13.338
X-118.578 Y-13.306
X-118.612 Y-13.285
X-118.651 Y-13.28
X-118.854 Y-13.291
X-119.49 Y-13.326
X-119.526 Y-13.335
X-119.556 Y-13.356
X-119.576 Y-13.386
X-119.584 Y-13.422
Y-13.676
X-119.581 Y-13.75
X-119.516 Y-13.886
X-119.41 Y-13.992
X-119.282 Y-14.07
X-119.141 Y-14.122
X-118.994 Y-14.147
X-118.844 Y-14.149
X-118.777 Y-14.133
X-118.657 Y-14.075
X-118.575 Y-13.971
X-118.546 Y-13.842
Y-13.616
X-118.552 Y-13.584
X-118.568 Y-13.556
X-118.591 Y-13.535
X-118.621 Y-13.522
X-118.653 Y-13.519
X-118.854 Y-13.534
X-119.491 Y-13.579
X-119.527 Y-13.588
X-119.556 Y-13.61
X-119.576 Y-13.64
X-119.584 Y-13.676
Y-13.883
X-119.581 Y-13.957
X-119.529 Y-14.098
X-119.427 Y-14.209
X-119.302 Y-14.291
X-119.163 Y-14.347
X-119.016 Y-14.38
X-118.866 Y-14.381
X-118.719 Y-14.353
X-118.712 Y-14.349
X-118.624 Y-14.283
X-118.566 Y-14.189
X-118.546 Y-14.08
Y-13.842
X-118.555 Y-13.803
X-118.578 Y-13.771
X-118.612 Y-13.751
X-118.65 Y-13.745
X-118.853 Y-13.755
X-119.489 Y-13.786
X-119.525 Y-13.795
X-119.556 Y-13.816
X-119.576 Y-13.846
X-119.584 Y-13.883
Y-14.136
X-119.581 Y-14.211
X-119.519 Y-14.347
X-119.414 Y-14.455
X-119.286 Y-14.534
X-119.146 Y-14.586
X-118.998 Y-14.613
X-118.848 Y-14.615
X-118.778 Y-14.599
X-118.658 Y-14.541
X-118.575 Y-14.437
X-118.546 Y-14.307
Y-14.08
X-118.555 Y-14.042
X-118.579 Y-14.01
X-118.613 Y-13.989
X-118.652 Y-13.984
X-118.854 Y-13.997
X-119.491 Y-14.04
X-119.526 Y-14.049
X-119.556 Y-14.07
X-119.576 Y-14.1
X-119.584 Y-14.136
Y-14.351
X-119.581 Y-14.426
X-119.527 Y-14.566
X-119.425 Y-14.676
X-119.299 Y-14.758
X-119.16 Y-14.814
X-119.013 Y-14.845
X-118.863 Y-14.846
X-118.716 Y-14.817
X-118.711 Y-14.814
X-118.623 Y-14.748
X-118.566 Y-14.654
X-118.546 Y-14.546
Y-14.307
X-118.555 Y-14.268
X-118.578 Y-14.237
X-118.612 Y-14.216
X-118.651 Y-14.21
X-118.853 Y-14.221
X-119.49 Y-14.255
X-119.525 Y-14.264
X-119.556 Y-14.285
X-119.576 Y-14.315
X-119.584 Y-14.351
Y-14.605
X-119.581 Y-14.68
X-119.517 Y-14.816
X-119.411 Y-14.922
X-119.284 Y-15.001
X-119.143 Y-15.052
X-118.995 Y-15.078
X-118.845 Y-15.08
X-118.777 Y-15.064
X-118.658 Y-15.006
X-118.575 Y-14.902
X-118.546 Y-14.772
Y-14.546
X-118.552 Y-14.515
X-118.568 Y-14.487
X-118.591 Y-14.466
X-118.621 Y-14.453
X-118.653 Y-14.45
X-118.854 Y-14.464
X-119.491 Y-14.508
X-119.527 Y-14.518
X-119.556 Y-14.539
X-119.576 Y-14.569
X-119.584 Y-14.605
Y-14.812
X-119.581 Y-14.887
X-119.529 Y-15.028
X-119.429 Y-15.139
X-119.303 Y-15.221
X-119.164 Y-15.278
X-119.018 Y-15.31
X-118.868 Y-15.312
X-118.721 Y-15.284
X-118.713 Y-15.28
X-118.624 Y-15.214
X-118.566 Y-15.12
X-118.546 Y-15.011
Y-14.772
X-118.555 Y-14.734
X-118.578 Y-14.702
X-118.611 Y-14.682
X-118.65 Y-14.676
X-118.853 Y-14.685
X-119.489 Y-14.715
X-119.525 Y-14.724
X-119.555 Y-14.745
X-119.576 Y-14.776
X-119.584 Y-14.812
Y-15.065
X-119.581 Y-15.14
X-119.519 Y-15.277
X-119.415 Y-15.384
X-119.288 Y-15.464
X-119.147 Y-15.516
X-118.999 Y-15.543
X-118.849 Y-15.546
X-118.779 Y-15.53
X-118.659 Y-15.472
X-118.575 Y-15.368
X-118.546 Y-15.237
Y-15.011
X-118.555 Y-14.972
X-118.578 Y-14.94
X-118.613 Y-14.92
X-118.652 Y-14.915
X-118.854 Y-14.928
X-119.491 Y-14.969
X-119.526 Y-14.978
X-119.556 Y-14.999
X-119.576 Y-15.029
X-119.584 Y-15.065
Y-15.28
X-119.581 Y-15.355
X-119.528 Y-15.496
X-119.426 Y-15.606
X-119.3 Y-15.688
X-119.161 Y-15.744
X-119.015 Y-15.776
X-118.865 Y-15.777
X-118.717 Y-15.748
X-118.711 Y-15.745
X-118.624 Y-15.678
X-118.566 Y-15.585
X-118.546 Y-15.477
Y-15.237
X-118.555 Y-15.199
X-118.578 Y-15.167
X-118.612 Y-15.147
X-118.651 Y-15.141
X-118.853 Y-15.151
X-119.489 Y-15.184
X-119.525 Y-15.193
X-119.556 Y-15.214
X-119.576 Y-15.244
X-119.584 Y-15.28
Y-15.534
X-119.581 Y-15.609
X-119.518 Y-15.745
X-119.412 Y-15.852
X-119.285 Y-15.931
X-119.144 Y-15.982
X-118.996 Y-16.009
X-118.846 Y-16.011
X-118.778 Y-15.995
X-118.658 Y-15.937
X-118.575 Y-15.833
X-118.546 Y-15.703
Y-15.477
X-118.552 Y-15.445
X-118.568 Y-15.417
X-118.591 Y-15.396
X-118.621 Y-15.383
X-118.652 Y-15.38
X-118.854 Y-15.394
X-119.491 Y-15.438
X-119.527 Y-15.447
X-119.556 Y-15.468
X-119.576 Y-15.498
X-119.584 Y-15.534
Y-15.741
X-119.581 Y-15.816
X-119.53 Y-15.957
X-119.43 Y-16.068
X-119.305 Y-16.151
X-119.166 Y-16.208
X-119.019 Y-16.241
X-118.869 Y-16.243
X-118.722 Y-16.215
X-118.714 Y-16.211
X-118.625 Y-16.144
X-118.566 Y-16.05
X-118.546 Y-15.941
Y-15.703
X-118.555 Y-15.665
X-118.578 Y-15.633
X-118.611 Y-15.612
X-118.65 Y-15.606
X-118.853 Y-15.616
X-119.489 Y-15.644
X-119.525 Y-15.653
X-119.555 Y-15.674
X-119.576 Y-15.705
X-119.584 Y-15.741
Y-15.994
X-119.581 Y-16.069
X-119.52 Y-16.206
X-119.416 Y-16.314
X-119.289 Y-16.394
X-119.148 Y-16.447
X-119.001 Y-16.474
X-118.851 Y-16.477
X-118.779 Y-16.461
X-118.659 Y-16.403
X-118.575 Y-16.298
X-118.546 Y-16.168
Y-15.941
X-118.555 Y-15.903
X-118.578 Y-15.871
X-118.613 Y-15.85
X-118.652 Y-15.845
X-118.854 Y-15.858
X-119.491 Y-15.898
X-119.526 Y-15.907
X-119.556 Y-15.928
X-119.576 Y-15.958
X-119.584 Y-15.994
Y-16.21
X-119.581 Y-16.284
X-119.528 Y-16.425
X-119.427 Y-16.536
X-119.302 Y-16.618
X-119.163 Y-16.674
X-119.016 Y-16.706
X-118.866 Y-16.707
X-118.719 Y-16.679
X-118.712 Y-16.675
X-118.624 Y-16.609
X-118.566 Y-16.515
X-118.546 Y-16.407
Y-16.168
X-118.555 Y-16.13
X-118.578 Y-16.098
X-118.612 Y-16.077
X-118.651 Y-16.072
X-118.853 Y-16.082
X-119.489 Y-16.113
X-119.525 Y-16.122
X-119.556 Y-16.143
X-119.576 Y-16.174
X-119.584 Y-16.21
Y-16.463
X-119.581 Y-16.538
X-119.519 Y-16.674
X-119.413 Y-16.781
X-119.286 Y-16.861
X-119.145 Y-16.913
X-118.998 Y-16.939
X-118.848 Y-16.942
X-118.778 Y-16.926
X-118.658 Y-16.867
X-118.575 Y-16.763
X-118.546 Y-16.633
Y-16.407
X-118.552 Y-16.376
X-118.568 Y-16.348
X-118.591 Y-16.326
X-118.62 Y-16.314
X-118.652 Y-16.311
X-118.854 Y-16.324
X-119.491 Y-16.367
X-119.526 Y-16.376
X-119.556 Y-16.397
X-119.576 Y-16.427
X-119.584 Y-16.463
Y-16.67
X-119.577 Y-16.82
X-119.496 Y-16.946
X-119.382 Y-17.043
X-119.249 Y-17.113
X-119.106 Y-17.158
X-118.957 Y-17.177
X-118.808 Y-17.165
X-118.761 Y-17.151
X-118.649 Y-17.09
X-118.573 Y-16.988
X-118.546 Y-16.863
Y-16.633
X-118.555 Y-16.595
X-118.578 Y-16.563
X-118.611 Y-16.543
X-118.65 Y-16.537
X-118.853 Y-16.546
X-119.489 Y-16.573
X-119.525 Y-16.582
X-119.555 Y-16.603
X-119.576 Y-16.634
X-119.584 Y-16.67
Y-16.923
Y-16.97
Y-17.008
X-119.583 Y-17.04
X-119.567 Y-17.067
X-119.5 Y-17.145
X-119.41 Y-17.195
X-119.309 Y-17.213
G3 X-119.137 Y-16.887 I-0.007 J0.212
X-119.584 Y-17.008 I-0.205 J-0.129
G1 Y-17.092
Y-17.113
X-119.582 Y-17.124
X-119.579 Y-17.134
X-119.574 Y-17.145
X-119.569 Y-17.156
X-119.561 Y-17.166
X-119.551 Y-17.177
X-119.528 Y-17.194
X-119.517 Y-17.201
X-119.506 Y-17.206
X-119.495 Y-17.209
X-119.485 Y-17.212
X-119.464 Y-17.213
X-118.698
X-118.66
X-118.63 Y-17.209
X-118.607 Y-17.196
X-118.593 Y-17.174
X-118.591 Y-17.147
X-118.603 Y-17.123
X-118.624 Y-17.108
X-118.651 Y-17.105
X-118.665 Y-17.107
X-118.689 Y-17.116
X-118.706 Y-17.136
X-118.711 Y-17.162
X-118.704 Y-17.187
X-118.685 Y-17.205
X-118.66 Y-17.213
X-118.64 Y-17.211
X-118.63 Y-17.209
X-118.619 Y-17.206
X-118.609 Y-17.201
X-118.599 Y-17.195
X-118.575 Y-17.173
X-118.566 Y-17.163
X-118.56 Y-17.153
X-118.554 Y-17.143
X-118.55 Y-17.133
X-118.548 Y-17.122
X-118.546 Y-17.112
Y-16.923
Y-16.863
X-118.551 Y-16.835
X-118.563 Y-16.81
X-118.592 Y-16.793 Z-0.983
X-118.618 Y-16.778 Z-0.966
X-118.636 Y-16.767 Z-0.939
X-118.646 Z-0.916
X-118.649 Z-0.89
G0 Z2
X-113.849 Y-12.663
Z0.5
G3 X-113.365 Y-12.787 Z0.29 I0.242 J-0.062 F333.3
X-113.849 Y-12.663 Z0.079 I-0.242 J0.062
X-113.365 Y-12.787 Z-0.131 I0.242 J-0.062
X-113.849 Y-12.663 Z-0.342 I-0.242 J0.062
X-113.365 Y-12.787 Z-0.552 I0.242 J-0.062
X-113.849 Y-12.663 Z-0.763 I-0.242 J0.062
X-113.638 Y-12.973 Z-0.876 I0.242 J-0.062
X-113.357 Y-12.725 Z-0.99 I0.031 J0.248
X-113.857 I-0.25
X-113.357 I0.25
G1 X-113.319 Y-12.58 F1000
X-113.332 Y-12.506
X-113.369 Y-12.44
X-113.476 Y-12.335
X-113.621 Y-12.295
X-113.77 Y-12.317
X-113.9 Y-12.391
X-113.997 Y-12.505
X-114.049 Y-12.646
X-114.051 Y-12.796
X-114.003 Y-12.938
X-113.911 Y-13.057
X-113.786 Y-13.139
X-113.64 Y-13.174
X-113.491 Y-13.161
X-113.354 Y-13.098
X-113.246 Y-12.995
X-113.167 Y-12.867
X-113.117 Y-12.725
X-113.106 Y-12.576
X-113.142 Y-12.43
X-113.212 Y-12.298
X-113.321 Y-12.194
X-113.452 Y-12.121
X-113.598 Y-12.087
X-113.748 Y-12.095
X-113.892 Y-12.135
X-114.021 Y-12.211
X-114.128 Y-12.317
X-114.21 Y-12.443
X-114.26 Y-12.584
X-114.274 Y-12.733
X-114.258 Y-12.882
X-114.207 Y-13.024
X-114.125 Y-13.149
X-114.018 Y-13.255
X-113.891 Y-13.334
X-113.748 Y-13.38
X-113.599 Y-13.396
X-113.45 Y-13.378
X-113.309 Y-13.326
X-113.183 Y-13.245
X-113.074 Y-13.142
X-112.986 Y-13.02
X-112.924 Y-12.884
X-112.885 Y-12.739
X-112.877 Y-12.589
X-112.9 Y-12.441
X-112.907 Y-12.421
X-112.945 Y-12.347
X-113.001 Y-12.286
X-113.073 Y-12.243
X-113.076 Y-12.241
X-113.114 Y-12.219
X-113.151 Y-12.193
X-113.161 Y-12.185
X-113.238 Y-12.109
X-113.245 Y-12.1
X-113.342 Y-11.986
X-113.474 Y-11.913
X-113.619 Y-11.878
X-113.769 Y-11.875
X-113.916 Y-11.905
X-114.055 Y-11.963
X-114.18 Y-12.045
X-114.193 Y-12.057
X-114.242 Y-12.116
X-114.275 Y-12.186
X-114.289 Y-12.262
X-114.302 Y-12.531
X-114.308 Y-12.784
X-114.309 Y-12.869
X-114.306 Y-13.038
X-114.295 Y-13.187
X-114.228 Y-13.322
X-114.129 Y-13.434
X-114.007 Y-13.522
X-113.87 Y-13.583
X-113.724 Y-13.618
X-113.575 Y-13.628
X-113.426 Y-13.612
X-113.37 Y-13.596
X-113.278 Y-13.552
X-113.207 Y-13.479
X-113.164 Y-13.387
X-113.16 Y-13.376
X-113.144 Y-13.333
X-113.123 Y-13.291
X-112.979 Y-13.038
X-112.907 Y-12.914
X-112.874 Y-12.869
X-112.822 Y-12.807
X-112.733 Y-12.686
X-112.725 Y-12.658
X-112.718 Y-12.541
X-112.756 Y-12.429
X-112.835 Y-12.341
X-112.941 Y-12.29
X-112.98
X-113.016 Y-12.304
X-113.045 Y-12.331
X-113.06 Y-12.367
X-113.061 Y-12.406
X-112.996 Y-12.759
X-112.982 Y-12.793
X-112.957 Y-12.82
X-112.924 Y-12.837
X-112.887 Y-12.84
X-112.852 Y-12.829
X-112.822 Y-12.807
X-112.695 Y-12.654
X-112.663 Y-12.616
X-112.653 Y-12.604
X-112.634 Y-12.582
X-112.611 Y-12.552
X-112.632 Y-12.434
X-112.71 Y-12.343
X-112.824 Y-12.306
X-112.865 Y-12.312
X-112.902 Y-12.331
X-112.932 Y-12.36
X-112.951 Y-12.398
G3 X-112.634 Y-12.582 I0.179 J-0.057
G1 X-112.591 Y-12.531
X-112.569 Y-12.505
X-112.539 Y-12.473
X-112.511 Y-12.416
X-112.512 Y-12.353
X-112.543 Y-12.298
X-112.565 Y-12.285
X-112.59 Y-12.284
X-112.613 Y-12.294
X-112.629 Y-12.314
X-112.634 Y-12.339
X-112.629 Y-12.438
X-112.623 Y-12.461
X-112.606 Y-12.479
X-112.584 Y-12.488
X-112.559 Y-12.486
X-112.539 Y-12.473
X-112.514 Y-12.447
X-112.507 Y-12.436
X-112.503 Y-12.425
X-112.499 Y-12.415
X-112.497 Y-12.404
X-112.496 Y-12.394
Y-12.383
X-112.497 Y-12.373
X-112.499 Y-12.362
X-112.502 Y-12.352
X-112.507 Y-12.342
X-112.513 Y-12.332
X-112.521 Y-12.322
X-112.545 Y-12.297
X-112.557 Y-12.288
X-112.569 Y-12.282
X-112.579 Y-12.278
X-112.594 Y-12.274
X-112.61 Y-12.273
X-112.625 Y-12.274
X-112.641 Y-12.278
X-112.653 Y-12.282
X-113.378 Y-12.585
X-113.627 Y-12.689
X-114.244 Y-12.947
X-114.276 Y-12.968
X-114.298 Y-13
X-114.306 Y-13.038
X-114.304 Y-13.122
X-114.294 Y-13.338
X-114.279 Y-13.487
X-114.199 Y-13.614
X-114.087 Y-13.714
X-113.957 Y-13.788
X-113.815 Y-13.837
X-113.667 Y-13.863
X-113.517 Y-13.865
X-113.465 Y-13.857
X-113.355 Y-13.815
X-113.27 Y-13.735
X-113.222 Y-13.628
X-113.184 Y-13.46
X-113.164 Y-13.387
X-113.162 Y-13.352
X-113.172 Y-13.318
X-113.194 Y-13.29
X-113.223 Y-13.271
X-113.258 Y-13.264
X-113.567 Y-13.255
X-114.191 Y-13.236
X-114.223 Y-13.241
X-114.251 Y-13.255
X-114.274 Y-13.277
X-114.289 Y-13.306
X-114.294 Y-13.338
X-114.292 Y-13.376
X-114.286 Y-13.46
X-114.271 Y-13.629
X-114.26 Y-13.703
X-114.194 Y-13.838
X-114.087 Y-13.943
X-113.958 Y-14.019
X-113.817 Y-14.071
X-113.67 Y-14.099
X-113.52 Y-14.097
X-113.496 Y-14.092
X-113.388 Y-14.045
X-113.307 Y-13.96
X-113.265 Y-13.85
X-113.242 Y-13.714
X-113.222 Y-13.628
Y-13.593
X-113.233 Y-13.559
X-113.256 Y-13.532
X-113.287 Y-13.515
X-113.322 Y-13.509
X-113.548 Y-13.513
X-114.173 Y-13.524
X-114.204 Y-13.529
X-114.232 Y-13.545
X-114.254 Y-13.568
X-114.267 Y-13.597
X-114.271 Y-13.629
X-114.248 Y-13.883
X-114.238 Y-13.957
X-114.168 Y-14.09
X-114.058 Y-14.191
X-113.927 Y-14.265
X-113.785 Y-14.312
X-113.636 Y-14.332
X-113.567 Y-14.326
X-113.435 Y-14.282
X-113.336 Y-14.184
X-113.293 Y-14.051
X-113.285 Y-13.967
X-113.265 Y-13.85
X-113.267 Y-13.815
X-113.28 Y-13.783
X-113.304 Y-13.757
X-113.335 Y-13.741
X-113.369 Y-13.737
X-113.526 Y-13.745
X-114.154 Y-13.777
X-114.191 Y-13.787
X-114.223 Y-13.81
X-114.243 Y-13.844
X-114.248 Y-13.883
X-114.229 Y-14.098
X-114.207 Y-14.246
X-114.119 Y-14.368
X-113.999 Y-14.458
X-113.863 Y-14.521
X-113.717 Y-14.553
X-113.567 Y-14.552
X-113.528 Y-14.542
X-113.415 Y-14.484
X-113.337 Y-14.384
X-113.306 Y-14.261
X-113.305 Y-14.22
X-113.293 Y-14.051
X-113.297 Y-14.019
X-113.312 Y-13.989
X-113.335 Y-13.966
X-113.366 Y-13.952
X-113.399 Y-13.948
X-113.507 Y-13.955
X-114.135 Y-13.992
X-114.172 Y-14.002
X-114.204 Y-14.026
X-114.223 Y-14.059
X-114.229 Y-14.098
X-114.217 Y-14.22
X-114.208 Y-14.305
X-114.201 Y-14.351
X-114.174 Y-14.499
X-114.083 Y-14.618
X-113.959 Y-14.703
X-113.819 Y-14.756
X-113.671 Y-14.779
X-113.578 Y-14.77
X-113.441 Y-14.721
X-113.343 Y-14.613
X-113.308 Y-14.472
X-113.307 Y-14.305
X-113.306 Y-14.261
X-113.312 Y-14.228
X-113.328 Y-14.199
X-113.353 Y-14.177
X-113.384 Y-14.164
X-113.417 Y-14.162
X-113.487 Y-14.17
X-114.113 Y-14.242
X-114.15 Y-14.254
X-114.18 Y-14.279
X-114.198 Y-14.313
X-114.201 Y-14.351
X-114.176 Y-14.543
X-114.173 Y-14.558
X-114.151 Y-14.643
X-114.105 Y-14.786
X-113.996 Y-14.889
X-113.864 Y-14.959
X-113.717 Y-14.992
X-113.567 Y-14.99
X-113.515 Y-14.975
X-113.396 Y-14.91
X-113.318 Y-14.798
X-113.298 Y-14.664
X-113.306 Y-14.558
X-113.308 Y-14.472
X-113.315 Y-14.438
X-113.334 Y-14.408
X-113.361 Y-14.387
X-113.395 Y-14.376
X-113.43 Y-14.378
X-113.462 Y-14.385
X-114.075 Y-14.523
X-114.111 Y-14.539
X-114.138 Y-14.567
X-114.152 Y-14.604
X-114.151 Y-14.643
X-114.105 Y-14.812
X-114.081 Y-14.896
X-114.056 Y-14.967
X-113.966 Y-15.087
X-113.837 Y-15.163
X-113.692 Y-15.202
X-113.542 Y-15.197
X-113.495 Y-15.184
X-113.368 Y-15.112
X-113.29 Y-14.989
X-113.28 Y-14.843
X-113.285 Y-14.812
X-113.298 Y-14.664
X-113.308 Y-14.63
X-113.329 Y-14.601
X-113.359 Y-14.582
X-113.394 Y-14.575
X-113.429 Y-14.58
X-114.016 Y-14.776
X-114.049 Y-14.794
X-114.072 Y-14.823
X-114.084 Y-14.859
X-114.081 Y-14.896
X-114.017 Y-15.109
X-113.992 Y-15.18
X-113.904 Y-15.301
X-113.773 Y-15.374
X-113.627 Y-15.407
X-113.478 Y-15.393
X-113.438 Y-15.379
X-113.321 Y-15.302
X-113.252 Y-15.181
X-113.244 Y-15.042
X-113.28 Y-14.843
X-113.293 Y-14.811
X-113.316 Y-14.785
X-113.347 Y-14.769
X-113.381 Y-14.764
X-113.415 Y-14.771
X-113.958 Y-14.991
X-113.989 Y-15.01
X-114.01 Y-15.039
X-114.02 Y-15.073
X-114.017 Y-15.109
X-113.979 Y-15.234
X-113.937 Y-15.365
X-113.915 Y-15.422
X-113.812 Y-15.531
X-113.674 Y-15.59
X-113.525 Y-15.606
X-113.378 Y-15.577
X-113.352 Y-15.563
X-113.253 Y-15.478
X-113.2 Y-15.36
X-113.201 Y-15.229
X-113.24 Y-15.065
X-113.244 Y-15.042
X-113.259 Y-15.008
X-113.285 Y-14.982
X-113.318 Y-14.966
X-113.355 Y-14.964
X-113.39 Y-14.976
X-113.889 Y-15.25
X-113.915 Y-15.271
X-113.933 Y-15.299
X-113.94 Y-15.332
X-113.937 Y-15.365
X-113.922 Y-15.41
X-113.855 Y-15.572
X-113.823 Y-15.64
X-113.713 Y-15.742
X-113.571 Y-15.791
X-113.421 Y-15.796
X-113.278 Y-15.753
X-113.266 Y-15.744
X-113.172 Y-15.642
X-113.135 Y-15.509
X-113.161 Y-15.373
X-113.181 Y-15.346
X-113.208 Y-15.327
X-113.241 Y-15.318
X-113.274 Y-15.32
X-113.784 Y-15.439
X-113.815 Y-15.452
X-113.84 Y-15.475
X-113.856 Y-15.505
X-113.861 Y-15.539
X-113.855 Y-15.572
X-113.767 Y-15.783
X-113.735 Y-15.85
X-113.618 Y-15.944
X-113.474 Y-15.985
X-113.324 Y-15.982
X-113.184 Y-15.927
X-113.168 Y-15.915
X-113.084 Y-15.813
X-113.053 Y-15.685
X-113.079 Y-15.555
X-113.161 Y-15.373
X-113.182 Y-15.345
X-113.212 Y-15.325
X-113.246 Y-15.317
X-113.281 Y-15.322
X-113.313 Y-15.339
X-113.735 Y-15.669
X-113.757 Y-15.692
X-113.77 Y-15.721
X-113.774 Y-15.752
X-113.767 Y-15.783
X-113.69 Y-15.968
X-113.659 Y-16.033
X-113.546 Y-16.131
X-113.402 Y-16.175
X-113.252 Y-16.171
X-113.112 Y-16.119
X-113.088 Y-16.101
X-112.999 Y-15.996
X-112.966 Y-15.861
X-112.997 Y-15.726
X-113.032 Y-15.656
X-113.079 Y-15.555
X-113.1 Y-15.527
X-113.13 Y-15.507
X-113.164 Y-15.499
X-113.199 Y-15.504
X-113.23 Y-15.52
X-113.658 Y-15.854
X-113.68 Y-15.877
X-113.693 Y-15.905
X-113.697 Y-15.937
X-113.69 Y-15.968
X-113.643 Y-16.079
X-113.557 Y-16.189
X-113.532 Y-16.221
X-113.482 Y-16.277
X-113.348 Y-16.345
X-113.199 Y-16.355
X-113.054 Y-16.313
X-113.006 Y-16.282
X-112.921 Y-16.201
X-112.874 Y-16.094
X-112.871 Y-15.977
X-112.914 Y-15.868
X-112.941 Y-15.825
X-112.992 Y-15.737
X-112.997 Y-15.726
X-113.021 Y-15.697
X-113.054 Y-15.679
X-113.091 Y-15.674
X-113.127 Y-15.683
X-113.158 Y-15.705
X-113.524 Y-16.093
X-113.543 Y-16.122
X-113.551 Y-16.156
X-113.547 Y-16.19
X-113.532 Y-16.221
X-113.415 Y-16.368
X-113.364 Y-16.423
X-113.239 Y-16.506
X-113.089 Y-16.518
X-112.945 Y-16.475
X-112.822 Y-16.391
X-112.82 Y-16.389
X-112.763 Y-16.276
X-112.758 Y-16.151
X-112.804 Y-16.034
X-112.914 Y-15.868
X-112.94 Y-15.842
X-112.973 Y-15.827
X-113.009 Y-15.825
X-113.043 Y-15.836
X-113.071 Y-15.858
X-113.409 Y-16.242
X-113.427 Y-16.271
X-113.434 Y-16.304
X-113.43 Y-16.337
X-113.415 Y-16.368
X-113.271 Y-16.539
X-113.22 Y-16.594
X-113.088 Y-16.665
X-112.938
X-112.795 Y-16.619
X-112.678 Y-16.526
X-112.676 Y-16.522
X-112.632 Y-16.4
X-112.647 Y-16.272
X-112.717 Y-16.163
X-112.804 Y-16.034
X-112.83 Y-16.008
X-112.864 Y-15.994
X-112.901 Y-15.993
X-112.935 Y-16.006
X-112.963 Y-16.03
X-113.271 Y-16.415
X-113.287 Y-16.444
X-113.292 Y-16.477
X-113.287 Y-16.509
X-113.271 Y-16.539
X-113.141 Y-16.693
X-113.125 Y-16.712
X-113.104 Y-16.736
X-113.044 Y-16.781
X-112.9 Y-16.823
X-112.751 Y-16.802
X-112.615 Y-16.738
X-112.584 Y-16.705
X-112.521 Y-16.606
X-112.501 Y-16.489
X-112.527 Y-16.374
X-112.596 Y-16.278
X-112.653 Y-16.225
X-112.717 Y-16.163
X-112.748 Y-16.144
X-112.783 Y-16.137
X-112.818 Y-16.143
X-112.849 Y-16.161
X-112.871 Y-16.189
X-113.115 Y-16.622
X-113.126 Y-16.65
X-113.127 Y-16.681
X-113.12 Y-16.71
X-113.104 Y-16.736
X-112.93 Y-16.881
X-112.87 Y-16.926
X-112.724 Y-16.958
X-112.577 Y-16.929
X-112.451 Y-16.847
X-112.422 Y-16.809
X-112.364 Y-16.674
X-112.377 Y-16.528
X-112.457 Y-16.405
X-112.596 Y-16.278
X-112.628 Y-16.259
X-112.665 Y-16.254
X-112.701 Y-16.262
X-112.732 Y-16.282
X-112.753 Y-16.313
X-112.955 Y-16.765
X-112.963 Y-16.796
X-112.961 Y-16.827
X-112.95 Y-16.856
X-112.93 Y-16.881
X-112.777 Y-17.008
X-112.717 Y-17.053
X-112.572 Y-17.09
X-112.426 Y-17.057
X-112.304 Y-16.968
X-112.213 Y-16.849
X-112.211 Y-16.843
X-112.197 Y-16.716
X-112.238 Y-16.595
X-112.325 Y-16.502
X-112.399 Y-16.451
X-112.445 Y-16.416
X-112.457 Y-16.405
X-112.49 Y-16.387
X-112.527 Y-16.382
X-112.563 Y-16.39
X-112.594 Y-16.412
X-112.615 Y-16.443
X-112.803 Y-16.895
X-112.81 Y-16.925
X-112.808 Y-16.955
X-112.797 Y-16.984
X-112.777 Y-17.008
X-112.653 Y-17.111
X-112.63 Y-17.129
X-112.611 Y-17.143
X-112.6 Y-17.149
X-112.522 Y-17.177
X-112.45 Y-17.198
X-112.301 Y-17.18
X-112.169 Y-17.108
X-112.069 Y-16.996
X-112.062 Y-16.98
X-112.036 Y-16.844
X-112.075 Y-16.711
X-112.169 Y-16.609
X-112.325 Y-16.502
X-112.361 Y-16.488
X-112.399
X-112.435 Y-16.503
X-112.462 Y-16.53
X-112.477 Y-16.565
X-112.584 Y-17.062
X-112.585 Y-17.098
X-112.574 Y-17.131
X-112.552 Y-17.158
X-112.522 Y-17.177
X-112.315 Y-17.249
X-112.243 Y-17.27
X-112.094 Y-17.248
X-111.968 Y-17.168
X-111.881 Y-17.045
X-111.879 Y-17.035
X-111.875 Y-16.9
X-111.93 Y-16.777
X-112.033 Y-16.691
X-112.061 Y-16.677
X-112.146 Y-16.625
X-112.169 Y-16.609
X-112.199 Y-16.597
X-112.233 Y-16.595
X-112.265 Y-16.604
X-112.292 Y-16.623
X-112.311 Y-16.65
X-112.321 Y-16.682
X-112.378 Y-17.143
X-112.376 Y-17.176
X-112.364 Y-17.207
X-112.343 Y-17.232
X-112.315 Y-17.249
X-112.146 Y-17.307
X-112.073 Y-17.328
X-111.998 Y-17.326
X-111.856 Y-17.279
X-111.746 Y-17.177
X-111.733 Y-17.146
X-111.707 Y-17.024
X-111.734 Y-16.902
X-111.807 Y-16.802
X-111.915 Y-16.74
X-111.976 Y-16.72
X-112.033 Y-16.691
X-112.071 Y-16.682
X-112.108 Y-16.687
X-112.142 Y-16.707
X-112.165 Y-16.737
X-112.175 Y-16.774
X-112.21 Y-17.206
X-112.207 Y-17.238
X-112.194 Y-17.267
X-112.173 Y-17.291
X-112.146 Y-17.307
X-111.955 Y-17.372
X-111.806 Y-17.389
X-111.666 Y-17.336
X-111.568 Y-17.222
X-111.552 Y-17.172
X-111.537 Y-17.054
X-111.57 Y-16.939
X-111.645 Y-16.846
X-111.75 Y-16.789
X-111.915 Y-16.74
X-111.953 Y-16.736
X-111.989 Y-16.747
X-112.018 Y-16.771
X-112.037 Y-16.803
X-112.042 Y-16.841
X-112.021 Y-17.282
X-112.012 Y-17.32
X-111.989 Y-17.352
X-111.955 Y-17.372
X-111.676 Y-17.415
X-111.639 Y-17.418
X-111.567 Y-17.398
X-111.441 Y-17.316
X-111.366 Y-17.187
X-111.363 Y-17.166
X-111.368 Y-17.051
X-111.417 Y-16.947
X-111.501 Y-16.869
X-111.609 Y-16.828
X-111.638 Y-16.823
X-111.75 Y-16.789
X-111.785 Y-16.787
X-111.818 Y-16.796
X-111.847 Y-16.816
X-111.866 Y-16.844
X-111.875 Y-16.878
X-111.872 Y-16.913
X-111.754 Y-17.343
X-111.738 Y-17.376
X-111.711 Y-17.401
X-111.676 Y-17.415
X-111.507 Y-17.438
X-111.432 Y-17.445
X-111.296 Y-17.382
X-111.207 Y-17.261
X-111.197 Y-17.221
X-111.194 Y-17.098
X-111.24 Y-16.984
X-111.328 Y-16.898
X-111.443 Y-16.854
X-111.584 Y-16.832
X-111.609 Y-16.828
X-111.642 Y-16.829
X-111.674 Y-16.841
X-111.699 Y-16.863
X-111.716 Y-16.892
X-111.722 Y-16.924
X-111.718 Y-16.958
X-111.585 Y-17.37
X-111.568 Y-17.402
X-111.541 Y-17.426
X-111.507 Y-17.438
X-111.338 Y-17.462
X-111.263 Y-17.468
X-111.193 Y-17.441
X-111.074 Y-17.35
X-111.011 Y-17.214
X-111.01 Y-17.19
X-111.04 Y-17.045
X-111.135 Y-16.932
X-111.272 Y-16.879
X-111.384 Y-16.864
X-111.443 Y-16.854
X-111.476 Y-16.856
X-111.507 Y-16.869
X-111.532 Y-16.89
X-111.549 Y-16.919
X-111.555 Y-16.952
X-111.55 Y-16.985
X-111.416 Y-17.394
X-111.398 Y-17.426
X-111.371 Y-17.449
X-111.338 Y-17.462
X-111.173 Y-17.484
X-111.151 Y-17.487
X-111.141
X-111.066 Y-17.48
X-111.02 Y-17.456
X-110.921 Y-17.373
X-110.866 Y-17.256
X-110.865 Y-17.127
X-110.918 Y-17.01
X-111.016 Y-16.926
X-111.14 Y-16.89
X-111.215 Y-16.886
X-111.272 Y-16.879
X-111.306 Y-16.881
X-111.336 Y-16.895
X-111.361 Y-16.917
X-111.376 Y-16.947
X-111.381 Y-16.98
X-111.375 Y-17.012
X-111.225 Y-17.422
X-111.206 Y-17.454
X-111.177 Y-17.477
X-111.141 Y-17.487
X-110.961 Y-17.473
X-110.887 Y-17.463
X-110.822 Y-17.426
X-110.721 Y-17.315
X-110.681 Y-17.171
X-110.684 Y-17.148
X-110.719 Y-17.035
X-110.795 Y-16.945
X-110.899 Y-16.891
X-111.017 Y-16.881
X-111.046 Y-16.885
X-111.13 Y-16.891
X-111.14 Y-16.89
X-111.173 Y-16.895
X-111.203 Y-16.911
X-111.226 Y-16.935
X-111.239 Y-16.966
X-111.242 Y-17
X-111.233 Y-17.032
X-111.056 Y-17.415
X-111.033 Y-17.447
X-111 Y-17.467
X-110.961 Y-17.473
X-110.792 Y-17.46
X-110.718 Y-17.45
X-110.589 Y-17.373
X-110.515 Y-17.242
X-110.502 Y-17.093
X-110.507 Y-17.074
X-110.578 Y-16.95
X-110.699 Y-16.872
X-110.841 Y-16.86
X-110.877 Y-16.865
X-111.017 Y-16.881
X-111.052 Y-16.894
X-111.081 Y-16.919
X-111.098 Y-16.953
X-111.101 Y-16.991
X-111.09 Y-17.028
X-110.884 Y-17.407
X-110.861 Y-17.436
X-110.829 Y-17.454
X-110.792 Y-17.46
X-110.576 Y-17.442
X-110.523 Y-17.435
X-110.396 Y-17.355
X-110.326 Y-17.223
X-110.318 Y-17.073
X-110.326 Y-17.043
X-110.376 Y-16.941
X-110.46 Y-16.864
X-110.567 Y-16.825
X-110.68 Y-16.827
X-110.792 Y-16.852
X-110.841 Y-16.86
X-110.877 Y-16.874
X-110.905 Y-16.901
X-110.921 Y-16.936
Y-16.975
X-110.907 Y-17.011
X-110.665 Y-17.396
X-110.642 Y-17.422
X-110.611 Y-17.438
X-110.576 Y-17.442
X-110.538 Y-17.439
X-110.478 Y-17.43
X-110.369 Y-17.407
X-110.296 Y-17.387
X-110.187 Y-17.285
X-110.135 Y-17.144
X-110.139 Y-16.994
X-110.151 Y-16.964
X-110.212 Y-16.869
X-110.303 Y-16.803
X-110.412 Y-16.776
X-110.523 Y-16.79
X-110.538 Y-16.795
X-110.654 Y-16.822
X-110.68 Y-16.827
X-110.715 Y-16.844
X-110.741 Y-16.872
X-110.754 Y-16.908
X-110.753 Y-16.947
X-110.737 Y-16.982
X-110.469 Y-17.366
X-110.441 Y-17.392
X-110.407 Y-17.406
X-110.369 Y-17.407
X-110.2 Y-17.37
X-110.128 Y-17.348
X-110.008 Y-17.257
X-109.95 Y-17.119
X-109.951 Y-16.969
X-109.968 Y-16.92
X-110.026 Y-16.819
X-110.118 Y-16.748
X-110.23 Y-16.718
X-110.345 Y-16.732
X-110.523 Y-16.79
X-110.555 Y-16.808
X-110.577 Y-16.837
X-110.588 Y-16.872
X-110.586 Y-16.908
X-110.571 Y-16.941
X-110.3 Y-17.329
X-110.273 Y-17.355
X-110.238 Y-17.369
X-110.2 Y-17.37
X-109.984 Y-17.317
X-109.912 Y-17.296
X-109.808 Y-17.188
X-109.761 Y-17.045
X-109.77 Y-16.896
X-109.826 Y-16.757
X-109.836 Y-16.745
X-109.953 Y-16.657
X-110.097 Y-16.635
X-110.235 Y-16.683
X-110.258 Y-16.706
X-110.273 Y-16.736
X-110.277 Y-16.768
X-110.27 Y-16.8
X-110.098 Y-17.255
X-110.08 Y-17.285
X-110.052 Y-17.307
X-110.019 Y-17.318
X-109.984 Y-17.317
X-109.861 Y-17.287
X-109.849 Y-17.282
X-109.81 Y-17.261
X-109.751 Y-17.226
X-109.688 Y-17.185
X-109.605 Y-17.06
X-109.581 Y-16.912
X-109.602 Y-16.763
X-109.673 Y-16.631
X-109.693 Y-16.611
X-109.808 Y-16.54
X-109.943 Y-16.526
X-110.071 Y-16.574
X-110.235 Y-16.683
X-110.259 Y-16.708
X-110.274 Y-16.74
X-110.277 Y-16.774
X-110.267 Y-16.808
X-110.247 Y-16.836
X-109.869 Y-17.209
X-109.843 Y-17.228
X-109.813 Y-17.237
X-109.781
X-109.751 Y-17.226
X-109.582 Y-17.127
X-109.52 Y-17.085
X-109.431 Y-16.964
X-109.403 Y-16.817
X-109.424 Y-16.668
X-109.493 Y-16.535
X-109.521 Y-16.505
X-109.614 Y-16.437
X-109.725 Y-16.409
X-109.839 Y-16.425
X-109.939 Y-16.483
X-109.946 Y-16.49
X-110.071 Y-16.574
X-110.095 Y-16.599
X-110.109 Y-16.63
X-110.112 Y-16.664
X-110.103 Y-16.698
X-110.083 Y-16.726
X-109.701 Y-17.109
X-109.675 Y-17.128
X-109.644 Y-17.138
X-109.612 Y-17.137
X-109.582 Y-17.127
X-109.407 Y-17.023
X-109.35 Y-16.986
X-109.256 Y-16.869
X-109.227 Y-16.721
X-109.247 Y-16.573
X-109.311 Y-16.438
X-109.41 Y-16.325
X-109.427 Y-16.314
X-109.553 Y-16.269
X-109.685 Y-16.283
X-109.798 Y-16.353
X-109.863 Y-16.416
X-109.939 Y-16.483
X-109.959 Y-16.51
X-109.969 Y-16.541
Y-16.573
X-109.958 Y-16.604
X-109.938 Y-16.63
X-109.522 Y-17.009
X-109.496 Y-17.026
X-109.466 Y-17.034
X-109.436 Y-17.033
X-109.407 Y-17.023
X-109.354 Y-16.992
X-109.311 Y-16.964
X-109.184 Y-16.854
X-109.131 Y-16.801
X-109.068 Y-16.665
Y-16.515
X-109.113 Y-16.372
X-109.192 Y-16.244
X-109.304 Y-16.145
X-109.315 Y-16.141
X-109.433 Y-16.115
X-109.552 Y-16.138
X-109.653 Y-16.206
X-109.777 Y-16.332
X-109.798 Y-16.353
X-109.816 Y-16.381
X-109.825 Y-16.413
X-109.822 Y-16.447
X-109.808 Y-16.478
X-109.785 Y-16.502
X-109.307 Y-16.856
X-109.278 Y-16.871
X-109.245 Y-16.876
X-109.213 Y-16.87
X-109.184 Y-16.854
X-109.04 Y-16.728
X-108.986 Y-16.676
X-108.913 Y-16.544
X-108.908 Y-16.395
X-108.945 Y-16.249
X-109.019 Y-16.119
X-109.125 Y-16.013
X-109.167 Y-15.989
X-109.276 Y-15.954
X-109.39 Y-15.961
X-109.493 Y-16.011
X-109.57 Y-16.096
X-109.611 Y-16.163
X-109.653 Y-16.206
X-109.67 Y-16.233
X-109.678 Y-16.265
X-109.675 Y-16.297
X-109.662 Y-16.327
X-109.641 Y-16.351
X-109.166 Y-16.728
X-109.136 Y-16.745
X-109.103 Y-16.75
X-109.07 Y-16.744
X-109.04 Y-16.728
X-108.877 Y-16.585
X-108.846 Y-16.558
X-108.822 Y-16.529
X-108.747 Y-16.399
X-108.746 Y-16.249
X-108.787 Y-16.105
X-108.859 Y-15.973
X-108.964 Y-15.866
X-109.092 Y-15.787
X-109.121 Y-15.779
X-109.251 Y-15.771
X-109.373 Y-15.82
X-109.462 Y-15.915
X-109.523 Y-16.018
X-109.57 Y-16.096
X-109.582 Y-16.133
X-109.579 Y-16.172
X-109.56 Y-16.207
X-109.53 Y-16.232
X-109.518 Y-16.239
X-108.943 Y-16.55
X-108.912 Y-16.56
X-108.879
X-108.848 Y-16.55
X-108.822 Y-16.529
X-108.751 Y-16.416
X-108.677 Y-16.292
X-108.643 Y-16.225
X-108.624 Y-16.076
X-108.66 Y-15.931
X-108.734 Y-15.8
X-108.836 Y-15.69
X-108.963 Y-15.61
X-109.015 Y-15.594
X-109.155 Y-15.583
X-109.286 Y-15.637
X-109.376 Y-15.746
X-109.438 Y-15.871
X-109.462 Y-15.915
X-109.472 Y-15.946
X-109.473 Y-15.979
X-109.462 Y-16.01
X-109.442 Y-16.036
X-109.415 Y-16.054
X-109.389 Y-16.066
X-108.802 Y-16.329
X-108.768 Y-16.338
X-108.733 Y-16.334
X-108.701 Y-16.318
X-108.677 Y-16.292
X-108.652 Y-16.248
X-108.56 Y-16.079
X-108.528 Y-16.011
X-108.515 Y-15.862
X-108.558 Y-15.718
X-108.639 Y-15.592
X-108.746 Y-15.487
X-108.878 Y-15.414
X-108.934 Y-15.397
X-109.079 Y-15.392
X-109.209 Y-15.455
X-109.294 Y-15.572
X-109.332 Y-15.656
X-109.376 Y-15.746
X-109.385 Y-15.777
X-109.383 Y-15.81
X-109.37 Y-15.84
X-109.349 Y-15.864
X-109.321 Y-15.881
X-109.286 Y-15.894
X-108.682 Y-16.122
X-108.648 Y-16.128
X-108.613 Y-16.122
X-108.583 Y-16.105
X-108.56 Y-16.079
X-108.455 Y-15.884
X-108.424 Y-15.816
X-108.41 Y-15.667
X-108.454 Y-15.524
X-108.537 Y-15.398
X-108.645 Y-15.294
X-108.776 Y-15.221
X-108.92 Y-15.178
X-108.935
X-109.05 Y-15.202
X-109.147 Y-15.268
X-109.211 Y-15.367
X-109.294 Y-15.572
X-109.3 Y-15.611
X-109.291 Y-15.649
X-109.267 Y-15.681
X-109.233 Y-15.701
X-109.186 Y-15.717
X-108.575 Y-15.929
X-108.541 Y-15.934
X-108.507 Y-15.928
X-108.477 Y-15.911
X-108.455 Y-15.884
X-108.38 Y-15.741
X-108.357 Y-15.694
X-108.298 Y-15.556
X-108.315 Y-15.407
X-108.379 Y-15.272
X-108.475 Y-15.157
X-108.594 Y-15.065
X-108.727 Y-14.996
X-108.874 Y-14.967
X-108.903 Y-14.969
X-109.027 Y-15.005
X-109.124 Y-15.09
X-109.176 Y-15.208
X-109.199 Y-15.318
X-109.209 Y-15.361
X-109.211 Y-15.367
X-109.217 Y-15.405
X-109.208 Y-15.443
X-109.185 Y-15.474
X-109.152 Y-15.494
X-109.083 Y-15.52
X-108.48 Y-15.741
X-108.445 Y-15.747
X-108.41 Y-15.741
X-108.379 Y-15.722
X-108.357 Y-15.694
X-108.338 Y-15.656
X-108.3 Y-15.572
X-108.263 Y-15.487
X-108.244 Y-15.403
X-108.222 Y-15.254
X-108.269 Y-15.112
X-108.353 Y-14.988
X-108.463 Y-14.886
X-108.592 Y-14.809
X-108.734 Y-14.761
X-108.884 Y-14.75
X-108.901 Y-14.753
X-109.013 Y-14.801
X-109.097 Y-14.89
X-109.139 Y-15.004
X-109.148 Y-15.065
X-109.176 Y-15.208
X-109.175 Y-15.246
X-109.16 Y-15.281
X-109.133 Y-15.308
X-109.098 Y-15.323
X-108.981 Y-15.347
X-108.361 Y-15.476
X-108.323
X-108.288 Y-15.463
X-108.26 Y-15.437
X-108.244 Y-15.403
X-108.194 Y-15.15
X-108.175 Y-15.001
X-108.226 Y-14.859
X-108.317 Y-14.74
X-108.434 Y-14.646
X-108.567 Y-14.577
X-108.711 Y-14.534
X-108.861 Y-14.53
X-108.876 Y-14.533
X-108.991 Y-14.586
X-109.075 Y-14.682
X-109.111 Y-14.804
X-109.139 Y-15.004
X-109.136 Y-15.042
X-109.119 Y-15.076
X-109.091 Y-15.102
X-109.055 Y-15.114
X-108.935 Y-15.132
X-108.306 Y-15.226
X-108.269 Y-15.224
X-108.235 Y-15.21
X-108.209 Y-15.183
X-108.194 Y-15.15
X-108.179 Y-15.065
X-108.153 Y-14.896
X-108.137 Y-14.747
X-108.196 Y-14.609
X-108.293 Y-14.495
X-108.414 Y-14.406
X-108.55 Y-14.344
X-108.696 Y-14.307
X-108.846 Y-14.308
X-108.87 Y-14.315
X-108.982 Y-14.37
X-109.062 Y-14.466
X-109.096 Y-14.586
X-109.111 Y-14.804
X-109.105 Y-14.842
X-109.086 Y-14.874
X-109.056 Y-14.897
X-109.02 Y-14.908
X-108.895 Y-14.919
X-108.26 Y-14.977
X-108.223 Y-14.973
X-108.191 Y-14.957
X-108.166 Y-14.93
X-108.153 Y-14.896
X-108.114 Y-14.643
X-108.106 Y-14.568
X-108.142 Y-14.422
X-108.229 Y-14.3
X-108.344 Y-14.204
X-108.476 Y-14.132
X-108.619 Y-14.089
X-108.769 Y-14.077
X-108.917 Y-14.099
X-108.922 Y-14.102
X-109.016 Y-14.17
X-109.077 Y-14.268
X-109.096 Y-14.383
X-109.094 Y-14.474
Y-14.558
X-109.096 Y-14.586
X-109.089 Y-14.624
X-109.069 Y-14.657
X-109.038 Y-14.679
X-109 Y-14.689
X-108.858 Y-14.695
X-108.217 Y-14.724
X-108.181 Y-14.72
X-108.15 Y-14.703
X-108.127 Y-14.676
X-108.114 Y-14.643
X-108.101 Y-14.558
X-108.085 Y-14.392
X-108.081 Y-14.318
X-108.125 Y-14.174
X-108.216 Y-14.055
X-108.334 Y-13.963
X-108.469 Y-13.898
X-108.614 Y-13.859
X-108.764 Y-13.845
X-108.912 Y-13.869
X-108.924 Y-13.874
X-109.025 Y-13.945
X-109.089 Y-14.05
X-109.106 Y-14.172
X-109.1 Y-14.255
X-109.096 Y-14.383
X-109.087 Y-14.419
X-109.065 Y-14.449
X-109.034 Y-14.469
X-108.997 Y-14.476
X-108.825 Y-14.477
X-108.184 Y-14.479
X-108.149 Y-14.473
X-108.118 Y-14.455
X-108.096 Y-14.426
X-108.085 Y-14.392
X-108.076 Y-14.305
Y-14.263
X-108.094 Y-14.089
X-108.117 Y-13.941
X-108.208 Y-13.822
X-108.327 Y-13.731
X-108.463 Y-13.666
X-108.607 Y-13.627
X-108.757 Y-13.614
X-108.857 Y-13.629
X-108.968 Y-13.668
X-109.057 Y-13.745
X-109.111 Y-13.85
X-109.122 Y-13.967
X-109.114 Y-14.051
X-109.106 Y-14.172
X-109.095 Y-14.208
X-109.07 Y-14.238
X-109.037 Y-14.256
X-108.998 Y-14.261
X-108.813 Y-14.246
X-108.186 Y-14.196
X-108.149 Y-14.186
X-108.118 Y-14.162
X-108.099 Y-14.128
X-108.094 Y-14.089
X-108.107 Y-13.967
X-108.133 Y-13.798
X-108.149 Y-13.725
X-108.227 Y-13.597
X-108.343 Y-13.501
X-108.477 Y-13.435
X-108.622 Y-13.397
X-108.772 Y-13.389
X-108.921 Y-13.411
X-108.98 Y-13.436
X-109.089 Y-13.514
X-109.154 Y-13.633
X-109.159 Y-13.768
X-109.122 Y-13.967
X-109.107 Y-14.002
X-109.08 Y-14.028
X-109.046 Y-14.043
X-109.008 Y-14.044
X-108.84 Y-14.015
X-108.216 Y-13.909
X-108.18 Y-13.896
X-108.152 Y-13.87
X-108.136 Y-13.836
X-108.133 Y-13.798
X-108.169 Y-13.574
X-108.201 Y-13.427
X-108.299 Y-13.315
X-108.426 Y-13.234
X-108.567 Y-13.183
X-108.715 Y-13.16
X-108.865 Y-13.166
X-109.01 Y-13.205
X-109.051 Y-13.227
X-109.15 Y-13.31
X-109.204 Y-13.428
Y-13.558
X-109.17 Y-13.714
X-109.159 Y-13.768
X-109.144 Y-13.803
X-109.116 Y-13.83
X-109.081 Y-13.844
X-109.042
X-108.872 Y-13.81
X-108.249 Y-13.684
X-108.214 Y-13.67
X-108.187 Y-13.645
X-108.172 Y-13.611
X-108.169 Y-13.574
X-108.202 Y-13.376
X-108.222 Y-13.291
X-108.243 Y-13.219
X-108.33 Y-13.097
X-108.454 Y-13.012
X-108.594 Y-12.959
X-108.742 Y-12.935
X-108.892 Y-12.938
X-109.038 Y-12.974
X-109.173 Y-13.04
X-109.189 Y-13.055
X-109.263 Y-13.155
X-109.29 Y-13.277
X-109.264 Y-13.4
X-109.241 Y-13.431
X-109.207 Y-13.45
X-109.169 Y-13.456
X-108.928 Y-13.443
X-108.315 Y-13.41
X-108.282 Y-13.403
X-108.253 Y-13.385
X-108.232 Y-13.358
X-108.221 Y-13.325
X-108.222 Y-13.291
X-108.254 Y-13.159
X-108.271 Y-13.122
X-108.328 Y-13.012
X-108.403 Y-12.882
X-108.522 Y-12.791
X-108.661 Y-12.736
X-108.81 Y-12.714
X-108.96 Y-12.721
X-109.106 Y-12.753
X-109.241 Y-12.819
X-109.27 Y-12.844
X-109.35 Y-12.946
X-109.38 Y-13.073
X-109.354 Y-13.2
X-109.238 Y-13.46
X-109.207 Y-13.545
X-109.204 Y-13.558
X-109.188 Y-13.592
X-109.159 Y-13.618
X-109.124 Y-13.631
X-109.085 Y-13.63
X-109.05 Y-13.615
X-108.891 Y-13.504
X-108.361 Y-13.137
X-108.336 Y-13.112
X-108.322 Y-13.081
X-108.319 Y-13.046
X-108.328 Y-13.012
X-108.445 Y-12.784
X-108.472 Y-12.738
X-108.554 Y-12.613
X-108.686 Y-12.54
X-108.831 Y-12.504
X-108.981 Y-12.497
X-109.129 Y-12.521
X-109.27 Y-12.574
X-109.394 Y-12.657
X-109.415 Y-12.681
X-109.476 Y-12.789
X-109.487 Y-12.913
X-109.448 Y-13.031
X-109.394 Y-13.122
X-109.354 Y-13.2
X-109.329 Y-13.229
X-109.295 Y-13.246
X-109.257 Y-13.25
X-109.221 Y-13.239
X-109.071 Y-13.162
X-108.514 Y-12.874
X-108.483 Y-12.85
X-108.465 Y-12.815
X-108.461 Y-12.776
X-108.472 Y-12.738
X-108.494 Y-12.7
X-108.605 Y-12.531
X-108.623 Y-12.506
X-108.715 Y-12.387
X-108.848 Y-12.319
X-108.996 Y-12.292
X-109.146 Y-12.299
X-109.291 Y-12.336
X-109.427 Y-12.4
X-109.542 Y-12.496
X-109.552 Y-12.508
X-109.601 Y-12.617
X-109.605 Y-12.737
X-109.561 Y-12.848
X-109.493 Y-12.953
X-109.448 Y-13.031
X-109.421 Y-13.059
X-109.385 Y-13.074
X-109.346 Y-13.075
X-109.31 Y-13.061
X-109.183 Y-12.981
X-108.653 Y-12.644
X-108.625 Y-12.617
X-108.609 Y-12.581
Y-12.542
X-108.623 Y-12.506
X-108.677 Y-12.429
X-108.786 Y-12.278
X-108.813 Y-12.239
X-108.828 Y-12.22
X-108.861 Y-12.188
X-108.868 Y-12.183
X-108.903 Y-12.166
X-108.941 Y-12.163
X-108.978 Y-12.175
X-109.007 Y-12.2
X-109.025 Y-12.235
X-109.028 Y-12.273
X-109.016 Y-12.31
X-108.992 Y-12.34
X-108.973 Y-12.355
X-108.942 Y-12.373
X-108.906 Y-12.378
X-108.871 Y-12.37
X-108.841 Y-12.351
X-108.82 Y-12.322
X-108.81 Y-12.288
X-108.813 Y-12.252
X-108.828 Y-12.22
X-108.846 Y-12.201
X-108.878 Y-12.175
X-108.938 Y-12.13
X-109.085 Y-12.096
X-109.235 Y-12.099
X-109.381 Y-12.13
X-109.519 Y-12.189
X-109.615 Y-12.26
X-109.697 Y-12.353
X-109.735 Y-12.47
X-109.722 Y-12.593
X-109.66 Y-12.7
X-109.633 Y-12.725
X-109.599 Y-12.738
X-109.562 Y-12.739
X-109.528 Y-12.725
X-109.401 Y-12.648
X-108.892 Y-12.335
X-108.864 Y-12.31
X-108.848 Y-12.277
X-108.844 Y-12.24
X-108.855 Y-12.204
X-108.878 Y-12.175
X-109.041 Y-12.042
X-109.162 Y-11.953
X-109.309 Y-11.924
X-109.459 Y-11.937
X-109.601 Y-11.985
X-109.729 Y-12.063
X-109.833 Y-12.171
X-109.85 Y-12.2
X-109.889 Y-12.331
X-109.866 Y-12.466
X-109.786 Y-12.576
X-109.741 Y-12.616
X-109.692 Y-12.664
X-109.66 Y-12.7
X-109.602 Y-12.784
X-109.561 Y-12.848
X-109.538 Y-12.872
X-109.507 Y-12.887
X-109.474 Y-12.891
X-109.441 Y-12.883
X-109.413 Y-12.865
X-109.392 Y-12.839
X-109.334 Y-12.734
X-109.02 Y-12.165
X-109.008 Y-12.133
X-109.009 Y-12.1
X-109.02 Y-12.068
X-109.041 Y-12.042
X-109.184 Y-11.925
X-109.269 Y-11.867
X-109.398 Y-11.79
X-109.547 Y-11.774
X-109.694 Y-11.804
X-109.829 Y-11.869
X-109.945 Y-11.965
X-110.033 Y-12.086
X-110.04 Y-12.105
X-110.057 Y-12.226
X-110.024 Y-12.344
X-109.947 Y-12.439
X-109.919 Y-12.454
X-109.887 Y-12.459
X-109.856 Y-12.454
X-109.827 Y-12.44
X-109.751 Y-12.383
X-109.269 Y-12.028
X-109.244 Y-12
X-109.23 Y-11.966
Y-11.929
X-109.244 Y-11.894
X-109.269 Y-11.867
X-109.354 Y-11.811
X-109.523 Y-11.713
X-109.656 Y-11.645
X-109.806 Y-11.651
X-109.947 Y-11.702
X-110.071 Y-11.786
X-110.172 Y-11.897
X-110.196 Y-11.946
X-110.228 Y-12.088
X-110.189 Y-12.229
X-110.087 Y-12.335
X-110.031 Y-12.371
X-109.938 Y-12.447
X-109.838 Y-12.531
X-109.786 Y-12.576
X-109.757 Y-12.593
X-109.723 Y-12.599
X-109.69 Y-12.593
X-109.66 Y-12.576
X-109.638 Y-12.551
X-109.626 Y-12.519
X-109.615 Y-12.468
X-109.478 Y-11.818
X-109.477 Y-11.788
X-109.484 Y-11.759
X-109.5 Y-11.733
X-109.523 Y-11.713
X-109.607 Y-11.664
X-109.692 Y-11.617
X-109.704 Y-11.612
X-109.823 Y-11.58
X-109.97 Y-11.549
X-110.115 Y-11.588
X-110.243 Y-11.666
X-110.341 Y-11.78
X-110.41 Y-11.913
Y-11.918
X-110.406 Y-12.034
X-110.358 Y-12.14
X-110.273 Y-12.219
X-110.24 Y-12.231
X-110.205
X-110.172 Y-12.218
X-110.145 Y-12.195
X-109.774 Y-11.739
X-109.756 Y-11.704
X-109.753 Y-11.665
X-109.764 Y-11.628
X-109.789 Y-11.598
X-109.823 Y-11.58
X-109.946 Y-11.548
X-110.069 Y-11.517
X-110.216 Y-11.489
X-110.358 Y-11.537
X-110.476 Y-11.629
X-110.565 Y-11.75
X-110.576 Y-11.782
X-110.59 Y-11.896
X-110.56 Y-12.007
X-110.491 Y-12.099
X-110.392 Y-12.157
X-110.359 Y-12.162
X-110.326 Y-12.156
X-110.297 Y-12.139
X-110.276 Y-12.113
X-110.01 Y-11.665
X-109.997 Y-11.63
X-109.998 Y-11.594
X-110.012 Y-11.56
X-110.036 Y-11.534
X-110.069 Y-11.517
X-110.2 Y-11.485
X-110.284 Y-11.473
X-110.331 Y-11.468
X-110.481 Y-11.459
X-110.617 Y-11.523
X-110.717 Y-11.634
X-110.777 Y-11.771
X-110.779 Y-11.788
X-110.759 Y-11.924
X-110.682 Y-12.037
X-110.562 Y-12.104
X-110.527 Y-12.106
X-110.494 Y-12.096
X-110.466 Y-12.076
X-110.446 Y-12.047
X-110.253 Y-11.607
X-110.245 Y-11.571
X-110.25 Y-11.535
X-110.268 Y-11.503
X-110.296 Y-11.479
X-110.331 Y-11.468
X-110.538 Y-11.446
X-110.585 Y-11.442
X-110.66 Y-11.44
X-110.802 Y-11.488
X-110.908 Y-11.594
X-110.962 Y-11.734
X-110.963 Y-11.748
X-110.94 Y-11.883
X-110.86 Y-11.993
X-110.739 Y-12.056
X-110.701 Y-12.057
X-110.666 Y-12.045
X-110.638 Y-12.02
X-110.621 Y-11.987
X-110.5 Y-11.569
X-110.497 Y-11.535
X-110.505 Y-11.502
X-110.524 Y-11.473
X-110.552 Y-11.452
X-110.585 Y-11.442
X-110.792 Y-11.425
X-110.867 Y-11.432
X-111.008 Y-11.481
X-111.107 Y-11.594
X-111.151 Y-11.737
X-111.15 Y-11.747
X-111.111 Y-11.878
X-111.017 Y-11.978
X-110.888 Y-12.026
X-110.83 Y-12.036
X-110.792 Y-12.043
X-110.623 Y-12.086
X-110.538 Y-12.11
X-110.454 Y-12.135
X-110.369 Y-12.166
X-110.317 Y-12.193
X-110.284 Y-12.212
X-110.087 Y-12.335
X-110.053 Y-12.347
X-110.017 Y-12.346
X-109.984 Y-12.333
X-109.957 Y-12.308
X-109.941 Y-12.276
X-109.938 Y-12.24
X-109.947 Y-12.205
X-109.969 Y-12.176
X-110.211 Y-11.947
X-110.735 Y-11.452
X-110.761 Y-11.434
X-110.792 Y-11.425
X-110.877 Y-11.429
X-111.046 Y-11.442
X-111.12 Y-11.452
X-111.245 Y-11.535
X-111.318 Y-11.666
X-111.319 Y-11.682
X-111.306 Y-11.797
X-111.251 Y-11.899
X-111.162 Y-11.972
X-111.051 Y-12.006
X-111.018 Y-12.003
X-110.989 Y-11.989
X-110.965 Y-11.967
X-110.95 Y-11.939
X-110.944 Y-11.907
X-110.942 Y-11.542
X-110.947 Y-11.511
X-110.962 Y-11.482
X-110.985 Y-11.46
X-111.014 Y-11.446
X-111.046 Y-11.442
X-111.13 Y-11.449
X-111.215 Y-11.458
X-111.288 Y-11.477
X-111.355 Y-11.509
X-111.408 Y-11.563
X-111.479 Y-11.695
X-111.443 Y-11.838
X-111.343 Y-11.947
X-111.203 Y-11.993
X-111.17 Y-11.989
X-111.141 Y-11.974
X-111.118 Y-11.952
X-111.104 Y-11.923
X-111.099 Y-11.89
X-111.108 Y-11.556
X-111.114 Y-11.524
X-111.129 Y-11.496
X-111.153 Y-11.474
X-111.183 Y-11.461
X-111.215 Y-11.458
X-111.3 Y-11.476
X-111.384 Y-11.497
X-111.422 Y-11.508
X-111.493 Y-11.533
X-111.552 Y-11.579
X-111.624 Y-11.711
X-111.597 Y-11.829
X-111.525 Y-11.925
X-111.42 Y-11.985
X-111.3 Y-11.998
X-111.267 Y-11.987
X-111.24 Y-11.967
X-111.222 Y-11.938
X-111.214 Y-11.905
X-111.217 Y-11.871
X-111.302 Y-11.578
X-111.319 Y-11.544
X-111.348 Y-11.519
X-111.384 Y-11.506
X-111.422 Y-11.508
X-111.6 Y-11.561
X-111.662 Y-11.582
X-111.712 Y-11.638
X-111.769 Y-11.777
X-111.731 Y-11.88
X-111.658 Y-11.961
X-111.559 Y-12.009
X-111.449 Y-12.015
X-111.416 Y-12.003
X-111.389 Y-11.979
X-111.371 Y-11.948
X-111.366 Y-11.913
X-111.374 Y-11.878
X-111.483 Y-11.619
X-111.502 Y-11.589
X-111.53 Y-11.568
X-111.564 Y-11.558
X-111.6 Y-11.561
X-111.638 Y-11.572
X-111.723 Y-11.603
X-111.781 Y-11.634
X-111.807 Y-11.647
X-111.845 Y-11.669
X-111.971 Y-11.75
X-112.051 Y-11.793
X-112.067 Y-11.804
X-112.083 Y-11.816
G0 Z2
X-110.98 Y-11.49
Z-0.79
G1 Z-0.89 F1000
X-110.988 Z-0.928
X-111.01 Y-11.489 Z-0.961
X-111.042 Z-0.982
X-111.08 Y-11.488 Z-0.99
G3 X-111.845 Y-11.669 I-0.029 J-1.582
G1 X-111.976 Y-11.744
X-112.021 Y-11.771
X-112.061 Y-11.798
X-112.131 Y-11.855
X-112.23 Y-11.947
X-112.315 Y-12.028
X-112.354 Y-12.069
X-112.392 Y-12.109
X-112.399 Y-12.121
X-112.406 Y-12.139
X-112.41 Y-12.157
Y-12.175
X-112.407 Y-12.193
X-112.399 Y-12.213
X-112.378 Y-12.245
X-112.37 Y-12.256
X-112.359 Y-12.266
X-112.339 Y-12.278
X-112.327 Y-12.282
X-112.3 Y-12.287
X-112.276 Y-12.279
X-112.258 Y-12.262
X-112.248 Y-12.239
X-112.251 Y-12.211
X-112.266 Y-12.187
X-112.291 Y-12.174
X-112.319
X-112.344 Y-12.188
X-112.359 Y-12.212
X-112.361 Y-12.24
X-112.349 Y-12.265
X-112.327 Y-12.282
X-112.315 Y-12.285
X-112.3 Y-12.287
X-112.285 Y-12.286
X-112.27 Y-12.283
X-112.256 Y-12.278
X-112.23 Y-12.263
X-112.146 Y-12.218
X-111.892 Y-12.102
X-111.807 Y-12.08
X-111.638 Y-12.041
X-111.384 Y-12.006
X-111.3 Y-11.998
X-111.215 Y-11.992
X-111.13 Y-11.998
X-111.046 Y-12.006
X-110.888 Y-12.026
X-110.85 Y-12.022
X-110.815 Y-12.003
X-110.791 Y-11.973
X-110.78 Y-11.936
X-110.776 Y-11.898 Z-0.982
X-110.773 Y-11.865 Z-0.961
X-110.771 Y-11.844 Z-0.928
Y-11.836 Z-0.89
G0 Z2
X-112.995 Y-12.947
Z-0.79
G1 Z-0.89 F1000
X-112.996 Y-12.939 Z-0.928
X-112.997 Y-12.918 Z-0.961
X-112.999 Y-12.885 Z-0.982
X-113.002 Y-12.847 Z-0.99
G3 X-113.245 Y-12.1 I-1.579 J-0.102
G1 X-113.297 Y-12.024
X-113.33 Y-11.955
X-113.335 Y-11.94
X-113.359 Y-11.869
X-113.456 Y-11.755
X-113.591 Y-11.69
X-113.739 Y-11.664
X-113.889 Y-11.67
X-114.035 Y-11.704
X-114.088 Y-11.726
X-114.183 Y-11.787
X-114.248 Y-11.879
X-114.275 Y-11.988
X-114.289 Y-12.262
X-114.282 Y-12.3
X-114.261 Y-12.333
X-114.229 Y-12.355
X-114.19 Y-12.363
X-114.152 Y-12.356
X-113.993 Y-12.293
X-113.396 Y-12.055
X-113.366 Y-12.037
X-113.344 Y-12.009
X-113.333 Y-11.975
X-113.335 Y-11.94
X-113.358 Y-11.855
X-113.364 Y-11.813
X-113.367 Y-11.771
X-113.369 Y-11.733
X-113.434 Y-11.598
X-113.555 Y-11.51
X-113.697 Y-11.461
X-113.846 Y-11.445
X-113.996 Y-11.457
X-114.047 Y-11.472
X-114.155 Y-11.53
X-114.231 Y-11.626
X-114.262 Y-11.744
X-114.275 Y-11.988
X-114.268 Y-12.025
X-114.248 Y-12.057
X-114.218 Y-12.08
X-114.182 Y-12.09
X-114.144 Y-12.085
X-114.071 Y-12.062
X-113.436 Y-11.859
X-113.402 Y-11.84
X-113.377 Y-11.809
X-113.367 Y-11.771
X-113.363 Y-11.686
X-113.359 Y-11.64
X-113.357 Y-11.565
X-113.408 Y-11.424
X-113.519 Y-11.323
X-113.654 Y-11.258
X-113.801 Y-11.225
X-113.95 Y-11.222
X-114.009 Y-11.235
X-114.128 Y-11.288
X-114.213 Y-11.386
X-114.249 Y-11.511
X-114.262 Y-11.744
X-114.257 Y-11.779
X-114.24 Y-11.809
X-114.213 Y-11.832
X-114.18 Y-11.844
X-114.146 Y-11.845
X-114.09 Y-11.835
X-113.442 Y-11.727
X-113.412 Y-11.716
X-113.386 Y-11.697
X-113.368 Y-11.671
X-113.359 Y-11.64
X-113.342 Y-11.433
X-113.339 Y-11.358
X-113.397 Y-11.22
X-113.506 Y-11.117
X-113.638 Y-11.046
X-113.783 Y-11.005
X-113.932 Y-10.999
X-113.983 Y-11.008
X-114.104 Y-11.057
X-114.192 Y-11.153
X-114.231 Y-11.278
X-114.244 Y-11.433
X-114.249 Y-11.511
X-114.243 Y-11.545
X-114.227 Y-11.575
X-114.202 Y-11.598
X-114.17 Y-11.611
X-114.136 Y-11.612
X-114.077 Y-11.605
X-113.428 Y-11.519
X-113.397 Y-11.51
X-113.37 Y-11.491
X-113.351 Y-11.464
X-113.342 Y-11.433
X-113.326 Y-11.264
X-113.323 Y-11.189
X-113.358 Y-11.043
X-113.455 Y-10.929
X-113.58 Y-10.846
X-113.72 Y-10.794
X-113.869 Y-10.774
X-113.935 Y-10.78
X-114.059 Y-10.821
X-114.154 Y-10.911
X-114.202 Y-11.032
X-114.212 Y-11.095
X-114.223 Y-11.18
X-114.231 Y-11.278
X-114.227 Y-11.311
X-114.213 Y-11.34
X-114.189 Y-11.364
X-114.159 Y-11.379
X-114.127 Y-11.383
X-114.066 Y-11.38
X-113.421 Y-11.351
X-113.387 Y-11.344
X-113.358 Y-11.325
X-113.337 Y-11.297
X-113.326 Y-11.264
X-113.318 Y-11.18
X-113.302 Y-11.049
X-113.296 Y-10.974
X-113.337 Y-10.83
X-113.434 Y-10.715
X-113.558 Y-10.63
X-113.697 Y-10.575
X-113.846 Y-10.556
X-113.894 Y-10.559
X-114.016 Y-10.597
X-114.111 Y-10.681
X-114.163 Y-10.798
X-114.176 Y-10.866
X-114.202 Y-11.032
X-114.201 Y-11.066
X-114.188 Y-11.098
X-114.165 Y-11.123
X-114.135 Y-11.139
X-114.101 Y-11.144
X-114.045 Y-11.143
X-113.399 Y-11.133
X-113.365 Y-11.126
X-113.335 Y-11.108
X-113.313 Y-11.081
X-113.302 Y-11.049
X-113.28 Y-10.88
X-113.274 Y-10.842
X-113.267 Y-10.767
X-113.306 Y-10.623
X-113.4 Y-10.506
X-113.522 Y-10.418
X-113.661 Y-10.36
X-113.809 Y-10.338
X-113.846 Y-10.341
X-113.969 Y-10.377
X-114.065 Y-10.462
X-114.118 Y-10.579
X-114.163 Y-10.798
Y-10.832
X-114.151 Y-10.865
X-114.129 Y-10.891
X-114.099 Y-10.908
X-114.065 Y-10.915
X-114.02
X-113.374 Y-10.923
X-113.34 Y-10.917
X-113.309 Y-10.9
X-113.287 Y-10.874
X-113.274 Y-10.842
X-113.245 Y-10.656
X-113.235 Y-10.582
X-113.259 Y-10.434
X-113.346 Y-10.311
X-113.462 Y-10.217
X-113.597 Y-10.152
X-113.744 Y-10.123
X-113.789 Y-10.125
X-113.917 Y-10.158
X-114.017 Y-10.243
X-114.072 Y-10.363
X-114.118 Y-10.579
Y-10.612
X-114.107 Y-10.644
X-114.086 Y-10.67
X-114.057 Y-10.688
X-114.025 Y-10.696
X-113.993 Y-10.697
X-113.348 Y-10.734
X-113.314 Y-10.73
X-113.283 Y-10.714
X-113.259 Y-10.688
X-113.245 Y-10.656
X-113.232 Y-10.588
X-113.204 Y-10.457
X-113.193 Y-10.383
X-113.213 Y-10.235
X-113.295 Y-10.109
X-113.409 Y-10.012
X-113.542 Y-9.943
X-113.689 Y-9.911
X-113.733
X-113.861 Y-9.941
X-113.963 Y-10.023
X-114.021 Y-10.141
X-114.048 Y-10.25
X-114.072 Y-10.363
Y-10.396
X-114.062 Y-10.427
X-114.042 Y-10.453
X-114.014 Y-10.471
X-113.982 Y-10.48
X-113.952 Y-10.482
X-113.309 Y-10.533
X-113.275 Y-10.53
X-113.243 Y-10.514
X-113.219 Y-10.489
X-113.204 Y-10.457
X-113.178 Y-10.335
X-113.158 Y-10.25
X-113.143 Y-10.177
X-113.164 Y-10.028
X-113.245 Y-9.902
X-113.358 Y-9.803
X-113.49 Y-9.733
X-113.636 Y-9.699
X-113.665
X-113.781 Y-9.723
X-113.88 Y-9.79
X-113.944 Y-9.89
X-113.985 Y-9.997
X-114.015 Y-10.114
X-114.021 Y-10.141
X-114.022 Y-10.174
X-114.012 Y-10.206
X-113.992 Y-10.233
X-113.965 Y-10.252
X-113.933 Y-10.26
X-113.907 Y-10.263
X-113.263 Y-10.322
X-113.229 Y-10.32
X-113.197 Y-10.305
X-113.173 Y-10.281
X-113.158 Y-10.25
X-113.103 Y-10.035
X-113.087 Y-9.962
X-113.115 Y-9.814
X-113.197 Y-9.689
X-113.31 Y-9.59
X-113.443 Y-9.52
X-113.591 Y-9.488
X-113.702 Y-9.513
X-113.796 Y-9.578
X-113.858 Y-9.674
X-113.887 Y-9.744
X-113.944 Y-9.89
X-113.95 Y-9.925
X-113.943 Y-9.96
X-113.924 Y-9.99
X-113.896 Y-10.011
X-113.862 Y-10.022
X-113.851 Y-10.024
X-113.211 Y-10.105
X-113.176 Y-10.104
X-113.144 Y-10.09
X-113.119 Y-10.066
X-113.103 Y-10.035
X-113.047 Y-9.828
X-113.029 Y-9.755
X-113.058 Y-9.608
X-113.14 Y-9.482
X-113.252 Y-9.383
X-113.384 Y-9.311
X-113.436 Y-9.3
X-113.572 Y-9.303
X-113.693 Y-9.366
X-113.774 Y-9.476
X-113.858 Y-9.674
X-113.865 Y-9.709
X-113.858 Y-9.744
X-113.84 Y-9.774
X-113.812 Y-9.796
X-113.779 Y-9.808
X-113.156 Y-9.896
X-113.121 Y-9.895
X-113.089 Y-9.882
X-113.063 Y-9.859
X-113.047 Y-9.828
X-113.022 Y-9.744
X-112.992 Y-9.663
X-112.965 Y-9.593
X-112.973 Y-9.443
X-113.044 Y-9.31
X-113.147 Y-9.202
X-113.277 Y-9.127
X-113.334 Y-9.111
X-113.474 Y-9.106
X-113.601 Y-9.166
X-113.687 Y-9.277
X-113.708 Y-9.321
X-113.774 Y-9.476
X-113.781 Y-9.51
X-113.775 Y-9.545
X-113.758 Y-9.576
X-113.731 Y-9.598
X-113.698 Y-9.61
X-113.098 Y-9.715
X-113.066 Y-9.716
X-113.036 Y-9.706
X-113.01 Y-9.688
X-112.992 Y-9.663
X-112.948 Y-9.575
X-112.907 Y-9.494
X-112.876 Y-9.426
X-112.878 Y-9.276
X-112.94 Y-9.139
X-113.039 Y-9.026
X-113.166 Y-8.946
X-113.308 Y-8.898
X-113.311
X-113.42 Y-8.916
X-113.514 Y-8.971
X-113.582 Y-9.057
X-113.631 Y-9.152
X-113.687 Y-9.277
X-113.695 Y-9.311
X-113.69 Y-9.345
X-113.674 Y-9.376
X-113.648 Y-9.399
X-113.616 Y-9.412
X-113.016 Y-9.543
X-112.984 Y-9.545
X-112.953 Y-9.537
X-112.927 Y-9.519
X-112.907 Y-9.494
X-112.822 Y-9.329
X-112.792 Y-9.261
X-112.779 Y-9.111
X-112.834 Y-8.971
X-112.928 Y-8.854
X-113.047 Y-8.763
X-113.09 Y-8.746
X-113.22 Y-8.724
X-113.347 Y-8.76
X-113.446 Y-8.848
X-113.543 Y-8.984
X-113.582 Y-9.057
X-113.592 Y-9.09
X-113.59 Y-9.124
X-113.576 Y-9.156
X-113.552 Y-9.181
X-113.522 Y-9.197
X-112.939 Y-9.376
X-112.906 Y-9.38
X-112.872 Y-9.373
X-112.844 Y-9.355
X-112.822 Y-9.329
X-112.775 Y-9.237
X-112.727 Y-9.152
X-112.689 Y-9.088
X-112.677 Y-8.938
X-112.729 Y-8.797
X-112.817 Y-8.676
X-112.938 Y-8.587
X-112.963 Y-8.577
X-113.091 Y-8.555
X-113.216 Y-8.589
X-113.315 Y-8.673
X-113.422 Y-8.815
X-113.446 Y-8.848
X-113.461 Y-8.881
X-113.462 Y-8.918
X-113.451 Y-8.952
X-113.428 Y-8.98
X-113.396 Y-8.998
X-112.841 Y-9.189
X-112.81 Y-9.195
X-112.778 Y-9.19
X-112.749 Y-9.175
X-112.727 Y-9.152
X-112.672 Y-9.068
X-112.627 Y-9.011
X-112.583 Y-8.95
X-112.556 Y-8.802
X-112.594 Y-8.657
X-112.675 Y-8.531
X-112.789 Y-8.433
X-112.819 Y-8.419
X-112.948 Y-8.39
X-113.077 Y-8.419
X-113.181 Y-8.5
X-113.231 Y-8.561
X-113.315 Y-8.673
X-113.33 Y-8.706
X-113.333 Y-8.741
X-113.323 Y-8.776
X-113.301 Y-8.804
X-113.271 Y-8.823
X-112.74 Y-9.039
X-112.71 Y-9.046
X-112.679 Y-9.043
X-112.65 Y-9.031
X-112.627 Y-9.011
X-112.569 Y-8.939
X-112.507 Y-8.866
X-112.461 Y-8.806
X-112.427 Y-8.66
X-112.458 Y-8.514
X-112.533 Y-8.384
X-112.643 Y-8.282
X-112.653 Y-8.277
X-112.765 Y-8.243
X-112.882 Y-8.255
X-112.985 Y-8.311
X-113.079 Y-8.392
X-113.162 Y-8.477
X-113.181 Y-8.5
X-113.197 Y-8.532
X-113.201 Y-8.567
X-113.192 Y-8.602
X-113.172 Y-8.631
X-113.143 Y-8.651
X-112.622 Y-8.89
X-112.592 Y-8.898
X-112.561 Y-8.897
X-112.531 Y-8.886
X-112.507 Y-8.866
X-112.39 Y-8.73
X-112.34 Y-8.674
X-112.292 Y-8.532
X-112.314 Y-8.384
X-112.381 Y-8.249
X-112.426 Y-8.204
X-112.551 Y-8.128
X-112.698 Y-8.12
X-112.83 Y-8.183
X-112.853 Y-8.212
X-112.864 Y-8.248
X-112.86 Y-8.285
X-112.843 Y-8.319
X-112.537 Y-8.717
X-112.512 Y-8.74
X-112.482 Y-8.753
X-112.45 Y-8.756
X-112.418 Y-8.748
X-112.39 Y-8.73
X-112.315 Y-8.657
X-112.301 Y-8.646
X-112.262 Y-8.616
X-112.204 Y-8.568
X-112.145 Y-8.431
X-112.154 Y-8.281
X-112.215 Y-8.144
X-112.313 Y-8.03
X-112.323 Y-8.024
X-112.432 Y-7.985
X-112.547 Y-7.991
X-112.652 Y-8.04
X-112.672 Y-8.054
X-112.738 Y-8.107
X-112.985 Y-8.311
X-113.008 Y-8.339
X-113.018 Y-8.374
X-113.016 Y-8.409
X-113.001 Y-8.442
X-112.976 Y-8.468
X-112.943 Y-8.482
X-112.343 Y-8.631
X-112.315 Y-8.634
X-112.287 Y-8.629
X-112.262 Y-8.616
X-112.23 Y-8.592
X-112.182 Y-8.561
X-112.146 Y-8.541
X-112.08 Y-8.504
X-111.995 Y-8.38
X-111.983 Y-8.231
X-112.021 Y-8.086
X-112.049 Y-8.038
X-112.15 Y-7.933
X-112.289 Y-7.888
X-112.432 Y-7.914
X-112.553 Y-7.97
X-112.569 Y-7.979
X-112.652 Y-8.04
X-112.676 Y-8.066
X-112.689 Y-8.099
Y-8.135
X-112.677 Y-8.168
X-112.654 Y-8.196
X-112.25 Y-8.527
X-112.218 Y-8.545
X-112.181 Y-8.549
X-112.146 Y-8.541
X-111.976 Y-8.457
X-111.911 Y-8.421
X-111.827 Y-8.296
X-111.808 Y-8.147
X-111.844 Y-8.002
X-111.867 Y-7.961
X-111.967 Y-7.854
X-112.106 Y-7.808
X-112.25 Y-7.833
X-112.432 Y-7.914
X-112.462 Y-7.937
X-112.482 Y-7.97
X-112.488 Y-8.007
X-112.479 Y-8.044
X-112.458 Y-8.076
X-112.087 Y-8.437
X-112.054 Y-8.459
X-112.015 Y-8.465
X-111.976 Y-8.457
X-111.892 Y-8.416
X-111.807 Y-8.379
X-111.773 Y-8.364
X-111.721 Y-8.31
X-111.651 Y-8.177
X-111.641 Y-8.028
X-111.685 Y-7.884
X-111.699 Y-7.864
X-111.798 Y-7.772
X-111.928 Y-7.733
X-112.062 Y-7.755
X-112.25 Y-7.833
X-112.281 Y-7.855
X-112.3 Y-7.888
X-112.307 Y-7.925
X-112.298 Y-7.962
X-112.277 Y-7.994
X-111.912 Y-8.356
X-111.881 Y-8.377
X-111.844 Y-8.385
X-111.807 Y-8.379
X-111.723 Y-8.345
X-111.676 Y-8.332
X-111.605 Y-8.309
X-111.502 Y-8.199
X-111.461 Y-8.055
X-111.468 Y-7.905
X-111.489 Y-7.853
X-111.567 Y-7.744
X-111.683 Y-7.68
X-111.817 Y-7.672
X-111.849 Y-7.677
X-111.871 Y-7.682
X-111.892 Y-7.688
X-111.976 Y-7.719
X-112.062 Y-7.755
X-112.092 Y-7.775
X-112.112 Y-7.806
X-112.121 Y-7.841
X-112.116 Y-7.877
X-112.098 Y-7.909
X-111.777 Y-8.299
X-111.748 Y-8.323
X-111.713 Y-8.334
X-111.676 Y-8.332
X-111.638 Y-8.322
X-111.507 Y-8.293
X-111.434 Y-8.273
X-111.325 Y-8.17
X-111.272 Y-8.03
X-111.274 Y-7.88
X-111.284 Y-7.849
X-111.354 Y-7.731
X-111.469 Y-7.657
X-111.605 Y-7.641
X-111.638 Y-7.645
X-111.723 Y-7.657
X-111.817 Y-7.672
X-111.852 Y-7.687
X-111.879 Y-7.714
X-111.894 Y-7.749
X-111.895 Y-7.788
X-111.881 Y-7.824
X-111.609 Y-8.248
X-111.582 Y-8.276
X-111.546 Y-8.292
X-111.507 Y-8.293
X-111.384 Y-8.266
X-111.338 Y-8.256
X-111.265 Y-8.237
X-111.146 Y-8.146
X-111.086 Y-8.008
X-111.083 Y-7.858
X-111.09 Y-7.835
X-111.158 Y-7.713
X-111.275 Y-7.636
X-111.413 Y-7.619
X-111.449 Y-7.632
X-111.477 Y-7.657
X-111.495 Y-7.69
X-111.498 Y-7.728
X-111.454 Y-8.167
X-111.445 Y-8.199
X-111.427 Y-8.226
X-111.401 Y-8.246
X-111.37 Y-8.256
X-111.338
X-111.13 Y-8.215
X-111.057 Y-8.198
X-110.948 Y-8.095
X-110.895 Y-7.955
X-110.9 Y-7.805
X-110.903 Y-7.795
X-110.971 Y-7.688
X-111.077 Y-7.618
X-111.202 Y-7.599
X-111.24 Y-7.61
X-111.27 Y-7.635
X-111.289 Y-7.67
X-111.292 Y-7.709
X-111.245 Y-8.128
X-111.237 Y-8.159
X-111.218 Y-8.185
X-111.193 Y-8.205
X-111.162 Y-8.215
X-111.13
X-111.077 Y-8.205
X-111.046
X-110.999 Y-8.208
X-110.962
X-110.892 Y-8.18
X-110.773 Y-8.089
X-110.711 Y-7.952
X-110.71 Y-7.907
X-110.728 Y-7.795
X-110.787 Y-7.698
X-110.877 Y-7.63
X-110.987 Y-7.6
X-111.046 Y-7.595
X-111.13 Y-7.594
X-111.215 Y-7.599
X-111.3 Y-7.607
X-111.384 Y-7.616
X-111.605 Y-7.641
X-111.638 Y-7.653
X-111.665 Y-7.674
X-111.683 Y-7.704
X-111.69 Y-7.738
X-111.685 Y-7.772
X-111.668 Y-7.803
X-111.642 Y-7.826
X-111.042 Y-8.193
X-111.021 Y-8.203
X-110.999 Y-8.208
X-110.961 Y-8.21
X-110.877 Y-8.219
X-110.802 Y-8.224
X-110.731 Y-8.199
X-110.606 Y-8.117
X-110.538 Y-7.983
X-110.534 Y-7.942
X-110.546 Y-7.824
X-110.603 Y-7.72
X-110.695 Y-7.646
X-110.809 Y-7.613
X-110.987 Y-7.6
X-111.024 Y-7.605
X-111.057 Y-7.625
X-111.08 Y-7.655
X-111.091 Y-7.691
X-111.087 Y-7.729
X-110.958 Y-8.15
X-110.94 Y-8.183
X-110.912 Y-8.207
X-110.877 Y-8.219
X-110.84 Y-8.223
X-110.792 Y-8.23
X-110.707 Y-8.245
X-110.633 Y-8.254
X-110.491 Y-8.205
X-110.391 Y-8.092
X-110.344 Y-7.95
X-110.345 Y-7.925
X-110.382 Y-7.792
X-110.476 Y-7.689
X-110.605 Y-7.639
X-110.792 Y-7.615
X-110.809 Y-7.613
X-110.847 Y-7.619
X-110.879 Y-7.638
X-110.903 Y-7.668
X-110.913 Y-7.704
X-110.91 Y-7.741
X-110.783 Y-8.175
X-110.767 Y-8.207
X-110.741 Y-8.231
X-110.707 Y-8.245
X-110.576 Y-8.268
X-110.538 Y-8.275
X-110.464 Y-8.288
X-110.392 Y-8.269
X-110.265 Y-8.188
X-110.182 Y-8.063
X-110.155 Y-7.916
X-110.156 Y-7.912
X-110.203 Y-7.795
X-110.293 Y-7.708
X-110.412 Y-7.665
X-110.448 Y-7.668
X-110.481 Y-7.684
X-110.506 Y-7.711
X-110.52 Y-7.745
X-110.604 Y-8.16
X-110.605 Y-8.196
X-110.593 Y-8.23
X-110.569 Y-8.257
X-110.538 Y-8.275
X-110.396 Y-8.318
X-110.323 Y-8.336
X-110.176 Y-8.307
X-110.059 Y-8.212
X-109.984 Y-8.083
X-109.976 Y-8.032
X-109.982 Y-7.916
X-110.031 Y-7.81
X-110.117 Y-7.732
X-110.227 Y-7.692
X-110.262 Y-7.694
X-110.294 Y-7.708
X-110.319 Y-7.732
X-110.335 Y-7.763
X-110.46 Y-8.195
X-110.463 Y-8.233
X-110.452 Y-8.269
X-110.429 Y-8.299
X-110.396 Y-8.318
X-110.284 Y-8.351
X-110.242 Y-8.369
X-110.173 Y-8.398
X-110.023 Y-8.386
X-109.899 Y-8.302
X-109.815 Y-8.178
X-109.774 Y-8.033
Y-8.02
X-109.799 Y-7.913
X-109.861 Y-7.822
X-109.951 Y-7.76
X-109.988 Y-7.743
X-110.009 Y-7.735
X-110.031 Y-7.729
X-110.2 Y-7.696
X-110.284 Y-7.683
X-110.605 Y-7.639
X-110.644 Y-7.643
X-110.678 Y-7.661
X-110.703 Y-7.691
X-110.714 Y-7.728
X-110.711 Y-7.766
X-110.694 Y-7.8
X-110.272 Y-8.343
X-110.258 Y-8.358
X-110.242 Y-8.369
X-110.197 Y-8.392
X-110.115 Y-8.446
X-110.083 Y-8.466
X-110.01 Y-8.481
X-109.86 Y-8.471
X-109.733 Y-8.391
X-109.639 Y-8.274
X-109.619 Y-8.223
X-109.598 Y-8.111
X-109.62 Y-8
X-109.682 Y-7.904
X-109.775 Y-7.839
X-109.81 Y-7.832
X-109.846 Y-7.837
X-109.877 Y-7.855
X-109.9 Y-7.883
X-110.142 Y-8.317
X-110.153 Y-8.351
Y-8.386
X-110.139 Y-8.419
X-110.115 Y-8.446
X-109.976 Y-8.544
X-109.913 Y-8.584
X-109.763 Y-8.595
X-109.625 Y-8.538
X-109.511 Y-8.44
X-109.432 Y-8.312
X-109.422 Y-8.271
X-109.419 Y-8.136
X-109.476 Y-8.013
X-109.581 Y-7.928
X-109.615 Y-7.92
X-109.65 Y-7.923
X-109.681 Y-7.939
X-109.705 Y-7.964
X-109.999 Y-8.409
X-110.014 Y-8.443
Y-8.481
X-110.001 Y-8.516
X-109.976 Y-8.544
X-109.946 Y-8.565
X-109.861 Y-8.636
X-109.804 Y-8.684
X-109.658 Y-8.72
X-109.513 Y-8.682
X-109.388 Y-8.6
X-109.289 Y-8.487
X-109.261 Y-8.425
X-109.236 Y-8.286
X-109.276 Y-8.151
X-109.374 Y-8.049
X-109.407 Y-8.037
X-109.442
X-109.474 Y-8.048
X-109.501 Y-8.071
X-109.867 Y-8.5
X-109.886 Y-8.532
X-109.891 Y-8.569
X-109.883 Y-8.605
X-109.861 Y-8.636
X-109.777 Y-8.718
X-109.743 Y-8.753
X-109.688 Y-8.805
X-109.547 Y-8.854
X-109.399 Y-8.831
X-109.265 Y-8.762
X-109.155 Y-8.661
X-109.076 Y-8.533
X-109.067 Y-8.502
X-109.058 Y-8.374
X-109.103 Y-8.254
X-109.194 Y-8.164
X-109.225 Y-8.152
X-109.258 Y-8.151
X-109.289 Y-8.161
X-109.316 Y-8.18
X-109.74 Y-8.617
X-109.76 Y-8.648
X-109.768 Y-8.684
X-109.762 Y-8.721
X-109.743 Y-8.753
X-109.642 Y-8.86
X-109.623 Y-8.88
X-109.569 Y-8.932
X-109.432 Y-8.994
X-109.283 Y-8.983
X-109.144 Y-8.926
X-109.024 Y-8.835
X-108.929 Y-8.72
X-108.92 Y-8.7
X-108.894 Y-8.593
X-108.908 Y-8.483
X-108.96 Y-8.387
X-108.989 Y-8.364
X-109.024 Y-8.353
X-109.06 Y-8.356
X-109.093 Y-8.371
X-109.1 Y-8.376
X-109.605 Y-8.733
X-109.629 Y-8.756
X-109.643 Y-8.786
X-109.647 Y-8.819
X-109.64 Y-8.852
X-109.623 Y-8.88
X-109.606 Y-8.899
X-109.574 Y-8.941
X-109.548 Y-8.984
X-109.523 Y-9.025
X-109.502 Y-9.057
X-109.378 Y-9.141
X-109.229 Y-9.155
X-109.083 Y-9.121
X-108.95 Y-9.052
X-108.834 Y-8.957
X-108.809 Y-8.922
X-108.759 Y-8.806
X-108.762 Y-8.679
X-108.816 Y-8.565
X-108.844 Y-8.542
X-108.878 Y-8.53
X-108.914 Y-8.531
X-108.947 Y-8.545
X-108.955 Y-8.549
X-109.489 Y-8.894
X-109.516 Y-8.919
X-109.532 Y-8.953
X-109.534 Y-8.99
X-109.523 Y-9.025
X-109.498 Y-9.068
X-109.451 Y-9.152
X-109.438 Y-9.181
X-109.432 Y-9.195
X-109.414 Y-9.218
X-109.405 Y-9.229
X-109.374 Y-9.251
X-109.337 Y-9.259
X-109.299 Y-9.253
X-109.266 Y-9.233
X-109.243 Y-9.203
X-109.234 Y-9.166
X-109.238 Y-9.128
X-109.257 Y-9.095
X-109.287 Y-9.071
X-109.293 Y-9.068
X-109.326 Y-9.057
X-109.361 Y-9.058
X-109.393 Y-9.072
X-109.419 Y-9.095
X-109.435 Y-9.126
X-109.44 Y-9.161
X-109.432 Y-9.195
X-109.423 Y-9.209
X-109.398 Y-9.237
X-109.387 Y-9.246
X-109.376 Y-9.253
X-109.365 Y-9.259
X-109.354 Y-9.262
X-109.343 Y-9.265
X-109.333 Y-9.266
X-109.1
X-108.95 Y-9.258
X-108.81 Y-9.204
X-108.694 Y-9.109
X-108.683 Y-9.095
X-108.632 Y-8.98
Y-8.854
X-108.685 Y-8.739
X-108.71 Y-8.716
X-108.742 Y-8.703
X-108.777 Y-8.702
X-108.809 Y-8.713
X-108.837 Y-8.734
X-109.17 Y-9.099
X-109.19 Y-9.131
X-109.196 Y-9.168
X-109.189 Y-9.205
X-109.168 Y-9.236
X-109.137 Y-9.258
X-109.1 Y-9.266
X-108.8
X-108.761
X-108.715
X-108.678 Y-9.264
X-108.595 Y-9.187
X-108.549 Y-9.083
X-108.548 Y-8.97
X-108.593 Y-8.866
X-108.621 Y-8.84
X-108.658 Y-8.827
X-108.697 Y-8.829
X-108.732 Y-8.845
X-108.758 Y-8.874
X-108.772 Y-8.91
X-108.81 Y-9.15
Y-9.184
X-108.798 Y-9.216
X-108.777 Y-9.242
X-108.748 Y-9.259
X-108.715 Y-9.266
X-108.63
X-108.592
X-108.574 Y-9.265
X-108.545 Y-9.255
X-108.536 Y-9.252
X-108.521 Y-9.232
X-108.514 Y-9.208
X-108.518 Y-9.184
X-108.534 Y-9.16
X-108.56 Y-9.146
X-108.589
X-108.615 Y-9.159
X-108.631 Y-9.183
X-108.635 Y-9.212
X-108.624 Y-9.239
X-108.602 Y-9.258
X-108.574 Y-9.265
X-108.555 Y-9.26
X-108.536 Y-9.252
X-108.517 Y-9.237
X-108.508 Y-9.226
X-108.494 Y-9.207
X-108.484 Y-9.189
X-108.478 Y-9.171
X-108.475 Y-9.152
Y-9.142
X-108.477 Y-9.131
X-108.483 Y-9.11
X-108.533 Y-8.962
X-108.538 Y-8.952
X-108.544 Y-8.941
X-108.592 Y-8.867
X-108.628 Y-8.815
X-108.761 Y-8.636
X-108.819 Y-8.561
X-109.024 Y-8.308
X-109.102 Y-8.223
X-109.233 Y-8.139
X-109.499 Y-7.97
X-109.523 Y-7.956
X-109.607 Y-7.915
X-109.692 Y-7.876
X-109.951 Y-7.76
X-109.979 Y-7.753
X-110.007 Y-7.754
X-110.035 Y-7.774 Z-0.983
X-110.058 Y-7.791 Z-0.966
X-110.076 Y-7.803 Z-0.939
X-110.08 Y-7.812 Z-0.915
X-110.082 Y-7.815 Z-0.89
G0 Z2
X-94.186 Y-9.575
Z0.5
G3 X-93.702 Y-9.7 Z0.29 I0.242 J-0.062 F333.3
X-94.186 Y-9.575 Z0.079 I-0.242 J0.062
X-93.702 Y-9.7 Z-0.131 I0.242 J-0.062
X-94.186 Y-9.575 Z-0.342 I-0.242 J0.062
X-93.702 Y-9.7 Z-0.552 I0.242 J-0.062
X-94.186 Y-9.575 Z-0.763 I-0.242 J0.062
X-93.975 Y-9.886 Z-0.876 I0.242 J-0.062
X-93.694 Y-9.638 Z-0.99 I0.031 J0.248
X-94.194 I-0.25
X-93.694 I0.25
G1 X-93.657 Y-9.492 F1000
X-93.67 Y-9.418
X-93.707 Y-9.353
X-93.814 Y-9.248
X-93.958 Y-9.208
X-94.107 Y-9.23
X-94.237 Y-9.304
X-94.334 Y-9.418
X-94.386 Y-9.559
X-94.388 Y-9.709
X-94.34 Y-9.851
X-94.249 Y-9.97
X-94.123 Y-10.051
X-93.977 Y-10.087
X-93.828 Y-10.073
X-93.691 Y-10.011
X-93.583 Y-9.908
X-93.505 Y-9.78
X-93.454 Y-9.638
X-93.444 Y-9.489
X-93.479 Y-9.343
X-93.55 Y-9.21
X-93.658 Y-9.107
X-93.789 Y-9.033
X-93.935 Y-9
X-94.085 Y-9.007
X-94.229 Y-9.048
X-94.359 Y-9.124
X-94.465 Y-9.23
X-94.547 Y-9.355
X-94.597 Y-9.497
X-94.611 Y-9.646
X-94.595 Y-9.795
X-94.544 Y-9.936
X-94.462 Y-10.062
X-94.356 Y-10.167
X-94.228 Y-10.246
X-94.085 Y-10.293
X-93.936 Y-10.309
X-93.787 Y-10.291
X-93.647 Y-10.238
X-93.52 Y-10.158
X-93.411 Y-10.055
X-93.324 Y-9.933
X-93.261 Y-9.797
X-93.223 Y-9.652
X-93.215 Y-9.502
X-93.237 Y-9.354
X-93.286 Y-9.212
X-93.362 Y-9.083
X-93.463 Y-8.972
X-93.584 Y-8.882
X-93.718 Y-8.816
X-93.864 Y-8.779
X-94.013 Y-8.77
X-94.162 Y-8.786
X-94.193 Y-8.795
X-94.25 Y-8.819
X-94.301 Y-8.854
X-94.344 Y-8.899
X-94.379 Y-8.943
X-94.416 Y-8.984
X-94.506 Y-9.068
X-94.549 Y-9.106
X-94.581 Y-9.132
X-94.694 Y-9.23
X-94.771 Y-9.359
X-94.818 Y-9.501
X-94.838 Y-9.65
X-94.829 Y-9.8
X-94.791 Y-9.945
X-94.729 Y-10.083
X-94.683 Y-10.137
X-94.626 Y-10.18
X-94.56 Y-10.207
X-94.524 Y-10.209
X-94.49 Y-10.199
X-94.462 Y-10.177
X-94.443 Y-10.147
X-94.436 Y-10.112
X-94.431 Y-9.777
X-94.422 Y-9.214
X-94.428 Y-9.178
X-94.447 Y-9.146
X-94.476 Y-9.124
X-94.511 Y-9.113
X-94.548 Y-9.116
X-94.581 Y-9.132
X-94.802 Y-9.306
X-94.823 Y-9.321
X-94.858 Y-9.345
X-94.918 Y-9.39
X-95.001 Y-9.515
X-95.042 Y-9.659
X-95.049 Y-9.809
X-95.029 Y-9.958
X-95.022 Y-9.975
X-94.96 Y-10.08
X-94.861 Y-10.151
X-94.743 Y-10.178
X-94.71 Y-10.171
X-94.682 Y-10.155
X-94.66 Y-10.131
X-94.648 Y-10.101
X-94.645 Y-10.068
X-94.652 Y-10
X-94.706 Y-9.421
X-94.714 Y-9.388
X-94.733 Y-9.36
X-94.761 Y-9.34
X-94.793 Y-9.331
X-94.827 Y-9.332
X-94.858 Y-9.345
X-94.972 Y-9.421
X-95.056 Y-9.469
X-95.121 Y-9.506
X-95.207 Y-9.629
X-95.249 Y-9.773
X-95.25 Y-9.923
X-95.243 Y-9.951
X-95.183 Y-10.068
X-95.08 Y-10.148
X-94.952 Y-10.177
X-94.92 Y-10.17
X-94.892 Y-10.154
X-94.87 Y-10.129
X-94.858 Y-10.098
X-94.856 Y-10.065
X-94.917 Y-9.549
X-94.928 Y-9.513
X-94.951 Y-9.485
X-94.983 Y-9.466
X-95.02 Y-9.461
X-95.056 Y-9.469
X-95.101 Y-9.49
X-95.225 Y-9.543
X-95.293 Y-9.576
X-95.394 Y-9.687
X-95.443 Y-9.828
X-95.439 Y-9.979
X-95.375 Y-10.082
X-95.276 Y-10.152
X-95.156 Y-10.177
X-95.125 Y-10.171
X-95.097 Y-10.155
X-95.076 Y-10.131
X-95.063 Y-10.102
X-95.06 Y-10.07
X-95.09 Y-9.63
X-95.099 Y-9.594
X-95.121 Y-9.564
X-95.152 Y-9.544
X-95.189 Y-9.536
X-95.225 Y-9.543
X-95.31 Y-9.579
X-95.395 Y-9.61
X-95.465 Y-9.637
X-95.577 Y-9.736
X-95.63 Y-9.876
X-95.629 Y-9.896
X-95.6 Y-10.005
X-95.534 Y-10.096
X-95.439 Y-10.156
X-95.329 Y-10.177
X-95.297 Y-10.17
X-95.269 Y-10.154
X-95.248 Y-10.13
X-95.235 Y-10.1
X-95.233 Y-10.068
X-95.268 Y-9.697
X-95.277 Y-9.664
X-95.297 Y-9.635
X-95.326 Y-9.615
X-95.36 Y-9.607
X-95.395 Y-9.61
X-95.551 Y-9.659
X-95.61 Y-9.676
X-95.646 Y-9.688
X-95.704 Y-9.735
X-95.781 Y-9.864
X-95.782 Y-9.87
X-95.761 Y-9.987
X-95.696 Y-10.087
X-95.598 Y-10.153
X-95.482 Y-10.177
X-95.446 Y-10.169
X-95.415 Y-10.148
X-95.394 Y-10.118
X-95.385 Y-10.082
X-95.39 Y-10.045
X-95.492 Y-9.741
X-95.51 Y-9.709
X-95.539 Y-9.686
X-95.574 Y-9.674
X-95.61 Y-9.676
X-95.648 Y-9.686
X-95.733 Y-9.704
X-95.806 Y-9.723
X-95.862 Y-9.772
X-95.896 Y-9.839
X-95.895 Y-9.962
X-95.841 Y-10.073
X-95.745 Y-10.149
X-95.624 Y-10.177
X-95.588 Y-10.169
X-95.558 Y-10.148
X-95.537 Y-10.118
X-95.528 Y-10.083
X-95.533 Y-10.046
X-95.621 Y-9.772
X-95.638 Y-9.74
X-95.664 Y-9.717
X-95.697 Y-9.704
X-95.733
X-95.864 Y-9.731
X-95.9 Y-9.74
X-95.964 Y-9.779
X-96.007 Y-9.841
X-96.011 Y-9.962
X-95.962 Y-10.072
X-95.869 Y-10.149
X-95.751 Y-10.177
X-95.714 Y-10.168
X-95.683 Y-10.147
X-95.662 Y-10.116
X-95.654 Y-10.079
X-95.661 Y-10.042
X-95.754 Y-9.794
X-95.771 Y-9.765
X-95.798 Y-9.743
X-95.83 Y-9.731
X-95.864
X-95.902 Y-9.738
X-95.987 Y-9.751
X-96.024 Y-9.758
X-96.083 Y-9.803
X-96.123 Y-9.867
Y-9.98
X-96.075 Y-10.081
X-95.987 Y-10.152
X-95.877 Y-10.177
X-95.84 Y-10.168
X-95.809 Y-10.146
X-95.788 Y-10.114
X-95.781 Y-10.076
X-95.789 Y-10.038
X-95.884 Y-9.811
X-95.901 Y-9.784
X-95.925 Y-9.764
X-95.955 Y-9.752
X-95.987 Y-9.751
X-96.118 Y-9.769
X-96.155 Y-9.777
X-96.209 Y-9.829
X-96.243 Y-9.895
X-96.238 Y-9.999
X-96.19 Y-10.091
X-96.107 Y-10.154
X-96.006 Y-10.177
X-95.968 Y-10.168
X-95.936 Y-10.145
X-95.916 Y-10.111
X-95.91 Y-10.073
X-95.919 Y-10.034
X-96.017 Y-9.826
X-96.034 Y-9.801
X-96.058 Y-9.782
X-96.087 Y-9.771
X-96.118 Y-9.769
X-96.202 Y-9.78
X-96.239 Y-9.787
X-96.306 Y-9.822
X-96.348 Y-9.884
X-96.351 Y-9.99
X-96.307 Y-10.086
X-96.225 Y-10.153
X-96.122 Y-10.177
X-96.085 Y-10.169
X-96.054 Y-10.148
X-96.033 Y-10.117
X-96.025 Y-10.081
X-96.031 Y-10.044
X-96.099 Y-9.847
X-96.115 Y-9.818
X-96.14 Y-9.796
X-96.17 Y-9.783
X-96.202 Y-9.78
X-96.325 Y-9.795
X-96.362 Y-9.801
X-96.422 Y-9.846
X-96.461 Y-9.91
X-96.459 Y-10.008
X-96.416 Y-10.095
X-96.339 Y-10.155
X-96.244 Y-10.177
X-96.215 Y-10.171
X-96.189 Y-10.158
G3 X-96.325 Y-9.795 I-0.12 J0.162
G1 X-96.456 Y-9.809
X-96.493 Y-9.815
X-96.547 Y-9.868
X-96.566 Y-9.974
X-96.532 Y-10.076
X-96.454 Y-10.15
X-96.349 Y-10.177
X-96.322 Y-10.172
X-96.298 Y-10.159
X-96.278 Y-10.14
G3 X-96.456 Y-9.809 I-0.164 J0.125
G1 X-96.494 Y-9.813
X-96.541 Y-9.817
X-96.579 Y-9.82
X-96.593 Y-9.823
X-96.613 Y-9.832
X-96.634 Y-9.854
X-96.643 Y-9.884
X-96.637 Y-9.914
X-96.617 Y-9.938
X-96.588 Y-9.95
X-96.557 Y-9.947
X-96.531 Y-9.929
X-96.517 Y-9.902
Y-9.871
X-96.532 Y-9.843
X-96.558 Y-9.826
X-96.575 Y-9.822
X-96.593 Y-9.823
X-96.606 Y-9.828
X-96.621 Y-9.836
X-96.635 Y-9.846
X-96.649 Y-9.857
X-96.663 Y-9.875
X-96.674 Y-9.893
X-96.676 Y-9.919
X-96.667 Y-9.944
X-96.649 Y-9.963
X-96.619 Y-9.974
X-96.589 Y-9.97
X-96.563 Y-9.953
X-96.549 Y-9.925
Y-9.894
X-96.563 Y-9.866
X-96.589 Y-9.849
X-96.62 Y-9.846
X-96.649 Y-9.857
X-96.664 Y-9.874
X-96.674 Y-9.893
X-96.68 Y-9.913
X-96.682 Y-9.923
Y-9.997
Y-10.039
X-96.679 Y-10.077
X-96.674 Y-10.101
X-96.651 Y-10.131
X-96.619 Y-10.152
X-96.583 Y-10.164
X-96.546
X-96.505 Y-10.152
X-96.471 Y-10.126
X-96.448 Y-10.091
X-96.439 Y-10.049
X-96.444 Y-10.007
X-96.463 Y-9.97
X-96.495 Y-9.941
X-96.534 Y-9.925
X-96.576 Y-9.923
X-96.617 Y-9.936
X-96.65 Y-9.962
X-96.673 Y-9.998
X-96.682 Y-10.039
Y-10.071
X-96.68 Y-10.082
X-96.674 Y-10.101
X-96.664 Y-10.121
X-96.65 Y-10.136
X-96.623 Y-10.158
X-96.61 Y-10.166
X-96.594 Y-10.172
X-96.579 Y-10.176
X-96.494 Y-10.177
X-94.802
X-94.718 Y-10.178
X-94.675 Y-10.181
X-94.633 Y-10.186
X-94.549 Y-10.21
X-94.506 Y-10.227
X-94.46 Y-10.25
X-94.379 Y-10.308
X-94.35 Y-10.335
X-94.24 Y-10.437
X-94.103 Y-10.499
X-93.956 Y-10.527
X-93.806 Y-10.523
X-93.66 Y-10.491
X-93.52 Y-10.435
X-93.392 Y-10.358
X-93.277 Y-10.262
X-93.219 Y-10.195
X-93.179 Y-10.136
X-93.154 Y-10.069
X-93.146 Y-9.999
Y-9.237
X-93.153 Y-9.087
X-93.211 Y-8.949
X-93.298 Y-8.827
X-93.408 Y-8.725
X-93.534 Y-8.643
X-93.672 Y-8.584
X-93.817 Y-8.545
X-93.897 Y-8.536
X-94.006 Y-8.543
X-94.105 Y-8.589
X-94.181 Y-8.668
X-94.195 Y-8.705
X-94.193 Y-8.744
X-94.177 Y-8.78
X-94.148 Y-8.806
X-93.792 Y-9.021
X-93.297 Y-9.319
X-93.265 Y-9.331
X-93.231 Y-9.332
X-93.198 Y-9.321
X-93.171 Y-9.3
X-93.153 Y-9.271
X-93.146 Y-9.237
Y-8.899
X-93.153 Y-8.749
X-93.23 Y-8.62
X-93.335 Y-8.513
X-93.458 Y-8.427
X-93.592 Y-8.361
X-93.736 Y-8.319
X-93.771 Y-8.315
X-93.893 Y-8.327
X-94 Y-8.387
X-94.074 Y-8.484
X-94.082 Y-8.521
X-94.076 Y-8.558
X-94.057 Y-8.59
X-94.027 Y-8.613
X-93.813 Y-8.721
X-93.291 Y-8.985
X-93.252 Y-8.995
X-93.213 Y-8.99
X-93.179 Y-8.97
X-93.155 Y-8.938
X-93.146 Y-8.899
Y-8.646
X-93.153 Y-8.496
X-93.226 Y-8.365
X-93.331 Y-8.258
X-93.456 Y-8.175
X-93.595 Y-8.118
X-93.654 Y-8.107
X-93.79 Y-8.115
X-93.909 Y-8.182
X-93.986 Y-8.296
X-93.992 Y-8.331
X-93.984 Y-8.367
X-93.964 Y-8.397
X-93.935 Y-8.418
X-93.817 Y-8.476
X-93.289 Y-8.732
X-93.251 Y-8.742
X-93.212 Y-8.736
X-93.178 Y-8.716
X-93.155 Y-8.684
X-93.146 Y-8.646
Y-8.392
Y-8.346
Y-8.308
X-93.149 Y-8.233
X-93.227 Y-8.104
X-93.274 Y-8.06
X-93.335 Y-8.017
X-93.404 Y-7.99
X-93.478 Y-7.981
X-93.515 Y-7.99
X-93.547 Y-8.012
X-93.567 Y-8.045
X-93.574 Y-8.083
X-93.566 Y-8.121
X-93.544 Y-8.152
X-93.315 Y-8.376
X-93.283 Y-8.397
X-93.246 Y-8.404
X-93.208 Y-8.397
X-93.176 Y-8.376
X-93.154 Y-8.345
X-93.146 Y-8.308
Y-8.139
Y-8.097
Y-8.086
X-93.155 Y-8.059
X-93.169 Y-8.033
X-93.187 Y-8.011
X-93.221 Y-7.99
X-93.261 Y-7.982
X-93.301 Y-7.989
X-93.336 Y-8.01
X-93.361 Y-8.041
X-93.373 Y-8.08
X-93.371 Y-8.12
X-93.354 Y-8.157
X-93.325 Y-8.186
X-93.288 Y-8.202
X-93.248 Y-8.204
X-93.207 Y-8.191
X-93.174 Y-8.164
X-93.153 Y-8.128
X-93.146 Y-8.086
X-93.148 Y-8.075
X-93.151 Y-8.065
X-93.155 Y-8.054
X-93.162 Y-8.042
X-93.182 Y-8.016
X-93.195 Y-8.004
X-93.205 Y-7.996
X-93.216 Y-7.99
X-93.227 Y-7.986
X-93.237 Y-7.983
X-93.248 Y-7.981
X-93.28
X-93.787
X-93.808 Y-7.982
X-93.819 Y-7.985
X-93.829 Y-7.988
X-93.84 Y-7.993
X-93.851 Y-8
X-93.872 Y-8.019
X-93.888 Y-8.037
X-93.898 Y-8.054
X-93.959 Y-8.223
X-93.991 Y-8.308
X-94.093 Y-8.523
X-94.111 Y-8.561
X-94.222 Y-8.73
X-94.279 Y-8.815
X-94.344 Y-8.899
X-94.359 Y-8.926
X-94.364 Y-8.957
X-94.368 Y-9.555
X-94.373 Y-10.271
X-94.367 Y-10.305
X-94.35 Y-10.335
X-94.295 Y-10.398
X-94.279 Y-10.419
X-94.253 Y-10.462
X-94.232 Y-10.504
X-94.199 Y-10.571
X-94.087 Y-10.671
X-93.946 Y-10.723
X-93.797 Y-10.738
X-93.648 Y-10.724
X-93.503 Y-10.685
X-93.365 Y-10.625
X-93.289 Y-10.578
X-93.213 Y-10.511
X-93.163 Y-10.422
X-93.146 Y-10.322
Y-9.999
X-93.152 Y-9.966
X-93.17 Y-9.937
X-93.195 Y-9.916
X-93.227 Y-9.904
X-93.26 Y-9.903
X-93.292 Y-9.914
X-93.615 Y-10.083
X-94.184 Y-10.383
X-94.212 Y-10.404
X-94.231 Y-10.434
X-94.238 Y-10.469
X-94.232 Y-10.504
X-94.21 Y-10.561
X-94.203 Y-10.588
X-94.194 Y-10.631
X-94.187 Y-10.673
X-94.182 Y-10.71
X-94.098 Y-10.834
X-93.968 Y-10.91
X-93.823 Y-10.947
X-93.673 Y-10.954
X-93.524 Y-10.936
X-93.38 Y-10.895
X-93.32 Y-10.867
X-93.228 Y-10.801
X-93.167 Y-10.706
X-93.146 Y-10.595
Y-10.322
X-93.154 Y-10.285
X-93.176 Y-10.254
X-93.208 Y-10.233
X-93.246 Y-10.226
X-93.284 Y-10.233
X-93.509 Y-10.326
X-94.125 Y-10.58
X-94.158 Y-10.602
X-94.18 Y-10.634
X-94.187 Y-10.673
X-94.184 Y-10.757
Y-10.804
X-94.181 Y-10.879
X-94.111 Y-11.012
X-93.991 Y-11.101
X-93.851 Y-11.155
X-93.703 Y-11.18
X-93.553 Y-11.178
X-93.405 Y-11.153
X-93.343 Y-11.131
X-93.24 Y-11.067
X-93.17 Y-10.968
X-93.146 Y-10.849
Y-10.595
X-93.153 Y-10.561
X-93.172 Y-10.531
X-93.2 Y-10.509
X-93.234 Y-10.499
X-93.27 Y-10.502
X-93.472 Y-10.552
X-94.108 Y-10.71
X-94.138 Y-10.723
X-94.162 Y-10.744
X-94.178 Y-10.772
X-94.184 Y-10.804
Y-11.011
X-94.181 Y-11.086
X-94.107 Y-11.216
X-93.99 Y-11.31
X-93.853 Y-11.371
X-93.707 Y-11.404
X-93.557 Y-11.414
X-93.408 Y-11.395
X-93.353 Y-11.377
X-93.245 Y-11.315
X-93.172 Y-11.214
X-93.146 Y-11.092
Y-10.849
X-93.153 Y-10.815
X-93.171 Y-10.786
X-93.198 Y-10.765
X-93.23 Y-10.754
X-93.264
X-93.464 Y-10.793
X-94.103 Y-10.916
X-94.135 Y-10.928
X-94.16 Y-10.949
X-94.178 Y-10.978
X-94.184 Y-11.011
Y-11.18
X-94.181 Y-11.255
X-94.132 Y-11.396
X-94.026 Y-11.502
X-93.896 Y-11.577
X-93.754 Y-11.625
X-93.605 Y-11.646
X-93.455 Y-11.641
X-93.31 Y-11.606
X-93.305 Y-11.603
X-93.221 Y-11.537
X-93.165 Y-11.444
X-93.146 Y-11.338
Y-11.092
X-93.152 Y-11.06
X-93.168 Y-11.031
X-93.193 Y-11.01
X-93.223 Y-10.998
X-93.256 Y-10.996
X-93.456 Y-11.017
X-94.095 Y-11.084
X-94.129 Y-11.094
X-94.157 Y-11.115
X-94.177 Y-11.145
X-94.184 Y-11.18
Y-11.395
X-94.181 Y-11.47
X-94.131 Y-11.612
X-94.028 Y-11.721
X-93.901 Y-11.8
X-93.76 Y-11.851
X-93.612 Y-11.877
X-93.462 Y-11.879
X-93.382 Y-11.861
X-93.26 Y-11.804
X-93.176 Y-11.699
X-93.146 Y-11.568
Y-11.338
X-93.152 Y-11.307
X-93.168 Y-11.279
X-93.191 Y-11.258
X-93.221 Y-11.245
X-93.252 Y-11.242
X-93.454 Y-11.256
X-94.091 Y-11.299
X-94.126 Y-11.308
X-94.156 Y-11.329
X-94.176 Y-11.359
X-94.184 Y-11.395
Y-11.648
X-94.181 Y-11.723
X-94.117 Y-11.859
X-94.009 Y-11.964
X-93.879 Y-12.039
X-93.738 Y-12.088
X-93.59 Y-12.112
X-93.44 Y-12.106
X-93.376 Y-12.09
X-93.257 Y-12.032
X-93.175 Y-11.928
X-93.146 Y-11.799
Y-11.568
X-93.152 Y-11.536
X-93.168 Y-11.508
X-93.193 Y-11.487
X-93.223 Y-11.474
X-93.255 Y-11.472
X-93.455 Y-11.491
X-94.094 Y-11.552
X-94.128 Y-11.562
X-94.157 Y-11.583
X-94.177 Y-11.613
X-94.184 Y-11.648
Y-11.855
X-94.181 Y-11.93
X-94.127 Y-12.07
X-94.024 Y-12.179
X-93.897 Y-12.26
X-93.757 Y-12.313
X-93.61 Y-12.342
X-93.46 Y-12.34
X-93.313 Y-12.309
X-93.309 Y-12.307
X-93.222 Y-12.24
X-93.165 Y-12.147
X-93.146 Y-12.04
Y-11.799
X-93.152 Y-11.767
X-93.168 Y-11.74
X-93.191 Y-11.718
X-93.221 Y-11.705
X-93.252 Y-11.702
X-93.454 Y-11.716
X-94.091 Y-11.759
X-94.126 Y-11.768
X-94.156 Y-11.789
X-94.176 Y-11.82
X-94.184 Y-11.855
Y-12.071
X-94.177 Y-12.221
X-94.097 Y-12.348
X-93.983 Y-12.445
X-93.851 Y-12.516
X-93.708 Y-12.559
X-93.559 Y-12.577
X-93.409 Y-12.571
X-93.361 Y-12.557
X-93.249 Y-12.495
X-93.173 Y-12.393
X-93.146 Y-12.269
Y-12.04
X-93.155 Y-12.002
X-93.177 Y-11.97
X-93.211 Y-11.95
X-93.249 Y-11.944
X-93.453 Y-11.951
X-94.088 Y-11.974
X-94.124 Y-11.983
X-94.155 Y-12.004
X-94.176 Y-12.034
X-94.184 Y-12.071
Y-12.324
X-94.181 Y-12.399
X-94.125 Y-12.538
X-94.021 Y-12.647
X-93.894 Y-12.726
X-93.754 Y-12.78
X-93.607 Y-12.81
X-93.457
X-93.31 Y-12.778
X-93.222 Y-12.71
X-93.165 Y-12.617
X-93.146 Y-12.51
Y-12.269
X-93.155 Y-12.23
X-93.178 Y-12.198
X-93.213 Y-12.178
X-93.252 Y-12.173
X-93.454 Y-12.186
X-94.091 Y-12.228
X-94.126 Y-12.237
X-94.156 Y-12.258
X-94.176 Y-12.288
X-94.184 Y-12.324
Y-12.578
X-94.181 Y-12.652
X-94.114 Y-12.787
X-94.006 Y-12.891
X-93.878 Y-12.968
X-93.736 Y-13.018
X-93.588 Y-13.043
X-93.438
X-93.374 Y-13.028
X-93.256 Y-12.969
X-93.175 Y-12.865
X-93.146 Y-12.736
Y-12.51
X-93.152 Y-12.479
X-93.168 Y-12.451
X-93.192 Y-12.429
X-93.221 Y-12.417
X-93.254 Y-12.414
X-93.455 Y-12.43
X-94.092 Y-12.481
X-94.127 Y-12.491
X-94.157 Y-12.512
X-94.177 Y-12.542
X-94.184 Y-12.578
Y-12.784
X-94.181 Y-12.859
X-94.125 Y-12.999
X-94.023 Y-13.108
X-93.897 Y-13.189
X-93.757 Y-13.244
X-93.61 Y-13.276
X-93.46
X-93.313 Y-13.246
X-93.309 Y-13.244
X-93.223 Y-13.177
X-93.166 Y-13.084
X-93.146 Y-12.976
Y-12.736
X-93.155 Y-12.698
X-93.178 Y-12.666
X-93.212 Y-12.646
X-93.251 Y-12.64
X-93.454 Y-12.652
X-94.09 Y-12.688
X-94.126 Y-12.697
X-94.156 Y-12.718
X-94.176 Y-12.749
X-94.184 Y-12.784
Y-13
X-94.177 Y-13.15
X-94.097 Y-13.277
X-93.984 Y-13.375
X-93.852 Y-13.447
X-93.709 Y-13.492
X-93.561 Y-13.511
X-93.411 Y-13.506
X-93.362 Y-13.492
X-93.25 Y-13.431
X-93.173 Y-13.329
X-93.146 Y-13.204
Y-12.976
X-93.154 Y-12.938
X-93.177 Y-12.907
X-93.21 Y-12.886
X-93.248 Y-12.88
X-93.453 Y-12.886
X-94.087 Y-12.903
X-94.124 Y-12.911
X-94.155 Y-12.932
X-94.176 Y-12.963
X-94.184 Y-13
Y-13.253
X-94.181 Y-13.328
X-94.125 Y-13.468
X-94.023 Y-13.577
X-93.896 Y-13.658
X-93.757 Y-13.712
X-93.61 Y-13.743
X-93.46 Y-13.744
X-93.313 Y-13.714
X-93.309 Y-13.712
X-93.223 Y-13.645
X-93.166 Y-13.552
X-93.146 Y-13.444
Y-13.204
X-93.155 Y-13.166
X-93.178 Y-13.134
X-93.212 Y-13.113
X-93.251 Y-13.108
X-93.454 Y-13.12
X-94.09 Y-13.157
X-94.126 Y-13.166
X-94.156 Y-13.187
X-94.176 Y-13.217
X-94.184 Y-13.253
Y-13.507
X-94.181 Y-13.582
X-94.115 Y-13.717
X-94.009 Y-13.822
X-93.881 Y-13.9
X-93.74 Y-13.951
X-93.592 Y-13.977
X-93.442 Y-13.978
X-93.376 Y-13.962
X-93.257 Y-13.904
X-93.175 Y-13.8
X-93.146 Y-13.67
Y-13.444
X-93.152 Y-13.413
X-93.168 Y-13.385
X-93.192 Y-13.364
X-93.221 Y-13.351
X-93.253 Y-13.348
X-93.454 Y-13.363
X-94.092 Y-13.41
X-94.127 Y-13.42
X-94.156 Y-13.441
X-94.176 Y-13.471
X-94.184 Y-13.507
Y-13.714
X-94.181 Y-13.788
X-94.127 Y-13.929
X-94.026 Y-14.039
X-93.9 Y-14.121
X-93.761 Y-14.177
X-93.614 Y-14.209
X-93.464 Y-14.21
X-93.317 Y-14.181
X-93.311 Y-14.178
X-93.224 Y-14.111
X-93.166 Y-14.018
X-93.146 Y-13.91
Y-13.67
X-93.155 Y-13.632
X-93.178 Y-13.6
X-93.212 Y-13.58
X-93.251 Y-13.574
X-93.453 Y-13.585
X-94.089 Y-13.617
X-94.125 Y-13.626
X-94.156 Y-13.647
X-94.176 Y-13.678
X-94.184 Y-13.714
Y-13.967
X-94.181 Y-14.042
X-94.118 Y-14.178
X-94.012 Y-14.285
X-93.885 Y-14.364
X-93.744 Y-14.415
X-93.596 Y-14.442
X-93.446 Y-14.444
X-93.378 Y-14.428
X-93.258 Y-14.37
X-93.175 Y-14.266
X-93.146 Y-14.136
Y-13.91
X-93.152 Y-13.878
X-93.168 Y-13.851
X-93.191 Y-13.829
X-93.221 Y-13.816
X-93.252 Y-13.813
X-93.454 Y-13.827
X-94.091 Y-13.871
X-94.127 Y-13.88
X-94.156 Y-13.901
X-94.176 Y-13.931
X-94.184 Y-13.967
Y-14.182
X-94.181 Y-14.257
X-94.126 Y-14.397
X-94.024 Y-14.507
X-93.897 Y-14.588
X-93.758 Y-14.643
X-93.611 Y-14.675
X-93.461
X-93.314 Y-14.645
X-93.31 Y-14.643
X-93.223 Y-14.577
X-93.166 Y-14.483
X-93.146 Y-14.375
Y-14.136
X-93.155 Y-14.097
X-93.178 Y-14.066
X-93.212 Y-14.045
X-93.251 Y-14.04
X-93.454 Y-14.051
X-94.09 Y-14.086
X-94.126 Y-14.095
X-94.156 Y-14.116
X-94.176 Y-14.146
X-94.184 Y-14.182
Y-14.436
X-94.181 Y-14.511
X-94.116 Y-14.646
X-94.01 Y-14.752
X-93.882 Y-14.83
X-93.741 Y-14.882
X-93.593 Y-14.907
X-93.443 Y-14.909
X-93.377 Y-14.893
X-93.257 Y-14.835
X-93.175 Y-14.731
X-93.146 Y-14.601
Y-14.375
X-93.152 Y-14.344
X-93.168 Y-14.316
X-93.191 Y-14.295
X-93.221 Y-14.282
X-93.253 Y-14.279
X-93.454 Y-14.294
X-94.092 Y-14.34
X-94.127 Y-14.349
X-94.156 Y-14.37
X-94.176 Y-14.4
X-94.184 Y-14.436
Y-14.643
X-94.181 Y-14.718
X-94.128 Y-14.858
X-94.027 Y-14.969
X-93.902 Y-15.051
X-93.763 Y-15.107
X-93.616 Y-15.14
X-93.466 Y-15.141
X-93.319 Y-15.112
X-93.312 Y-15.109
X-93.224 Y-15.043
X-93.166 Y-14.949
X-93.146 Y-14.84
Y-14.601
X-93.155 Y-14.563
X-93.178 Y-14.531
X-93.212 Y-14.511
X-93.25 Y-14.505
X-93.453 Y-14.515
X-94.089 Y-14.546
X-94.125 Y-14.555
X-94.156 Y-14.576
X-94.176 Y-14.607
X-94.184 Y-14.643
Y-14.896
X-94.181 Y-14.971
