%
(n-021-025)
(T1  D=1 CR=0 - ZMIN=-2 - flat end mill)
G90 G94
G17
G21
G28 G91 Z0
G90

(Clear 16)
M9
T1 M6
S5000 M3
G54
M8
G0 X-119.849 Y-16.731
Z12
Z2
Z0.5
G3 X-119.365 Y-16.855 Z0.29 I0.242 J-0.062 F333.3
X-119.849 Y-16.731 Z0.079 I-0.242 J0.062
X-119.365 Y-16.855 Z-0.131 I0.242 J-0.062
X-119.849 Y-16.731 Z-0.342 I-0.242 J0.062
X-119.365 Y-16.855 Z-0.552 I0.242 J-0.062
X-119.849 Y-16.731 Z-0.763 I-0.242 J0.062
X-119.638 Y-17.041 Z-0.876 I0.242 J-0.062
X-119.357 Y-16.793 Z-0.99 I0.031 J0.248
X-119.857 I-0.25
X-119.357 I0.25
G1 X-119.32 Y-16.648 F1000
X-119.333 Y-16.574
X-119.37 Y-16.509
X-119.477 Y-16.403
X-119.621 Y-16.364
X-119.77 Y-16.385
X-119.9 Y-16.459
X-119.997 Y-16.574
X-120.049 Y-16.714
X-120.051 Y-16.864
X-120.004 Y-17.007
X-119.912 Y-17.125
X-119.786 Y-17.207
X-119.64 Y-17.243
X-119.491 Y-17.229
X-119.354 Y-17.166
X-119.246 Y-17.063
X-119.168 Y-16.935
X-119.118 Y-16.794
X-119.107 Y-16.644
X-119.142 Y-16.498
X-119.213 Y-16.366
X-119.321 Y-16.262
X-119.452 Y-16.189
X-119.598 Y-16.156
X-119.748 Y-16.163
X-119.892 Y-16.204
X-120.022 Y-16.28
X-120.128 Y-16.385
X-120.21 Y-16.511
X-120.26 Y-16.652
X-120.275 Y-16.802
X-120.258 Y-16.951
X-120.208 Y-17.092
X-120.125 Y-17.217
X-120.019 Y-17.323
X-119.891 Y-17.402
X-119.748 Y-17.448
X-119.599 Y-17.464
X-119.45 Y-17.446
X-119.31 Y-17.394
X-119.183 Y-17.314
X-119.074 Y-17.21
X-118.987 Y-17.088
X-118.924 Y-16.952
X-118.886 Y-16.807
X-118.881 Y-16.722
X-118.885 Y-16.653
X-118.905 Y-16.587
X-118.94 Y-16.527
X-118.959 Y-16.501
X-118.977 Y-16.469
X-118.98 Y-16.459
X-119.023 Y-16.315
X-119.101 Y-16.187
X-119.206 Y-16.08
X-119.333 Y-16
X-119.475 Y-15.951
X-119.623 Y-15.929
X-119.773 Y-15.933
X-119.919 Y-15.967
X-119.932 Y-15.973
X-119.983 Y-16.002
X-120.028 Y-16.04
X-120.064 Y-16.087
X-120.139 Y-16.205
X-120.15 Y-16.226
X-120.192 Y-16.332
X-120.255 Y-16.501
X-120.352 Y-16.776
X-120.373 Y-16.839
X-120.412 Y-16.983
X-120.397 Y-17.133
X-120.342 Y-17.272
X-120.259 Y-17.397
X-120.245 Y-17.411
X-120.183 Y-17.46
X-120.11 Y-17.491
X-120.031 Y-17.501
X-119.993 Y-17.492
X-119.962 Y-17.469
X-119.941 Y-17.436
X-119.935 Y-17.397
X-119.944 Y-17.359
X-119.957 Y-17.331
X-120.188 Y-16.831
X-120.211 Y-16.8
X-120.244 Y-16.78
X-120.283 Y-16.773
X-120.321 Y-16.783
X-120.352 Y-16.806
X-120.373 Y-16.839
X-120.436 Y-17.033
X-120.45 Y-17.092
X-120.468 Y-17.177
X-120.477 Y-17.223
X-120.484 Y-17.261
X-120.492 Y-17.335
X-120.437 Y-17.422
X-120.352 Y-17.48
X-120.251 Y-17.501
G3 X-120.064 Y-17.281 I-0.007 J0.195
X-120.484 Y-17.261 I-0.212 J-0.027
G1 X-120.498 Y-17.346
X-120.502 Y-17.388
Y-17.398
X-120.5 Y-17.409
X-120.497 Y-17.42
X-120.493 Y-17.43
X-120.485 Y-17.445
X-120.472 Y-17.46
X-120.454 Y-17.478
X-120.436 Y-17.49
X-120.426 Y-17.495
X-120.415 Y-17.498
X-120.405 Y-17.5
X-120.394 Y-17.501
X-119.29
X-119.14 Y-17.494
X-119.007 Y-17.426
X-118.891 Y-17.329
X-118.797 Y-17.213
X-118.723 Y-17.083
X-118.696 Y-17.008
X-118.68 Y-16.881
X-118.719 Y-16.759
X-118.804 Y-16.664
X-118.84 Y-16.649
X-118.88
X-118.916 Y-16.665
X-118.943 Y-16.693
X-119.056 Y-16.866
X-119.37 Y-17.346
X-119.384 Y-17.379
X-119.386 Y-17.414
X-119.375 Y-17.447
X-119.354 Y-17.475
X-119.324 Y-17.494
X-119.29 Y-17.501
X-118.998
X-118.848 Y-17.494
X-118.718 Y-17.419
X-118.61 Y-17.315
X-118.53 Y-17.188
X-118.478 Y-17.048
X-118.477 Y-17.037
X-118.494 Y-16.909
X-118.564 Y-16.801
X-118.672 Y-16.731
X-118.707 Y-16.727
X-118.742 Y-16.734
X-118.771 Y-16.753
X-118.793 Y-16.781
X-118.819 Y-16.834
X-119.084 Y-17.356
X-119.094 Y-17.388
X-119.093 Y-17.421
X-119.081 Y-17.452
X-119.059 Y-17.477
X-119.031 Y-17.494
X-118.998 Y-17.501
X-118.744
X-118.595 Y-17.494
X-118.464 Y-17.419
X-118.363 Y-17.309
X-118.296 Y-17.174
X-118.269 Y-17.027
X-118.271 Y-17.016
X-118.319 Y-16.889
X-118.418 Y-16.797
X-118.547 Y-16.757
X-118.579 Y-16.761
X-118.607 Y-16.775
X-118.63 Y-16.796
X-118.645 Y-16.824
X-118.835 Y-17.368
X-118.841 Y-17.405
X-118.833 Y-17.441
X-118.812 Y-17.472
X-118.781 Y-17.493
X-118.744 Y-17.501
X-118.491
X-118.416 Y-17.497
X-118.274 Y-17.448
X-118.166 Y-17.343
X-118.094 Y-17.212
X-118.069 Y-17.064
X-118.073 Y-17.029
X-118.123 Y-16.894
X-118.231 Y-16.797
X-118.371 Y-16.763
X-118.491 Y-16.761
X-118.528 Y-16.769
X-118.56 Y-16.791
X-118.582 Y-16.823
X-118.589 Y-16.861
X-118.587 Y-17.401
X-118.58 Y-17.439
X-118.559 Y-17.471
X-118.528 Y-17.492
X-118.491 Y-17.501
X-118.275
X-118.2 Y-17.497
X-118.058 Y-17.448
X-117.953 Y-17.341
X-117.887 Y-17.207
X-117.869 Y-17.058
X-117.875 Y-17.019
X-117.927 Y-16.888
X-118.034 Y-16.796
X-118.171 Y-16.763
X-118.371
X-118.404 Y-16.77
X-118.433 Y-16.787
X-118.455 Y-16.814
X-118.466 Y-16.846
Y-16.88
X-118.37 Y-17.419
X-118.358 Y-17.45
X-118.337 Y-17.477
X-118.308 Y-17.494
X-118.275 Y-17.501
X-118.021
X-117.946 Y-17.497
X-117.815 Y-17.424
X-117.725 Y-17.304
X-117.674 Y-17.163
X-117.669 Y-17.013
X-117.675 Y-16.988
X-117.735 Y-16.871
X-117.838 Y-16.791
X-117.966 Y-16.763
X-118.171
X-118.206 Y-16.77
X-118.237 Y-16.79
X-118.258 Y-16.819
X-118.267 Y-16.854
X-118.264 Y-16.889
X-118.114 Y-17.428
X-118.101 Y-17.457
X-118.079 Y-17.48
X-118.052 Y-17.495
X-118.021 Y-17.501
X-117.852
X-117.777 Y-17.497
X-117.636 Y-17.446
X-117.535 Y-17.335
X-117.476 Y-17.197
X-117.46 Y-17.048
X-117.467 Y-17.011
X-117.521 Y-16.884
X-117.627 Y-16.795
X-117.762 Y-16.763
X-117.966
X-118 Y-16.77
X-118.029 Y-16.788
X-118.051 Y-16.816
X-118.062 Y-16.849
X-118.06 Y-16.883
X-117.946 Y-17.422
X-117.934 Y-17.453
X-117.913 Y-17.478
X-117.884 Y-17.494
X-117.852 Y-17.501
X-117.645
X-117.57 Y-17.497
X-117.43 Y-17.443
X-117.33 Y-17.331
X-117.27 Y-17.194
X-117.258 Y-17.044
X-117.264 Y-17.009
X-117.319 Y-16.883
X-117.425 Y-16.794
X-117.559 Y-16.763
X-117.762
X-117.796 Y-16.77
X-117.826 Y-16.788
X-117.847 Y-16.816
X-117.858 Y-16.849
X-117.856 Y-16.884
X-117.739 Y-17.422
X-117.727 Y-17.453
X-117.705 Y-17.478
X-117.677 Y-17.495
X-117.645 Y-17.501
X-117.429
X-117.354 Y-17.497
X-117.217 Y-17.435
X-117.121 Y-17.32
X-117.065 Y-17.181
X-117.056 Y-17.031
X-117.062 Y-17.002
X-117.119 Y-16.879
X-117.224 Y-16.793
X-117.356 Y-16.763
X-117.559
X-117.594 Y-16.77
X-117.624 Y-16.789
X-117.645 Y-16.817
X-117.655 Y-16.851
X-117.653 Y-16.886
X-117.523 Y-17.425
X-117.51 Y-17.454
X-117.489 Y-17.479
X-117.461 Y-17.495
X-117.429 Y-17.501
X-117.222
X-117.147 Y-17.497
X-117.011 Y-17.433
X-116.916 Y-17.317
X-116.86 Y-17.178
X-116.852 Y-17.028
X-116.858 Y-17
X-116.915 Y-16.878
X-117.02 Y-16.793
X-117.152 Y-16.763
X-117.356
X-117.39 Y-16.77
X-117.42 Y-16.789
X-117.442 Y-16.817
X-117.452 Y-16.851
X-117.449 Y-16.887
X-117.315 Y-17.425
X-117.302 Y-17.455
X-117.281 Y-17.479
X-117.253 Y-17.495
X-117.222 Y-17.501
X-117.006
X-116.931 Y-17.497
X-116.799 Y-17.426
X-116.707 Y-17.308
X-116.654 Y-17.167
X-116.649 Y-17.017
X-116.655 Y-16.993
X-116.714 Y-16.874
X-116.818 Y-16.792
X-116.947 Y-16.763
X-117.152
X-117.187 Y-16.77
X-117.217 Y-16.79
X-117.238 Y-16.819
X-117.248 Y-16.853
X-117.245 Y-16.889
X-117.099 Y-17.427
X-117.086 Y-17.456
X-117.065 Y-17.479
X-117.037 Y-17.495
X-117.006 Y-17.501
X-116.837
X-116.762 Y-17.497
X-116.62 Y-17.449
X-116.518 Y-17.339
X-116.457 Y-17.202
X-116.441 Y-17.053
X-116.447 Y-17.014
X-116.501 Y-16.885
X-116.608 Y-16.795
X-116.743 Y-16.763
X-116.947
X-116.981 Y-16.77
X-117.01 Y-16.788
X-117.031 Y-16.815
X-117.042 Y-16.848
X-117.041 Y-16.883
X-116.931 Y-17.421
X-116.919 Y-17.452
X-116.898 Y-17.477
X-116.869 Y-17.494
X-116.837 Y-17.501
X-116.629
X-116.554 Y-17.497
X-116.413 Y-17.447
X-116.313 Y-17.335
X-116.252 Y-17.198
X-116.238 Y-17.049
X-116.245 Y-17.012
X-116.299 Y-16.884
X-116.405 Y-16.795
X-116.54 Y-16.763
X-116.743
X-116.777 Y-16.77
X-116.807 Y-16.788
X-116.828 Y-16.816
X-116.839 Y-16.849
X-116.838 Y-16.883
X-116.724 Y-17.422
X-116.712 Y-17.453
X-116.69 Y-17.478
X-116.662 Y-17.494
X-116.629 Y-17.501
X-116.414
X-116.339 Y-17.497
X-116.201 Y-17.438
X-116.104 Y-17.324
X-116.046 Y-17.185
X-116.037 Y-17.035
X-116.043 Y-17.004
X-116.099 Y-16.88
X-116.204 Y-16.794
X-116.337 Y-16.763
X-116.54
X-116.575 Y-16.77
X-116.605 Y-16.789
X-116.626 Y-16.817
X-116.636 Y-16.85
X-116.634 Y-16.886
X-116.507 Y-17.424
X-116.495 Y-17.454
X-116.474 Y-17.478
X-116.445 Y-17.495
X-116.414 Y-17.501
X-116.206
X-116.131 Y-17.497
X-115.995 Y-17.435
X-115.898 Y-17.32
X-115.842 Y-17.181
X-115.833 Y-17.032
X-115.839 Y-17.002
X-115.896 Y-16.879
X-116.001 Y-16.793
X-116.133 Y-16.763
X-116.337
X-116.372 Y-16.77
X-116.401 Y-16.789
X-116.423 Y-16.817
X-116.433 Y-16.851
X-116.431 Y-16.886
X-116.3 Y-17.425
X-116.287 Y-17.454
X-116.266 Y-17.479
X-116.238 Y-17.495
X-116.206 Y-17.501
X-115.991
X-115.916 Y-17.497
X-115.783 Y-17.428
X-115.69 Y-17.31
X-115.636 Y-17.17
X-115.63 Y-17.02
X-115.636 Y-16.995
X-115.695 Y-16.875
X-115.799 Y-16.792
X-115.929 Y-16.763
X-116.133
X-116.168 Y-16.77
X-116.198 Y-16.79
X-116.219 Y-16.818
X-116.229 Y-16.853
X-116.226 Y-16.888
X-116.084 Y-17.427
X-116.071 Y-17.456
X-116.05 Y-17.479
X-116.022 Y-17.495
X-115.991 Y-17.501
X-115.783
X-115.708 Y-17.497
X-115.576 Y-17.426
X-115.484 Y-17.308
X-115.431 Y-17.168
X-115.426 Y-17.018
X-115.432 Y-16.994
X-115.49 Y-16.874
X-115.594 Y-16.792
X-115.724 Y-16.763
X-115.929
X-115.964 Y-16.77
X-115.994 Y-16.79
X-116.015 Y-16.819
X-116.025 Y-16.853
X-116.022 Y-16.889
X-115.876 Y-17.427
X-115.863 Y-17.456
X-115.842 Y-17.479
X-115.814 Y-17.495
X-115.783 Y-17.501
X-115.614
X-115.539 Y-17.497
X-115.397 Y-17.449
X-115.295 Y-17.34
X-115.234 Y-17.202
X-115.218 Y-17.053
X-115.224 Y-17.014
X-115.278 Y-16.885
X-115.384 Y-16.795
X-115.52 Y-16.763
X-115.724
X-115.758 Y-16.77
X-115.787 Y-16.788
X-115.808 Y-16.815
X-115.819 Y-16.848
X-115.818 Y-16.883
X-115.709 Y-17.421
X-115.697 Y-17.452
X-115.675 Y-17.477
X-115.647 Y-17.494
X-115.614 Y-17.501
X-115.398
X-115.324 Y-17.497
X-115.184 Y-17.441
X-115.086 Y-17.328
X-115.027 Y-17.19
X-115.016 Y-17.04
X-115.023 Y-17.007
X-115.078 Y-16.881
X-115.184 Y-16.794
X-115.317 Y-16.763
X-115.52
X-115.554 Y-16.77
X-115.584 Y-16.789
X-115.605 Y-16.816
X-115.616 Y-16.85
X-115.614 Y-16.885
X-115.492 Y-17.423
X-115.48 Y-17.453
X-115.459 Y-17.478
X-115.43 Y-17.495
X-115.398 Y-17.501
X-115.191
X-115.116 Y-17.497
X-114.978 Y-17.438
X-114.881 Y-17.324
X-114.823 Y-17.186
X-114.813 Y-17.036
X-114.819 Y-17.004
X-114.876 Y-16.88
X-114.981 Y-16.794
X-115.114 Y-16.763
X-115.317
X-115.352 Y-16.77
X-115.381 Y-16.789
X-115.403 Y-16.817
X-115.413 Y-16.85
X-115.411 Y-16.885
X-115.285 Y-17.424
X-115.273 Y-17.454
X-115.251 Y-17.478
X-115.223 Y-17.495
X-115.191 Y-17.501
X-114.975
X-114.901 Y-17.497
X-114.766 Y-17.431
X-114.672 Y-17.314
X-114.618 Y-17.174
X-114.611 Y-17.024
X-114.617 Y-16.997
X-114.674 Y-16.876
X-114.779 Y-16.793
X-114.91 Y-16.763
X-115.114
X-115.148 Y-16.77
X-115.178 Y-16.789
X-115.2 Y-16.818
X-115.21 Y-16.852
X-115.207 Y-16.887
X-115.069 Y-17.426
X-115.056 Y-17.455
X-115.035 Y-17.479
X-115.007 Y-17.495
X-114.975 Y-17.501
X-114.768
X-114.693 Y-17.497
X-114.56 Y-17.428
X-114.466 Y-17.311
X-114.413 Y-17.171
X-114.407 Y-17.021
X-114.412 Y-16.996
X-114.47 Y-16.876
X-114.575 Y-16.792
X-114.705 Y-16.763
X-114.91
X-114.944 Y-16.77
X-114.974 Y-16.79
X-114.996 Y-16.818
X-115.005 Y-16.852
X-115.003 Y-16.888
X-114.861 Y-17.426
X-114.848 Y-17.456
X-114.827 Y-17.479
X-114.799 Y-17.495
X-114.768 Y-17.501
X-114.552
X-114.514
X-114.504 Y-17.5
X-114.485 Y-17.494
X-114.458 Y-17.477
X-114.443 Y-17.449
X-114.441 Y-17.417
X-114.454 Y-17.388
X-114.478 Y-17.368
X-114.509 Y-17.36
X-114.54 Y-17.367
X-114.565 Y-17.388
X-114.578 Y-17.417
X-114.576 Y-17.449
Y-17.45
X-114.56 Y-17.477
X-114.535 Y-17.495
X-114.504 Y-17.5
X-114.493 Y-17.497
X-114.483 Y-17.494
X-114.472 Y-17.489
X-114.461 Y-17.482
X-114.451 Y-17.474
X-114.43 Y-17.454
X-114.421 Y-17.442
X-114.414 Y-17.43
X-114.41 Y-17.42
X-114.407 Y-17.409
X-114.405 Y-17.398
Y-16.881
X-114.406 Y-16.86
X-114.414 Y-16.834
X-114.419 Y-16.824
X-114.443 Y-16.806
X-114.473 Y-16.801
X-114.501 Y-16.811
X-114.521 Y-16.834
X-114.527 Y-16.863
X-114.519 Y-16.892
X-114.498 Y-16.913
X-114.469 Y-16.922
X-114.44 Y-16.916
X-114.422 Y-16.902
X-114.41 Y-16.882
X-114.406 Y-16.86
X-114.408 Y-16.849
X-114.412 Y-16.839
X-114.419 Y-16.824
X-114.43 Y-16.81
X-114.451 Y-16.79
X-114.461 Y-16.782
X-114.472 Y-16.775
X-114.483 Y-16.77
X-114.493 Y-16.766
X-114.504 Y-16.764
X-114.514 Y-16.763
X-114.705
X-114.731 Y-16.766
X-114.755 Y-16.776
X-114.791 Y-16.789
X-115.479 Y-16.883
X-118.789 Y-17.34
X-118.823 Y-17.339
X-118.855 Y-17.326
X-118.88 Y-17.304
X-118.897 Y-17.274
X-118.902 Y-17.24
G3 X-118.98 Y-16.459 I-3.646 J0.033
G1 X-119.037 Y-16.226
Y-16.216
X-119.035 Y-16.205
X-119.023 Y-16.131
X-119.07 Y-15.989
X-119.168 Y-15.875
X-119.292 Y-15.79
X-119.43 Y-15.732
X-119.577 Y-15.7
X-119.637 Y-15.697
X-119.741 Y-15.71
X-119.834 Y-15.758
X-119.904 Y-15.836
X-120.064 Y-16.087
X-120.076 Y-16.118
Y-16.152
X-120.066 Y-16.185
X-120.045 Y-16.211
X-120.016 Y-16.23
X-119.983 Y-16.237
X-119.784 Y-16.247
X-119.137 Y-16.281
X-119.103 Y-16.277
X-119.073 Y-16.262
X-119.049 Y-16.237
X-119.035 Y-16.205
X-118.998 Y-16.029
X-118.986 Y-15.955
X-119.016 Y-15.808
X-119.103 Y-15.687
X-119.22 Y-15.592
X-119.352 Y-15.522
X-119.435 Y-15.499
X-119.553 Y-15.49
X-119.665 Y-15.528
X-119.754 Y-15.606
X-119.76 Y-15.613
X-119.904 Y-15.836
X-119.917 Y-15.872
X-119.915 Y-15.91
X-119.899 Y-15.945
X-119.871 Y-15.971
X-119.835 Y-15.985
X-119.739 Y-16.001
X-119.112 Y-16.104
X-119.074 Y-16.103
X-119.04 Y-16.089
X-119.014 Y-16.063
X-118.998 Y-16.029
X-118.986 Y-15.973
X-118.975 Y-15.952
X-118.95 Y-15.91
X-118.912 Y-15.845
X-118.907 Y-15.695
X-118.97 Y-15.559
X-119.067 Y-15.445
X-119.188 Y-15.356
X-119.25 Y-15.33
X-119.376 Y-15.305
X-119.502 Y-15.336
X-119.602 Y-15.416
X-119.728 Y-15.572
X-119.754 Y-15.606
X-119.77 Y-15.641
X-119.771 Y-15.678
X-119.759 Y-15.714
X-119.734 Y-15.743
X-119.701 Y-15.76
X-119.695 Y-15.762
X-119.059 Y-15.948
X-119.029 Y-15.952
X-118.999 Y-15.946
X-118.971 Y-15.932
X-118.95 Y-15.91
X-118.862 Y-15.779
X-118.823 Y-15.715
X-118.795 Y-15.567
X-118.838 Y-15.424
X-118.921 Y-15.299
X-119.033 Y-15.199
X-119.088 Y-15.169
X-119.22 Y-15.134
X-119.353 Y-15.16
X-119.461 Y-15.243
X-119.602 Y-15.416
X-119.618 Y-15.449
X-119.622 Y-15.485
X-119.613 Y-15.52
X-119.591 Y-15.549
X-119.561 Y-15.569
X-118.982 Y-15.812
X-118.949 Y-15.819
X-118.916 Y-15.816
X-118.886 Y-15.802
X-118.862 Y-15.779
X-118.829 Y-15.73
X-118.744 Y-15.624
X-118.7 Y-15.564
X-118.673 Y-15.416
X-118.71 Y-15.271
X-118.786 Y-15.141
X-118.894 Y-15.038
X-118.94 Y-15.011
X-119.059 Y-14.972
X-119.182 Y-14.985
X-119.29 Y-15.047
X-119.311 Y-15.065
X-119.337 Y-15.091
X-119.461 Y-15.243
X-119.478 Y-15.275
X-119.482 Y-15.311
X-119.473 Y-15.345
X-119.453 Y-15.375
X-119.423 Y-15.395
X-118.861 Y-15.65
X-118.83 Y-15.658
X-118.798 Y-15.656
X-118.769 Y-15.644
X-118.744 Y-15.624
X-118.633 Y-15.487
X-118.586 Y-15.429
X-118.543 Y-15.286
X-118.567 Y-15.138
X-118.634 Y-15.004
X-118.736 Y-14.894
X-118.763 Y-14.876
X-118.883 Y-14.83
X-119.012 Y-14.839
X-119.125 Y-14.901
X-119.29 Y-15.047
X-119.312 Y-15.077
X-119.321 Y-15.112
X-119.317 Y-15.149
X-119.299 Y-15.182
X-119.271 Y-15.206
X-118.755 Y-15.504
X-118.724 Y-15.515
X-118.691 Y-15.516
X-118.66 Y-15.507
X-118.633 Y-15.487
X-118.575 Y-15.424
X-118.519 Y-15.369
X-118.468 Y-15.314
X-118.403 Y-15.179
X-118.412 Y-15.029
X-118.467 Y-14.89
X-118.559 Y-14.772
X-118.587 Y-14.751
X-118.708 Y-14.697
X-118.84 Y-14.699
X-118.958 Y-14.759
X-119.022 Y-14.812
X-119.125 Y-14.901
X-119.146 Y-14.93
X-119.156 Y-14.964
X-119.153 Y-14.999
X-119.138 Y-15.032
X-119.113 Y-15.057
X-118.642 Y-15.378
X-118.612 Y-15.392
X-118.579 Y-15.395
X-118.547 Y-15.387
X-118.519 Y-15.369
X-118.38 Y-15.234
X-118.348 Y-15.205
X-118.295 Y-15.152
X-118.254 Y-15.007
X-118.274 Y-14.858
X-118.335 Y-14.721
X-118.434 Y-14.609
X-118.446 Y-14.602
X-118.562 Y-14.56
X-118.686 Y-14.568
X-118.795 Y-14.625
X-118.958 Y-14.759
X-118.981 Y-14.788
X-118.991 Y-14.824
X-118.988 Y-14.861
X-118.972 Y-14.894
X-118.944 Y-14.919
X-118.465 Y-15.214
X-118.436 Y-15.226
X-118.405 Y-15.228
X-118.374 Y-15.221
X-118.348 Y-15.205
X-118.321 Y-15.181
X-118.237 Y-15.114
X-118.18 Y-15.065
X-118.108 Y-14.933
X-118.104 Y-14.783
X-118.15 Y-14.641
X-118.233 Y-14.516
X-118.257 Y-14.495
X-118.38 Y-14.435
X-118.516
X-118.638 Y-14.496
X-118.795 Y-14.625
X-118.817 Y-14.653
X-118.828 Y-14.686
X-118.827 Y-14.721
X-118.814 Y-14.753
X-118.79 Y-14.779
X-118.357 Y-15.113
X-118.329 Y-15.128
X-118.297 Y-15.133
X-118.265 Y-15.129
X-118.237 Y-15.114
X-118.068 Y-14.981
X-118.011 Y-14.931
X-117.949 Y-14.795
X-117.95 Y-14.645
X-117.994 Y-14.502
X-118.083 Y-14.381
X-118.103 Y-14.365
X-118.221 Y-14.308
X-118.352 Y-14.307
X-118.471 Y-14.361
X-118.575 Y-14.444
X-118.638 Y-14.496
X-118.66 Y-14.524
X-118.671 Y-14.557
X-118.67 Y-14.593
X-118.656 Y-14.625
X-118.631 Y-14.651
X-118.186 Y-14.98
X-118.158 Y-14.995
X-118.127 Y-15
X-118.096 Y-14.995
X-118.068 Y-14.981
X-117.925 Y-14.872
X-117.867 Y-14.823
X-117.792 Y-14.694
X-117.782 Y-14.544
X-117.821 Y-14.399
X-117.903 Y-14.273
X-117.927 Y-14.252
X-118.046 Y-14.187
X-118.182 Y-14.182
X-118.306 Y-14.237
X-118.471 Y-14.361
X-118.494 Y-14.388
X-118.506 Y-14.421
Y-14.456
X-118.494 Y-14.489
X-118.471 Y-14.516
X-118.046 Y-14.867
X-118.018 Y-14.883
X-117.986 Y-14.89
X-117.954 Y-14.886
X-117.925 Y-14.872
X-117.814 Y-14.787
X-117.769 Y-14.754
X-117.711 Y-14.707
X-117.63 Y-14.58
X-117.618 Y-14.431
X-117.653 Y-14.285
X-117.733 Y-14.158
X-117.758 Y-14.135
X-117.876 Y-14.068
X-118.011 Y-14.059
X-118.136 Y-14.111
X-118.237 Y-14.184
X-118.306 Y-14.237
X-118.329 Y-14.263
X-118.342 Y-14.296
Y-14.33
X-118.331 Y-14.363
X-118.308 Y-14.39
X-117.891 Y-14.748
X-117.863 Y-14.765
X-117.831 Y-14.772
X-117.799 Y-14.768
X-117.769 Y-14.754
X-117.585 Y-14.62
X-117.527 Y-14.573
X-117.462 Y-14.438
X-117.459 Y-14.288
X-117.5 Y-14.144
X-117.585 Y-14.02
X-117.602 Y-14.006
X-117.718 Y-13.946
X-117.849 Y-13.941
X-117.969 Y-13.992
X-118.136 Y-14.111
X-118.16 Y-14.138
X-118.174 Y-14.172
Y-14.208
X-118.161 Y-14.242
X-118.138 Y-14.269
X-117.704 Y-14.615
X-117.676 Y-14.631
X-117.645 Y-14.637
X-117.614 Y-14.633
X-117.585 Y-14.62
X-117.45 Y-14.522
X-117.391 Y-14.476
X-117.305 Y-14.353
X-117.287 Y-14.204
X-117.319 Y-14.058
X-117.394 Y-13.928
X-117.42 Y-13.902
X-117.539 Y-13.831
X-117.678 Y-13.821
X-117.806 Y-13.875
X-117.969 Y-13.992
X-117.993 Y-14.017
X-118.006 Y-14.05
X-118.007 Y-14.084
X-117.997 Y-14.117
X-117.976 Y-14.145
X-117.572 Y-14.513
X-117.545 Y-14.531
X-117.513 Y-14.539
X-117.48 Y-14.536
X-117.45 Y-14.522
X-117.282 Y-14.403
X-117.223 Y-14.357
X-117.139 Y-14.233
X-117.123 Y-14.084
X-117.154 Y-13.937
X-117.231 Y-13.808
X-117.257 Y-13.782
X-117.377 Y-13.711
X-117.516 Y-13.702
X-117.645 Y-13.757
X-117.806 Y-13.875
X-117.829 Y-13.901
X-117.842 Y-13.933
X-117.844 Y-13.968
X-117.833 Y-14.001
X-117.811 Y-14.028
X-117.404 Y-14.394
X-117.377 Y-14.412
X-117.345 Y-14.42
X-117.312 Y-14.417
X-117.282 Y-14.403
X-117.111 Y-14.282
X-117.052 Y-14.235
X-116.973 Y-14.108
X-116.958 Y-13.959
X-116.992 Y-13.813
X-117.07 Y-13.685
X-117.097 Y-13.659
X-117.217 Y-13.589
X-117.356 Y-13.581
X-117.484 Y-13.637
X-117.645 Y-13.757
X-117.668 Y-13.783
X-117.68 Y-13.815
X-117.681 Y-13.85
X-117.67 Y-13.883
X-117.648 Y-13.91
X-117.232 Y-14.274
X-117.205 Y-14.291
X-117.173 Y-14.298
X-117.141 Y-14.295
X-117.111 Y-14.282
X-116.934 Y-14.156
X-116.875 Y-14.109
X-116.804 Y-13.977
X-116.795 Y-13.827
X-116.832 Y-13.682
X-116.913 Y-13.556
X-116.939 Y-13.532
X-117.061 Y-13.465
X-117.199 Y-13.459
X-117.325 Y-13.517
X-117.391 Y-13.567
X-117.484 Y-13.637
X-117.507 Y-13.663
X-117.519 Y-13.696
X-117.52 Y-13.731
X-117.508 Y-13.764
X-117.485 Y-13.791
X-117.053 Y-14.149
X-117.025 Y-14.165
X-116.994 Y-14.172
X-116.963 Y-14.169
X-116.934 Y-14.156
X-116.787 Y-14.051
X-116.728 Y-14.005
X-116.643 Y-13.882
X-116.624 Y-13.733
X-116.655 Y-13.586
X-116.729 Y-13.456
X-116.767 Y-13.417
X-116.89 Y-13.341
X-117.035 Y-13.332
X-117.167 Y-13.392
X-117.325 Y-13.517
X-117.347 Y-13.543
X-117.36 Y-13.575
Y-13.609
X-117.349 Y-13.641
X-117.328 Y-13.668
X-116.909 Y-14.043
X-116.881 Y-14.06
X-116.85 Y-14.068
X-116.817 Y-14.065
X-116.787 Y-14.051
X-116.605 Y-13.922
X-116.547 Y-13.876
X-116.473 Y-13.745
X-116.462 Y-13.595
X-116.497 Y-13.45
X-116.575 Y-13.322
X-116.612 Y-13.285
X-116.738 Y-13.212
X-116.882 Y-13.206
X-117.013 Y-13.268
X-117.052 Y-13.301
X-117.167 Y-13.392
X-117.189 Y-13.418
X-117.201 Y-13.451
Y-13.486
X-117.189 Y-13.518
X-117.166 Y-13.545
X-116.725 Y-13.915
X-116.697 Y-13.932
X-116.666 Y-13.939
X-116.634 Y-13.935
X-116.605 Y-13.922
X-116.431 Y-13.798
X-116.373 Y-13.751
X-116.305 Y-13.618
X-116.297 Y-13.468
X-116.334 Y-13.322
X-116.413 Y-13.195
X-116.454 Y-13.155
X-116.579 Y-13.081
X-116.724 Y-13.075
X-116.855 Y-13.138
X-117.013 Y-13.268
X-117.035 Y-13.295
X-117.046 Y-13.328
X-117.045 Y-13.363
X-117.033 Y-13.395
X-117.01 Y-13.421
X-116.549 Y-13.792
X-116.522 Y-13.808
X-116.491 Y-13.815
X-116.46 Y-13.811
X-116.431 Y-13.798
X-116.376 Y-13.758
X-116.265 Y-13.675
X-116.208 Y-13.627
X-116.14 Y-13.494
X-116.132 Y-13.344
X-116.169 Y-13.198
X-116.247 Y-13.07
X-116.353 Y-12.964
X-116.36 Y-12.96
X-116.475 Y-12.928
X-116.593 Y-12.943
X-116.696 Y-13.003
X-116.735 Y-13.038
X-116.855 Y-13.138
X-116.876 Y-13.164
X-116.887 Y-13.197
Y-13.232
X-116.874 Y-13.264
X-116.852 Y-13.29
X-116.386 Y-13.671
X-116.358 Y-13.687
X-116.326 Y-13.693
X-116.294 Y-13.689
X-116.265 Y-13.675
X-116.122 Y-13.567
X-116.064 Y-13.519
X-115.979 Y-13.395
X-115.962 Y-13.246
X-115.992 Y-13.099
X-116.057 Y-12.964
X-116.154 Y-12.85
X-116.173 Y-12.837
X-116.295 Y-12.791
X-116.425 Y-12.8
X-116.538 Y-12.863
X-116.696 Y-13.003
X-116.715 Y-13.029
X-116.726 Y-13.06
X-116.725 Y-13.092
X-116.715 Y-13.123
X-116.694 Y-13.149
X-116.247 Y-13.559
X-116.218 Y-13.577
X-116.186 Y-13.585
X-116.152 Y-13.582
X-116.122 Y-13.567
X-115.929 Y-13.418
X-115.872 Y-13.37
X-115.807 Y-13.234
X-115.801 Y-13.085
X-115.837 Y-12.939
X-115.905 Y-12.806
X-116.01 Y-12.698
X-116.027 Y-12.687
X-116.148 Y-12.646
X-116.275 Y-12.66
X-116.386 Y-12.725
X-116.46 Y-12.794
X-116.538 Y-12.863
X-116.558 Y-12.89
X-116.568 Y-12.922
X-116.567 Y-12.955
X-116.555 Y-12.987
X-116.533 Y-13.012
X-116.051 Y-13.414
X-116.023 Y-13.431
X-115.991 Y-13.437
X-115.958 Y-13.433
X-115.929 Y-13.418
X-115.783 Y-13.305
X-115.728 Y-13.255
X-115.647 Y-13.128
X-115.632 Y-12.979
X-115.658 Y-12.831
X-115.721 Y-12.695
X-115.817 Y-12.58
X-115.855 Y-12.553
X-115.987 Y-12.501
X-116.129 Y-12.515
X-116.248 Y-12.592
X-116.27 Y-12.616
X-116.386 Y-12.725
X-116.404 Y-12.751
X-116.414 Y-12.782
X-116.413 Y-12.814
X-116.402 Y-12.844
X-116.382 Y-12.87
X-115.91 Y-13.298
X-115.881 Y-13.316
X-115.848 Y-13.324
X-115.814 Y-13.32
X-115.783 Y-13.305
X-115.663 Y-13.207
X-115.592 Y-13.14
X-115.541 Y-13.085
X-115.476 Y-12.95
X-115.471 Y-12.8
X-115.51 Y-12.655
X-115.581 Y-12.523
X-115.685 Y-12.415
X-115.735 Y-12.384
X-115.873 Y-12.338
X-116.016 Y-12.363
X-116.131 Y-12.452
X-116.206 Y-12.548
X-116.248 Y-12.592
X-116.265 Y-12.62
X-116.272 Y-12.651
X-116.269 Y-12.683
X-116.256 Y-12.713
X-116.235 Y-12.737
X-116.226 Y-12.743
X-115.721 Y-13.144
X-115.69 Y-13.161
X-115.656 Y-13.166
X-115.622 Y-13.159
X-115.592 Y-13.14
X-115.53 Y-13.08
X-115.423 Y-12.972
X-115.373 Y-12.915
X-115.317 Y-12.776
X-115.32 Y-12.626
X-115.364 Y-12.483
X-115.441 Y-12.354
X-115.549 Y-12.25
X-115.676 Y-12.171
X-115.683 Y-12.17
X-115.797 Y-12.163
X-115.906 Y-12.201
X-115.993 Y-12.276
X-116.131 Y-12.452
X-116.147 Y-12.488
X-116.149 Y-12.528
X-116.135 Y-12.565
X-116.107 Y-12.593
X-116.082 Y-12.611
X-115.549 Y-12.981
X-115.518 Y-12.996
X-115.484 Y-12.999
X-115.451 Y-12.99
X-115.423 Y-12.972
X-115.276 Y-12.82
X-115.226 Y-12.763
X-115.166 Y-12.626
X-115.168 Y-12.476
X-115.211 Y-12.333
X-115.287 Y-12.203
X-115.387 Y-12.091
X-115.512 Y-12.008
X-115.54 Y-11.998
X-115.674 Y-11.984
X-115.801 Y-12.031
X-115.895 Y-12.128
X-115.953 Y-12.224
X-115.993 Y-12.276
X-116.009 Y-12.311
X-116.011 Y-12.35
X-115.997 Y-12.387
X-115.971 Y-12.415
X-115.926 Y-12.448
X-115.404 Y-12.829
X-115.373 Y-12.844
X-115.338 Y-12.848
X-115.305 Y-12.839
X-115.276 Y-12.82
X-115.107 Y-12.641
X-115.058 Y-12.584
X-115.012 Y-12.441
X-115.022 Y-12.291
X-115.071 Y-12.15
X-115.15 Y-12.022
X-115.251 Y-11.911
X-115.378 Y-11.831
X-115.426 Y-11.814
X-115.562 Y-11.798
X-115.69 Y-11.845
X-115.784 Y-11.943
X-115.895 Y-12.128
X-115.906 Y-12.164
X-115.904 Y-12.202
X-115.888 Y-12.236
X-115.86 Y-12.261
X-115.783 Y-12.31
X-115.23 Y-12.655
X-115.199 Y-12.668
X-115.166 Y-12.669
X-115.134 Y-12.66
X-115.107 Y-12.641
X-115.022 Y-12.548
X-115.011 Y-12.531
X-114.937 Y-12.412
X-114.903 Y-12.345
X-114.875 Y-12.198
X-114.901 Y-12.05
X-114.962 Y-11.913
X-115.053 Y-11.794
X-115.165 Y-11.695
X-115.26 Y-11.645
X-115.377 Y-11.61
X-115.499 Y-11.621
X-115.608 Y-11.678
X-115.687 Y-11.771
X-115.784 Y-11.943
X-115.796 Y-11.98
X-115.793 Y-12.019
X-115.774 Y-12.054
X-115.744 Y-12.079
X-115.629 Y-12.142
X-115.069 Y-12.445
X-115.033 Y-12.456
X-114.997 Y-12.454
X-114.963 Y-12.438
X-114.937 Y-12.412
X-114.908 Y-12.362
X-114.853 Y-12.262
X-114.816 Y-12.193
X-114.752 Y-12.058
X-114.761 Y-11.908
X-114.814 Y-11.767
X-114.895 Y-11.641
X-115.002 Y-11.536
X-115.128 Y-11.455
X-115.27 Y-11.407
X-115.32 Y-11.403
X-115.455 Y-11.422
X-115.567 Y-11.498
X-115.634 Y-11.616
X-115.655 Y-11.686
X-115.687 Y-11.771
X-115.693 Y-11.806
X-115.685 Y-11.841
X-115.666 Y-11.872
X-115.637 Y-11.893
X-115.516 Y-11.952
X-114.946 Y-12.233
X-114.91 Y-12.243
X-114.873 Y-12.239
X-114.84 Y-12.221
X-114.816 Y-12.193
X-114.702 Y-11.981
X-114.638 Y-11.846
X-114.65 Y-11.696
X-114.706 Y-11.557
X-114.792 Y-11.434
X-114.901 Y-11.331
X-115.028 Y-11.25
X-115.169 Y-11.2
X-115.318 Y-11.181
X-115.328 Y-11.182
X-115.438 Y-11.222
X-115.524 Y-11.301
X-115.574 Y-11.407
X-115.58 Y-11.433
X-115.634 Y-11.616
X-115.637 Y-11.652
X-115.626 Y-11.687
X-115.604 Y-11.716
X-115.573 Y-11.735
X-115.425 Y-11.792
X-114.825 Y-12.024
X-114.79 Y-12.031
X-114.756 Y-12.025
X-114.725 Y-12.008
X-114.702 Y-11.981
X-114.68 Y-11.94
X-114.638 Y-11.855
X-114.581 Y-11.728
X-114.568 Y-11.686
X-114.543 Y-11.539
X-114.585 Y-11.394
X-114.662 Y-11.266
X-114.764 Y-11.155
X-114.885 Y-11.067
X-115.021 Y-11.003
X-115.165 Y-10.963
X-115.228 Y-10.962
X-115.361 Y-10.991
X-115.467 Y-11.075
X-115.525 Y-11.196
X-115.56 Y-11.349
X-115.574 Y-11.407
X-115.575 Y-11.439
X-115.567 Y-11.47
X-115.548 Y-11.497
X-115.523 Y-11.516
X-115.492 Y-11.526
X-115.287 Y-11.56
X-114.661 Y-11.664
X-114.623 Y-11.663
X-114.589 Y-11.649
X-114.562 Y-11.622
X-114.547 Y-11.588
X-114.518 Y-11.433
X-114.509 Y-11.377
X-114.501 Y-11.303
X-114.532 Y-11.156
X-114.609 Y-11.027
X-114.714 Y-10.92
X-114.838 Y-10.835
X-114.974 Y-10.773
X-115.121 Y-10.742
X-115.271
X-115.276 Y-10.743
X-115.379 Y-10.795
X-115.454 Y-10.882
X-115.491 Y-10.991
X-115.506 Y-11.095
X-115.522 Y-11.18
X-115.525 Y-11.196
Y-11.236
X-115.509 Y-11.272
X-115.481 Y-11.299
X-115.444 Y-11.313
X-115.245 Y-11.348
X-114.624 Y-11.457
X-114.586 Y-11.456
X-114.55 Y-11.44
X-114.523 Y-11.413
X-114.509 Y-11.377
X-114.478 Y-11.18
X-114.472 Y-11.133
X-114.459 Y-10.984
X-114.521 Y-10.847
X-114.617 Y-10.732
X-114.734 Y-10.638
X-114.867 Y-10.568
X-115.01 Y-10.524
X-115.159 Y-10.506
X-115.206 Y-10.513
X-115.33 Y-10.558
X-115.422 Y-10.653
X-115.464 Y-10.778
X-115.471 Y-10.842
X-115.491 Y-10.991
X-115.488 Y-11.029
X-115.471 Y-11.063
X-115.442 Y-11.088
X-115.406 Y-11.1
X-115.209 Y-11.128
X-114.584 Y-11.215
X-114.546 Y-11.213
X-114.511 Y-11.197
X-114.485 Y-11.169
X-114.472 Y-11.133
X-114.444 Y-10.926
X-114.439 Y-10.88
X-114.435 Y-10.842
X-114.431 Y-10.8
X-114.437 Y-10.725
X-114.501 Y-10.589
X-114.601 Y-10.477
X-114.723 Y-10.39
X-114.859 Y-10.327
X-115.004 Y-10.287
X-115.154 Y-10.282
X-115.219 Y-10.294
X-115.35 Y-10.353
X-115.439 Y-10.465
X-115.465 Y-10.607
X-115.462 Y-10.673
Y-10.757
X-115.464 Y-10.778
X-115.461 Y-10.811
X-115.447 Y-10.842
X-115.424 Y-10.866
X-115.393 Y-10.881
X-115.36 Y-10.885
X-115.155 Y-10.875
X-114.529 Y-10.846
X-114.491 Y-10.836
X-114.459 Y-10.812
X-114.439 Y-10.779
X-114.434 Y-10.74
X-114.453 Y-10.542
X-114.475 Y-10.394
X-114.563 Y-10.272
X-114.679 Y-10.177
X-114.812 Y-10.107
X-114.956 Y-10.064
X-115.105 Y-10.051
X-115.254 Y-10.07
X-115.298 Y-10.088
X-115.402 Y-10.159
X-115.468 Y-10.267
X-115.484 Y-10.393
X-115.467 Y-10.588
X-115.465 Y-10.607
X-115.455 Y-10.643
X-115.431 Y-10.673
X-115.398 Y-10.692
X-115.36 Y-10.697
X-115.174 Y-10.686
X-114.547 Y-10.648
X-114.509 Y-10.638
X-114.478 Y-10.614
X-114.459 Y-10.581
X-114.453 Y-10.542
X-114.474 Y-10.335
X-114.486 Y-10.25
X-114.522 Y-10.105
X-114.62 Y-9.992
X-114.744 Y-9.907
X-114.884 Y-9.852
X-115.031 Y-9.825
X-115.181
X-115.327 Y-9.861
X-115.358 Y-9.877
X-115.457 Y-9.959
X-115.513 Y-10.076
X-115.514 Y-10.204
X-115.505 Y-10.25
X-115.489 Y-10.335
X-115.484 Y-10.393
X-115.471 Y-10.43
X-115.445 Y-10.46
X-115.41 Y-10.477
X-115.37 Y-10.479
X-115.196 Y-10.453
X-114.57 Y-10.36
X-114.535 Y-10.348
X-114.506 Y-10.322
X-114.489 Y-10.288
X-114.486 Y-10.25
X-114.536 Y-9.997
X-114.58 Y-9.854
X-114.678 Y-9.74
X-114.806 Y-9.661
X-114.948 Y-9.613
X-115.097 Y-9.595
X-115.246 Y-9.603
X-115.356 Y-9.637
X-115.456 Y-9.69
X-115.53 Y-9.776
X-115.566 Y-9.884
X-115.56 Y-9.997
X-115.54 Y-10.082
X-115.514 Y-10.204
X-115.498 Y-10.239
X-115.47 Y-10.265
X-115.434 Y-10.279
X-115.396 Y-10.278
X-115.233 Y-10.243
X-114.614 Y-10.111
X-114.579 Y-10.096
X-114.552 Y-10.07
X-114.537 Y-10.035
X-114.536 Y-9.997
X-114.6 Y-9.744
X-114.612 Y-9.697
X-114.621 Y-9.659
X-114.632 Y-9.634
X-114.638 Y-9.623
X-114.662 Y-9.595
X-114.695 Y-9.578
X-114.731 Y-9.574
X-114.766 Y-9.583
X-114.796 Y-9.604
X-114.816 Y-9.634
X-114.824 Y-9.67
X-114.819 Y-9.706
X-114.801 Y-9.738
X-114.796 Y-9.744
X-114.767 Y-9.768
X-114.731 Y-9.78
X-114.693 Y-9.777
X-114.659 Y-9.76
X-114.634 Y-9.733
X-114.62 Y-9.697
X-114.621 Y-9.659
X-114.625 Y-9.649
X-114.63 Y-9.638
X-114.641 Y-9.617
X-114.722 Y-9.49
X-114.854 Y-9.42
X-114.999 Y-9.379
X-115.148 Y-9.366
X-115.297 Y-9.381
X-115.441 Y-9.424
X-115.497 Y-9.457
X-115.6 Y-9.559
X-115.643 Y-9.697
X-115.617 Y-9.839
X-115.584 Y-9.913
X-115.56 Y-9.997
X-115.545 Y-10.027
X-115.521 Y-10.05
X-115.49 Y-10.064
X-115.457 Y-10.067
X-115.425 Y-10.058
X-115.268 Y-9.989
X-114.7 Y-9.737
X-114.672 Y-9.719
X-114.652 Y-9.693
X-114.642 Y-9.662
X-114.641 Y-9.63
X-114.652 Y-9.599
X-114.761 Y-9.406
X-114.845 Y-9.282
X-114.971 Y-9.201
X-115.116 Y-9.16
X-115.266 Y-9.153
X-115.414 Y-9.176
X-115.553 Y-9.233
X-115.607 Y-9.271
X-115.703 Y-9.379
X-115.737 Y-9.519
X-115.702 Y-9.659
X-115.661 Y-9.744
X-115.617 Y-9.839
X-115.593 Y-9.87
X-115.559 Y-9.889
X-115.52 Y-9.894
X-115.483 Y-9.884
X-115.364 Y-9.824
X-114.805 Y-9.541
X-114.774 Y-9.517
X-114.754 Y-9.483
X-114.75 Y-9.444
X-114.761 Y-9.406
X-114.915 Y-9.152
X-114.937 Y-9.116
X-114.987 Y-9.06
X-115.116 Y-8.983
X-115.262 Y-8.95
X-115.412 Y-8.955
X-115.558 Y-8.99
X-115.691 Y-9.06
X-115.736 Y-9.097
X-115.82 Y-9.213
X-115.841 Y-9.356
X-115.794 Y-9.491
X-115.783 Y-9.507
X-115.702 Y-9.659
X-115.68 Y-9.685
X-115.65 Y-9.703
X-115.617 Y-9.709
X-115.583 Y-9.703
X-115.552 Y-9.687
X-115.471 Y-9.62
X-114.981 Y-9.22
X-114.956 Y-9.191
X-114.945 Y-9.155
X-114.947 Y-9.117
X-114.964 Y-9.083
X-115.107 Y-8.905
X-115.156 Y-8.849
X-115.289 Y-8.779
X-115.437 Y-8.757
X-115.586 Y-8.775
X-115.728 Y-8.825
X-115.853 Y-8.908
X-115.883 Y-8.942
X-115.949 Y-9.055
X-115.959 Y-9.186
X-115.913 Y-9.309
X-115.794 Y-9.491
X-115.77 Y-9.515
X-115.74 Y-9.529
X-115.707 Y-9.533
X-115.674 Y-9.526
X-115.645 Y-9.508
X-115.595 Y-9.463
X-115.12 Y-9.039
X-115.098 Y-9.01
X-115.087 Y-8.975
X-115.09 Y-8.938
X-115.107 Y-8.905
X-115.191 Y-8.8
X-115.249 Y-8.73
X-115.263 Y-8.717
X-115.301 Y-8.69
X-115.429 Y-8.611
X-115.577 Y-8.586
X-115.726 Y-8.604
X-115.866 Y-8.656
X-115.988 Y-8.743
X-116.024 Y-8.785
X-116.081 Y-8.883
X-116.097 Y-8.996
X-116.07 Y-9.106
X-116.004 Y-9.199
X-115.977 Y-9.216
X-115.946 Y-9.223
X-115.915 Y-9.221
X-115.885 Y-9.209
X-115.812 Y-9.164
X-115.309 Y-8.855
X-115.28 Y-8.829
X-115.264 Y-8.794
X-115.262 Y-8.755
X-115.275 Y-8.718
X-115.301 Y-8.69
X-115.53 Y-8.532
X-115.659 Y-8.457
X-115.809 Y-8.441
X-115.955 Y-8.476
X-116.085 Y-8.549
X-116.194 Y-8.653
X-116.214 Y-8.689
X-116.253 Y-8.821
X-116.23 Y-8.955
X-116.149 Y-9.066
X-116.122 Y-9.09
X-116.037 Y-9.167
X-116.004 Y-9.199
X-115.975 Y-9.216
X-115.942 Y-9.224
X-115.908 Y-9.219
X-115.878 Y-9.204
X-115.855 Y-9.18
X-115.507 Y-8.668
X-115.492 Y-8.633
X-115.491 Y-8.595
X-115.504 Y-8.56
X-115.53 Y-8.532
X-115.746 Y-8.392
X-115.876 Y-8.318
X-116.026 Y-8.317
X-116.168 Y-8.366
X-116.292 Y-8.451
X-116.386 Y-8.568
X-116.396 Y-8.594
X-116.418 Y-8.727
X-116.379 Y-8.856
X-116.287 Y-8.955
X-116.246 Y-8.984
X-116.149 Y-9.066
X-116.119 Y-9.083
X-116.085 Y-9.088
X-116.051 Y-9.081
X-116.021 Y-9.063
X-115.999 Y-9.036
X-115.716 Y-8.523
X-115.704 Y-8.488
X-115.706 Y-8.452
X-115.721 Y-8.418
X-115.746 Y-8.392
X-115.783 Y-8.368
X-115.868 Y-8.321
X-116.011 Y-8.251
X-116.08 Y-8.222
X-116.23 Y-8.218
X-116.369 Y-8.272
X-116.488 Y-8.364
X-116.571 Y-8.488
X-116.578 Y-8.509
X-116.588 Y-8.638
X-116.544 Y-8.76
X-116.452 Y-8.851
X-116.287 Y-8.955
X-116.254 Y-8.969
X-116.218
X-116.184 Y-8.957
X-116.156 Y-8.934
X-116.139 Y-8.902
X-115.963 Y-8.371
X-115.958 Y-8.336
X-115.965 Y-8.302
X-115.983 Y-8.273
X-116.011 Y-8.251
X-116.206 Y-8.156
X-116.266 Y-8.13
X-116.415 Y-8.122
X-116.555 Y-8.176
X-116.672 Y-8.27
X-116.751 Y-8.398
X-116.756 Y-8.415
X-116.762 Y-8.547
X-116.711 Y-8.669
X-116.613 Y-8.757
X-116.511 Y-8.815
X-116.452 Y-8.851
X-116.418 Y-8.863
X-116.381
X-116.348 Y-8.849
X-116.321 Y-8.824
X-116.305 Y-8.792
X-116.157 Y-8.271
X-116.154 Y-8.238
X-116.161 Y-8.205
X-116.18 Y-8.176
X-116.206 Y-8.156
X-116.291 Y-8.114
X-116.302 Y-8.11
X-116.46 Y-8.076
X-116.608 Y-8.052
X-116.749 Y-8.104
X-116.863 Y-8.201
X-116.936 Y-8.332
X-116.943 Y-8.364
X-116.944 Y-8.477
X-116.903 Y-8.582
X-116.827 Y-8.664
X-116.726 Y-8.713
X-116.692 Y-8.715
X-116.66 Y-8.706
X-116.633 Y-8.687
X-116.614 Y-8.66
X-116.395 Y-8.217
X-116.385 Y-8.183
X-116.388 Y-8.148
X-116.403 Y-8.115
X-116.428 Y-8.09
X-116.46 Y-8.076
X-116.714 Y-8.022
X-116.788 Y-8.013
X-116.934 Y-8.048
X-117.05 Y-8.144
X-117.121 Y-8.276
X-117.129 Y-8.325
X-117.118 Y-8.472
X-117.037 Y-8.596
X-116.907 Y-8.666
X-116.758 Y-8.705
X-116.726 Y-8.713
X-116.689 Y-8.715
X-116.654 Y-8.703
X-116.625 Y-8.678
X-116.608 Y-8.646
X-116.604 Y-8.609
X-116.638 Y-8.112
X-116.645 Y-8.082
X-116.661 Y-8.055
X-116.685 Y-8.034
X-116.714 Y-8.022
X-116.93 Y-7.985
X-116.994 Y-7.977
X-117.139 Y-8.017
X-117.249 Y-8.118
X-117.311 Y-8.255
X-117.317 Y-8.296
X-117.309 Y-8.414
X-117.256 Y-8.52
X-117.167 Y-8.598
X-117.054 Y-8.634
X-116.989 Y-8.646
X-116.907 Y-8.666
X-116.869 Y-8.667
X-116.834 Y-8.654
X-116.806 Y-8.628
X-116.789 Y-8.594
X-116.787 Y-8.556
X-116.851 Y-8.07
X-116.86 Y-8.041
X-116.877 Y-8.015
X-116.901 Y-7.996
X-116.93 Y-7.985
X-116.968 Y-7.979
X-117.056 Y-7.97
X-117.137 Y-7.964
X-117.212 Y-7.962
X-117.353 Y-8.011
X-117.455 Y-8.122
X-117.508 Y-8.262
X-117.509 Y-8.309
X-117.476 Y-8.452
X-117.379 Y-8.562
X-117.242 Y-8.613
X-117.054 Y-8.634
X-117.017 Y-8.63
X-116.984 Y-8.613
X-116.959 Y-8.585
X-116.947 Y-8.55
X-116.948 Y-8.513
X-117.05 Y-8.042
X-117.062 Y-8.013
X-117.081 Y-7.989
X-117.107 Y-7.972
X-117.137 Y-7.964
X-117.353 Y-7.947
X-117.428 Y-7.945
X-117.563 Y-8.009
X-117.658 Y-8.125
X-117.699 Y-8.269
X-117.698 Y-8.304
X-117.674 Y-8.417
X-117.609 Y-8.512
X-117.512 Y-8.576
X-117.399 Y-8.599
X-117.391
X-117.306 Y-8.606
X-117.242 Y-8.613
X-117.204 Y-8.608
X-117.171 Y-8.59
X-117.147 Y-8.561
X-117.135 Y-8.524
X-117.138 Y-8.486
X-117.268 Y-8.02
X-117.285 Y-7.984
X-117.315 Y-7.959
X-117.353 Y-7.947
X-117.518 Y-7.934
X-117.539 Y-7.933
X-117.56 Y-7.934
X-117.634 Y-7.945
X-117.768 Y-8.012
X-117.856 Y-8.134
X-117.881 Y-8.234
X-117.882 Y-8.376
X-117.817 Y-8.502
X-117.701 Y-8.584
X-117.56 Y-8.603
X-117.475 Y-8.598
X-117.399 Y-8.599
X-117.363 Y-8.59
X-117.332 Y-8.57
X-117.311 Y-8.539
X-117.302 Y-8.503
X-117.308 Y-8.466
X-117.466 Y-8.001
X-117.481 Y-7.974
X-117.502 Y-7.953
X-117.53 Y-7.939
X-117.56 Y-7.934
X-117.776 Y-7.957
X-117.85 Y-7.969
X-117.979 Y-8.045
X-118.054 Y-8.175
X-118.081 Y-8.323
X-118.075 Y-8.367
X-118.038 Y-8.475
X-117.963 Y-8.561
X-117.86 Y-8.613
X-117.746 Y-8.623
X-117.56 Y-8.603
X-117.525 Y-8.592
X-117.497 Y-8.568
X-117.479 Y-8.536
X-117.474 Y-8.5
X-117.482 Y-8.464
X-117.677 Y-8.017
X-117.693 Y-7.991
X-117.717 Y-7.971
X-117.745 Y-7.959
X-117.776 Y-7.957
X-117.898 Y-7.971
X-117.983 Y-7.982
X-118.057 Y-7.996
X-118.18 Y-8.081
X-118.253 Y-8.212
X-118.272 Y-8.361
X-118.261 Y-8.414
X-118.216 Y-8.521
X-118.134 Y-8.602
X-118.027 Y-8.647
X-117.911 Y-8.648
X-117.878 Y-8.634
X-117.852 Y-8.609
X-117.837 Y-8.577
X-117.833 Y-8.541
X-117.874 Y-8.073
X-117.885 Y-8.035
X-117.91 Y-8.005
X-117.944 Y-7.986
X-117.983 Y-7.982
X-118.152 Y-8.004
X-118.226 Y-8.019
X-118.293 Y-8.053
X-118.4 Y-8.158
X-118.453 Y-8.298
X-118.455 Y-8.448
X-118.442 Y-8.487
X-118.361 Y-8.611
X-118.232 Y-8.681
X-118.084 Y-8.682
X-118.054 Y-8.667
X-118.03 Y-8.643
X-118.016 Y-8.613
X-118.012 Y-8.579
X-118.043 Y-8.098
X-118.05 Y-8.066
X-118.066 Y-8.039
X-118.091 Y-8.018
X-118.12 Y-8.006
X-118.152 Y-8.004
X-118.368 Y-8.036
X-118.406 Y-8.041
X-118.478 Y-8.062
X-118.587 Y-8.165
X-118.646 Y-8.303
X-118.653 Y-8.453
X-118.615 Y-8.598
X-118.604 Y-8.615
X-118.511 Y-8.704
X-118.389 Y-8.746
X-118.261 Y-8.733
X-118.23 Y-8.716
X-118.208 Y-8.688
X-118.196 Y-8.655
X-118.197 Y-8.62
X-118.297 Y-8.121
X-118.311 Y-8.087
X-118.336 Y-8.06
X-118.369 Y-8.044
X-118.406 Y-8.041
X-118.462 Y-8.054
X-118.622 Y-8.104
X-118.692 Y-8.13
X-118.793 Y-8.241
X-118.84 Y-8.383
X-118.845 Y-8.533
X-118.799 Y-8.676
X-118.789 Y-8.69
X-118.684 Y-8.783
X-118.549 Y-8.819
X-118.412 Y-8.789
X-118.385 Y-8.769
X-118.367 Y-8.741
X-118.359 Y-8.708
X-118.362 Y-8.675
X-118.499 Y-8.174
X-118.516 Y-8.139
X-118.546 Y-8.114
X-118.583 Y-8.101
X-118.622 Y-8.104
X-118.791 Y-8.157
X-118.861 Y-8.183
X-118.974 Y-8.281
X-119.033 Y-8.42
X-119.042 Y-8.569
X-119.005 Y-8.715
X-118.929 Y-8.844
X-118.92 Y-8.851
X-118.806 Y-8.912
X-118.676 Y-8.92
X-118.556 Y-8.872
X-118.535 Y-8.851
X-118.521 Y-8.824
X-118.515 Y-8.794
X-118.519 Y-8.764
X-118.668 Y-8.227
X-118.686 Y-8.192
X-118.715 Y-8.166
X-118.752 Y-8.154
X-118.791 Y-8.157
X-118.998 Y-8.221
X-119.004 Y-8.223
X-119.024 Y-8.233
X-119.14 Y-8.327
X-119.214 Y-8.458
X-119.235 Y-8.606
X-119.212 Y-8.754
X-119.153 Y-8.892
X-119.055 Y-9.006
X-119.051 Y-9.009
X-118.936 Y-9.05
X-118.813 Y-9.041
X-118.704 Y-8.983
X-118.68 Y-8.952
X-118.671 Y-8.913
X-118.677 Y-8.874
X-118.891 Y-8.29
X-118.906 Y-8.262
X-118.93 Y-8.24
X-118.96 Y-8.228
X-118.992 Y-8.225
X-119.024 Y-8.233
X-119.043 Y-8.247
X-119.252 Y-8.412
X-119.308 Y-8.462
X-119.387 Y-8.59
X-119.406 Y-8.738
X-119.381 Y-8.886
X-119.321 Y-9.024
X-119.221 Y-9.136
X-119.21 Y-9.143
X-119.089 Y-9.187
X-118.961 Y-9.176
X-118.85 Y-9.113
X-118.831 Y-9.088
X-118.82 Y-9.058
Y-9.026
X-118.829 Y-8.996
X-118.83 Y-8.995
X-119.103 Y-8.448
X-119.124 Y-8.42
X-119.153 Y-8.401
X-119.186 Y-8.393
X-119.221 Y-8.397
X-119.252 Y-8.412
X-119.421 Y-8.547
X-119.478 Y-8.596
X-119.557 Y-8.724
X-119.574 Y-8.873
X-119.548 Y-9.02
X-119.486 Y-9.157
X-119.386 Y-9.269
X-119.354 Y-9.29
X-119.217 Y-9.337
X-119.075 Y-9.315
X-118.959 Y-9.229
X-118.941 Y-9.194
X-118.939 Y-9.154
X-118.952 Y-9.117
X-118.958 Y-9.107
X-119.276 Y-8.576
X-119.298 Y-8.551
X-119.326 Y-8.534
X-119.359 Y-8.527
X-119.392 Y-8.532
X-119.421 Y-8.547
X-119.506 Y-8.614
X-119.542 Y-8.646
X-119.59 Y-8.696
X-119.65 Y-8.768
X-119.694 Y-8.829
X-119.734 Y-8.973
X-119.721 Y-9.123
X-119.666 Y-9.262
X-119.576 Y-9.382
X-119.458 Y-9.475
X-119.427 Y-9.486
X-119.302 Y-9.506
X-119.18 Y-9.471
X-119.083 Y-9.389
X-118.965 Y-9.237
X-118.914 Y-9.175
X-118.894 Y-9.152
X-118.704 Y-8.984
X-118.66 Y-8.947
X-118.596 Y-8.899
X-118.491 Y-8.827
X-118.406 Y-8.787
X-118.321 Y-8.753
X-118.152 Y-8.699
X-118.068 Y-8.677
X-117.898 Y-8.645
X-117.814 Y-8.63
X-117.746 Y-8.623
X-117.709 Y-8.61
X-117.68 Y-8.584
X-117.663 Y-8.548
X-117.662 Y-8.509
X-117.675 Y-8.472
X-117.702 Y-8.443
X-117.738 Y-8.427
X-117.777 Y-8.426
X-118.239 Y-8.504
X-118.885 Y-8.615
X-119.591 Y-8.735
X-119.623 Y-8.746
X-119.65 Y-8.768
X-119.779 Y-8.928
X-119.823 Y-8.988
X-119.875 Y-9.129
X-119.862 Y-9.279
X-119.808 Y-9.418
X-119.721 Y-9.541
X-119.604 Y-9.634
X-119.57 Y-9.65
X-119.435 Y-9.676
X-119.303 Y-9.639
X-119.201 Y-9.547
X-119.188 Y-9.518
X-119.185 Y-9.487
X-119.192 Y-9.456
X-119.208 Y-9.429
X-119.234 Y-9.399
X-119.627 Y-8.929
X-119.653 Y-8.907
X-119.686 Y-8.895
X-119.72
X-119.752 Y-8.906
X-119.779 Y-8.928
X-119.929 Y-9.113
X-119.973 Y-9.173
X-120.013 Y-9.318
X-119.994 Y-9.467
X-119.932 Y-9.604
X-119.841 Y-9.723
X-119.72 Y-9.811
X-119.582 Y-9.869
X-119.577
X-119.445 Y-9.853
X-119.333 Y-9.781
X-119.263 Y-9.669
X-119.259 Y-9.632
X-119.269 Y-9.596
X-119.291 Y-9.566
X-119.328 Y-9.531
X-119.785 Y-9.105
X-119.812 Y-9.087
X-119.843 Y-9.079
X-119.874 Y-9.081
X-119.904 Y-9.092
X-119.929 Y-9.113
X-120.029 Y-9.237
X-120.037 Y-9.247
X-120.042 Y-9.258
X-120.084 Y-9.364
X-120.132 Y-9.506
X-120.112 Y-9.654
X-120.048 Y-9.79
X-119.954 Y-9.907
X-119.837 Y-10
X-119.698 Y-10.059
X-119.656 Y-10.065
X-119.516 Y-10.052
X-119.398 Y-9.978
X-119.326 Y-9.859
X-119.323 Y-9.819
X-119.336 Y-9.781
X-119.362 Y-9.752
X-119.449 Y-9.687
X-119.933 Y-9.324
X-119.965 Y-9.308
X-120 Y-9.304
X-120.035 Y-9.313
X-120.064 Y-9.334
X-120.084 Y-9.364
X-120.101 Y-9.406
X-120.172 Y-9.611
X-120.183 Y-9.64
X-120.203 Y-9.712
X-120.194 Y-9.862
X-120.131 Y-9.999
X-120.035 Y-10.113
X-119.916 Y-10.204
X-119.776 Y-10.259
X-119.719 Y-10.268
X-119.576 Y-10.255
X-119.457 Y-10.177
X-119.386 Y-10.053
X-119.383 Y-10.021
X-119.391 Y-9.99
X-119.408 Y-9.963
X-119.433 Y-9.943
X-119.51 Y-9.898
X-120.039 Y-9.59
X-120.071 Y-9.578
X-120.106
X-120.138 Y-9.589
X-120.165 Y-9.611
X-120.183 Y-9.64
X-120.257 Y-9.864
X-120.277 Y-9.936
X-120.265 Y-10.086
X-120.199 Y-10.22
X-120.098 Y-10.331
X-119.974 Y-10.416
X-119.833 Y-10.467
X-119.684 Y-10.486
X-119.677 Y-10.485
X-119.568 Y-10.443
X-119.483 Y-10.363
X-119.435 Y-10.257
X-119.434 Y-10.225
X-119.443 Y-10.195
X-119.461 Y-10.169
X-119.486 Y-10.15
X-119.575 Y-10.102
X-120.116 Y-9.811
X-120.149 Y-9.8
X-120.183 Y-9.801
X-120.214 Y-9.813
X-120.24 Y-9.835
X-120.257 Y-9.864
X-120.301 Y-9.997
X-120.331 Y-10.128
X-120.344 Y-10.202
X-120.313 Y-10.349
X-120.232 Y-10.475
X-120.168 Y-10.532
X-120.108 Y-10.574
X-120.04 Y-10.6
X-119.968 Y-10.609
X-119.933 Y-10.601
X-119.903 Y-10.582
X-119.881 Y-10.552
X-119.872 Y-10.518
X-119.875 Y-10.482
X-119.891 Y-10.45
X-120.154 Y-10.094
X-120.181 Y-10.069
X-120.216 Y-10.055
X-120.253
X-120.288 Y-10.069
X-120.315 Y-10.094
X-120.331 Y-10.128
X-120.359 Y-10.25
X-120.374 Y-10.335
X-120.38 Y-10.381
X-120.385 Y-10.419
X-120.388 Y-10.467
X-120.343 Y-10.541
X-120.271 Y-10.591
X-120.186 Y-10.609
G3 X-120.033 Y-10.408 I-0.006 J0.163
X-120.385 Y-10.419 I-0.175 J-0.042
G1 X-120.393 Y-10.493
Y-10.504
X-120.39 Y-10.522
X-120.383 Y-10.541
X-120.371 Y-10.559
X-120.352 Y-10.578
X-120.34 Y-10.588
X-120.322 Y-10.599
X-120.303 Y-10.606
X-120.285 Y-10.609
X-119.675
X-119.628
X-119.59
X-119.56 Y-10.604
X-119.537 Y-10.586
X-119.523 Y-10.56
X-119.521 Y-10.53
X-119.532 Y-10.502
X-119.555 Y-10.481
X-119.584 Y-10.473
X-119.614 Y-10.478
X-119.639 Y-10.496
X-119.654 Y-10.523
X-119.655 Y-10.553
X-119.643 Y-10.581
X-119.62 Y-10.601
X-119.59 Y-10.609
X-119.575 Y-10.608
X-119.56 Y-10.604
X-119.545 Y-10.598
X-119.53 Y-10.588
X-119.517 Y-10.576
X-119.506 Y-10.563
X-119.495 Y-10.548
X-119.487 Y-10.534
X-119.483 Y-10.519
X-119.47 Y-10.419
X-119.453 Y-10.335
X-119.394 Y-10.082
X-119.37 Y-9.997
X-119.289 Y-9.744
X-119.252 Y-9.637
X-119.22 Y-9.575
X-119.161 Y-9.49
X-119.083 Y-9.389
X-119.067 Y-9.354
X-119.065 Y-9.315
X-119.079 Y-9.278
X-119.106 Y-9.25
X-119.137 Y-9.228 Z-0.982
X-119.163 Y-9.209 Z-0.961
X-119.181 Y-9.196 Z-0.928
X-119.187 Y-9.192 Z-0.89
G0 Z2
X-114.808 Y-11.552
Z-0.79
G1 Z-0.89 F1000
X-114.803 Y-11.547 Z-0.928
X-114.787 Y-11.532 Z-0.961
X-114.764 Y-11.509 Z-0.982
X-114.737 Y-11.482 Z-0.99
G3 X-114.432 Y-10.758 I-0.719 J0.729
G1 X-114.434 Y-10.74
X-114.442 Y-10.712
X-114.457 Y-10.688
X-114.487 Y-10.674 Z-0.983
X-114.514 Y-10.662 Z-0.966
X-114.533 Y-10.653 Z-0.94
X-114.543 Z-0.916
X-114.546 Y-10.654 Z-0.89
G0 Z2
X-109.168 Y-9.577
Z0.5
G3 X-108.684 Y-9.702 Z0.29 I0.242 J-0.062 F333.3
X-109.168 Y-9.577 Z0.079 I-0.242 J0.062
X-108.684 Y-9.702 Z-0.131 I0.242 J-0.062
X-109.168 Y-9.577 Z-0.342 I-0.242 J0.062
X-108.684 Y-9.702 Z-0.552 I0.242 J-0.062
X-109.168 Y-9.577 Z-0.763 I-0.242 J0.062
X-108.957 Y-9.888 Z-0.876 I0.242 J-0.062
X-108.676 Y-9.64 Z-0.99 I0.031 J0.248
X-109.176 I-0.25
X-108.676 I0.25
G1 X-108.639 Y-9.494 F1000
X-108.652 Y-9.42
X-108.689 Y-9.355
X-108.796 Y-9.25
X-108.94 Y-9.21
X-109.089 Y-9.232
X-109.219 Y-9.306
X-109.316 Y-9.42
X-109.368 Y-9.561
X-109.37 Y-9.711
X-109.322 Y-9.853
X-109.231 Y-9.972
X-109.105 Y-10.053
X-108.959 Y-10.089
X-108.81 Y-10.075
X-108.673 Y-10.013
X-108.565 Y-9.91
X-108.487 Y-9.782
X-108.436 Y-9.64
X-108.426 Y-9.491
X-108.461 Y-9.345
X-108.532 Y-9.212
X-108.64 Y-9.109
X-108.771 Y-9.035
X-108.917 Y-9.002
X-109.067 Y-9.009
X-109.211 Y-9.05
X-109.341 Y-9.126
X-109.447 Y-9.232
X-109.529 Y-9.357
X-109.579 Y-9.499
X-109.593 Y-9.648
X-109.577 Y-9.797
X-109.526 Y-9.938
X-109.444 Y-10.064
X-109.337 Y-10.169
X-109.21 Y-10.248
X-109.067 Y-10.295
X-108.918 Y-10.311
X-108.769 Y-10.293
X-108.629 Y-10.24
X-108.502 Y-10.16
X-108.393 Y-10.057
X-108.306 Y-9.935
X-108.243 Y-9.799
X-108.205 Y-9.654
X-108.197 Y-9.504
X-108.219 Y-9.356
X-108.268 Y-9.214
X-108.344 Y-9.085
X-108.445 Y-8.974
X-108.566 Y-8.884
X-108.7 Y-8.818
X-108.846 Y-8.781
X-108.995 Y-8.772
X-109.144 Y-8.788
X-109.177 Y-8.798
X-109.235 Y-8.822
X-109.286 Y-8.857
X-109.329 Y-8.902
X-109.354 Y-8.933
X-109.395 Y-8.984
X-109.438 Y-9.026
X-109.485 Y-9.068
X-109.558 Y-9.129
X-109.669 Y-9.23
X-109.749 Y-9.357
X-109.798 Y-9.498
X-109.819 Y-9.647
X-109.811 Y-9.797
X-109.775 Y-9.942
X-109.712 Y-10.082
X-109.667 Y-10.137
X-109.609 Y-10.179
X-109.544 Y-10.207
X-109.508 Y-10.209
X-109.474 Y-10.199
X-109.446 Y-10.178
X-109.427 Y-10.147
X-109.419 Y-10.112
X-109.411 Y-9.771
X-109.397 Y-9.211
X-109.404 Y-9.174
X-109.423 Y-9.142
X-109.452 Y-9.119
X-109.488 Y-9.109
X-109.525 Y-9.112
X-109.558 Y-9.129
X-109.692 Y-9.239
X-109.777 Y-9.302
X-109.805 Y-9.321
X-109.925 Y-9.411
X-109.995 Y-9.544
X-110.027 Y-9.69
X-110.028 Y-9.84
X-110.014 Y-9.928
X-109.959 Y-10.055
X-109.854 Y-10.145
X-109.719 Y-10.178
X-109.681 Y-10.169
X-109.649 Y-10.146
X-109.628 Y-10.112
X-109.622 Y-10.073
X-109.626 Y-9.978
X-109.652 Y-9.402
X-109.66 Y-9.368
X-109.678 Y-9.339
X-109.706 Y-9.318
X-109.739 Y-9.307
X-109.773 Y-9.308
X-109.805 Y-9.321
X-109.946 Y-9.414
X-110.031 Y-9.465
X-110.095 Y-9.503
X-110.184 Y-9.624
X-110.227 Y-9.767
X-110.229 Y-9.917
X-110.22 Y-9.949
X-110.162 Y-10.067
X-110.058 Y-10.148
X-109.931 Y-10.177
X-109.898 Y-10.17
X-109.87 Y-10.154
X-109.848 Y-10.129
X-109.836 Y-10.098
X-109.834 Y-10.065
X-109.894 Y-9.546
X-109.905 Y-9.511
X-109.928 Y-9.483
X-109.959 Y-9.464
X-109.995 Y-9.458
X-110.031 Y-9.465
X-110.2 Y-9.538
X-110.267 Y-9.572
X-110.37 Y-9.681
X-110.42 Y-9.822
X-110.418 Y-9.972
X-110.417 Y-9.975
X-110.354 Y-10.08
X-110.253 Y-10.152
X-110.133 Y-10.177
X-110.095 Y-10.168
X-110.063 Y-10.144
X-110.042 Y-10.11
X-110.037 Y-10.071
X-110.063 Y-9.626
X-110.073 Y-9.589
X-110.095 Y-9.559
X-110.126 Y-9.539
X-110.163 Y-9.532
X-110.2 Y-9.538
X-110.284 Y-9.575
X-110.369 Y-9.604
X-110.438 Y-9.632
X-110.553 Y-9.729
X-110.607 Y-9.869
X-110.606 Y-9.893
X-110.579 Y-10.003
X-110.513 Y-10.095
X-110.418 Y-10.155
X-110.306 Y-10.177
X-110.275 Y-10.171
X-110.247 Y-10.155
X-110.226 Y-10.131
X-110.213 Y-10.101
X-110.21 Y-10.069
X-110.24 Y-9.692
X-110.249 Y-9.658
X-110.269 Y-9.628
X-110.299 Y-9.608
X-110.334 Y-9.6
X-110.369 Y-9.604
X-110.454 Y-9.634
X-110.538 Y-9.661
X-110.585 Y-9.672
X-110.621 Y-9.683
X-110.679 Y-9.729
X-110.759 Y-9.857
Y-9.866
X-110.739 Y-9.984
X-110.675 Y-10.085
X-110.577 Y-10.153
X-110.459 Y-10.177
X-110.423 Y-10.169
X-110.393 Y-10.148
X-110.371 Y-10.118
X-110.363 Y-10.082
X-110.368 Y-10.045
X-110.469 Y-9.739
X-110.487 Y-9.707
X-110.514 Y-9.683
X-110.548 Y-9.671
X-110.585 Y-9.672
X-110.707 Y-9.702
X-110.779 Y-9.723
X-110.837 Y-9.771
X-110.872 Y-9.837
Y-9.961
X-110.819 Y-10.072
X-110.722 Y-10.149
X-110.601 Y-10.177
X-110.566 Y-10.169
X-110.536 Y-10.149
X-110.514 Y-10.119
X-110.505 Y-10.084
X-110.509 Y-10.048
X-110.592 Y-9.771
X-110.609 Y-9.738
X-110.636 Y-9.714
X-110.671 Y-9.701
X-110.707 Y-9.702
X-110.792 Y-9.722
X-110.838 Y-9.73
X-110.875 Y-9.739
X-110.939 Y-9.777
X-110.983 Y-9.839
X-110.988 Y-9.96
X-110.939 Y-10.071
X-110.845 Y-10.149
X-110.727 Y-10.177
X-110.69 Y-10.168
X-110.659 Y-10.147
X-110.638 Y-10.116
X-110.631 Y-10.079
X-110.637 Y-10.042
X-110.73 Y-9.794
X-110.747 Y-9.765
X-110.773 Y-9.743
X-110.805 Y-9.731
X-110.838 Y-9.73
X-110.877 Y-9.737
X-110.961 Y-9.75
X-110.998 Y-9.757
X-111.058 Y-9.802
X-111.098 Y-9.865
X-111.1 Y-9.978
X-111.051 Y-10.081
X-110.963 Y-10.151
X-110.853 Y-10.177
X-110.816 Y-10.168
X-110.785 Y-10.146
X-110.764 Y-10.114
X-110.757 Y-10.077
X-110.764 Y-10.039
X-110.857 Y-9.812
X-110.874 Y-9.784
X-110.899 Y-9.763
X-110.929 Y-9.752
X-110.961 Y-9.75
X-111.092 Y-9.769
X-111.129 Y-9.776
X-111.184 Y-9.828
X-111.218 Y-9.894
X-111.214 Y-9.998
X-111.166 Y-10.091
X-111.083 Y-10.154
X-110.982 Y-10.177
X-110.943 Y-10.168
X-110.912 Y-10.145
X-110.891 Y-10.111
X-110.885 Y-10.073
X-110.894 Y-10.035
X-110.991 Y-9.826
X-111.009 Y-9.801
X-111.033 Y-9.782
X-111.061 Y-9.771
X-111.092 Y-9.769
X-111.177 Y-9.78
X-111.214 Y-9.786
X-111.28 Y-9.821
X-111.323 Y-9.882
X-111.327 Y-9.988
X-111.283 Y-10.085
X-111.2 Y-10.153
X-111.097 Y-10.177
X-111.06 Y-10.169
X-111.03 Y-10.148
X-111.009 Y-10.117
X-111 Y-10.081
X-111.006 Y-10.044
X-111.074 Y-9.846
X-111.09 Y-9.818
X-111.114 Y-9.796
X-111.144 Y-9.782
X-111.177 Y-9.78
X-111.3 Y-9.794
X-111.337 Y-9.8
X-111.397 Y-9.844
X-111.436 Y-9.909
X-111.434 Y-10.007
X-111.391 Y-10.094
X-111.314 Y-10.155
X-111.218 Y-10.177
X-111.19 Y-10.172
X-111.165 Y-10.158
G3 X-111.3 Y-9.794 I-0.119 J0.163
G1 X-111.431 Y-9.809
X-111.468 Y-9.815
X-111.521 Y-9.867
X-111.541 Y-9.973
X-111.508 Y-10.076
X-111.429 Y-10.15
X-111.324 Y-10.177
X-111.298 Y-10.172
X-111.274 Y-10.16
X-111.254 Y-10.141
G3 X-111.431 Y-9.809 I-0.161 J0.128
G1 X-111.469 Y-9.813
X-111.515 Y-9.816
X-111.553 Y-9.819
X-111.573 Y-9.822
X-111.596 Y-9.832
X-111.616 Y-9.845
X-111.635 Y-9.861
X-111.652 Y-9.886
X-111.657 Y-9.916
X-111.651 Y-9.946
X-111.633 Y-9.971
X-111.607 Y-9.986
X-111.577 Y-9.991
X-111.547 Y-9.983
X-111.523 Y-9.964
X-111.509 Y-9.948
X-111.494 Y-9.921
X-111.491 Y-9.892
X-111.499 Y-9.863
X-111.517 Y-9.839
X-111.543 Y-9.825
X-111.573 Y-9.822
X-111.593 Y-9.828
X-111.604 Y-9.834
X-111.615 Y-9.842
X-111.638 Y-9.863
X-111.648 Y-9.876
X-111.655 Y-9.888
X-111.662 Y-9.908
X-111.661 Y-9.941
X-111.646 Y-9.97
X-111.62 Y-9.99
X-111.588 Y-9.996
X-111.556 Y-9.987
X-111.532 Y-9.965
X-111.52 Y-9.935
X-111.522 Y-9.902
X-111.539 Y-9.874
X-111.566 Y-9.856
X-111.598 Y-9.852
X-111.629 Y-9.862
X-111.643 Y-9.874
X-111.655 Y-9.888
X-111.66 Y-9.9
X-111.663 Y-9.913
X-111.664 Y-9.923
Y-9.997
Y-10.039
X-111.657 Y-10.083
X-111.642 Y-10.12
X-111.618 Y-10.152
X-111.582 Y-10.168
X-111.543 Y-10.169
X-111.507 Y-10.155
X-111.478 Y-10.128
G3 X-111.307 Y-9.877 I-7.35 J5.195
G1 Y-9.876
G3 X-111.664 Y-10.039 I-0.138 J-0.171
G1 Y-10.071
X-111.663 Y-10.082
X-111.659 Y-10.094
X-111.655 Y-10.106
X-111.648 Y-10.119
X-111.638 Y-10.131
X-111.618 Y-10.152
X-111.607 Y-10.16
X-111.597 Y-10.166
X-111.586 Y-10.171
X-111.575 Y-10.174
X-111.564 Y-10.176
X-111.553 Y-10.177
X-109.861
X-109.692 Y-10.178
X-109.65 Y-10.182
X-109.607 Y-10.189
X-109.523 Y-10.213
X-109.483 Y-10.23
X-109.443 Y-10.25
X-109.354 Y-10.315
X-109.331 Y-10.335
X-109.221 Y-10.436
X-109.085 Y-10.499
X-108.937 Y-10.528
X-108.787 Y-10.524
X-108.641 Y-10.492
X-108.502 Y-10.436
X-108.373 Y-10.359
X-108.258 Y-10.263
X-108.201 Y-10.197
X-108.161 Y-10.138
X-108.137 Y-10.072
X-108.128 Y-10.001
Y-9.237
X-108.136 Y-9.087
X-108.194 Y-8.949
X-108.282 Y-8.827
X-108.391 Y-8.725
X-108.518 Y-8.644
X-108.656 Y-8.585
X-108.801 Y-8.547
X-108.878 Y-8.538
X-108.989 Y-8.546
X-109.089 Y-8.594
X-109.165 Y-8.675
X-109.178 Y-8.712
X-109.176 Y-8.75
X-109.159 Y-8.786
X-109.13 Y-8.812
X-108.776 Y-9.023
X-108.279 Y-9.319
X-108.247 Y-9.332
X-108.213
X-108.18 Y-9.321
X-108.153 Y-9.3
X-108.135 Y-9.271
X-108.128 Y-9.237
Y-8.899
X-108.136 Y-8.749
X-108.213 Y-8.621
X-108.318 Y-8.514
X-108.441 Y-8.428
X-108.576 Y-8.362
X-108.72 Y-8.32
X-108.756 Y-8.317
X-108.878 Y-8.329
X-108.985 Y-8.389
X-109.058 Y-8.487
X-109.067 Y-8.524
X-109.061 Y-8.561
X-109.041 Y-8.593
X-109.011 Y-8.616
X-108.796 Y-8.723
X-108.273 Y-8.985
X-108.234 Y-8.995
X-108.195 Y-8.99
X-108.161 Y-8.97
X-108.137 Y-8.938
X-108.128 Y-8.899
Y-8.646
X-108.136 Y-8.496
X-108.209 Y-8.365
X-108.315 Y-8.258
X-108.44 Y-8.176
X-108.579 Y-8.119
X-108.638 Y-8.109
X-108.773 Y-8.116
X-108.892 Y-8.183
X-108.969 Y-8.295
X-108.974 Y-8.331
X-108.967 Y-8.366
X-108.947 Y-8.397
X-108.918 Y-8.418
X-108.799 Y-8.476
X-108.272 Y-8.732
X-108.233 Y-8.742
X-108.194 Y-8.736
X-108.161 Y-8.716
X-108.137 Y-8.684
X-108.128 Y-8.646
Y-8.392
Y-8.346
Y-8.308
X-108.132 Y-8.233
X-108.21 Y-8.105
X-108.259 Y-8.06
X-108.319 Y-8.017
X-108.388 Y-7.99
X-108.461 Y-7.981
X-108.499 Y-7.99
X-108.531 Y-8.012
X-108.551 Y-8.045
X-108.558 Y-8.083
X-108.55 Y-8.121
X-108.528 Y-8.153
X-108.298 Y-8.376
X-108.266 Y-8.397
X-108.228 Y-8.404
X-108.191 Y-8.397
X-108.159 Y-8.376
X-108.137 Y-8.345
X-108.128 Y-8.308
Y-8.139
Y-8.097
X-108.129 Y-8.086
X-108.133 Y-8.067
X-108.148 Y-8.042
X-108.172 Y-8.027
X-108.201 Y-8.025
X-108.228 Y-8.036
X-108.246 Y-8.059
X-108.252 Y-8.087
X-108.244 Y-8.115
X-108.242 Y-8.117
X-108.224 Y-8.137
X-108.2 Y-8.147
X-108.173 Y-8.146
X-108.15 Y-8.133
X-108.134 Y-8.112
X-108.129 Y-8.086
X-108.13 Y-8.076
X-108.133 Y-8.065
X-108.137 Y-8.054
X-108.151 Y-8.032
X-108.159 Y-8.02
X-108.169 Y-8.009
X-108.18 Y-8
X-108.19 Y-7.993
X-108.201 Y-7.988
X-108.212 Y-7.985
X-108.222 Y-7.982
X-108.233 Y-7.981
X-108.783
X-108.793 Y-7.983
X-108.804 Y-7.985
X-108.814 Y-7.989
X-108.825 Y-7.995
X-108.836 Y-8.002
X-108.846 Y-8.011
X-108.866 Y-8.033
X-108.874 Y-8.044
X-108.88 Y-8.054
X-108.941 Y-8.223
X-108.974 Y-8.308
X-109.094 Y-8.561
X-109.201 Y-8.73
X-109.269 Y-8.824
X-109.329 Y-8.902
X-109.343 Y-8.93
X-109.348 Y-8.96
X-109.35 Y-9.554
X-109.352 Y-10.274
X-109.347 Y-10.306
X-109.331 Y-10.335
X-109.269 Y-10.411
X-109.263 Y-10.419
X-109.215 Y-10.504
X-109.178 Y-10.569
X-109.068 Y-10.671
X-108.927 Y-10.723
X-108.778 Y-10.739
X-108.629 Y-10.725
X-108.484 Y-10.686
X-108.346 Y-10.626
X-108.271 Y-10.58
X-108.195 Y-10.513
X-108.145 Y-10.424
X-108.128 Y-10.324
Y-10.001
X-108.135 Y-9.968
X-108.152 Y-9.94
X-108.178 Y-9.918
X-108.209 Y-9.906
X-108.242
X-108.274 Y-9.916
X-108.599 Y-10.085
X-109.168 Y-10.381
X-109.196 Y-10.403
X-109.215 Y-10.433
X-109.221 Y-10.468
X-109.215 Y-10.504
X-109.198 Y-10.546
X-109.184 Y-10.59
X-109.176 Y-10.632
X-109.17 Y-10.673
X-109.164 Y-10.71
X-109.08 Y-10.834
X-108.951 Y-10.91
X-108.806 Y-10.948
X-108.656 Y-10.955
X-108.507 Y-10.937
X-108.362 Y-10.897
X-108.302 Y-10.869
X-108.21 Y-10.803
X-108.149 Y-10.708
X-108.128 Y-10.597
Y-10.324
X-108.137 Y-10.287
X-108.159 Y-10.255
X-108.191 Y-10.235
X-108.228 Y-10.228
X-108.266 Y-10.235
X-108.491 Y-10.327
X-109.108 Y-10.58
X-109.14 Y-10.602
X-109.162 Y-10.634
X-109.17 Y-10.673
X-109.167 Y-10.757
Y-10.804
X-109.163 Y-10.879
X-109.094 Y-11.012
X-108.974 Y-11.102
X-108.834 Y-11.156
X-108.686 Y-11.18
X-108.536
X-108.388 Y-11.155
X-108.325 Y-11.132
X-108.222 Y-11.068
X-108.153 Y-10.969
X-108.128 Y-10.85
Y-10.597
X-108.136 Y-10.562
X-108.155 Y-10.532
X-108.183 Y-10.511
X-108.217 Y-10.501
X-108.252 Y-10.503
X-108.454 Y-10.553
X-109.091 Y-10.71
X-109.12 Y-10.723
X-109.144 Y-10.744
X-109.16 Y-10.772
X-109.167 Y-10.804
Y-11.011
X-109.163 Y-11.086
X-109.09 Y-11.217
X-108.973 Y-11.31
X-108.836 Y-11.372
X-108.69 Y-11.405
X-108.54 Y-11.415
X-108.391 Y-11.396
X-108.336 Y-11.378
X-108.227 Y-11.316
X-108.154 Y-11.215
X-108.128 Y-11.093
Y-10.85
X-108.135 Y-10.817
X-108.153 Y-10.787
X-108.18 Y-10.766
X-108.212 Y-10.755
X-108.247
X-108.446 Y-10.794
X-109.086 Y-10.916
X-109.117 Y-10.928
X-109.143 Y-10.949
X-109.16 Y-10.978
X-109.167 Y-11.011
Y-11.18
X-109.163 Y-11.255
X-109.115 Y-11.397
X-109.009 Y-11.503
X-108.879 Y-11.578
X-108.737 Y-11.626
X-108.588 Y-11.647
X-108.439 Y-11.642
X-108.293 Y-11.607
X-108.288 Y-11.604
X-108.203 Y-11.538
X-108.147 Y-11.445
X-108.128 Y-11.339
Y-11.093
X-108.135 Y-11.061
X-108.151 Y-11.033
X-108.176 Y-11.011
X-108.206 Y-10.999
X-108.238 Y-10.997
X-108.438 Y-11.017
X-109.077 Y-11.084
X-109.111 Y-11.094
X-109.14 Y-11.115
X-109.159 Y-11.145
X-109.167 Y-11.18
Y-11.395
X-109.163 Y-11.47
X-109.114 Y-11.612
X-109.011 Y-11.721
X-108.884 Y-11.8
X-108.743 Y-11.852
X-108.595 Y-11.878
X-108.445 Y-11.88
X-108.365 Y-11.862
X-108.243 Y-11.805
X-108.158 Y-11.7
X-108.128 Y-11.569
Y-11.339
X-108.137 Y-11.3
X-108.161 Y-11.268
X-108.195 Y-11.248
X-108.235 Y-11.243
X-108.436 Y-11.256
X-109.073 Y-11.299
X-109.109 Y-11.308
X-109.139 Y-11.329
X-109.159 Y-11.359
X-109.167 Y-11.395
Y-11.648
X-109.163 Y-11.723
X-109.1 Y-11.859
X-108.992 Y-11.964
X-108.863 Y-12.04
X-108.721 Y-12.089
X-108.573 Y-12.113
X-108.423 Y-12.107
X-108.359 Y-12.092
X-108.24 Y-12.033
X-108.157 Y-11.929
X-108.128 Y-11.8
Y-11.569
X-108.134 Y-11.537
X-108.151 Y-11.509
X-108.175 Y-11.488
X-108.205 Y-11.475
X-108.237 Y-11.473
X-108.438 Y-11.492
X-109.076 Y-11.552
X-109.111 Y-11.562
X-109.14 Y-11.583
X-109.159 Y-11.613
X-109.167 Y-11.648
Y-11.855
X-109.163 Y-11.93
X-109.109 Y-12.07
X-109.007 Y-12.18
X-108.88 Y-12.26
X-108.74 Y-12.314
X-108.593 Y-12.343
X-108.443 Y-12.341
X-108.296 Y-12.31
X-108.291 Y-12.308
X-108.205 Y-12.241
X-108.148 Y-12.148
X-108.128 Y-12.041
Y-11.8
X-108.137 Y-11.761
X-108.161 Y-11.729
X-108.195 Y-11.709
X-108.235 Y-11.703
X-108.436 Y-11.717
X-109.073 Y-11.759
X-109.109 Y-11.768
X-109.139 Y-11.789
X-109.159 Y-11.82
X-109.167 Y-11.855
Y-12.071
X-109.159 Y-12.221
X-109.08 Y-12.348
X-108.967 Y-12.446
X-108.834 Y-12.517
X-108.691 Y-12.56
X-108.542 Y-12.578
X-108.392 Y-12.572
X-108.343 Y-12.558
X-108.231 Y-12.496
X-108.155 Y-12.394
X-108.128 Y-12.27
Y-12.041
X-108.137 Y-12.003
X-108.16 Y-11.971
X-108.193 Y-11.951
X-108.232 Y-11.944
X-108.435 Y-11.952
X-109.07 Y-11.974
X-109.107 Y-11.983
X-109.138 Y-12.004
X-109.159 Y-12.034
X-109.167 Y-12.071
Y-12.324
X-109.163 Y-12.399
X-109.108 Y-12.538
X-109.004 Y-12.647
X-108.877 Y-12.727
X-108.737 Y-12.781
X-108.59 Y-12.81
X-108.44 Y-12.811
X-108.294 Y-12.779
X-108.291 Y-12.778
X-108.205 Y-12.711
X-108.148 Y-12.618
X-108.128 Y-12.511
Y-12.27
X-108.137 Y-12.231
X-108.161 Y-12.199
X-108.195 Y-12.179
X-108.234 Y-12.174
X-108.436 Y-12.187
X-109.073 Y-12.228
X-109.109 Y-12.237
X-109.139 Y-12.258
X-109.159 Y-12.288
X-109.167 Y-12.324
Y-12.578
X-109.163 Y-12.652
X-109.097 Y-12.787
X-108.989 Y-12.892
X-108.861 Y-12.969
X-108.719 Y-13.019
X-108.571 Y-13.044
X-108.421
X-108.357 Y-13.029
X-108.239 Y-12.97
X-108.157 Y-12.866
X-108.128 Y-12.737
Y-12.511
X-108.134 Y-12.479
X-108.15 Y-12.451
X-108.174 Y-12.43
X-108.204 Y-12.417
X-108.236 Y-12.415
X-108.437 Y-12.431
X-109.075 Y-12.481
X-109.11 Y-12.491
X-109.139 Y-12.512
X-109.159 Y-12.542
X-109.167 Y-12.578
Y-12.784
X-109.163 Y-12.859
X-109.108 Y-12.999
X-109.006 Y-13.109
X-108.88 Y-13.19
X-108.74 Y-13.245
X-108.594 Y-13.276
X-108.444 Y-13.277
X-108.297 Y-13.247
X-108.292 Y-13.244
X-108.205 Y-13.178
X-108.148 Y-13.085
X-108.128 Y-12.977
Y-12.737
X-108.137 Y-12.699
X-108.161 Y-12.667
X-108.194 Y-12.646
X-108.234 Y-12.641
X-108.436 Y-12.652
X-109.072 Y-12.688
X-109.108 Y-12.697
X-109.138 Y-12.718
X-109.159 Y-12.749
X-109.167 Y-12.784
Y-13
X-109.159 Y-13.15
X-109.08 Y-13.277
X-108.967 Y-13.376
X-108.836 Y-13.448
X-108.692 Y-13.493
X-108.544 Y-13.512
X-108.394 Y-13.507
X-108.345 Y-13.493
X-108.232 Y-13.432
X-108.155 Y-13.33
X-108.128 Y-13.205
Y-12.977
X-108.137 Y-12.939
X-108.16 Y-12.908
X-108.192 Y-12.887
X-108.231 Y-12.881
X-108.435 Y-12.886
X-109.07 Y-12.903
X-109.106 Y-12.911
X-109.137 Y-12.932
X-109.158 Y-12.963
X-109.167 Y-13
Y-13.253
X-109.163 Y-13.328
X-109.108 Y-13.468
X-109.006 Y-13.577
X-108.879 Y-13.658
X-108.74 Y-13.713
X-108.593 Y-13.744
X-108.443 Y-13.745
X-108.296 Y-13.715
X-108.292 Y-13.713
X-108.205 Y-13.646
X-108.148 Y-13.553
X-108.128 Y-13.445
Y-13.205
X-108.137 Y-13.166
X-108.161 Y-13.135
X-108.195 Y-13.114
X-108.234 Y-13.109
X-108.436 Y-13.12
X-109.073 Y-13.157
X-109.108 Y-13.166
X-109.138 Y-13.187
X-109.159 Y-13.217
X-109.167 Y-13.253
Y-13.507
X-109.163 Y-13.582
X-109.098 Y-13.717
X-108.992 Y-13.823
X-108.864 Y-13.901
X-108.723 Y-13.952
X-108.575 Y-13.977
X-108.425 Y-13.979
X-108.358 Y-13.963
X-108.239 Y-13.905
X-108.157 Y-13.801
X-108.128 Y-13.671
Y-13.445
X-108.134 Y-13.414
X-108.15 Y-13.386
X-108.174 Y-13.364
X-108.203 Y-13.352
X-108.235 Y-13.349
X-108.437 Y-13.364
X-109.074 Y-13.41
X-109.109 Y-13.42
X-109.139 Y-13.441
X-109.159 Y-13.471
X-109.167 Y-13.507
Y-13.714
X-109.163 Y-13.788
X-109.11 Y-13.929
X-109.009 Y-14.039
X-108.883 Y-14.121
X-108.744 Y-14.177
X-108.598 Y-14.21
X-108.448 Y-14.211
X-108.3 Y-14.182
X-108.294 Y-14.179
X-108.206 Y-14.112
X-108.148 Y-14.019
X-108.128 Y-13.91
Y-13.671
X-108.137 Y-13.633
X-108.16 Y-13.601
X-108.194 Y-13.581
X-108.233 Y-13.575
X-108.436 Y-13.585
X-109.072 Y-13.617
X-109.108 Y-13.626
X-109.138 Y-13.647
X-109.159 Y-13.678
X-109.167 Y-13.714
Y-13.967
X-109.163 Y-14.042
X-109.1 Y-14.178
X-108.995 Y-14.285
X-108.868 Y-14.364
X-108.727 Y-14.416
X-108.579 Y-14.442
X-108.429 Y-14.445
X-108.36 Y-14.429
X-108.24 Y-14.371
X-108.158 Y-14.266
X-108.128 Y-14.137
Y-13.91
X-108.134 Y-13.879
X-108.15 Y-13.851
X-108.174 Y-13.83
X-108.203 Y-13.817
X-108.235 Y-13.814
X-108.436 Y-13.828
X-109.074 Y-13.871
X-109.109 Y-13.88
X-109.139 Y-13.901
X-109.159 Y-13.931
X-109.167 Y-13.967
Y-14.182
X-109.163 Y-14.257
X-109.109 Y-14.397
X-109.007 Y-14.507
X-108.881 Y-14.588
X-108.741 Y-14.644
X-108.594 Y-14.675
X-108.444 Y-14.676
X-108.297 Y-14.646
X-108.293 Y-14.644
X-108.206 Y-14.577
X-108.148 Y-14.484
X-108.128 Y-14.376
Y-14.137
X-108.137 Y-14.098
X-108.161 Y-14.066
X-108.194 Y-14.046
X-108.233 Y-14.04
X-108.436 Y-14.051
X-109.072 Y-14.086
X-109.108 Y-14.095
X-109.138 Y-14.116
X-109.159 Y-14.146
X-109.167 Y-14.182
Y-14.436
X-109.163 Y-14.511
X-109.099 Y-14.646
X-108.993 Y-14.752
X-108.865 Y-14.831
X-108.724 Y-14.882
X-108.576 Y-14.908
X-108.426 Y-14.91
X-108.359 Y-14.894
X-108.24 Y-14.836
X-108.157 Y-14.732
X-108.128 Y-14.602
Y-14.376
X-108.134 Y-14.345
X-108.15 Y-14.317
X-108.174 Y-14.296
X-108.203 Y-14.283
X-108.235 Y-14.28
X-108.437 Y-14.294
X-109.074 Y-14.34
X-109.109 Y-14.349
X-109.139 Y-14.37
X-109.159 Y-14.4
X-109.167 Y-14.436
Y-14.643
X-109.163 Y-14.718
X-109.111 Y-14.858
X-109.01 Y-14.969
X-108.885 Y-15.051
X-108.746 Y-15.108
X-108.599 Y-15.14
X-108.449 Y-15.142
X-108.302 Y-15.113
X-108.295 Y-15.11
X-108.207 Y-15.043
X-108.148 Y-14.95
X-108.128 Y-14.841
Y-14.602
X-108.137 Y-14.564
X-108.16 Y-14.532
X-108.194 Y-14.512
X-108.233 Y-14.506
X-108.436 Y-14.516
X-109.072 Y-14.546
X-109.108 Y-14.555
X-109.138 Y-14.576
X-109.159 Y-14.607
X-109.167 Y-14.643
Y-14.896
X-109.163 Y-14.971
X-109.101 Y-15.108
X-108.996 Y-15.215
X-108.869 Y-15.294
X-108.728 Y-15.347
X-108.581 Y-15.373
X-108.431 Y-15.376
X-108.361 Y-15.36
X-108.241 Y-15.302
X-108.158 Y-15.197
X-108.128 Y-15.067
Y-14.841
X-108.137 Y-14.802
X-108.161 Y-14.77
X-108.195 Y-14.75
X-108.235 Y-14.745
X-108.436 Y-14.758
X-109.073 Y-14.8
X-109.109 Y-14.809
X-109.139 Y-14.83
X-109.159 Y-14.86
X-109.167 Y-14.896
Y-15.112
X-109.163 Y-15.186
X-109.109 Y-15.326
X-109.008 Y-15.437
X-108.882 Y-15.518
X-108.743 Y-15.574
X-108.596 Y-15.606
X-108.446 Y-15.607
X-108.299 Y-15.577
X-108.293 Y-15.575
X-108.206 Y-15.508
X-108.148 Y-15.415
X-108.128 Y-15.307
Y-15.067
X-108.137 Y-15.029
X-108.16 Y-14.997
X-108.194 Y-14.977
X-108.233 Y-14.971
X-108.436 Y-14.982
X-109.072 Y-15.015
X-109.108 Y-15.024
X-109.138 Y-15.045
X-109.159 Y-15.076
X-109.167 Y-15.112
Y-15.365
X-109.163 Y-15.44
X-109.1 Y-15.576
X-108.994 Y-15.682
X-108.866 Y-15.761
X-108.726 Y-15.813
X-108.578 Y-15.839
X-108.428 Y-15.841
X-108.36 Y-15.825
X-108.24 Y-15.767
X-108.158 Y-15.662
X-108.128 Y-15.533
Y-15.307
X-108.134 Y-15.275
X-108.15 Y-15.247
X-108.174 Y-15.226
X-108.203 Y-15.213
X-108.235 Y-15.21
X-108.437 Y-15.224
X-109.074 Y-15.269
X-109.109 Y-15.278
X-109.139 Y-15.299
X-109.159 Y-15.329
X-109.167 Y-15.365
Y-15.572
X-109.163 Y-15.647
X-109.112 Y-15.788
X-109.011 Y-15.899
X-108.886 Y-15.982
X-108.747 Y-16.038
X-108.601 Y-16.071
X-108.451 Y-16.073
X-108.303 Y-16.044
X-108.295 Y-16.041
X-108.207 Y-15.974
X-108.148 Y-15.88
X-108.128 Y-15.771
Y-15.533
X-108.137 Y-15.495
X-108.16 Y-15.463
X-108.194 Y-15.442
X-108.233 Y-15.436
X-108.436 Y-15.446
X-109.071 Y-15.475
X-109.107 Y-15.484
X-109.138 Y-15.505
X-109.159 Y-15.536
X-109.167 Y-15.572
Y-15.825
X-109.163 Y-15.9
X-109.102 Y-16.037
X-108.997 Y-16.145
X-108.87 Y-16.224
X-108.73 Y-16.277
X-108.582 Y-16.304
X-108.432 Y-16.307
X-108.361 Y-16.29
X-108.241 Y-16.233
X-108.158 Y-16.128
X-108.128 Y-15.998
Y-15.771
X-108.137 Y-15.733
X-108.161 Y-15.701
X-108.195 Y-15.681
X-108.234 Y-15.675
X-108.436 Y-15.688
X-109.073 Y-15.729
X-109.109 Y-15.738
X-109.139 Y-15.759
X-109.159 Y-15.79
X-109.167 Y-15.825
Y-16.041
X-109.163 Y-16.116
X-109.11 Y-16.256
X-109.009 Y-16.367
X-108.883 Y-16.448
X-108.744 Y-16.504
X-108.597 Y-16.537
X-108.447
X-108.3 Y-16.509
X-108.294 Y-16.505
X-108.206 Y-16.439
X-108.148 Y-16.345
X-108.128 Y-16.237
Y-15.998
X-108.137 Y-15.96
X-108.16 Y-15.928
X-108.194 Y-15.907
X-108.233 Y-15.902
X-108.436 Y-15.912
X-109.072 Y-15.944
X-109.108 Y-15.953
X-109.138 Y-15.974
X-109.159 Y-16.005
X-109.167 Y-16.041
Y-16.294
X-109.163 Y-16.369
X-109.101 Y-16.505
X-108.995 Y-16.612
X-108.868 Y-16.691
X-108.727 Y-16.743
X-108.579 Y-16.769
X-108.429 Y-16.772
X-108.36 Y-16.756
X-108.24 Y-16.697
X-108.158 Y-16.593
X-108.128 Y-16.463
Y-16.237
X-108.134 Y-16.206
X-108.15 Y-16.178
X-108.174 Y-16.157
X-108.203 Y-16.144
X-108.235 Y-16.141
X-108.436 Y-16.154
X-109.074 Y-16.198
X-109.109 Y-16.207
X-109.139 Y-16.228
X-109.159 Y-16.258
X-109.167 Y-16.294
Y-16.501
X-109.159 Y-16.651
X-109.078 Y-16.777
X-108.963 Y-16.874
X-108.831 Y-16.944
X-108.688 Y-16.988
X-108.539 Y-17.008
X-108.389 Y-16.995
X-108.343 Y-16.981
X-108.231 Y-16.92
X-108.155 Y-16.818
X-108.128 Y-16.694
Y-16.463
X-108.137 Y-16.425
X-108.16 Y-16.393
X-108.194 Y-16.373
X-108.232 Y-16.367
X-108.436 Y-16.376
X-109.071 Y-16.405
X-109.107 Y-16.413
X-109.138 Y-16.434
X-109.159 Y-16.465
X-109.167 Y-16.501
Y-16.754
X-109.163 Y-16.829
X-109.105 Y-16.968
X-109.001 Y-17.076
X-108.874 Y-17.155
X-108.734 Y-17.209
X-108.587 Y-17.237
X-108.437 Y-17.235
X-108.289 Y-17.202
X-108.204 Y-17.135
X-108.148 Y-17.042
X-108.128 Y-16.936
Y-16.694
X-108.134 Y-16.662
X-108.15 Y-16.634
X-108.174 Y-16.613
X-108.203 Y-16.6
X-108.235 Y-16.597
X-108.437 Y-16.612
X-109.074 Y-16.658
X-109.109 Y-16.667
X-109.139 Y-16.688
X-109.159 Y-16.719
X-109.167 Y-16.754
Y-16.97
X-109.163 Y-17.045
X-109.112 Y-17.186
X-109.012 Y-17.297
X-108.887 Y-17.38
X-108.748 Y-17.436
X-108.601 Y-17.467
X-108.451 Y-17.472
X-108.303 Y-17.444
X-108.211 Y-17.378
X-108.15 Y-17.282
X-108.128 Y-17.171
Y-16.936
X-108.137 Y-16.898
X-108.16 Y-16.866
X-108.193 Y-16.846
X-108.232 Y-16.84
X-108.436 Y-16.848
X-109.071 Y-16.873
X-109.107 Y-16.882
X-109.138 Y-16.903
X-109.159 Y-16.933
X-109.167 Y-16.97
Y-17.223
Y-17.261
Y-17.308
X-109.165 Y-17.336
X-109.154 Y-17.356
X-109.087 Y-17.433
X-108.997 Y-17.484
X-108.896 Y-17.501
G3 X-108.735 Y-17.182 I-0.007 J0.204
X-109.167 Y-17.308 I-0.195 J-0.134
G1 X-109.166 Y-17.398
X-109.165 Y-17.409
X-109.162 Y-17.42
X-109.158 Y-17.43
X-109.149 Y-17.445
X-109.137 Y-17.46
X-109.119 Y-17.476
X-109.1 Y-17.489
X-109.089 Y-17.494
X-109.079 Y-17.497
X-109.068 Y-17.5
X-109.058 Y-17.501
X-108.254
X-108.233
X-108.222 Y-17.5
X-108.198 Y-17.492
X-108.19 Y-17.488
X-108.171 Y-17.468
X-108.163 Y-17.441
X-108.166 Y-17.413
X-108.184 Y-17.386
X-108.212 Y-17.371
X-108.244 Y-17.372
X-108.272 Y-17.387
X-108.289 Y-17.414
X-108.292 Y-17.445
X-108.279 Y-17.475
X-108.254 Y-17.494
X-108.222 Y-17.5
X-108.212 Y-17.497
X-108.201 Y-17.494
X-108.19 Y-17.488
X-108.18 Y-17.482
X-108.169 Y-17.473
X-108.15 Y-17.451
X-108.143 Y-17.441
X-108.137 Y-17.43
X-108.133 Y-17.42
X-108.13 Y-17.409
X-108.129 Y-17.398
X-108.128 Y-17.171
X-108.133 Y-17.143
X-108.146 Y-17.117
X-108.175 Y-17.1 Z-0.983
X-108.2 Y-17.085 Z-0.966
X-108.219 Y-17.075 Z-0.939
X-108.228 Y-17.074 Z-0.916
X-108.231 Z-0.89
G0 Z2
X-95.577 Y-16.731
Z0.5
G3 X-95.093 Y-16.855 Z0.29 I0.242 J-0.062 F333.3
X-95.577 Y-16.731 Z0.079 I-0.242 J0.062
X-95.093 Y-16.855 Z-0.131 I0.242 J-0.062
X-95.577 Y-16.731 Z-0.342 I-0.242 J0.062
X-95.093 Y-16.855 Z-0.552 I0.242 J-0.062
X-95.577 Y-16.731 Z-0.763 I-0.242 J0.062
X-95.367 Y-17.041 Z-0.876 I0.242 J-0.062
X-95.085 Y-16.793 Z-0.99 I0.031 J0.248
X-95.585 I-0.25
X-95.085 I0.25
G1 X-95.048 Y-16.648 F1000
X-95.061 Y-16.574
X-95.098 Y-16.509
X-95.205 Y-16.404
X-95.349 Y-16.364
X-95.498 Y-16.385
X-95.628 Y-16.459
X-95.725 Y-16.574
X-95.777 Y-16.714
X-95.779 Y-16.864
X-95.732 Y-17.007
X-95.64 Y-17.125
X-95.514 Y-17.207
X-95.368 Y-17.243
X-95.219 Y-17.229
X-95.082 Y-17.167
X-94.974 Y-17.063
X-94.896 Y-16.935
X-94.846 Y-16.794
X-94.835 Y-16.644
X-94.87 Y-16.498
X-94.941 Y-16.366
X-95.049 Y-16.262
X-95.18 Y-16.189
X-95.326 Y-16.156
X-95.476 Y-16.163
X-95.62 Y-16.204
X-95.75 Y-16.28
X-95.856 Y-16.385
X-95.938 Y-16.511
X-95.988 Y-16.652
X-96.003 Y-16.802
X-95.986 Y-16.951
X-95.936 Y-17.092
X-95.853 Y-17.217
X-95.747 Y-17.323
X-95.619 Y-17.402
X-95.476 Y-17.448
X-95.327 Y-17.464
X-95.178 Y-17.447
X-95.038 Y-17.394
X-94.911 Y-17.314
X-94.802 Y-17.21
X-94.715 Y-17.089
X-94.652 Y-16.952
X-94.614 Y-16.807
X-94.609 Y-16.722
X-94.613 Y-16.653
X-94.633 Y-16.587
X-94.668 Y-16.527
X-94.687 Y-16.501
X-94.705 Y-16.47
X-94.718 Y-16.419
X-94.761 Y-16.276
X-94.85 Y-16.155
X-94.963 Y-16.056
X-95.094 Y-15.984
X-95.238 Y-15.941
X-95.387 Y-15.927
X-95.537 Y-15.94
X-95.62 Y-15.962
X-95.688 Y-15.99
X-95.748 Y-16.034
X-95.794 Y-16.091
X-95.867 Y-16.205
X-95.878 Y-16.226
X-95.92 Y-16.332
X-95.987 Y-16.511
X-96.073 Y-16.754
X-96.101 Y-16.839
X-96.14 Y-16.983
X-96.125 Y-17.133
X-96.07 Y-17.272
X-95.987 Y-17.397
X-95.974 Y-17.411
X-95.911 Y-17.46
X-95.838 Y-17.491
X-95.76 Y-17.501
X-95.721 Y-17.492
X-95.69 Y-17.469
X-95.669 Y-17.436
X-95.663 Y-17.397
X-95.672 Y-17.359
X-95.685 Y-17.331
X-95.916 Y-16.831
X-95.939 Y-16.8
X-95.972 Y-16.78
X-96.011 Y-16.773
X-96.049 Y-16.783
X-96.08 Y-16.806
X-96.101 Y-16.839
X-96.156 Y-17.008
X-96.179 Y-17.092
X-96.198 Y-17.177
X-96.206 Y-17.223
X-96.212 Y-17.261
X-96.22 Y-17.335
X-96.165 Y-17.422
X-96.08 Y-17.48
X-95.979 Y-17.501
G3 X-95.789 Y-17.276 I-0.007 J0.198
X-96.212 Y-17.261 I-0.213 J-0.029
G1 X-96.226 Y-17.346
X-96.23 Y-17.388
Y-17.398
X-96.228 Y-17.409
X-96.225 Y-17.42
X-96.221 Y-17.43
X-96.209 Y-17.45
X-96.199 Y-17.461
X-96.188 Y-17.47
X-96.156 Y-17.491
X-96.145 Y-17.495
X-96.135 Y-17.498
X-96.124 Y-17.5
X-96.114 Y-17.501
X-95.01
X-94.86 Y-17.494
X-94.728 Y-17.423
X-94.614 Y-17.325
X-94.52 Y-17.207
X-94.448 Y-17.076
X-94.423 Y-17.006
X-94.408 Y-16.882
X-94.445 Y-16.763
X-94.526 Y-16.669
X-94.549 Y-16.652
X-94.622 Y-16.585
X-94.633 Y-16.574
X-94.668 Y-16.527
X-94.695 Y-16.504
X-94.728 Y-16.491
X-94.764
X-94.797 Y-16.504
X-94.824 Y-16.528
X-94.841 Y-16.559
X-94.918 Y-16.798
X-95.101 Y-17.371
X-95.106 Y-17.407
X-95.097 Y-17.443
X-95.076 Y-17.473
X-95.045 Y-17.493
X-95.01 Y-17.501
X-94.718
X-94.568 Y-17.494
X-94.439 Y-17.417
X-94.333 Y-17.311
X-94.254 Y-17.183
X-94.204 Y-17.042
X-94.203 Y-17.033
X-94.221 Y-16.909
X-94.288 Y-16.803
X-94.393 Y-16.733
X-94.428 Y-16.727
X-94.464 Y-16.735
X-94.494 Y-16.754
X-94.516 Y-16.782
X-94.541 Y-16.833
X-94.804 Y-17.356
X-94.814 Y-17.395
X-94.809 Y-17.434
X-94.788 Y-17.468
X-94.756 Y-17.492
X-94.718 Y-17.501
X-94.464
X-94.314 Y-17.494
X-94.186 Y-17.416
X-94.086 Y-17.304
X-94.021 Y-17.169
X-93.996 Y-17.021
X-93.997 Y-17.014
X-94.045 Y-16.889
X-94.144 Y-16.797
X-94.273 Y-16.758
X-94.305 Y-16.762
X-94.333 Y-16.776
X-94.356 Y-16.798
X-94.371 Y-16.826
X-94.555 Y-17.369
X-94.56 Y-17.406
X-94.552 Y-17.442
X-94.531 Y-17.472
X-94.5 Y-17.493
X-94.464 Y-17.501
X-94.21
X-94.135 Y-17.497
X-93.995 Y-17.444
X-93.889 Y-17.338
X-93.818 Y-17.206
X-93.795 Y-17.058
X-93.799 Y-17.025
X-93.85 Y-16.892
X-93.957 Y-16.797
X-94.096 Y-16.763
X-94.21 Y-16.762
X-94.247 Y-16.771
X-94.279 Y-16.793
X-94.3 Y-16.825
X-94.307 Y-16.862
Y-17.401
X-94.299 Y-17.439
X-94.279 Y-17.471
X-94.247 Y-17.492
X-94.21 Y-17.501
X-93.994
X-93.919 Y-17.497
X-93.779 Y-17.444
X-93.676 Y-17.335
X-93.611 Y-17.2
X-93.595 Y-17.051
X-93.6 Y-17.015
X-93.654 Y-16.886
X-93.761 Y-16.795
X-93.897 Y-16.763
X-94.096
X-94.13 Y-16.77
X-94.159 Y-16.788
X-94.181 Y-16.814
X-94.192 Y-16.847
X-94.191 Y-16.881
X-94.089 Y-17.42
X-94.077 Y-17.451
X-94.056 Y-17.477
X-94.027 Y-17.494
X-93.994 Y-17.501
X-93.787
X-93.712 Y-17.497
X-93.571 Y-17.445
X-93.469 Y-17.336
X-93.407 Y-17.199
X-93.393 Y-17.05
X-93.399 Y-17.013
X-93.453 Y-16.885
X-93.559 Y-16.795
X-93.695 Y-16.763
X-93.897
X-93.93 Y-16.77
X-93.96 Y-16.788
X-93.981 Y-16.815
X-93.992 Y-16.848
X-93.991 Y-16.883
X-93.882 Y-17.421
X-93.87 Y-17.452
X-93.848 Y-17.477
X-93.82 Y-17.494
X-93.787 Y-17.501
X-93.571
X-93.496 Y-17.497
X-93.358 Y-17.439
X-93.26 Y-17.326
X-93.202 Y-17.188
X-93.191 Y-17.038
X-93.197 Y-17.006
X-93.253 Y-16.881
X-93.359 Y-16.794
X-93.492 Y-16.763
X-93.695
X-93.729 Y-16.77
X-93.759 Y-16.789
X-93.78 Y-16.816
X-93.79 Y-16.85
X-93.789 Y-16.885
X-93.665 Y-17.423
X-93.653 Y-17.454
X-93.632 Y-17.478
X-93.603 Y-17.495
X-93.571 Y-17.501
X-93.364
X-93.289 Y-17.497
X-93.152 Y-17.437
X-93.055 Y-17.323
X-92.997 Y-17.184
X-92.988 Y-17.034
X-92.994 Y-17.004
X-93.05 Y-16.88
X-93.156 Y-16.794
X-93.288 Y-16.763
X-93.492
X-93.526 Y-16.77
X-93.556 Y-16.789
X-93.577 Y-16.817
X-93.588 Y-16.851
X-93.586 Y-16.886
X-93.458 Y-17.424
X-93.445 Y-17.454
X-93.424 Y-17.478
X-93.396 Y-17.495
X-93.364 Y-17.501
X-93.148
X-93.073 Y-17.497
X-92.94 Y-17.43
X-92.846 Y-17.313
X-92.792 Y-17.173
X-92.785 Y-17.023
X-92.791 Y-16.996
X-92.849 Y-16.876
X-92.953 Y-16.792
X-93.084 Y-16.763
X-93.288
X-93.323 Y-16.77
X-93.353 Y-16.789
X-93.374 Y-16.818
X-93.384 Y-16.852
X-93.381 Y-16.888
X-93.242 Y-17.426
X-93.229 Y-17.455
X-93.207 Y-17.479
X-93.18 Y-17.495
X-93.148 Y-17.501
X-92.941
X-92.866 Y-17.497
X-92.733 Y-17.428
X-92.64 Y-17.31
X-92.587 Y-17.17
X-92.581 Y-17.02
X-92.587 Y-16.995
X-92.645 Y-16.875
X-92.749 Y-16.792
X-92.879 Y-16.763
X-93.084
X-93.119 Y-16.77
X-93.149 Y-16.79
X-93.17 Y-16.818
X-93.18 Y-16.853
X-93.177 Y-16.888
X-93.034 Y-17.427
X-93.021 Y-17.456
X-93 Y-17.479
X-92.972 Y-17.495
X-92.941 Y-17.501
X-92.725
X-92.65 Y-17.497
X-92.521 Y-17.421
X-92.431 Y-17.301
X-92.38 Y-17.16
X-92.377 Y-17.01
X-92.383 Y-16.989
X-92.442 Y-16.872
X-92.546 Y-16.791
X-92.674 Y-16.763
X-92.879
X-92.914 Y-16.77
X-92.945 Y-16.79
X-92.966 Y-16.819
X-92.975 Y-16.854
X-92.972 Y-16.89
X-92.818 Y-17.429
X-92.805 Y-17.457
X-92.784 Y-17.48
X-92.756 Y-17.495
X-92.725 Y-17.501
X-92.556
X-92.481 Y-17.497
X-92.341 Y-17.444
X-92.241 Y-17.332
X-92.182 Y-17.194
X-92.168 Y-17.045
X-92.175 Y-17.009
X-92.23 Y-16.883
X-92.336 Y-16.794
X-92.47 Y-16.763
X-92.674
X-92.708 Y-16.77
X-92.737 Y-16.788
X-92.759 Y-16.816
X-92.769 Y-16.849
X-92.768 Y-16.884
X-92.65 Y-17.422
X-92.638 Y-17.453
X-92.617 Y-17.478
X-92.588 Y-17.495
X-92.556 Y-17.501
X-92.349
X-92.274 Y-17.497
X-92.135 Y-17.441
X-92.036 Y-17.328
X-91.977 Y-17.19
X-91.966 Y-17.041
X-91.972 Y-17.007
X-92.027 Y-16.882
X-92.133 Y-16.794
X-92.267 Y-16.763
X-92.47
X-92.504 Y-16.77
X-92.534 Y-16.789
X-92.555 Y-16.816
X-92.565 Y-16.85
X-92.564 Y-16.885
X-92.443 Y-17.423
X-92.431 Y-17.453
X-92.409 Y-17.478
X-92.381 Y-17.495
X-92.349 Y-17.501
X-92.133
X-92.058 Y-17.497
X-91.923 Y-17.433
X-91.827 Y-17.317
X-91.772 Y-17.178
X-91.764 Y-17.028
X-91.77 Y-17
X-91.827 Y-16.878
X-91.932 Y-16.793
X-92.063 Y-16.763
X-92.267
X-92.301 Y-16.77
X-92.331 Y-16.789
X-92.353 Y-16.817
X-92.363 Y-16.851
X-92.36 Y-16.887
X-92.227 Y-17.425
X-92.214 Y-17.455
X-92.193 Y-17.479
X-92.165 Y-17.495
X-92.133 Y-17.501
X-91.926
X-91.851 Y-17.497
X-91.716 Y-17.431
X-91.622 Y-17.315
X-91.567 Y-17.175
X-91.56 Y-17.025
X-91.566 Y-16.998
X-91.623 Y-16.877
X-91.728 Y-16.793
X-91.859 Y-16.763
X-92.063
X-92.098 Y-16.77
X-92.128 Y-16.789
X-92.149 Y-16.818
X-92.159 Y-16.852
X-92.156 Y-16.887
X-92.019 Y-17.426
X-92.007 Y-17.455
X-91.985 Y-17.479
X-91.957 Y-17.495
X-91.926 Y-17.501
X-91.71
X-91.635 Y-17.497
X-91.504 Y-17.424
X-91.413 Y-17.305
X-91.361 Y-17.165
X-91.357 Y-17.015
X-91.362 Y-16.992
X-91.421 Y-16.873
X-91.525 Y-16.792
X-91.654 Y-16.763
X-91.859
X-91.894 Y-16.77
X-91.924 Y-16.79
X-91.945 Y-16.819
X-91.955 Y-16.853
X-91.952 Y-16.889
X-91.803 Y-17.428
X-91.79 Y-17.456
X-91.769 Y-17.48
X-91.741 Y-17.495
X-91.71 Y-17.501
X-91.541
X-91.466 Y-17.497
X-91.325 Y-17.447
X-91.223 Y-17.337
X-91.163 Y-17.199
X-91.148 Y-17.05
X-91.154 Y-17.012
X-91.209 Y-16.884
X-91.315 Y-16.795
X-91.45 Y-16.763
X-91.654
X-91.688 Y-16.77
X-91.717 Y-16.788
X-91.738 Y-16.815
X-91.749 Y-16.848
X-91.748 Y-16.883
X-91.635 Y-17.422
X-91.623 Y-17.452
X-91.602 Y-17.478
X-91.573 Y-17.494
X-91.541 Y-17.501
X-91.334
X-91.259 Y-17.497
X-91.118 Y-17.445
X-91.019 Y-17.333
X-90.958 Y-17.195
X-90.945 Y-17.046
X-90.952 Y-17.01
X-91.007 Y-16.883
X-91.113 Y-16.795
X-91.247 Y-16.763
X-91.45
X-91.484 Y-16.77
X-91.514 Y-16.788
X-91.535 Y-16.816
X-91.546 Y-16.849
X-91.544 Y-16.884
X-91.428 Y-17.422
X-91.416 Y-17.453
X-91.394 Y-17.478
X-91.366 Y-17.494
X-91.334 Y-17.501
X-91.118
X-91.043 Y-17.497
X-90.906 Y-17.436
X-90.81 Y-17.321
X-90.753 Y-17.183
X-90.744 Y-17.033
X-90.75 Y-17.002
X-90.806 Y-16.879
X-90.911 Y-16.793
X-91.044 Y-16.763
X-91.247
X-91.282 Y-16.77
X-91.311 Y-16.789
X-91.333 Y-16.817
X-91.343 Y-16.851
X-91.341 Y-16.886
X-91.212 Y-17.424
X-91.199 Y-17.454
X-91.178 Y-17.479
X-91.15 Y-17.495
X-91.118 Y-17.501
X-90.911
X-90.836 Y-17.497
X-90.7 Y-17.434
X-90.604 Y-17.318
X-90.548 Y-17.179
X-90.54 Y-17.029
X-90.546 Y-17.001
X-90.603 Y-16.878
X-90.708 Y-16.793
X-90.84 Y-16.763
X-91.044
X-91.078 Y-16.77
X-91.108 Y-16.789
X-91.129 Y-16.817
X-91.14 Y-16.851
X-91.137 Y-16.887
X-91.004 Y-17.425
X-90.992 Y-17.455
X-90.97 Y-17.479
X-90.942 Y-17.495
X-90.911 Y-17.501
X-90.695
X-90.62 Y-17.497
X-90.488 Y-17.427
X-90.395 Y-17.309
X-90.342 Y-17.168
X-90.337 Y-17.018
X-90.343 Y-16.994
X-90.401 Y-16.874
X-90.505 Y-16.792
X-90.635 Y-16.763
X-90.84
X-90.875 Y-16.77
X-90.905 Y-16.79
X-90.926 Y-16.818
X-90.936 Y-16.853
X-90.933 Y-16.889
X-90.788 Y-17.427
X-90.775 Y-17.456
X-90.754 Y-17.479
X-90.726 Y-17.495
X-90.695 Y-17.501
X-90.488
X-90.441
X-90.404 Y-17.499
X-90.275 Y-17.422
X-90.186 Y-17.301
X-90.136 Y-17.16
X-90.133 Y-17.01
X-90.138 Y-16.989
X-90.198 Y-16.872
X-90.301 Y-16.791
X-90.429 Y-16.763
X-90.635
X-90.673 Y-16.771
X-90.704 Y-16.794
X-90.725 Y-16.827
X-90.731 Y-16.865
X-90.723 Y-16.902
X-90.701 Y-16.934
X-90.669 Y-16.955
X-90.27 Y-17.116
X-90.233 Y-17.123
X-90.195 Y-17.116
X-90.163 Y-17.095
X-90.141 Y-17.063
X-90.133 Y-17.026
Y-16.881
X-90.134 Y-16.86
X-90.136 Y-16.849
X-90.14 Y-16.839
X-90.149 Y-16.821
X-90.158 Y-16.809
X-90.17 Y-16.797
X-90.192 Y-16.782
X-90.202 Y-16.775
X-90.213 Y-16.77
X-90.223 Y-16.766
X-90.234 Y-16.764
X-90.318 Y-16.763
X-90.429
X-90.466 Y-16.771
X-90.497 Y-16.792
X-90.518 Y-16.824
X-90.526 Y-16.86
X-90.538 Y-17.399
X-90.531 Y-17.437
X-90.51 Y-17.47
X-90.479 Y-17.492
X-90.441 Y-17.501
X-90.318
X-90.272 Y-17.5
X-90.234
X-90.223 Y-17.497
X-90.205 Y-17.49
X-90.18 Y-17.469
X-90.166 Y-17.44
X-90.165 Y-17.407
X-90.178 Y-17.377
X-90.203 Y-17.355
X-90.234 Y-17.346
X-90.267 Y-17.35
X-90.294 Y-17.368
X-90.312 Y-17.395
X-90.317 Y-17.428
X-90.307 Y-17.459
X-90.286 Y-17.484
X-90.256 Y-17.497
X-90.223
X-90.213 Y-17.494
X-90.202 Y-17.489
X-90.192 Y-17.482
X-90.17 Y-17.467
X-90.158 Y-17.455
X-90.149 Y-17.443
X-90.142 Y-17.43
X-90.138 Y-17.42
X-90.135 Y-17.409
X-90.133 Y-17.398
Y-17.026
X-90.138 Y-16.995
X-90.153 Y-16.966
X-90.176 Y-16.944
X-90.205 Y-16.93
X-90.237 Y-16.926
X-90.861 Y-16.95
X-94.744 Y-17.1
X-94.782 Y-17.109
X-94.813 Y-17.131
X-94.834 Y-17.164
X-94.84 Y-17.202
X-94.832 Y-17.24
X-94.81 Y-17.272
X-94.777 Y-17.293
X-94.739 Y-17.3
X-94.702 Y-17.292
X-94.669 Y-17.271
X-94.648 Y-17.239
X-94.64 Y-17.201
G3 X-94.718 Y-16.419 I-3.646 J0.033
G1 X-94.765 Y-16.226
Y-16.216
X-94.763 Y-16.205
X-94.751 Y-16.131
X-94.795 Y-15.988
X-94.892 Y-15.873
X-95.015 Y-15.788
X-95.154 Y-15.731
X-95.301 Y-15.699
X-95.365 Y-15.697
X-95.468 Y-15.71
X-95.56 Y-15.757
X-95.63 Y-15.833
X-95.794 Y-16.091
X-95.806 Y-16.123
X-95.807 Y-16.157
X-95.796 Y-16.189
X-95.775 Y-16.216
X-95.746 Y-16.234
X-95.713 Y-16.241
X-95.512 Y-16.251
X-94.865 Y-16.281
X-94.831 Y-16.277
X-94.8 Y-16.262
X-94.777 Y-16.237
X-94.763 Y-16.205
X-94.727 Y-16.032
X-94.715 Y-15.958
X-94.739 Y-15.81
X-94.825 Y-15.687
X-94.941 Y-15.592
X-95.074 Y-15.522
X-95.161 Y-15.497
X-95.277 Y-15.488
X-95.388 Y-15.523
X-95.477 Y-15.598
X-95.63 Y-15.833
X-95.643 Y-15.869
X-95.642 Y-15.908
X-95.625 Y-15.943
X-95.597 Y-15.969
X-95.561 Y-15.983
X-95.467 Y-15.999
X-94.841 Y-16.107
X-94.804 Y-16.106
X-94.769 Y-16.092
X-94.742 Y-16.066
X-94.727 Y-16.032
X-94.718 Y-15.989
X-94.712 Y-15.969
X-94.702 Y-15.949
X-94.678 Y-15.91
X-94.639 Y-15.845
X-94.632 Y-15.695
X-94.693 Y-15.558
X-94.791 Y-15.445
X-94.912 Y-15.356
X-94.975 Y-15.328
X-95.102 Y-15.303
X-95.227 Y-15.333
X-95.328 Y-15.414
X-95.477 Y-15.598
X-95.494 Y-15.632
X-95.496 Y-15.67
X-95.484 Y-15.707
X-95.46 Y-15.736
X-95.426 Y-15.754
X-95.421 Y-15.755
X-94.788 Y-15.947
X-94.757 Y-15.951
X-94.727 Y-15.946
X-94.699 Y-15.932
X-94.678 Y-15.91
X-94.59 Y-15.779
X-94.551 Y-15.715
X-94.52 Y-15.568
X-94.563 Y-15.424
X-94.645 Y-15.299
X-94.756 Y-15.198
X-94.814 Y-15.167
X-94.946 Y-15.131
X-95.081 Y-15.158
X-95.19 Y-15.243
X-95.328 Y-15.414
X-95.345 Y-15.446
X-95.348 Y-15.482
X-95.339 Y-15.517
X-95.318 Y-15.546
X-95.288 Y-15.566
X-94.71 Y-15.812
X-94.677 Y-15.82
X-94.644 Y-15.816
X-94.614 Y-15.802
X-94.59 Y-15.779
X-94.549 Y-15.718
X-94.48 Y-15.63
X-94.437 Y-15.569
X-94.4 Y-15.424
X-94.432 Y-15.277
X-94.506 Y-15.147
X-94.613 Y-15.041
X-94.659 Y-15.013
X-94.783 Y-14.972
X-94.913 Y-14.987
X-95.024 Y-15.056
X-95.114 Y-15.15
X-95.19 Y-15.243
X-95.206 Y-15.274
X-95.21 Y-15.309
X-95.201 Y-15.343
X-95.181 Y-15.372
X-95.153 Y-15.393
X-94.6 Y-15.656
X-94.569 Y-15.666
X-94.536 Y-15.664
X-94.505 Y-15.652
X-94.48 Y-15.63
X-94.435 Y-15.572
X-94.379 Y-15.504
X-94.364 Y-15.487
X-94.315 Y-15.431
X-94.269 Y-15.288
X-94.292 Y-15.14
X-94.358 Y-15.005
X-94.459 Y-14.895
X-94.49 Y-14.875
X-94.611 Y-14.828
X-94.741 Y-14.837
X-94.855 Y-14.901
X-94.972 Y-15.005
X-95.024 Y-15.056
X-95.044 Y-15.087
X-95.051 Y-15.122
X-95.046 Y-15.158
X-95.028 Y-15.189
X-95 Y-15.212
X-94.483 Y-15.503
X-94.453 Y-15.514
X-94.421 Y-15.515
X-94.39 Y-15.506
X-94.364 Y-15.487
X-94.283 Y-15.403
X-94.243 Y-15.363
X-94.192 Y-15.307
X-94.13 Y-15.171
X-94.14 Y-15.021
X-94.196 Y-14.882
X-94.291 Y-14.766
X-94.315 Y-14.748
X-94.436 Y-14.695
X-94.567 Y-14.698
X-94.684 Y-14.757
X-94.802 Y-14.855
X-94.855 Y-14.901
X-94.876 Y-14.93
X-94.886 Y-14.964
X-94.883 Y-14.999
X-94.867 Y-15.032
X-94.842 Y-15.056
X-94.366 Y-15.373
X-94.336 Y-15.387
X-94.303 Y-15.39
X-94.271 Y-15.381
X-94.243 Y-15.363
X-94.126 Y-15.246
X-94.112 Y-15.234
X-94.057 Y-15.183
X-93.985 Y-15.051
X-93.987 Y-14.901
X-94.036 Y-14.759
X-94.126 Y-14.64
X-94.149 Y-14.621
X-94.271 Y-14.565
X-94.405 Y-14.566
X-94.525 Y-14.626
X-94.684 Y-14.757
X-94.706 Y-14.785
X-94.717 Y-14.819
X-94.715 Y-14.855
X-94.701 Y-14.888
X-94.677 Y-14.913
X-94.232 Y-15.236
X-94.203 Y-15.251
X-94.171 Y-15.255
X-94.14 Y-15.25
X-94.112 Y-15.234
X-94.041 Y-15.174
X-93.956 Y-15.107
X-93.9 Y-15.058
X-93.832 Y-14.924
X-93.831 Y-14.774
X-93.877 Y-14.632
X-93.967 Y-14.511
X-93.989 Y-14.493
X-94.111 Y-14.435
X-94.246 Y-14.436
X-94.367 Y-14.496
X-94.525 Y-14.626
X-94.547 Y-14.654
X-94.558 Y-14.688
X-94.556 Y-14.723
X-94.542 Y-14.756
X-94.518 Y-14.782
X-94.075 Y-15.107
X-94.047 Y-15.122
X-94.016 Y-15.127
X-93.984 Y-15.122
X-93.956 Y-15.107
X-93.795 Y-14.981
X-93.738 Y-14.932
X-93.674 Y-14.796
X-93.673 Y-14.646
X-93.719 Y-14.503
X-93.807 Y-14.383
X-93.829 Y-14.365
X-93.947 Y-14.308
X-94.078 Y-14.306
X-94.197 Y-14.36
X-94.235 Y-14.389
X-94.34 Y-14.474
X-94.367 Y-14.496
X-94.389 Y-14.524
X-94.4 Y-14.558
X-94.398 Y-14.593
X-94.384 Y-14.626
X-94.36 Y-14.652
X-93.912 Y-14.98
X-93.884 Y-14.994
X-93.854 Y-14.999
X-93.823 Y-14.995
X-93.795 Y-14.981
X-93.648 Y-14.868
X-93.591 Y-14.819
X-93.516 Y-14.69
X-93.508 Y-14.54
X-93.548 Y-14.395
X-93.632 Y-14.27
X-93.655 Y-14.25
X-93.775 Y-14.186
X-93.91 Y-14.181
X-94.034 Y-14.237
X-94.197 Y-14.36
X-94.22 Y-14.387
X-94.233 Y-14.42
Y-14.456
X-94.22 Y-14.489
X-94.197 Y-14.516
X-93.769 Y-14.864
X-93.741 Y-14.88
X-93.709 Y-14.886
X-93.677 Y-14.882
X-93.648 Y-14.868
X-93.574 Y-14.812
X-93.493 Y-14.752
X-93.435 Y-14.704
X-93.355 Y-14.577
X-93.344 Y-14.427
X-93.381 Y-14.282
X-93.461 Y-14.155
X-93.485 Y-14.133
X-93.603 Y-14.067
X-93.738 Y-14.059
X-93.863 Y-14.111
X-93.956 Y-14.178
X-94.034 Y-14.237
X-94.057 Y-14.263
X-94.069 Y-14.296
Y-14.331
X-94.057 Y-14.364
X-94.035 Y-14.391
X-93.613 Y-14.745
X-93.586 Y-14.762
X-93.554 Y-14.769
X-93.522 Y-14.765
X-93.493 Y-14.752
X-93.309 Y-14.617
X-93.25 Y-14.57
X-93.187 Y-14.433
X-93.185 Y-14.283
X-93.228 Y-14.14
X-93.313 Y-14.017
X-93.33 Y-14.003
X-93.446 Y-13.944
X-93.576 Y-13.94
X-93.695 Y-13.991
X-93.863 Y-14.111
X-93.887 Y-14.138
X-93.9 Y-14.171
Y-14.208
X-93.888 Y-14.241
X-93.864 Y-14.268
X-93.427 Y-14.612
X-93.399 Y-14.628
X-93.368 Y-14.634
X-93.337 Y-14.63
X-93.309 Y-14.617
X-93.169 Y-14.517
X-93.111 Y-14.47
X-93.029 Y-14.344
X-93.014 Y-14.195
X-93.048 Y-14.049
X-93.125 Y-13.92
X-93.149 Y-13.898
X-93.267 Y-13.829
X-93.404 Y-13.82
X-93.531 Y-13.873
X-93.695 Y-13.991
X-93.719 Y-14.016
X-93.732 Y-14.049
X-93.733 Y-14.084
X-93.722 Y-14.117
X-93.701 Y-14.145
X-93.291 Y-14.508
X-93.263 Y-14.526
X-93.232 Y-14.533
X-93.199 Y-14.53
X-93.169 Y-14.517
X-92.991 Y-14.389
X-92.932 Y-14.343
X-92.861 Y-14.211
X-92.852 Y-14.061
X-92.889 Y-13.916
X-92.971 Y-13.79
X-92.992 Y-13.771
X-93.111 Y-13.707
X-93.246 Y-13.701
X-93.37 Y-13.755
X-93.494 Y-13.846
X-93.531 Y-13.873
X-93.555 Y-13.899
X-93.568 Y-13.932
Y-13.968
X-93.556 Y-14.001
X-93.534 Y-14.028
X-93.11 Y-14.383
X-93.082 Y-14.399
X-93.051 Y-14.406
X-93.02 Y-14.402
X-92.991 Y-14.389
X-92.831 Y-14.276
X-92.772 Y-14.229
X-92.697 Y-14.1
X-92.684 Y-13.95
X-92.719 Y-13.804
X-92.799 Y-13.677
X-92.825 Y-13.654
X-92.945 Y-13.586
X-93.082 Y-13.579
X-93.209 Y-13.634
X-93.37 Y-13.755
X-93.393 Y-13.781
X-93.406 Y-13.814
Y-13.849
X-93.395 Y-13.882
X-93.372 Y-13.909
X-92.951 Y-14.268
X-92.923 Y-14.285
X-92.892 Y-14.292
X-92.86 Y-14.289
X-92.831 Y-14.276
X-92.658 Y-14.153
X-92.599 Y-14.106
X-92.529 Y-13.974
X-92.52 Y-13.824
X-92.557 Y-13.679
X-92.638 Y-13.553
X-92.665 Y-13.529
X-92.786 Y-13.462
X-92.924 Y-13.456
X-93.051 Y-13.513
X-93.11 Y-13.56
X-93.209 Y-13.634
X-93.232 Y-13.661
X-93.244 Y-13.694
Y-13.729
X-93.232 Y-13.762
X-93.209 Y-13.789
X-92.777 Y-14.147
X-92.749 Y-14.163
X-92.718 Y-14.169
X-92.687 Y-14.166
X-92.658 Y-14.153
X-92.515 Y-14.051
X-92.456 Y-14.005
X-92.368 Y-13.884
X-92.348 Y-13.735
X-92.378 Y-13.588
X-92.451 Y-13.457
X-92.489 Y-13.417
X-92.612 Y-13.34
X-92.757 Y-13.33
X-92.889 Y-13.388
X-93.051 Y-13.513
X-93.073 Y-13.539
X-93.085 Y-13.571
Y-13.605
X-93.075 Y-13.638
X-93.054 Y-13.664
X-92.637 Y-14.042
X-92.61 Y-14.06
X-92.578 Y-14.068
X-92.545 Y-14.065
X-92.515 Y-14.051
X-92.31 Y-13.905
X-92.251 Y-13.859
X-92.19 Y-13.722
X-92.188 Y-13.572
X-92.23 Y-13.428
X-92.312 Y-13.303
X-92.346 Y-13.273
X-92.47 Y-13.206
X-92.611 Y-13.203
X-92.737 Y-13.265
X-92.857 Y-13.363
X-92.889 Y-13.388
X-92.912 Y-13.415
X-92.924 Y-13.449
X-92.923 Y-13.484
X-92.91 Y-13.517
X-92.886 Y-13.544
X-92.426 Y-13.901
X-92.399 Y-13.916
X-92.368 Y-13.922
X-92.338 Y-13.918
X-92.31 Y-13.905
X-92.159 Y-13.798
X-92.1 Y-13.751
X-92.028 Y-13.619
X-92.018 Y-13.47
X-92.054 Y-13.324
X-92.131 Y-13.195
X-92.237 Y-13.09
X-92.24 Y-13.088
X-92.351 Y-13.057
X-92.466 Y-13.069
X-92.567 Y-13.124
X-92.737 Y-13.265
X-92.759 Y-13.292
X-92.77 Y-13.324
X-92.769 Y-13.359
X-92.757 Y-13.391
X-92.734 Y-13.417
X-92.277 Y-13.792
X-92.25 Y-13.808
X-92.219 Y-13.815
X-92.187 Y-13.811
X-92.159 Y-13.798
X-92.011 Y-13.689
X-91.953 Y-13.641
X-91.867 Y-13.518
X-91.849 Y-13.369
X-91.878 Y-13.222
X-91.944 Y-13.087
X-92.042 Y-12.974
X-92.053 Y-12.967
X-92.174 Y-12.922
X-92.302 Y-12.932
X-92.415 Y-12.995
X-92.463 Y-13.038
X-92.567 Y-13.124
X-92.588 Y-13.15
X-92.599 Y-13.181
Y-13.214
X-92.589 Y-13.246
X-92.569 Y-13.272
X-92.136 Y-13.679
X-92.108 Y-13.698
X-92.075 Y-13.706
X-92.041 Y-13.703
X-92.011 Y-13.689
X-91.841 Y-13.561
X-91.82 Y-13.545
X-91.763 Y-13.496
X-91.695 Y-13.362
X-91.687 Y-13.212
X-91.722 Y-13.066
X-91.79 Y-12.933
X-91.895 Y-12.825
X-91.906 Y-12.819
X-92.024 Y-12.78
X-92.148 Y-12.792
X-92.256 Y-12.854
X-92.415 Y-12.995
X-92.435 Y-13.021
X-92.445 Y-13.053
X-92.444 Y-13.087
X-92.432 Y-13.118
X-92.41 Y-13.143
X-91.943 Y-13.54
X-91.914 Y-13.557
X-91.882 Y-13.563
X-91.849 Y-13.559
X-91.82 Y-13.545
X-91.672 Y-13.431
X-91.615 Y-13.382
X-91.534 Y-13.256
X-91.518 Y-13.107
X-91.544 Y-12.959
X-91.607 Y-12.823
X-91.704 Y-12.708
X-91.729 Y-12.691
X-91.851 Y-12.642
X-91.983 Y-12.65
X-92.099 Y-12.714
X-92.256 Y-12.854
X-92.276 Y-12.88
X-92.286 Y-12.911
Y-12.943
X-92.275 Y-12.974
X-92.255 Y-13
X-91.798 Y-13.423
X-91.77 Y-13.441
X-91.737 Y-13.449
X-91.703 Y-13.445
X-91.672 Y-13.431
X-91.588 Y-13.365
X-91.503 Y-13.297
X-91.447 Y-13.247
X-91.368 Y-13.12
X-91.351 Y-12.971
X-91.379 Y-12.823
X-91.44 Y-12.686
X-91.538 Y-12.573
X-91.576 Y-12.546
X-91.713 Y-12.493
X-91.859 Y-12.512
X-91.979 Y-12.597
X-92.011 Y-12.635
X-92.099 Y-12.714
X-92.118 Y-12.74
X-92.128 Y-12.771
Y-12.803
X-92.117 Y-12.834
X-92.097 Y-12.86
X-91.631 Y-13.29
X-91.602 Y-13.309
X-91.568 Y-13.317
X-91.534 Y-13.313
X-91.503 Y-13.297
X-91.391 Y-13.207
X-91.334 Y-13.153
X-91.302 Y-13.122
X-91.252 Y-13.067
X-91.193 Y-12.928
X-91.192 Y-12.778
X-91.234 Y-12.634
X-91.308 Y-12.504
X-91.416 Y-12.399
X-91.463 Y-12.371
X-91.6 Y-12.33
X-91.74 Y-12.356
X-91.852 Y-12.444
X-91.926 Y-12.535
X-91.979 Y-12.597
X-91.994 Y-12.625
X-92 Y-12.657
X-91.996 Y-12.688
X-91.982 Y-12.717
X-91.959 Y-12.74
X-91.951 Y-12.746
X-91.428 Y-13.129
X-91.398 Y-13.144
X-91.364 Y-13.148
X-91.331 Y-13.141
X-91.302 Y-13.122
X-91.134 Y-12.953
X-91.084 Y-12.897
X-91.034 Y-12.756
X-91.041 Y-12.606
X-91.089 Y-12.464
X-91.168 Y-12.337
X-91.278 Y-12.234
X-91.409 Y-12.158
X-91.524 Y-12.154
X-91.632 Y-12.193
X-91.717 Y-12.271
X-91.852 Y-12.444
X-91.867 Y-12.473
X-91.872 Y-12.504
X-91.866 Y-12.536
X-91.85 Y-12.564
X-91.827 Y-12.586
X-91.8 Y-12.604
X-91.258 Y-12.964
X-91.227 Y-12.977
X-91.194 Y-12.98
X-91.162 Y-12.972
X-91.134 Y-12.953
X-91.051 Y-12.869
X-90.995 Y-12.811
X-90.946 Y-12.754
X-90.885 Y-12.617
X-90.888 Y-12.467
X-90.931 Y-12.323
X-91.006 Y-12.193
X-91.107 Y-12.083
X-91.231 Y-11.998
X-91.261 Y-11.988
X-91.396 Y-11.974
X-91.523 Y-12.02
X-91.617 Y-12.118
X-91.672 Y-12.211
X-91.717 Y-12.271
X-91.732 Y-12.306
X-91.733 Y-12.344
X-91.72 Y-12.381
X-91.693 Y-12.409
X-91.647 Y-12.442
X-91.124 Y-12.82
X-91.092 Y-12.835
X-91.058 Y-12.839
X-91.024 Y-12.83
X-90.995 Y-12.811
X-90.826 Y-12.632
X-90.778 Y-12.575
X-90.731 Y-12.432
X-90.742 Y-12.283
X-90.791 Y-12.141
X-90.869 Y-12.013
X-90.971 Y-11.902
X-91.097 Y-11.821
X-91.147 Y-11.804
X-91.283 Y-11.788
X-91.412 Y-11.835
X-91.507 Y-11.934
X-91.617 Y-12.118
X-91.628 Y-12.154
X-91.626 Y-12.191
X-91.61 Y-12.225
X-91.582 Y-12.251
X-91.502 Y-12.301
X-90.949 Y-12.646
X-90.918 Y-12.658
X-90.885 Y-12.66
X-90.853 Y-12.651
X-90.826 Y-12.632
X-90.756 Y-12.555
X-90.739 Y-12.531
X-90.671 Y-12.419
X-90.6 Y-12.286
X-90.598 Y-12.136
X-90.64 Y-11.992
X-90.711 Y-11.86
X-90.809 Y-11.746
X-90.929 Y-11.657
X-91.033 Y-11.611
X-91.145 Y-11.586
X-91.258 Y-11.608
X-91.353 Y-11.673
X-91.415 Y-11.771
X-91.461 Y-11.855
X-91.507 Y-11.934
X-91.519 Y-11.971
X-91.515 Y-12.009
X-91.498 Y-12.043
X-91.469 Y-12.068
X-91.354 Y-12.135
X-90.804 Y-12.451
X-90.769 Y-12.463
X-90.731 Y-12.461
X-90.697 Y-12.446
X-90.671 Y-12.419
X-90.637 Y-12.362
X-90.589 Y-12.278
X-90.53 Y-12.168
X-90.498 Y-12.1
X-90.481 Y-11.951
X-90.517 Y-11.805
X-90.589 Y-11.674
X-90.687 Y-11.56
X-90.805 Y-11.468
X-90.94 Y-11.402
X-91.089 Y-11.373
X-91.204 Y-11.406
X-91.298 Y-11.482
X-91.354 Y-11.588
X-91.383 Y-11.686
X-91.415 Y-11.771
X-91.42 Y-11.807
X-91.411 Y-11.843
X-91.391 Y-11.873
X-91.361 Y-11.894
X-91.241 Y-11.948
X-90.657 Y-12.209
X-90.622 Y-12.217
X-90.586 Y-12.213
X-90.554 Y-12.195
X-90.53 Y-12.168
X-90.453 Y-12.024
X-90.411 Y-11.94
X-90.381 Y-11.871
X-90.373 Y-11.721
X-90.417 Y-11.578
X-90.495 Y-11.45
X-90.599 Y-11.341
X-90.72 Y-11.253
X-90.855 Y-11.188
X-91.002 Y-11.159
X-91.021 Y-11.16
X-91.144 Y-11.193
X-91.242 Y-11.274
X-91.297 Y-11.388
X-91.308 Y-11.433
X-91.354 Y-11.588
X-91.356 Y-11.624
X-91.345 Y-11.659
X-91.323 Y-11.688
X-91.291 Y-11.706
X-91.137 Y-11.764
X-90.533 Y-11.986
X-90.498 Y-11.992
X-90.464 Y-11.986
X-90.433 Y-11.967
X-90.411 Y-11.94
X-90.318 Y-11.751
X-90.305 Y-11.719
X-90.272 Y-11.572
X-90.297 Y-11.424
X-90.364 Y-11.29
X-90.457 Y-11.173
X-90.571 Y-11.075
X-90.702 Y-11.001
X-90.843 Y-10.952
X-90.93 Y-10.945
X-91.071 Y-10.966
X-91.186 Y-11.05
X-91.249 Y-11.178
X-91.288 Y-11.349
X-91.297 Y-11.388
X-91.298 Y-11.425
X-91.285 Y-11.46
X-91.261 Y-11.488
X-91.228 Y-11.505
X-91.018 Y-11.567
X-90.419 Y-11.744
X-90.387 Y-11.748
X-90.356 Y-11.742
X-90.328 Y-11.727
X-90.306 Y-11.703
X-90.293 Y-11.673
X-90.278 Y-11.602
X-90.246 Y-11.433
X-90.239 Y-11.392
X-90.223 Y-11.243
X-90.274 Y-11.101
X-90.36 Y-10.979
X-90.47 Y-10.877
X-90.597 Y-10.796
X-90.737 Y-10.742
X-90.885 Y-10.719
X-90.945 Y-10.724
X-91.073 Y-10.764
X-91.171 Y-10.857
X-91.218 Y-10.982
X-91.234 Y-11.095
X-91.249 Y-11.178
Y-11.216
X-91.234 Y-11.251
X-91.207 Y-11.279
X-91.172 Y-11.294
X-90.97 Y-11.338
X-90.359 Y-11.471
X-90.319
X-90.282 Y-11.456
X-90.254 Y-11.429
X-90.239 Y-11.392
X-90.206 Y-11.18
X-90.2 Y-11.133
X-90.187 Y-10.984
X-90.24 Y-10.843
X-90.33 Y-10.724
X-90.445 Y-10.628
X-90.577 Y-10.556
X-90.72 Y-10.509
X-90.869 Y-10.495
X-90.926 Y-10.501
X-91.053 Y-10.546
X-91.149 Y-10.642
X-91.192 Y-10.77
X-91.199 Y-10.842
X-91.218 Y-10.982
X-91.215 Y-11.02
X-91.198 Y-11.053
X-91.169 Y-11.078
X-91.134 Y-11.091
X-90.936 Y-11.121
X-90.313 Y-11.215
X-90.275 Y-11.213
X-90.24 Y-11.197
X-90.213 Y-11.169
X-90.2 Y-11.133
X-90.172 Y-10.926
X-90.163 Y-10.842
X-90.159 Y-10.8
X-90.171 Y-10.65
X-90.255 Y-10.526
X-90.366 Y-10.425
X-90.493 Y-10.346
X-90.634 Y-10.292
X-90.781 Y-10.267
X-90.931 Y-10.273
X-90.981 Y-10.288
X-91.097 Y-10.354
X-91.173 Y-10.464
X-91.194 Y-10.596
X-91.189 Y-10.673
X-91.191 Y-10.757
X-91.192 Y-10.77
X-91.188 Y-10.803
X-91.175 Y-10.833
X-91.152 Y-10.857
X-91.122 Y-10.872
X-91.09 Y-10.876
X-90.889 Y-10.872
X-90.258 Y-10.858
X-90.221 Y-10.85
X-90.189 Y-10.828
X-90.168 Y-10.796
X-90.16 Y-10.758
X-90.185 Y-10.504
X-90.207 Y-10.356
X-90.3 Y-10.238
X-90.419 Y-10.147
X-90.554 Y-10.082
X-90.699 Y-10.044
X-90.849 Y-10.034
X-90.997 Y-10.059
X-91.031 Y-10.074
X-91.134 Y-10.145
X-91.198 Y-10.252
X-91.213 Y-10.377
X-91.194 Y-10.596
X-91.183 Y-10.633
X-91.158 Y-10.663
X-91.124 Y-10.681
X-91.085 Y-10.685
X-90.904 Y-10.668
X-90.276 Y-10.61
X-90.239 Y-10.599
X-90.209 Y-10.575
X-90.19 Y-10.542
X-90.185 Y-10.504
X-90.202 Y-10.335
X-90.214 Y-10.25
X-90.25 Y-10.105
X-90.34 Y-9.985
X-90.462 Y-9.897
X-90.6 Y-9.839
X-90.747 Y-9.81
X-90.897 Y-9.808
X-91.044 Y-9.841
X-91.081 Y-9.859
X-91.185 Y-9.94
X-91.243 Y-10.058
X-91.245 Y-10.19
X-91.233 Y-10.25
X-91.217 Y-10.335
X-91.213 Y-10.377
X-91.201 Y-10.414
X-91.175 Y-10.443
X-91.14 Y-10.461
X-91.101 Y-10.463
X-90.925 Y-10.441
X-90.3 Y-10.36
X-90.264 Y-10.348
X-90.235 Y-10.323
X-90.217 Y-10.289
X-90.214 Y-10.25
X-90.264 Y-9.997
X-90.276 Y-9.951
X-90.32 Y-9.807
X-90.428 Y-9.704
X-90.56 Y-9.633
X-90.704 Y-9.59
X-90.854 Y-9.577
X-91.003 Y-9.592
X-91.144 Y-9.641
X-91.168 Y-9.657
