%
(n-026-030)
(T1  D=1 CR=0 - ZMIN=-2 - flat end mill)
G90 G94
G17
G21
G28 G91 Z0
G90

(Clear 15)
M9
T1 M6
S5000 M3
G54
M8
G0 X-120.884 Y-16.443
Z12
Z2
Z0.5
G3 X-120.4 Y-16.567 Z0.29 I0.242 J-0.062 F333.3
X-120.884 Y-16.443 Z0.079 I-0.242 J0.062
X-120.4 Y-16.567 Z-0.131 I0.242 J-0.062
X-120.884 Y-16.443 Z-0.342 I-0.242 J0.062
X-120.4 Y-16.567 Z-0.552 I0.242 J-0.062
X-120.884 Y-16.443 Z-0.763 I-0.242 J0.062
X-120.673 Y-16.753 Z-0.876 I0.242 J-0.062
X-120.392 Y-16.505 Z-0.99 I0.031 J0.248
X-120.892 I-0.25
X-120.392 I0.25
G1 X-120.355 Y-16.36 F1000
X-120.368 Y-16.286
X-120.405 Y-16.22
X-120.512 Y-16.115
X-120.656 Y-16.075
X-120.805 Y-16.097
X-120.935 Y-16.171
X-121.032 Y-16.286
X-121.084 Y-16.426
X-121.086 Y-16.576
X-121.038 Y-16.718
X-120.946 Y-16.837
X-120.821 Y-16.919
X-120.675 Y-16.955
X-120.526 Y-16.941
X-120.389 Y-16.878
X-120.281 Y-16.775
X-120.203 Y-16.647
X-120.152 Y-16.505
X-120.142 Y-16.356
X-120.177 Y-16.21
X-120.248 Y-16.078
X-120.356 Y-15.974
X-120.487 Y-15.901
X-120.633 Y-15.867
X-120.783 Y-15.875
X-120.927 Y-15.915
X-121.057 Y-15.991
X-121.163 Y-16.097
X-121.245 Y-16.223
X-121.295 Y-16.364
X-121.309 Y-16.513
X-121.293 Y-16.662
X-121.242 Y-16.804
X-121.16 Y-16.929
X-121.053 Y-17.035
X-120.926 Y-17.114
X-120.783 Y-17.16
X-120.634 Y-17.176
X-120.485 Y-17.158
X-120.345 Y-17.106
X-120.218 Y-17.025
X-120.109 Y-16.922
X-120.021 Y-16.8
X-119.959 Y-16.664
X-119.921 Y-16.519
X-119.916 Y-16.425
X-119.919 Y-16.362
X-119.937 Y-16.302
X-119.969 Y-16.248
X-120.007 Y-16.187
X-120.013 Y-16.167
X-120.058 Y-16.024
X-120.136 Y-15.896
X-120.242 Y-15.79
X-120.37 Y-15.711
X-120.511 Y-15.662
X-120.66 Y-15.64
X-120.81 Y-15.646
X-120.956 Y-15.68
X-120.966 Y-15.684
X-121.017 Y-15.713
X-121.061 Y-15.752
X-121.097 Y-15.798
X-121.168 Y-15.91
X-121.198 Y-15.973
X-121.239 Y-16.079
X-121.282 Y-16.193
X-121.367 Y-16.433
X-121.406 Y-16.547
X-121.445 Y-16.692
X-121.431 Y-16.841
X-121.378 Y-16.982
X-121.295 Y-17.107
X-121.281 Y-17.122
X-121.218 Y-17.171
X-121.145 Y-17.202
X-121.066 Y-17.213
X-121.028 Y-17.204
X-120.996 Y-17.181
X-120.976 Y-17.148
X-120.969 Y-17.109
X-120.978 Y-17.071
X-120.993 Y-17.04
X-121.221 Y-16.54
X-121.244 Y-16.509
X-121.277 Y-16.488
X-121.316 Y-16.482
X-121.354 Y-16.491
X-121.385 Y-16.514
X-121.406 Y-16.547
X-121.474 Y-16.754
X-121.493 Y-16.839
X-121.502 Y-16.885
X-121.51 Y-16.923
X-121.518 Y-16.97
X-121.526 Y-17.044
X-121.471 Y-17.132
X-121.385 Y-17.192
X-121.283 Y-17.213
G3 X-121.089 Y-16.982 I-0.007 J0.203
X-121.518 Y-16.97 I-0.215 J-0.029
G1 X-121.536 Y-17.092
Y-17.104
X-121.534 Y-17.122
X-121.529 Y-17.14
X-121.519 Y-17.158
X-121.503 Y-17.177
X-121.477 Y-17.195
X-121.464 Y-17.203
X-121.452 Y-17.208
X-121.441 Y-17.211
X-121.43 Y-17.212
X-120.352 Y-17.213
X-120.202 Y-17.205
X-120.064 Y-17.147
X-119.944 Y-17.057
X-119.845 Y-16.944
X-119.769 Y-16.815
X-119.734 Y-16.726
X-119.715 Y-16.595
X-119.754 Y-16.468
X-119.844 Y-16.371
X-119.894 Y-16.332
X-119.929 Y-16.298
X-119.95 Y-16.273
X-119.969 Y-16.248
X-119.995 Y-16.223
X-120.029 Y-16.209
X-120.065 Y-16.208
X-120.099 Y-16.22
X-120.127 Y-16.244
X-120.144 Y-16.276
X-120.195 Y-16.433
X-120.218 Y-16.501
X-120.222 Y-16.54
X-120.211 Y-16.578
X-120.187 Y-16.609
X-120.152 Y-16.627
X-120.113 Y-16.631
X-120.075 Y-16.62
X-120.045 Y-16.595
X-120.026 Y-16.56
G3 X-120.013 Y-16.167 I-0.76 J0.222
G1 X-120.072 Y-15.941
X-120.071 Y-15.931
X-120.067 Y-15.91
X-120.056 Y-15.836
X-120.107 Y-15.695
X-120.207 Y-15.582
X-120.331 Y-15.499
X-120.47 Y-15.442
X-120.617 Y-15.411
X-120.672 Y-15.408
X-120.775 Y-15.422
X-120.867 Y-15.47
X-120.937 Y-15.546
X-121.097 Y-15.798
X-121.109 Y-15.83
X-121.11 Y-15.864
X-121.099 Y-15.896
X-121.078 Y-15.923
X-121.049 Y-15.941
X-121.016 Y-15.948
X-120.815 Y-15.957
X-120.168 Y-15.987
X-120.134 Y-15.982
X-120.104 Y-15.967
X-120.08 Y-15.941
X-120.067 Y-15.91
X-120.033 Y-15.741
X-120.022 Y-15.667
X-120.05 Y-15.519
X-120.138 Y-15.398
X-120.254 Y-15.303
X-120.387 Y-15.233
X-120.47 Y-15.21
X-120.586 Y-15.201
X-120.696 Y-15.237
X-120.785 Y-15.312
X-120.79 Y-15.318
X-120.937 Y-15.546
X-120.95 Y-15.582
X-120.948 Y-15.62
X-120.932 Y-15.656
X-120.904 Y-15.682
X-120.867 Y-15.695
X-120.773 Y-15.711
X-120.147 Y-15.816
X-120.109
X-120.075 Y-15.801
X-120.048 Y-15.775
X-120.033 Y-15.741
X-120.022 Y-15.689
X-120.013 Y-15.671
X-119.987 Y-15.631
X-119.949 Y-15.566
X-119.94 Y-15.416
X-119.999 Y-15.279
X-120.095 Y-15.163
X-120.215 Y-15.073
X-120.28 Y-15.044
X-120.408 Y-15.017
X-120.535 Y-15.047
X-120.637 Y-15.129
X-120.785 Y-15.312
X-120.801 Y-15.346
X-120.804 Y-15.383
X-120.792 Y-15.419
X-120.768 Y-15.449
X-120.735 Y-15.467
X-120.727 Y-15.469
X-120.099 Y-15.668
X-120.068 Y-15.673
X-120.037 Y-15.668
X-120.009 Y-15.653
X-119.987 Y-15.631
X-119.893 Y-15.487
X-119.854 Y-15.423
X-119.829 Y-15.275
X-119.874 Y-15.132
X-119.958 Y-15.008
X-120.071 Y-14.909
X-120.124 Y-14.881
X-120.256 Y-14.846
X-120.389 Y-14.873
X-120.497 Y-14.956
X-120.637 Y-15.129
X-120.653 Y-15.161
X-120.656 Y-15.197
X-120.647 Y-15.232
X-120.625 Y-15.261
X-120.595 Y-15.281
X-120.012 Y-15.521
X-119.98 Y-15.528
X-119.947 Y-15.524
X-119.917 Y-15.51
X-119.893 Y-15.487
X-119.844 Y-15.416
X-119.771 Y-15.318
X-119.729 Y-15.256
X-119.712 Y-15.107
X-119.755 Y-14.964
X-119.836 Y-14.837
X-119.948 Y-14.738
X-119.981 Y-14.721
X-120.104 Y-14.686
X-120.231 Y-14.706
X-120.338 Y-14.777
X-120.448 Y-14.896
X-120.497 Y-14.956
X-120.513 Y-14.988
X-120.517 Y-15.024
X-120.508 Y-15.059
X-120.486 Y-15.089
X-120.456 Y-15.109
X-119.887 Y-15.348
X-119.856 Y-15.355
X-119.824 Y-15.352
X-119.795 Y-15.34
X-119.771 Y-15.318
X-119.76 Y-15.304
X-119.701 Y-15.234
X-119.675 Y-15.206
X-119.627 Y-15.148
X-119.579 Y-15.006
X-119.6 Y-14.857
X-119.667 Y-14.723
X-119.766 Y-14.61
X-119.798 Y-14.589
X-119.917 Y-14.543
X-120.045 Y-14.55
X-120.158 Y-14.611
X-120.195 Y-14.643
X-120.29 Y-14.727
X-120.338 Y-14.777
X-120.356 Y-14.807
X-120.363 Y-14.842
X-120.358 Y-14.877
X-120.34 Y-14.908
X-120.312 Y-14.931
X-119.795 Y-15.222
X-119.765 Y-15.233
X-119.732 Y-15.234
X-119.701 Y-15.225
X-119.675 Y-15.206
X-119.623 Y-15.15
X-119.54 Y-15.065
X-119.49 Y-15.009
X-119.44 Y-14.868
X-119.457 Y-14.719
X-119.516 Y-14.581
X-119.615 Y-14.468
X-119.633 Y-14.456
X-119.752 Y-14.408
X-119.88 Y-14.413
X-119.993 Y-14.472
X-120.158 Y-14.611
X-120.18 Y-14.64
X-120.19 Y-14.675
X-120.187 Y-14.711
X-120.171 Y-14.744
X-120.144 Y-14.769
X-119.662 Y-15.077
X-119.632 Y-15.089
X-119.599 Y-15.092
X-119.567 Y-15.083
X-119.54 Y-15.065
X-119.454 Y-14.981
X-119.387 Y-14.921
X-119.334 Y-14.868
X-119.292 Y-14.724
X-119.309 Y-14.575
X-119.368 Y-14.437
X-119.467 Y-14.325
X-119.477 Y-14.318
X-119.594 Y-14.274
X-119.72 Y-14.281
X-119.831 Y-14.338
X-119.993 Y-14.472
X-120.016 Y-14.501
X-120.027 Y-14.537
X-120.023 Y-14.574
X-120.007 Y-14.607
X-119.98 Y-14.632
X-119.504 Y-14.929
X-119.475 Y-14.941
X-119.444 Y-14.944
X-119.414 Y-14.937
X-119.387 Y-14.921
X-119.359 Y-14.896
X-119.253 Y-14.812
X-119.197 Y-14.762
X-119.138 Y-14.624
X-119.143 Y-14.474
X-119.193 Y-14.333
X-119.284 Y-14.213
X-119.302 Y-14.2
X-119.422 Y-14.146
X-119.554 Y-14.148
X-119.672 Y-14.207
X-119.831 Y-14.338
X-119.853 Y-14.367
X-119.864 Y-14.401
X-119.862 Y-14.437
X-119.848 Y-14.47
X-119.822 Y-14.495
X-119.37 Y-14.813
X-119.342 Y-14.827
X-119.311 Y-14.831
X-119.281 Y-14.826
X-119.253 Y-14.812
X-119.111 Y-14.701
X-119.054 Y-14.652
X-118.983 Y-14.52
X-118.978 Y-14.37
X-119.021 Y-14.226
X-119.106 Y-14.103
X-119.129 Y-14.083
X-119.248 Y-14.022
X-119.383 Y-14.019
X-119.505 Y-14.075
X-119.59 Y-14.14
X-119.672 Y-14.207
X-119.694 Y-14.235
X-119.705 Y-14.268
X-119.704 Y-14.303
X-119.691 Y-14.336
X-119.667 Y-14.362
X-119.23 Y-14.699
X-119.202 Y-14.714
X-119.171 Y-14.719
X-119.139 Y-14.715
X-119.111 Y-14.701
X-118.959 Y-14.583
X-118.901 Y-14.535
X-118.824 Y-14.406
X-118.815 Y-14.256
X-118.854 Y-14.111
X-118.937 Y-13.986
X-118.961 Y-13.964
X-119.082 Y-13.899
X-119.218 Y-13.894
X-119.343 Y-13.951
X-119.505 Y-14.075
X-119.527 Y-14.101
X-119.54 Y-14.134
Y-14.169
X-119.527 Y-14.202
X-119.505 Y-14.229
X-119.08 Y-14.579
X-119.052 Y-14.595
X-119.02 Y-14.601
X-118.988 Y-14.597
X-118.959 Y-14.583
X-118.914 Y-14.549
X-118.775 Y-14.446
X-118.717 Y-14.399
X-118.657 Y-14.261
X-118.658 Y-14.111
X-118.702 Y-13.968
X-118.79 Y-13.846
X-118.806 Y-13.833
X-118.922 Y-13.775
X-119.051 Y-13.772
X-119.169 Y-13.823
X-119.252 Y-13.883
X-119.343 Y-13.951
X-119.366 Y-13.978
X-119.378 Y-14.012
X-119.377 Y-14.048
X-119.364 Y-14.081
X-119.339 Y-14.108
X-118.891 Y-14.444
X-118.864 Y-14.458
X-118.834 Y-14.464
X-118.803 Y-14.46
X-118.775 Y-14.446
X-118.636 Y-14.344
X-118.578 Y-14.297
X-118.499 Y-14.169
X-118.487 Y-14.02
X-118.524 Y-13.874
X-118.603 Y-13.747
X-118.625 Y-13.726
X-118.743 Y-13.66
X-118.878 Y-13.651
X-119.003 Y-13.703
X-119.169 Y-13.823
X-119.193 Y-13.849
X-119.206 Y-13.882
X-119.207 Y-13.917
X-119.196 Y-13.95
X-119.174 Y-13.978
X-118.757 Y-14.337
X-118.73 Y-14.354
X-118.698 Y-14.361
X-118.666 Y-14.358
X-118.636 Y-14.344
X-118.464 Y-14.22
X-118.405 Y-14.174
X-118.333 Y-14.042
X-118.325 Y-13.892
X-118.362 Y-13.747
X-118.444 Y-13.621
X-118.463 Y-13.604
X-118.58 Y-13.54
X-118.714 Y-13.533
X-118.837 Y-13.585
X-119.003 Y-13.703
X-119.027 Y-13.729
X-119.04 Y-13.762
Y-13.798
X-119.029 Y-13.832
X-119.006 Y-13.859
X-118.583 Y-14.214
X-118.556 Y-14.23
X-118.525 Y-14.237
X-118.493 Y-14.234
X-118.464 Y-14.22
X-118.296 Y-14.1
X-118.237 Y-14.054
X-118.168 Y-13.921
X-118.159 Y-13.771
X-118.197 Y-13.626
X-118.28 Y-13.501
X-118.3 Y-13.483
X-118.419 Y-13.419
X-118.554 Y-13.414
X-118.678 Y-13.468
X-118.744 Y-13.518
X-118.837 Y-13.585
X-118.861 Y-13.611
X-118.874 Y-13.644
X-118.875 Y-13.68
X-118.863 Y-13.713
X-118.84 Y-13.741
X-118.415 Y-14.094
X-118.387 Y-14.11
X-118.356 Y-14.117
X-118.325 Y-14.113
X-118.296 Y-14.1
X-118.152 Y-13.998
X-118.093 Y-13.952
X-118.007 Y-13.829
X-117.988 Y-13.681
X-118.019 Y-13.534
X-118.094 Y-13.404
X-118.124 Y-13.373
X-118.245 Y-13.3
X-118.386 Y-13.291
X-118.516 Y-13.346
X-118.678 Y-13.468
X-118.701 Y-13.494
X-118.713 Y-13.526
X-118.714 Y-13.561
X-118.703 Y-13.593
X-118.682 Y-13.62
X-118.274 Y-13.989
X-118.247 Y-14.007
X-118.215 Y-14.015
X-118.182 Y-14.012
X-118.152 Y-13.998
X-117.983 Y-13.878
X-117.924 Y-13.832
X-117.84 Y-13.707
X-117.824 Y-13.558
X-117.855 Y-13.412
X-117.931 Y-13.282
X-117.963 Y-13.251
X-118.085 Y-13.177
X-118.227 Y-13.168
X-118.357 Y-13.225
X-118.516 Y-13.346
X-118.538 Y-13.372
X-118.551 Y-13.405
X-118.552 Y-13.439
X-118.541 Y-13.472
X-118.519 Y-13.499
X-118.105 Y-13.869
X-118.077 Y-13.887
X-118.045 Y-13.894
X-118.013 Y-13.891
X-117.983 Y-13.878
X-117.814 Y-13.758
X-117.755 Y-13.711
X-117.674 Y-13.585
X-117.659 Y-13.436
X-117.691 Y-13.289
X-117.768 Y-13.16
X-117.802 Y-13.127
X-117.925 Y-13.053
X-118.069 Y-13.045
X-118.2 Y-13.105
X-118.357 Y-13.225
X-118.379 Y-13.252
X-118.391 Y-13.284
X-118.392 Y-13.318
X-118.381 Y-13.351
X-118.359 Y-13.378
X-117.935 Y-13.75
X-117.907 Y-13.767
X-117.876 Y-13.774
X-117.843 Y-13.771
X-117.814 Y-13.758
X-117.645 Y-13.638
X-117.586 Y-13.591
X-117.507 Y-13.463
X-117.494 Y-13.314
X-117.526 Y-13.168
X-117.603 Y-13.039
X-117.643 Y-12.999
X-117.768 Y-12.923
X-117.914 Y-12.916
X-118.046 Y-12.979
X-118.179 Y-13.088
X-118.2 Y-13.105
X-118.222 Y-13.131
X-118.234 Y-13.163
Y-13.198
X-118.222 Y-13.23
X-118.2 Y-13.257
X-117.765 Y-13.63
X-117.737 Y-13.647
X-117.706 Y-13.654
X-117.674 Y-13.651
X-117.645 Y-13.638
X-117.475 Y-13.517
X-117.417 Y-13.47
X-117.341 Y-13.341
X-117.328 Y-13.191
X-117.362 Y-13.045
X-117.437 Y-12.916
X-117.542 Y-12.808
X-117.547 Y-12.805
X-117.659 Y-12.772
X-117.775 Y-12.785
X-117.878 Y-12.84
X-118.046 Y-12.979
X-118.067 Y-13.006
X-118.079 Y-13.038
X-118.078 Y-13.072
X-118.066 Y-13.104
X-118.044 Y-13.13
X-117.595 Y-13.51
X-117.568 Y-13.527
X-117.536 Y-13.534
X-117.505 Y-13.53
X-117.475 Y-13.517
X-117.306 Y-13.393
X-117.248 Y-13.345
X-117.175 Y-13.215
X-117.164 Y-13.065
X-117.198 Y-12.919
X-117.266 Y-12.785
X-117.37 Y-12.677
X-117.373 Y-12.675
X-117.491 Y-12.636
X-117.616 Y-12.648
X-117.724 Y-12.709
X-117.814 Y-12.787
X-117.878 Y-12.84
X-117.899 Y-12.866
X-117.91 Y-12.898
Y-12.932
X-117.899 Y-12.964
X-117.878 Y-12.99
X-117.429 Y-13.386
X-117.401 Y-13.403
X-117.369 Y-13.41
X-117.336 Y-13.407
X-117.306 Y-13.393
X-117.222 Y-13.33
X-117.137 Y-13.265
X-117.08 Y-13.216
X-117.009 Y-13.084
X-116.999 Y-12.934
X-117.031 Y-12.788
X-117.097 Y-12.653
X-117.2 Y-12.545
X-117.212 Y-12.538
X-117.331 Y-12.496
X-117.457 Y-12.508
X-117.567 Y-12.57
X-117.724 Y-12.709
X-117.744 Y-12.736
X-117.754 Y-12.767
X-117.753 Y-12.8
X-117.742 Y-12.831
X-117.721 Y-12.857
X-117.261 Y-13.259
X-117.233 Y-13.277
X-117.2 Y-13.284
X-117.167 Y-13.28
X-117.137 Y-13.265
X-116.968 Y-13.134
X-116.911 Y-13.086
X-116.842 Y-12.952
X-116.832 Y-12.803
X-116.863 Y-12.656
X-116.929 Y-12.521
X-117.031 Y-12.411
X-117.048 Y-12.4
X-117.169 Y-12.356
X-117.297 Y-12.366
X-117.408 Y-12.429
X-117.567 Y-12.57
X-117.587 Y-12.596
X-117.597 Y-12.628
X-117.596 Y-12.661
X-117.585 Y-12.692
X-117.563 Y-12.718
X-117.092 Y-13.128
X-117.063 Y-13.146
X-117.031 Y-13.153
X-116.998 Y-13.149
X-116.968 Y-13.134
X-116.799 Y-13
X-116.742 Y-12.95
X-116.675 Y-12.817
X-116.665 Y-12.667
X-116.697 Y-12.52
X-116.763 Y-12.386
X-116.864 Y-12.275
X-116.894 Y-12.256
X-117.025 Y-12.209
X-117.163 Y-12.226
X-117.278 Y-12.303
X-117.306 Y-12.333
X-117.335 Y-12.362
X-117.408 Y-12.429
X-117.428 Y-12.456
X-117.438 Y-12.487
Y-12.52
X-117.426 Y-12.551
X-117.405 Y-12.577
X-116.924 Y-12.995
X-116.895 Y-13.013
X-116.862 Y-13.02
X-116.829 Y-13.015
X-116.799 Y-13
X-116.714 Y-12.932
X-116.644 Y-12.869
X-116.629 Y-12.855
X-116.529 Y-12.743
X-116.494 Y-12.597
X-116.508 Y-12.448
X-116.562 Y-12.308
X-116.646 Y-12.184
X-116.761 Y-12.087
X-116.798 Y-12.07
X-116.928 Y-12.042
X-117.057 Y-12.073
X-117.159 Y-12.157
X-117.255 Y-12.278
X-117.278 Y-12.303
X-117.297 Y-12.338
X-117.302 Y-12.377
X-117.291 Y-12.415
X-117.266 Y-12.446
X-117.258 Y-12.452
X-116.761 Y-12.859
X-116.73 Y-12.876
X-116.694 Y-12.881
X-116.659 Y-12.874
X-116.629 Y-12.855
X-116.46 Y-12.685
X-116.41 Y-12.63
X-116.344 Y-12.495
X-116.343 Y-12.345
X-116.384 Y-12.2
X-116.459 Y-12.071
X-116.561 Y-11.961
X-116.689 Y-11.882
X-116.703 Y-11.878
X-116.82 Y-11.868
X-116.932 Y-11.905
X-117.022 Y-11.981
X-117.159 Y-12.157
X-117.176 Y-12.192
X-117.177 Y-12.232
X-117.164 Y-12.268
X-117.137 Y-12.297
X-117.113 Y-12.315
X-116.587 Y-12.693
X-116.556 Y-12.708
X-116.522 Y-12.712
X-116.489 Y-12.704
X-116.46 Y-12.685
X-116.376 Y-12.6
X-116.291 Y-12.511
X-116.242 Y-12.454
X-116.189 Y-12.314
X-116.196 Y-12.164
X-116.244 Y-12.022
X-116.323 Y-11.894
X-116.425 Y-11.785
X-116.553 Y-11.707
X-116.579 Y-11.699
X-116.71 Y-11.689
X-116.833 Y-11.736
X-116.924 Y-11.831
X-116.989 Y-11.94
X-117.022 Y-11.981
X-117.038 Y-12.017
X-117.04 Y-12.057
X-117.025 Y-12.094
X-116.998 Y-12.123
X-116.951 Y-12.155
X-116.418 Y-12.522
X-116.387 Y-12.536
X-116.352 Y-12.539
X-116.319 Y-12.53
X-116.291 Y-12.511
X-116.149 Y-12.362
X-116.101 Y-12.305
X-116.042 Y-12.167
X-116.045 Y-12.017
X-116.089 Y-11.874
X-116.162 Y-11.743
X-116.261 Y-11.63
X-116.384 Y-11.543
X-116.445 Y-11.519
X-116.584 Y-11.5
X-116.716 Y-11.545
X-116.813 Y-11.646
X-116.924 Y-11.831
X-116.936 Y-11.866
X-116.934 Y-11.903
X-116.918 Y-11.937
X-116.892 Y-11.963
X-116.815 Y-12.014
X-116.275 Y-12.374
X-116.244 Y-12.388
X-116.21 Y-12.39
X-116.177 Y-12.381
X-116.149 Y-12.362
X-116.072 Y-12.278
X-116.052 Y-12.254
X-115.986 Y-12.147
X-115.963 Y-12.109
X-115.928 Y-12.043
X-115.904 Y-11.894
X-115.931 Y-11.747
X-115.993 Y-11.611
X-116.084 Y-11.491
X-116.198 Y-11.393
X-116.331 Y-11.324
X-116.376 Y-11.313
X-116.511 Y-11.311
X-116.632 Y-11.369
X-116.717 Y-11.473
X-116.738 Y-11.517
X-116.813 Y-11.646
X-116.825 Y-11.684
X-116.821 Y-11.723
X-116.803 Y-11.757
X-116.772 Y-11.782
X-116.657 Y-11.844
X-116.094 Y-12.142
X-116.059 Y-12.153
X-116.022 Y-12.151
X-115.988 Y-12.135
X-115.963 Y-12.109
X-115.914 Y-12.024
X-115.843 Y-11.893
X-115.779 Y-11.757
X-115.79 Y-11.608
X-115.842 Y-11.467
X-115.924 Y-11.341
X-116.03 Y-11.236
X-116.156 Y-11.154
X-116.297 Y-11.104
X-116.35 Y-11.099
X-116.485 Y-11.118
X-116.597 Y-11.195
X-116.664 Y-11.314
X-116.689 Y-11.395
X-116.701 Y-11.433
X-116.717 Y-11.473
X-116.725 Y-11.511
X-116.719 Y-11.549
X-116.699 Y-11.581
X-116.668 Y-11.604
X-116.548 Y-11.661
X-115.973 Y-11.933
X-115.937 Y-11.942
X-115.9 Y-11.938
X-115.868 Y-11.921
X-115.843 Y-11.893
X-115.778 Y-11.771
X-115.715 Y-11.646
X-115.685 Y-11.577
X-115.679 Y-11.427
X-115.725 Y-11.284
X-115.805 Y-11.157
X-115.908 Y-11.049
X-116.031 Y-10.962
X-116.169 Y-10.904
X-116.317 Y-10.878
X-116.342 Y-10.881
X-116.457 Y-10.916
X-116.549 Y-10.994
X-116.603 Y-11.101
X-116.629 Y-11.196
X-116.664 Y-11.314
X-116.666 Y-11.351
X-116.655 Y-11.386
X-116.631 Y-11.415
X-116.599 Y-11.433
X-116.446 Y-11.485
X-115.835 Y-11.693
X-115.801 Y-11.698
X-115.767 Y-11.691
X-115.737 Y-11.673
X-115.715 Y-11.646
X-115.651 Y-11.517
X-115.614 Y-11.44
X-115.611 Y-11.433
X-115.584 Y-11.285
X-115.605 Y-11.137
X-115.67 Y-11.002
X-115.764 Y-10.884
X-115.879 Y-10.789
X-116.011 Y-10.717
X-116.153 Y-10.669
X-116.303 Y-10.658
X-116.315 Y-10.66
X-116.424 Y-10.703
X-116.508 Y-10.784
X-116.555 Y-10.891
X-116.603 Y-11.101
X-116.605 Y-11.137
X-116.594 Y-11.172
X-116.571 Y-11.2
X-116.539 Y-11.218
X-116.326 Y-11.293
X-115.74 Y-11.498
X-115.708 Y-11.504
X-115.676 Y-11.499
X-115.647 Y-11.484
X-115.624 Y-11.46
X-115.611 Y-11.43
X-115.591 Y-11.349
X-115.574 Y-11.264
X-115.558 Y-11.18
X-115.544 Y-11.095
X-115.528 Y-10.946
X-115.583 Y-10.806
X-115.672 Y-10.686
X-115.784 Y-10.586
X-115.912 Y-10.508
X-116.053 Y-10.455
X-116.201 Y-10.432
X-116.251 Y-10.436
X-116.379 Y-10.476
X-116.477 Y-10.568
X-116.524 Y-10.694
X-116.545 Y-10.843
X-116.555 Y-10.891
Y-10.929
X-116.54 Y-10.965
X-116.513 Y-10.992
X-116.477 Y-11.007
X-116.277 Y-11.048
X-115.662 Y-11.174
X-115.623
X-115.587 Y-11.159
X-115.559 Y-11.131
X-115.544 Y-11.095
X-115.504 Y-10.842
X-115.489 Y-10.692
X-115.546 Y-10.553
X-115.639 Y-10.436
X-115.755 Y-10.341
X-115.887 Y-10.269
X-116.029 Y-10.222
X-116.178 Y-10.208
X-116.233 Y-10.214
X-116.363 Y-10.26
X-116.458 Y-10.36
X-116.499 Y-10.491
X-116.5 Y-10.504
X-116.51 Y-10.588
X-116.524 Y-10.694
X-116.521 Y-10.732
X-116.504 Y-10.766
X-116.475 Y-10.791
X-116.439 Y-10.803
X-116.243 Y-10.831
X-115.617 Y-10.922
X-115.579 Y-10.92
X-115.544 Y-10.904
X-115.518 Y-10.877
X-115.504 Y-10.842
X-115.492 Y-10.757
X-115.472 Y-10.588
X-115.468 Y-10.542
X-115.464 Y-10.504
X-115.484 Y-10.355
X-115.57 Y-10.232
X-115.682 Y-10.133
X-115.811 Y-10.055
X-115.951 Y-10.003
X-116.099 Y-9.979
X-116.249 Y-9.987
X-116.293 Y-10.002
X-116.407 Y-10.069
X-116.481 Y-10.179
X-116.5 Y-10.31
X-116.494 Y-10.419
X-116.499 Y-10.491
X-116.495 Y-10.524
X-116.48 Y-10.553
X-116.457 Y-10.577
X-116.427 Y-10.591
X-116.394 Y-10.595
X-116.191 Y-10.585
X-115.564 Y-10.556
X-115.526 Y-10.547
X-115.494 Y-10.524
X-115.474 Y-10.49
X-115.468 Y-10.451
X-115.492 Y-10.204
X-115.503 Y-10.13
X-115.574 Y-9.998
X-115.683 Y-9.895
X-115.813 Y-9.82
X-115.955 Y-9.771
X-116.103 Y-9.749
X-116.253 Y-9.762
X-116.308 Y-9.778
X-116.425 Y-9.846
X-116.5 Y-9.958
X-116.519 Y-10.091
X-116.5 Y-10.31
X-116.488 Y-10.347
X-116.463 Y-10.377
X-116.429 Y-10.395
X-116.39 Y-10.399
X-116.21 Y-10.379
X-115.581 Y-10.31
X-115.545 Y-10.299
X-115.515 Y-10.275
X-115.497 Y-10.242
X-115.492 Y-10.204
X-115.504 Y-10.082
X-115.513 Y-9.997
X-115.522 Y-9.951
X-115.558 Y-9.806
X-115.656 Y-9.692
X-115.781 Y-9.608
X-115.919 Y-9.551
X-116.067 Y-9.523
X-116.217 Y-9.525
X-116.363 Y-9.559
X-116.398 Y-9.578
X-116.495 Y-9.661
X-116.549 Y-9.777
X-116.55 Y-9.904
X-116.531 Y-9.997
X-116.519 Y-10.091
X-116.506 Y-10.129
X-116.48 Y-10.158
X-116.445 Y-10.176
X-116.406 Y-10.178
X-116.228 Y-10.153
X-115.607 Y-10.066
X-115.57 Y-10.053
X-115.541 Y-10.026
X-115.524 Y-9.991
X-115.522 Y-9.951
X-115.563 Y-9.744
X-115.574 Y-9.697
X-115.615 Y-9.553
X-115.713 Y-9.44
X-115.841 Y-9.361
X-115.983 Y-9.313
X-116.132 Y-9.294
X-116.281 Y-9.302
X-116.425 Y-9.346
X-116.456 Y-9.364
X-116.552 Y-9.451
X-116.602 Y-9.571
X-116.596 Y-9.701
X-116.585 Y-9.744
X-116.558 Y-9.87
X-116.55 Y-9.904
X-116.534 Y-9.939
X-116.506 Y-9.965
X-116.471 Y-9.979
X-116.433 Y-9.978
X-116.267 Y-9.943
X-115.651 Y-9.815
X-115.615 Y-9.799
X-115.588 Y-9.772
X-115.573 Y-9.736
X-115.574 Y-9.697
X-115.614 Y-9.533
X-115.646 Y-9.406
X-115.659 Y-9.364
X-115.732 Y-9.233
X-115.855 Y-9.147
X-115.995 Y-9.094
X-116.143 Y-9.069
X-116.293 Y-9.072
X-116.439 Y-9.108
X-116.573 Y-9.175
X-116.588 Y-9.189
X-116.661 Y-9.291
X-116.686 Y-9.413
X-116.659 Y-9.535
X-116.629 Y-9.6
X-116.608 Y-9.659
X-116.596 Y-9.701
X-116.582 Y-9.731
X-116.558 Y-9.754
X-116.528 Y-9.768
X-116.495 Y-9.772
X-116.463 Y-9.764
X-116.307 Y-9.701
X-115.728 Y-9.465
X-115.701 Y-9.448
X-115.68 Y-9.424
X-115.668 Y-9.394
X-115.666 Y-9.362
X-115.675 Y-9.331
X-115.699 Y-9.287
X-115.783 Y-9.138
X-115.806 Y-9.099
X-115.889 Y-8.975
X-116.019 Y-8.898
X-116.163 Y-8.859
X-116.313 Y-8.853
X-116.461 Y-8.877
X-116.601 Y-8.931
X-116.656 Y-8.97
X-116.748 Y-9.076
X-116.782 Y-9.212
X-116.75 Y-9.348
X-116.679 Y-9.49
X-116.659 Y-9.535
X-116.635 Y-9.566
X-116.601 Y-9.585
X-116.562 Y-9.59
X-116.524 Y-9.579
X-116.406 Y-9.52
X-115.849 Y-9.237
X-115.823 Y-9.218
X-115.804 Y-9.192
X-115.795 Y-9.161
X-115.796 Y-9.13
X-115.806 Y-9.099
X-115.941 Y-8.875
X-115.953 Y-8.856
X-116.046 Y-8.738
X-116.18 Y-8.672
X-116.328 Y-8.646
X-116.478 Y-8.654
X-116.622 Y-8.694
X-116.753 Y-8.767
X-116.791 Y-8.801
X-116.869 Y-8.917
X-116.886 Y-9.055
X-116.839 Y-9.186
X-116.806 Y-9.237
X-116.75 Y-9.348
X-116.729 Y-9.375
X-116.701 Y-9.393
X-116.668 Y-9.4
X-116.635 Y-9.397
X-116.605 Y-9.383
X-116.519 Y-9.322
X-116.002 Y-8.96
X-115.975 Y-8.932
X-115.961 Y-8.897
Y-8.858
X-115.976 Y-8.823
X-115.982 Y-8.815
X-116.141 Y-8.616
X-116.191 Y-8.56
X-116.319 Y-8.483
X-116.467 Y-8.457
X-116.617 Y-8.471
X-116.759 Y-8.516
X-116.886 Y-8.597
X-116.92 Y-8.631
X-116.99 Y-8.745
X-117.004 Y-8.879
X-116.957 Y-9.006
X-116.839 Y-9.186
X-116.816 Y-9.209
X-116.786 Y-9.224
X-116.753 Y-9.228
X-116.721 Y-9.222
X-116.693 Y-9.205
X-116.641 Y-9.162
X-116.157 Y-8.752
X-116.133 Y-8.723
X-116.122 Y-8.687
X-116.124 Y-8.65
X-116.141 Y-8.616
X-116.28 Y-8.444
X-116.291 Y-8.432
X-116.348 Y-8.392
X-116.476 Y-8.313
X-116.623 Y-8.286
X-116.772 Y-8.304
X-116.913 Y-8.356
X-117.035 Y-8.443
X-117.07 Y-8.484
X-117.126 Y-8.584
X-117.14 Y-8.697
X-117.112 Y-8.807
X-117.045 Y-8.899
X-117.018 Y-8.915
X-116.987 Y-8.922
X-116.956 Y-8.92
X-116.927 Y-8.908
X-116.86 Y-8.867
X-116.356 Y-8.557
X-116.328 Y-8.531
X-116.311 Y-8.496
X-116.31 Y-8.457
X-116.323 Y-8.421
X-116.348 Y-8.392
X-116.593 Y-8.223
X-116.72 Y-8.144
X-116.87 Y-8.139
X-117.015 Y-8.179
X-117.143 Y-8.257
X-117.247 Y-8.364
X-117.265 Y-8.398
X-117.301 Y-8.527
X-117.276 Y-8.659
X-117.196 Y-8.767
X-117.045 Y-8.899
X-117.015 Y-8.916
X-116.982 Y-8.923
X-116.948 Y-8.918
X-116.918 Y-8.901
X-116.895 Y-8.876
X-116.568 Y-8.357
X-116.554 Y-8.322
Y-8.285
X-116.568 Y-8.251
X-116.593 Y-8.223
X-116.629 Y-8.198
X-116.725 Y-8.139
X-116.839 Y-8.073
X-116.906 Y-8.039
X-117.055 Y-8.023
X-117.199 Y-8.065
X-117.326 Y-8.144
X-117.423 Y-8.259
X-117.434 Y-8.283
X-117.461 Y-8.416
X-117.428 Y-8.547
X-117.339 Y-8.65
X-117.306 Y-8.674
X-117.222 Y-8.745
X-117.196 Y-8.767
X-117.164 Y-8.784
X-117.129 Y-8.788
X-117.093 Y-8.78
X-117.064 Y-8.76
X-117.043 Y-8.73
X-116.801 Y-8.2
X-116.792 Y-8.165
X-116.796 Y-8.129
X-116.812 Y-8.097
X-116.839 Y-8.073
X-116.968 Y-8
X-117.03 Y-7.97
X-117.168 Y-7.911
X-117.317 Y-7.926
X-117.452 Y-7.993
X-117.56 Y-8.097
X-117.634 Y-8.227
X-117.636 Y-8.239
Y-8.361
X-117.586 Y-8.472
X-117.496 Y-8.555
X-117.345 Y-8.646
X-117.339 Y-8.65
X-117.307 Y-8.665
X-117.271 Y-8.667
X-117.237 Y-8.657
X-117.209 Y-8.635
X-117.19 Y-8.605
X-116.984 Y-8.096
X-116.977 Y-8.06
X-116.983 Y-8.024
X-117.001 Y-7.993
X-117.03 Y-7.97
X-117.247 Y-7.864
X-117.28 Y-7.848
X-117.306 Y-7.835
X-117.344 Y-7.821
X-117.373 Y-7.814
X-117.38 Y-7.819
X-117.405 Y-7.843
X-117.42 Y-7.875
X-117.423 Y-7.909
X-117.414 Y-7.943
X-117.394 Y-7.971
X-116.971 Y-8.399
X-116.881 Y-8.49
X-116.851 Y-8.511
X-116.815 Y-8.519
X-116.779 Y-8.515
X-116.747 Y-8.497
X-116.723 Y-8.469
X-116.711 Y-8.435
X-116.712 Y-8.398
X-116.726 Y-8.365
G3 X-117.306 Y-7.835 I-1.324 J-0.868
G1 X-117.327 Y-7.826
X-117.348 Y-7.819
X-117.391 Y-7.81
X-117.428 Y-7.804
X-117.57 Y-7.85
X-117.691 Y-7.939
X-117.746 Y-8.008
X-117.804 Y-8.129
Y-8.263
X-117.748 Y-8.384
X-117.645 Y-8.47
X-117.63 Y-8.477
X-117.525 Y-8.538
X-117.496 Y-8.555
X-117.465 Y-8.566
X-117.431
X-117.4 Y-8.555
X-117.374 Y-8.534
X-117.356 Y-8.506
X-117.348 Y-8.474
X-117.315 Y-7.913
X-117.319 Y-7.878
X-117.335 Y-7.848
X-117.359 Y-7.824
X-117.391 Y-7.81
X-117.522 Y-7.782
X-117.596 Y-7.77
X-117.745 Y-7.784
X-117.869 Y-7.868
X-117.959 Y-7.988
X-118.007 Y-8.131
X-117.979 Y-8.256
X-117.901 Y-8.358
X-117.788 Y-8.418
X-117.729 Y-8.434
X-117.645 Y-8.47
X-117.609 Y-8.476
X-117.574 Y-8.47
X-117.543 Y-8.451
X-117.521 Y-8.423
X-117.51 Y-8.389
X-117.447 Y-7.891
X-117.449 Y-7.855
X-117.464 Y-7.822
X-117.489 Y-7.797
X-117.522 Y-7.782
X-117.776 Y-7.727
X-117.841 Y-7.717
X-117.984 Y-7.761
X-118.097 Y-7.859
X-118.175 Y-7.987
X-118.183 Y-8.029
Y-8.143
X-118.139 Y-8.25
X-118.059 Y-8.332
X-117.953 Y-8.378
X-117.887 Y-8.392
X-117.814 Y-8.41
X-117.788 Y-8.418
X-117.75 Y-8.42
X-117.715 Y-8.408
X-117.686 Y-8.383
X-117.669 Y-8.35
X-117.664 Y-8.313
X-117.7 Y-7.817
X-117.707 Y-7.787
X-117.723 Y-7.76
X-117.747 Y-7.739
X-117.776 Y-7.727
X-117.826 Y-7.717
X-117.983 Y-7.696
X-118.058 Y-7.691
X-118.2 Y-7.74
X-118.308 Y-7.843
X-118.371 Y-7.979
X-118.374 Y-8.018
X-118.352 Y-8.16
X-118.266 Y-8.276
X-118.136 Y-8.338
X-118.068 Y-8.352
X-117.953 Y-8.378
X-117.916 Y-8.377
X-117.881 Y-8.363
X-117.854 Y-8.338
X-117.838 Y-8.304
X-117.836 Y-8.266
X-117.9 Y-7.782
X-117.909 Y-7.752
X-117.927 Y-7.725
X-117.953 Y-7.706
X-117.983 Y-7.696
X-118.068 Y-7.686
X-118.152 Y-7.677
X-118.199 Y-7.673
X-118.274 Y-7.671
X-118.413 Y-7.727
X-118.514 Y-7.838
X-118.562 Y-7.98
X-118.563 Y-8.018
X-118.529 Y-8.162
X-118.43 Y-8.273
X-118.29 Y-8.322
X-118.152 Y-8.335
X-118.136 Y-8.338
X-118.098 Y-8.337
X-118.063 Y-8.322
X-118.036 Y-8.294
X-118.021 Y-8.259
Y-8.221
X-118.112 Y-7.753
X-118.123 Y-7.724
X-118.142 Y-7.699
X-118.168 Y-7.682
X-118.199 Y-7.673
X-118.406 Y-7.657
X-118.481 Y-7.655
X-118.618 Y-7.717
X-118.712 Y-7.833
X-118.753 Y-7.978
X-118.752 Y-8.015
X-118.729 Y-8.126
X-118.665 Y-8.22
X-118.571 Y-8.284
X-118.461 Y-8.308
X-118.406 Y-8.311
X-118.29 Y-8.322
X-118.253 Y-8.317
X-118.22 Y-8.298
X-118.196 Y-8.269
X-118.185 Y-8.233
X-118.188 Y-8.195
X-118.321 Y-7.729
X-118.339 Y-7.694
X-118.369 Y-7.669
X-118.406 Y-7.657
X-118.575 Y-7.645
X-118.724 Y-7.666
X-118.846 Y-7.753
X-118.922 Y-7.882
X-118.948 Y-8.03
X-118.941 Y-8.068
X-118.902 Y-8.174
X-118.827 Y-8.258
X-118.726 Y-8.308
X-118.614 Y-8.317
X-118.575 Y-8.313
X-118.491 Y-8.307
X-118.461 Y-8.308
X-118.425 Y-8.301
X-118.394 Y-8.282
X-118.372 Y-8.253
X-118.362 Y-8.218
X-118.365 Y-8.182
X-118.489 Y-7.719
X-118.501 Y-7.691
X-118.52 Y-7.668
X-118.546 Y-7.652
X-118.575 Y-7.645
X-118.66 Y-7.652
X-118.829 Y-7.671
X-118.903 Y-7.683
X-119.033 Y-7.757
X-119.114 Y-7.884
X-119.139 Y-8.031
X-119.131 Y-8.084
X-119.093 Y-8.191
X-119.018 Y-8.277
X-118.916 Y-8.328
X-118.802 Y-8.337
X-118.614 Y-8.317
X-118.579 Y-8.305
X-118.551 Y-8.282
X-118.533 Y-8.25
X-118.528 Y-8.214
X-118.536 Y-8.178
X-118.73 Y-7.731
X-118.746 Y-7.705
X-118.77 Y-7.685
X-118.798 Y-7.673
X-118.829 Y-7.671
X-118.998 Y-7.69
X-119.045 Y-7.696
X-119.118 Y-7.71
X-119.241 Y-7.796
X-119.312 Y-7.929
X-119.329 Y-8.078
X-119.318 Y-8.128
X-119.273 Y-8.234
X-119.191 Y-8.314
X-119.085 Y-8.359
X-118.971 Y-8.36
X-118.914 Y-8.349
X-118.802 Y-8.337
X-118.767 Y-8.325
X-118.738 Y-8.301
X-118.721 Y-8.268
X-118.717 Y-8.23
X-118.727 Y-8.194
X-118.945 Y-7.752
X-118.962 Y-7.727
X-118.986 Y-7.708
X-119.014 Y-7.698
X-119.045 Y-7.696
X-119.224 Y-7.721
X-119.298 Y-7.735
X-119.427 Y-7.812
X-119.501 Y-7.942
X-119.52 Y-8.091
X-119.494 Y-8.238
X-119.487 Y-8.251
X-119.401 Y-8.352
X-119.28 Y-8.406
X-119.148 Y-8.403
X-119.117 Y-8.388
X-119.094 Y-8.364
X-119.079 Y-8.333
X-119.076 Y-8.299
X-119.114 Y-7.813
X-119.125 Y-7.775
X-119.15 Y-7.744
X-119.185 Y-7.725
X-119.224 Y-7.721
X-119.252 Y-7.725
X-119.337 Y-7.741
X-119.468 Y-7.767
X-119.504 Y-7.777
X-119.628 Y-7.861
X-119.695 Y-7.995
X-119.717 Y-8.143
X-119.687 Y-8.29
X-119.674 Y-8.312
X-119.58 Y-8.418
X-119.447 Y-8.468
X-119.306 Y-8.452
X-119.277 Y-8.433
X-119.255 Y-8.405
X-119.245 Y-8.372
X-119.246 Y-8.338
X-119.354 Y-7.845
X-119.369 Y-7.81
X-119.395 Y-7.783
X-119.43 Y-7.768
X-119.468 Y-7.767
X-119.506 Y-7.775
X-119.59 Y-7.796
X-119.645 Y-7.812
X-119.715 Y-7.838
X-119.832 Y-7.933
X-119.893 Y-8.07
X-119.908 Y-8.219
X-119.885 Y-8.309
X-119.829 Y-8.422
X-119.731 Y-8.502
X-119.61 Y-8.536
X-119.485 Y-8.518
X-119.456 Y-8.5
X-119.435 Y-8.473
X-119.424 Y-8.441
Y-8.407
X-119.52 Y-7.891
X-119.531 Y-7.86
X-119.552 Y-7.834
X-119.58 Y-7.817
X-119.612 Y-7.809
X-119.645 Y-7.812
X-119.844 Y-7.875
X-119.915 Y-7.9
X-120.029 Y-7.998
X-120.088 Y-8.136
X-120.094 Y-8.285
X-120.058 Y-8.431
X-119.981 Y-8.56
X-119.969 Y-8.571
X-119.851 Y-8.634
X-119.717 Y-8.639
X-119.594 Y-8.586
X-119.569 Y-8.556
X-119.557 Y-8.518
X-119.56 Y-8.479
X-119.722 Y-7.942
X-119.74 Y-7.908
X-119.769 Y-7.884
X-119.806 Y-7.872
X-119.844 Y-7.875
X-120.033 Y-7.933
X-120.053 Y-7.942
X-120.098 Y-7.975
X-120.124 Y-7.995
X-120.18 Y-8.045
X-120.259 Y-8.172
X-120.284 Y-8.32
X-120.263 Y-8.469
X-120.206 Y-8.607
X-120.109 Y-8.722
X-120.101 Y-8.727
X-119.987 Y-8.769
X-119.865 Y-8.763
X-119.756 Y-8.709
X-119.675 Y-8.646
X-119.59 Y-8.584
X-119.495 Y-8.523
X-119.485 Y-8.518
X-119.252 Y-8.432
X-119.167 Y-8.408
X-118.998 Y-8.365
X-118.971 Y-8.36
X-118.935 Y-8.344
X-118.908 Y-8.316
X-118.894 Y-8.279
X-118.895 Y-8.24
X-118.91 Y-8.205
X-118.939 Y-8.178
X-118.975 Y-8.164
X-119.353 Y-8.098
X-120.047 Y-7.977
X-120.074 Y-7.976
X-120.1 Y-7.982
X-120.124 Y-7.995
X-120.305 Y-8.139
X-120.361 Y-8.188
X-120.437 Y-8.317
X-120.454 Y-8.466
X-120.427 Y-8.614
X-120.365 Y-8.751
X-120.263 Y-8.861
X-120.247 Y-8.871
X-120.12 Y-8.912
X-119.989 Y-8.892
X-119.88 Y-8.815
X-119.756 Y-8.709
X-119.735 Y-8.684
X-119.723 Y-8.653
X-119.721 Y-8.62
X-119.731 Y-8.588
X-119.751 Y-8.561
X-120.175 Y-8.148
X-120.204 Y-8.128
X-120.238 Y-8.12
X-120.273 Y-8.123
X-120.305 Y-8.139
X-120.492 Y-8.288
X-120.548 Y-8.337
X-120.613 Y-8.473
X-120.621 Y-8.622
X-120.586 Y-8.768
X-120.518 Y-8.902
X-120.412 Y-9.008
X-120.386 Y-9.023
X-120.254 Y-9.063
X-120.119 Y-9.041
X-120.008 Y-8.961
X-119.992 Y-8.934
X-119.986 Y-8.903
X-119.989 Y-8.872
X-120.002 Y-8.843
X-120.008 Y-8.834
X-120.349 Y-8.313
X-120.371 Y-8.289
X-120.399 Y-8.274
X-120.431 Y-8.268
X-120.463 Y-8.273
X-120.492 Y-8.288
X-120.521 Y-8.311
X-120.606 Y-8.386
X-120.611 Y-8.392
X-120.681 Y-8.477
X-120.726 Y-8.537
X-120.776 Y-8.679
X-120.769 Y-8.828
X-120.717 Y-8.969
X-120.634 Y-9.094
X-120.518 Y-9.189
X-120.485 Y-9.204
X-120.355 Y-9.229
X-120.227 Y-9.197
X-120.126 Y-9.113
X-120.013 Y-8.967
X-119.88 Y-8.815
X-119.861 Y-8.78
X-119.857 Y-8.742
X-119.868 Y-8.705
X-119.893 Y-8.675
X-119.927 Y-8.656
X-119.938 Y-8.652
X-120.576 Y-8.448
X-120.614 Y-8.444
X-120.651 Y-8.454
X-120.681 Y-8.477
X-120.841 Y-8.674
X-120.885 Y-8.734
X-120.922 Y-8.88
X-120.901 Y-9.028
X-120.839 Y-9.165
X-120.746 Y-9.283
X-120.624 Y-9.37
X-120.598 Y-9.381
X-120.462 Y-9.399
X-120.332 Y-9.356
X-120.235 Y-9.259
X-120.224 Y-9.229
X-120.222 Y-9.197
X-120.231 Y-9.167
X-120.249 Y-9.141
X-120.268 Y-9.12
X-120.693 Y-8.671
X-120.719 Y-8.651
X-120.751 Y-8.64
X-120.784 Y-8.641
X-120.815 Y-8.653
X-120.841 Y-8.674
X-120.975 Y-8.84
X-121.02 Y-8.901
X-121.058 Y-9.046
X-121.036 Y-9.194
X-120.975 Y-9.331
X-120.883 Y-9.45
X-120.761 Y-9.538
X-120.696 Y-9.565
X-120.58 Y-9.587
X-120.464 Y-9.563
X-120.367 Y-9.497
X-120.303 Y-9.398
X-120.297 Y-9.359
X-120.306 Y-9.322
X-120.33 Y-9.29
X-120.37 Y-9.253
X-120.833 Y-8.832
X-120.867 Y-8.811
X-120.906 Y-8.806
X-120.944 Y-8.816
X-120.975 Y-8.84
X-121.06 Y-8.945
X-121.073 Y-8.964
X-121.082 Y-8.984
X-121.133 Y-9.114
X-121.18 Y-9.257
X-121.151 Y-9.404
X-121.08 Y-9.536
X-120.98 Y-9.648
X-120.856 Y-9.732
X-120.715 Y-9.785
X-120.678 Y-9.789
X-120.544 Y-9.771
X-120.431 Y-9.696
X-120.363 Y-9.58
X-120.359 Y-9.549
X-120.365 Y-9.519
X-120.38 Y-9.492
X-120.403 Y-9.471
X-120.483 Y-9.416
X-120.985 Y-9.071
X-121.017 Y-9.057
X-121.052 Y-9.054
X-121.086 Y-9.064
X-121.114 Y-9.085
X-121.133 Y-9.114
X-121.148 Y-9.152
X-121.222 Y-9.368
X-121.243 Y-9.44
X-121.235 Y-9.59
X-121.171 Y-9.725
X-121.073 Y-9.839
X-120.953 Y-9.929
X-120.813 Y-9.984
X-120.754 Y-9.992
X-120.61 Y-9.977
X-120.49 Y-9.897
X-120.421 Y-9.769
X-120.419 Y-9.738
X-120.427 Y-9.707
X-120.445 Y-9.681
X-120.47 Y-9.661
X-120.545 Y-9.618
X-121.079 Y-9.317
X-121.112 Y-9.305
X-121.146
X-121.178 Y-9.317
X-121.204 Y-9.338
X-121.222 Y-9.368
X-121.292 Y-9.575
X-121.313 Y-9.647
X-121.308 Y-9.797
X-121.245 Y-9.933
X-121.146 Y-10.046
X-121.025 Y-10.134
X-120.885 Y-10.188
X-120.737 Y-10.211
X-120.719 Y-10.208
X-120.608 Y-10.168
X-120.521 Y-10.088
X-120.472 Y-9.98
X-120.471 Y-9.949
X-120.479 Y-9.919
X-120.497 Y-9.893
X-120.521 Y-9.873
X-120.614 Y-9.821
X-121.15 Y-9.523
X-121.182 Y-9.511
X-121.217 Y-9.512
X-121.249 Y-9.523
X-121.275 Y-9.545
X-121.292 Y-9.575
X-121.321 Y-9.659
X-121.344 Y-9.744
X-121.362 Y-9.828
X-121.375 Y-9.902
X-121.357 Y-10.051
X-121.283 Y-10.181
X-121.226 Y-10.236
X-121.165 Y-10.282
X-121.094 Y-10.311
X-121.018 Y-10.321
X-120.983 Y-10.313
X-120.953 Y-10.294
X-120.932 Y-10.266
X-120.922 Y-10.233
X-120.924 Y-10.198
X-120.938 Y-10.165
X-121.182 Y-9.798
X-121.209 Y-9.771
X-121.244 Y-9.756
X-121.282 Y-9.755
X-121.318 Y-9.768
X-121.346 Y-9.794
X-121.362 Y-9.828
X-121.4 Y-9.997
X-121.413 Y-10.082
X-121.419 Y-10.128
X-121.423 Y-10.166
X-121.424 Y-10.181
X-121.419 Y-10.227
X-121.399 Y-10.27
X-121.367 Y-10.305
X-121.33 Y-10.316
X-121.291 Y-10.311
X-121.257 Y-10.292
X-121.232 Y-10.262
X-120.996 Y-9.68
X-120.94 Y-9.544
X-120.933 Y-9.509
X-120.938 Y-9.474
X-120.956 Y-9.442
X-120.983 Y-9.419
X-121.017 Y-9.407
X-121.052 Y-9.408
X-121.086 Y-9.421
X-121.112 Y-9.445
G3 X-121.423 Y-10.166 I1.252 J-0.968
G1 X-121.427 Y-10.208
Y-10.219
X-121.425 Y-10.229
X-121.422 Y-10.24
X-121.418 Y-10.25
X-121.41 Y-10.264
X-121.399 Y-10.278
X-121.383 Y-10.292
X-121.367 Y-10.305
X-121.356 Y-10.311
X-121.346 Y-10.315
X-121.335 Y-10.318
X-121.325 Y-10.32
X-121.198 Y-10.321
X-120.69
X-120.648
X-120.627
X-120.602 Y-10.318
X-120.595 Y-10.316
X-120.567 Y-10.296
X-120.55 Y-10.266
X-120.547 Y-10.232
X-120.56 Y-10.199
X-120.585 Y-10.175
X-120.619 Y-10.165
X-120.653 Y-10.171
X-120.682 Y-10.191
X-120.699 Y-10.221
X-120.701 Y-10.256
X-120.687 Y-10.289
X-120.661 Y-10.312
X-120.627 Y-10.321
X-120.616 Y-10.32
X-120.606 Y-10.319
X-120.595 Y-10.316
X-120.585 Y-10.312
X-120.575 Y-10.307
X-120.565 Y-10.3
X-120.551 Y-10.288
X-120.53 Y-10.263
X-120.521 Y-10.245
X-120.515 Y-10.225
X-120.508 Y-10.166
X-120.494 Y-10.082
X-120.476 Y-9.997
X-120.436 Y-9.828
X-120.414 Y-9.744
X-120.335 Y-9.49
X-120.306 Y-9.406
X-120.272 Y-9.321
X-120.267 Y-9.311
X-120.221 Y-9.237
X-120.126 Y-9.113
X-120.11 Y-9.077
X-120.108 Y-9.038
X-120.122 Y-9.002
X-120.149 Y-8.973
X-120.18 Y-8.951 Z-0.982
X-120.206 Y-8.932 Z-0.961
X-120.224 Y-8.919 Z-0.928
X-120.23 Y-8.915 Z-0.89
G0 Z2
X-121.191 Y-16.94
Z-0.79
G1 Z-0.89 F1000
X-121.185 Y-16.944 Z-0.928
X-121.166 Y-16.955 Z-0.961
X-121.138 Y-16.972 Z-0.982
X-121.105 Y-16.991 Z-0.99
G3 X-120.352 Y-17.213 I0.809 J1.36
G1 X-120.013
X-119.938 Y-17.209
X-119.798 Y-17.156
X-119.681 Y-17.063
X-119.59 Y-16.944
X-119.526 Y-16.808
X-119.52 Y-16.768
X-119.529 Y-16.632
X-119.598 Y-16.514
X-119.711 Y-16.439
X-119.747 Y-16.434
X-119.783 Y-16.442
X-119.813 Y-16.462
X-119.834 Y-16.492
X-119.854 Y-16.536
X-120.101 Y-17.071
X-120.11 Y-17.109
X-120.104 Y-17.148
X-120.083 Y-17.181
X-120.051 Y-17.204
X-120.013 Y-17.213
X-119.76
X-119.685 Y-17.209
X-119.544 Y-17.157
X-119.431 Y-17.058
X-119.352 Y-16.931
X-119.312 Y-16.786
X-119.314 Y-16.748
X-119.355 Y-16.612
X-119.455 Y-16.511
X-119.59 Y-16.47
X-119.633 Y-16.463
X-119.675 Y-16.453
X-119.711 Y-16.439
X-119.748 Y-16.434
X-119.784 Y-16.443
X-119.815 Y-16.464
X-119.835 Y-16.495
X-119.843 Y-16.532
X-119.856 Y-17.111
X-119.849 Y-17.149
X-119.829 Y-17.181
X-119.797 Y-17.204
X-119.76 Y-17.213
X-119.506
X-119.431 Y-17.209
X-119.294 Y-17.147
X-119.193 Y-17.036
X-119.129 Y-16.901
X-119.111 Y-16.752
X-119.116 Y-16.722
X-119.171 Y-16.595
X-119.277 Y-16.506
X-119.411 Y-16.474
X-119.506
X-119.59 Y-16.47
X-119.625 Y-16.476
X-119.655 Y-16.493
X-119.678 Y-16.519
X-119.69 Y-16.552
Y-16.586
X-119.601 Y-17.129
X-119.59 Y-17.161
X-119.568 Y-17.188
X-119.539 Y-17.206
X-119.506 Y-17.213
X-119.29
X-119.215 Y-17.209
X-119.079 Y-17.145
X-118.981 Y-17.032
X-118.921 Y-16.894
X-118.91 Y-16.745
X-118.916 Y-16.716
X-118.972 Y-16.592
X-119.077 Y-16.505
X-119.21 Y-16.474
X-119.411
X-119.445 Y-16.482
X-119.475 Y-16.5
X-119.496 Y-16.528
X-119.507 Y-16.561
X-119.505 Y-16.596
X-119.384 Y-17.135
X-119.372 Y-17.165
X-119.35 Y-17.19
X-119.322 Y-17.206
X-119.29 Y-17.213
X-119.083
X-119.008 Y-17.209
X-118.872 Y-17.146
X-118.774 Y-17.032
X-118.717 Y-16.893
X-118.707 Y-16.744
X-118.713 Y-16.714
X-118.77 Y-16.591
X-118.875 Y-16.505
X-119.007 Y-16.474
X-119.21
X-119.244 Y-16.482
X-119.274 Y-16.501
X-119.295 Y-16.529
X-119.306 Y-16.562
X-119.304 Y-16.597
X-119.177 Y-17.136
X-119.164 Y-17.166
X-119.143 Y-17.19
X-119.115 Y-17.206
X-119.083 Y-17.213
X-118.867
X-118.792 Y-17.209
X-118.659 Y-17.14
X-118.565 Y-17.023
X-118.511 Y-16.883
X-118.505 Y-16.733
X-118.51 Y-16.708
X-118.568 Y-16.587
X-118.673 Y-16.504
X-118.803 Y-16.474
X-119.007
X-119.042 Y-16.482
X-119.072 Y-16.501
X-119.093 Y-16.53
X-119.103 Y-16.564
X-119.1 Y-16.599
X-118.96 Y-17.138
X-118.948 Y-17.167
X-118.926 Y-17.191
X-118.898 Y-17.207
X-118.867 Y-17.213
X-118.66
X-118.585 Y-17.209
X-118.452 Y-17.139
X-118.359 Y-17.021
X-118.306 Y-16.881
X-118.3 Y-16.731
X-118.306 Y-16.706
X-118.364 Y-16.587
X-118.468 Y-16.504
X-118.598 Y-16.474
X-118.803
X-118.838 Y-16.482
X-118.868 Y-16.501
X-118.889 Y-16.53
X-118.899 Y-16.564
X-118.896 Y-16.6
X-118.753 Y-17.138
X-118.74 Y-17.167
X-118.719 Y-17.191
X-118.691 Y-17.207
X-118.66 Y-17.213
X-118.444
X-118.369 Y-17.209
X-118.24 Y-17.133
X-118.15 Y-17.012
X-118.1 Y-16.871
X-118.097 Y-16.721
X-118.102 Y-16.7
X-118.161 Y-16.583
X-118.265 Y-16.503
X-118.393 Y-16.474
X-118.598
X-118.633 Y-16.482
X-118.664 Y-16.502
X-118.685 Y-16.531
X-118.694 Y-16.566
X-118.691 Y-16.602
X-118.537 Y-17.14
X-118.523 Y-17.169
X-118.502 Y-17.192
X-118.475 Y-17.207
X-118.444 Y-17.213
X-118.275
X-118.2 Y-17.209
X-118.06 Y-17.155
X-117.96 Y-17.043
X-117.901 Y-16.905
X-117.887 Y-16.756
X-117.894 Y-16.721
X-117.949 Y-16.594
X-118.055 Y-16.506
X-118.189 Y-16.474
X-118.393
X-118.427 Y-16.482
X-118.456 Y-16.5
X-118.478 Y-16.528
X-118.488 Y-16.561
X-118.487 Y-16.596
X-118.369 Y-17.134
X-118.357 Y-17.165
X-118.335 Y-17.19
X-118.307 Y-17.206
X-118.275 Y-17.213
X-118.068
X-117.993 Y-17.209
X-117.854 Y-17.153
X-117.755 Y-17.039
X-117.696 Y-16.902
X-117.685 Y-16.752
X-117.691 Y-16.719
X-117.747 Y-16.593
X-117.852 Y-16.506
X-117.986 Y-16.474
X-118.189
X-118.223 Y-16.482
X-118.253 Y-16.5
X-118.274 Y-16.528
X-118.285 Y-16.561
X-118.283 Y-16.596
X-118.162 Y-17.135
X-118.149 Y-17.165
X-118.128 Y-17.19
X-118.1 Y-17.206
X-118.068 Y-17.213
X-117.852
X-117.777 Y-17.209
X-117.641 Y-17.145
X-117.546 Y-17.029
X-117.491 Y-16.889
X-117.483 Y-16.74
X-117.489 Y-16.711
X-117.546 Y-16.589
X-117.651 Y-16.505
X-117.782 Y-16.474
X-117.986
X-118.021 Y-16.482
X-118.05 Y-16.501
X-118.072 Y-16.529
X-118.082 Y-16.563
X-118.079 Y-16.598
X-117.945 Y-17.137
X-117.933 Y-17.166
X-117.911 Y-17.19
X-117.883 Y-17.206
X-117.852 Y-17.213
X-117.645
X-117.57 Y-17.209
X-117.435 Y-17.142
X-117.341 Y-17.026
X-117.286 Y-16.886
X-117.279 Y-16.737
X-117.285 Y-16.71
X-117.342 Y-16.588
X-117.447 Y-16.504
X-117.578 Y-16.474
X-117.782
X-117.817 Y-16.482
X-117.847 Y-16.501
X-117.868 Y-16.529
X-117.878 Y-16.564
X-117.875 Y-16.599
X-117.738 Y-17.138
X-117.725 Y-17.167
X-117.704 Y-17.191
X-117.676 Y-17.206
X-117.645 Y-17.213
X-117.429
X-117.354 Y-17.209
X-117.223 Y-17.136
X-117.132 Y-17.017
X-117.08 Y-16.876
X-117.076 Y-16.726
X-117.081 Y-16.703
X-117.14 Y-16.585
X-117.244 Y-16.503
X-117.373 Y-16.474
X-117.578
X-117.613 Y-16.482
X-117.643 Y-16.502
X-117.664 Y-16.531
X-117.674 Y-16.565
X-117.671 Y-16.601
X-117.522 Y-17.139
X-117.509 Y-17.168
X-117.487 Y-17.191
X-117.46 Y-17.207
X-117.429 Y-17.213
X-117.26
X-117.185 Y-17.209
X-117.044 Y-17.158
X-116.942 Y-17.048
X-116.882 Y-16.91
X-116.867 Y-16.761
X-116.873 Y-16.724
X-116.928 Y-16.596
X-117.034 Y-16.506
X-117.169 Y-16.474
X-117.373
X-117.407 Y-16.482
X-117.436 Y-16.5
X-117.457 Y-16.527
X-117.468 Y-16.56
X-117.467 Y-16.595
X-117.354 Y-17.133
X-117.342 Y-17.164
X-117.321 Y-17.189
X-117.292 Y-17.206
X-117.26 Y-17.213
X-117.052
X-116.977 Y-17.209
X-116.837 Y-17.156
X-116.738 Y-17.044
X-116.677 Y-16.907
X-116.665 Y-16.757
X-116.671 Y-16.722
X-116.726 Y-16.595
X-116.832 Y-16.506
X-116.966 Y-16.474
X-117.169
X-117.203 Y-16.482
X-117.233 Y-16.5
X-117.254 Y-16.528
X-117.265 Y-16.561
X-117.263 Y-16.595
X-117.147 Y-17.134
X-117.134 Y-17.165
X-117.113 Y-17.19
X-117.085 Y-17.206
X-117.052 Y-17.213
X-116.837
X-116.762 Y-17.209
X-116.625 Y-17.148
X-116.528 Y-17.033
X-116.472 Y-16.894
X-116.463 Y-16.744
X-116.469 Y-16.714
X-116.525 Y-16.591
X-116.631 Y-16.505
X-116.763 Y-16.474
X-116.966
X-117.001 Y-16.482
X-117.03 Y-16.501
X-117.052 Y-16.529
X-117.062 Y-16.562
X-117.06 Y-16.598
X-116.93 Y-17.136
X-116.918 Y-17.166
X-116.896 Y-17.19
X-116.868 Y-17.206
X-116.837 Y-17.213
X-116.629
X-116.554 Y-17.209
X-116.419 Y-17.145
X-116.323 Y-17.03
X-116.267 Y-16.89
X-116.259 Y-16.741
X-116.265 Y-16.712
X-116.322 Y-16.59
X-116.427 Y-16.505
X-116.559 Y-16.474
X-116.763
X-116.797 Y-16.482
X-116.827 Y-16.501
X-116.848 Y-16.529
X-116.859 Y-16.563
X-116.856 Y-16.598
X-116.723 Y-17.137
X-116.71 Y-17.166
X-116.689 Y-17.19
X-116.661 Y-17.206
X-116.629 Y-17.213
X-116.414
X-116.339 Y-17.209
X-116.206 Y-17.138
X-116.114 Y-17.02
X-116.061 Y-16.88
X-116.056 Y-16.73
X-116.062 Y-16.705
X-116.12 Y-16.586
X-116.224 Y-16.504
X-116.354 Y-16.474
X-116.559
X-116.594 Y-16.482
X-116.624 Y-16.501
X-116.645 Y-16.53
X-116.655 Y-16.565
X-116.652 Y-16.6
X-116.507 Y-17.139
X-116.494 Y-17.168
X-116.472 Y-17.191
X-116.445 Y-17.207
X-116.414 Y-17.213
X-116.244
X-116.17 Y-17.209
X-116.027 Y-17.161
X-115.925 Y-17.052
X-115.864 Y-16.914
X-115.848 Y-16.765
X-115.854 Y-16.726
X-115.908 Y-16.597
X-116.014 Y-16.507
X-116.15 Y-16.474
X-116.354
X-116.388 Y-16.481
X-116.417 Y-16.5
X-116.438 Y-16.527
X-116.449 Y-16.56
X-116.448 Y-16.594
X-116.339 Y-17.133
X-116.327 Y-17.164
X-116.306 Y-17.189
X-116.277 Y-17.206
X-116.244 Y-17.213
X-115.991
X-115.916 Y-17.209
X-115.787 Y-17.132
X-115.699 Y-17.01
X-115.651 Y-16.868
X-115.648 Y-16.718
X-115.654 Y-16.695
X-115.715 Y-16.581
X-115.817 Y-16.502
X-115.944 Y-16.474
X-116.15
X-116.186 Y-16.482
X-116.216 Y-16.502
X-116.237 Y-16.532
X-116.246 Y-16.567
X-116.243 Y-16.603
X-116.083 Y-17.141
X-116.07 Y-17.169
X-116.048 Y-17.192
X-116.021 Y-17.207
X-115.991 Y-17.213
X-115.821
X-115.783
X-115.708 Y-17.209
X-115.581 Y-17.13
X-115.493 Y-17.008
X-115.444 Y-16.866
X-115.443 Y-16.716
X-115.447 Y-16.698
X-115.507 Y-16.582
X-115.61 Y-16.503
X-115.738 Y-16.474
X-115.944
X-115.981 Y-16.483
X-116.013 Y-16.505
X-116.033 Y-16.538
X-116.04 Y-16.576
X-116.032 Y-16.613
X-116.011 Y-16.645
X-115.979 Y-16.667
X-115.577 Y-16.834
X-115.54 Y-16.842
X-115.502 Y-16.835
X-115.47 Y-16.814
X-115.448 Y-16.783
X-115.439 Y-16.745
Y-16.585
X-115.441 Y-16.569
X-115.445 Y-16.553
X-115.451 Y-16.54
X-115.459 Y-16.527
X-115.484 Y-16.501
X-115.496 Y-16.492
X-115.507 Y-16.485
X-115.518 Y-16.48
X-115.53 Y-16.477
X-115.54 Y-16.475
X-115.572 Y-16.474
X-115.738
X-115.773 Y-16.482
X-115.803 Y-16.502
X-115.824 Y-16.531
X-115.834 Y-16.566
X-115.88 Y-17.104
X-115.877 Y-17.136
X-115.864 Y-17.166
X-115.843 Y-17.19
X-115.815 Y-17.206
X-115.783 Y-17.213
X-115.614
X-115.572
X-115.551
X-115.525 Y-17.208
X-115.515 Y-17.206
X-115.492 Y-17.186
X-115.479 Y-17.158
Y-17.128
X-115.492 Y-17.099
X-115.516 Y-17.079
X-115.546 Y-17.071
X-115.577 Y-17.077
X-115.602 Y-17.096
X-115.617 Y-17.124
X-115.618 Y-17.155
X-115.605 Y-17.184
X-115.581 Y-17.205
X-115.551 Y-17.213
X-115.54 Y-17.212
X-115.53 Y-17.21
X-115.515 Y-17.206
X-115.501 Y-17.199
X-115.487 Y-17.188
X-115.473 Y-17.177
X-115.463 Y-17.167
X-115.455 Y-17.156
X-115.449 Y-17.146
X-115.445 Y-17.136
X-115.442 Y-17.125
X-115.44 Y-17.114
X-115.439 Y-17.092
Y-16.745
X-115.444 Y-16.717
X-115.457 Y-16.692
X-115.486 Y-16.675 Z-0.983
X-115.511 Y-16.66 Z-0.966
X-115.53 Y-16.649 Z-0.939
X-115.539 Z-0.916
X-115.542 Z-0.89
G0 Z2
X-112.808 Y-12.665
Z0.5
G3 X-112.324 Y-12.789 Z0.29 I0.242 J-0.062 F333.3
X-112.808 Y-12.665 Z0.079 I-0.242 J0.062
X-112.324 Y-12.789 Z-0.131 I0.242 J-0.062
X-112.808 Y-12.665 Z-0.342 I-0.242 J0.062
X-112.324 Y-12.789 Z-0.552 I0.242 J-0.062
X-112.808 Y-12.665 Z-0.763 I-0.242 J0.062
X-112.597 Y-12.975 Z-0.876 I0.242 J-0.062
X-112.316 Y-12.727 Z-0.99 I0.031 J0.248
X-112.816 I-0.25
X-112.316 I0.25
G1 X-112.279 Y-12.582 F1000
X-112.291 Y-12.508
X-112.329 Y-12.443
X-112.435 Y-12.338
X-112.58 Y-12.298
X-112.729 Y-12.319
X-112.859 Y-12.393
X-112.956 Y-12.508
X-113.008 Y-12.648
X-113.01 Y-12.798
X-112.962 Y-12.941
X-112.87 Y-13.059
X-112.745 Y-13.141
X-112.599 Y-13.177
X-112.45 Y-13.163
X-112.313 Y-13.101
X-112.205 Y-12.997
X-112.126 Y-12.869
X-112.076 Y-12.728
X-112.065 Y-12.578
X-112.101 Y-12.432
X-112.171 Y-12.3
X-112.28 Y-12.196
X-112.411 Y-12.123
X-112.557 Y-12.09
X-112.707 Y-12.097
X-112.851 Y-12.138
X-112.98 Y-12.214
X-113.087 Y-12.319
X-113.169 Y-12.445
X-113.219 Y-12.586
X-113.233 Y-12.736
X-113.217 Y-12.885
X-113.166 Y-13.026
X-113.084 Y-13.151
X-112.977 Y-13.257
X-112.85 Y-13.336
X-112.707 Y-13.382
X-112.558 Y-13.398
X-112.409 Y-13.381
X-112.268 Y-13.328
X-112.142 Y-13.248
X-112.033 Y-13.144
X-111.945 Y-13.023
X-111.883 Y-12.886
X-111.845 Y-12.741
X-111.836 Y-12.591
X-111.856 Y-12.462
X-111.885 Y-12.374
X-111.941 Y-12.301
X-112.019 Y-12.25
X-112.061 Y-12.227
X-112.11 Y-12.193
X-112.146 Y-12.164
X-112.198 Y-12.109
X-112.216 Y-12.085
X-112.312 Y-11.97
X-112.447 Y-11.906
X-112.594 Y-11.876
X-112.744 Y-11.878
X-112.891 Y-11.911
X-113.028 Y-11.972
X-113.151 Y-12.057
X-113.156 Y-12.061
X-113.203 Y-12.12
X-113.234 Y-12.188
X-113.248 Y-12.262
X-113.261 Y-12.531
X-113.267 Y-12.784
X-113.268 Y-12.869
X-113.264 Y-13.038
X-113.254 Y-13.187
X-113.188 Y-13.322
X-113.089 Y-13.435
X-112.968 Y-13.523
X-112.831 Y-13.585
X-112.685 Y-13.62
X-112.536 Y-13.631
X-112.386 Y-13.615
X-112.33 Y-13.599
X-112.238 Y-13.554
X-112.166 Y-13.481
X-112.123 Y-13.388
X-112.12 Y-13.376
X-112.103 Y-13.333
X-112.082 Y-13.291
X-112.035 Y-13.207
X-111.888 Y-12.953
X-111.837 Y-12.869
X-111.807 Y-12.832
X-111.785 Y-12.806
X-111.693 Y-12.687
X-111.686 Y-12.657
X-111.679 Y-12.541
X-111.717 Y-12.43
X-111.794 Y-12.343
X-111.899 Y-12.292
X-111.938 Y-12.291
X-111.974 Y-12.305
X-112.003 Y-12.332
X-112.019 Y-12.368
Y-12.407
X-111.957 Y-12.756
X-111.944 Y-12.79
X-111.919 Y-12.818
X-111.887 Y-12.834
X-111.85 Y-12.838
X-111.814 Y-12.828
X-111.785 Y-12.806
X-111.638 Y-12.634
X-111.622 Y-12.616
X-111.599 Y-12.586
X-111.591 Y-12.487
X-111.628 Y-12.395
X-111.703 Y-12.33
X-111.798 Y-12.305
X-111.84 Y-12.311
X-111.879 Y-12.328
X-111.912 Y-12.354
X-111.937 Y-12.388
G3 X-111.622 Y-12.616 I0.171 J-0.095
G1 X-111.553 Y-12.535
X-111.55 Y-12.531
X-111.526 Y-12.506
X-111.495 Y-12.467
X-111.528 Y-12.374
X-111.606 Y-12.312
X-111.705 Y-12.3
X-111.733 Y-12.311
X-111.755 Y-12.331
X-111.769 Y-12.357
G3 X-111.526 Y-12.506 I0.138 J-0.047
G1 X-111.473 Y-12.447
X-111.469 Y-12.44
X-111.46 Y-12.42
X-111.456 Y-12.39
Y-12.382
X-111.469 Y-12.356
X-111.492 Y-12.339
X-111.521 Y-12.335
X-111.548 Y-12.345
X-111.567 Y-12.367
X-111.574 Y-12.395
X-111.566 Y-12.423
X-111.546 Y-12.445
X-111.519 Y-12.454
X-111.495 Y-12.451
X-111.475 Y-12.439
X-111.46 Y-12.42
X-111.456 Y-12.401
Y-12.382
X-111.459 Y-12.362
X-111.463 Y-12.351
X-111.469 Y-12.34
X-111.476 Y-12.329
X-111.505 Y-12.297
X-111.523 Y-12.285
X-111.541 Y-12.278
X-111.553 Y-12.275
X-111.565 Y-12.273
X-111.576
X-111.588 Y-12.275
X-111.638 Y-12.289
X-112.362 Y-12.594
X-112.586 Y-12.688
X-113.203 Y-12.947
X-113.235 Y-12.969
X-113.256 Y-13
X-113.264 Y-13.038
X-113.263 Y-13.122
X-113.252 Y-13.338
X-113.238 Y-13.487
X-113.159 Y-13.615
X-113.047 Y-13.715
X-112.917 Y-13.789
X-112.775 Y-13.839
X-112.628 Y-13.865
X-112.478 Y-13.868
X-112.424 Y-13.859
X-112.314 Y-13.817
X-112.229 Y-13.737
X-112.181 Y-13.629
X-112.142 Y-13.46
X-112.123 Y-13.388
X-112.121 Y-13.353
X-112.132 Y-13.32
X-112.153 Y-13.292
X-112.183 Y-13.273
X-112.217 Y-13.266
X-112.526 Y-13.256
X-113.149 Y-13.236
X-113.181 Y-13.241
X-113.21 Y-13.255
X-113.233 Y-13.277
X-113.248 Y-13.306
X-113.252 Y-13.338
X-113.251 Y-13.376
X-113.244 Y-13.46
X-113.229 Y-13.629
X-113.219 Y-13.703
X-113.154 Y-13.839
X-113.047 Y-13.943
X-112.918 Y-14.02
X-112.777 Y-14.072
X-112.63 Y-14.101
X-112.48 Y-14.1
X-112.456 Y-14.094
X-112.348 Y-14.047
X-112.267 Y-13.962
X-112.224 Y-13.852
X-112.2 Y-13.714
X-112.181 Y-13.629
Y-13.594
X-112.193 Y-13.561
X-112.215 Y-13.534
X-112.246 Y-13.516
X-112.281 Y-13.511
X-112.507 Y-13.514
X-113.131 Y-13.524
X-113.163 Y-13.529
X-113.191 Y-13.545
X-113.213 Y-13.568
X-113.226 Y-13.597
X-113.229 Y-13.629
X-113.207 Y-13.883
X-113.197 Y-13.957
X-113.128 Y-14.09
X-113.018 Y-14.192
X-112.888 Y-14.267
X-112.745 Y-14.314
X-112.597 Y-14.334
X-112.523 Y-14.328
X-112.391 Y-14.284
X-112.293 Y-14.184
X-112.251 Y-14.051
X-112.244 Y-13.967
X-112.224 Y-13.852
X-112.225 Y-13.818
X-112.239 Y-13.785
X-112.262 Y-13.759
X-112.293 Y-13.743
X-112.328 Y-13.739
X-112.485 Y-13.747
X-113.112 Y-13.777
X-113.15 Y-13.787
X-113.181 Y-13.81
X-113.201 Y-13.844
X-113.207 Y-13.883
X-113.187 Y-14.098
X-113.166 Y-14.246
X-113.079 Y-14.368
X-112.959 Y-14.459
X-112.823 Y-14.522
X-112.677 Y-14.555
X-112.527 Y-14.554
X-112.489 Y-14.544
X-112.375 Y-14.487
X-112.296 Y-14.387
X-112.265 Y-14.263
X-112.263 Y-14.22
X-112.251 Y-14.051
X-112.256 Y-14.019
X-112.27 Y-13.989
X-112.294 Y-13.966
X-112.324 Y-13.952
X-112.357 Y-13.948
X-112.466 Y-13.955
X-113.093 Y-13.992
X-113.131 Y-14.002
X-113.162 Y-14.026
X-113.182 Y-14.059
X-113.187 Y-14.098
X-113.176 Y-14.22
X-113.166 Y-14.305
X-113.155 Y-14.389
X-113.142 Y-14.463
X-113.063 Y-14.591
X-112.946 Y-14.684
X-112.809 Y-14.746
X-112.662 Y-14.778
X-112.553 Y-14.773
X-112.442 Y-14.746
X-112.35 Y-14.68
X-112.288 Y-14.585
X-112.266 Y-14.474
Y-14.305
X-112.265 Y-14.263
X-112.271 Y-14.229
X-112.288 Y-14.199
X-112.314 Y-14.177
X-112.347 Y-14.165
X-112.381
X-112.446 Y-14.176
X-113.072 Y-14.281
X-113.107 Y-14.294
X-113.135 Y-14.319
X-113.152 Y-14.352
X-113.155 Y-14.389
X-113.132 Y-14.558
X-113.109 Y-14.643
X-113.063 Y-14.786
X-112.954 Y-14.888
X-112.821 Y-14.958
X-112.675 Y-14.991
X-112.525
X-112.477 Y-14.979
X-112.356 Y-14.913
X-112.277 Y-14.802
X-112.256 Y-14.666
X-112.264 Y-14.558
X-112.266 Y-14.474
X-112.274 Y-14.44
X-112.293 Y-14.412
X-112.321 Y-14.391
X-112.353 Y-14.381
X-112.388 Y-14.382
X-112.42 Y-14.389
X-113.033 Y-14.523
X-113.069 Y-14.538
X-113.096 Y-14.567
X-113.11 Y-14.603
X-113.109 Y-14.643
X-113.064 Y-14.812
X-113.04 Y-14.896
X-113.015 Y-14.967
X-112.924 Y-15.086
X-112.795 Y-15.162
X-112.65 Y-15.202
X-112.5 Y-15.198
X-112.454 Y-15.186
X-112.327 Y-15.114
X-112.248 Y-14.99
X-112.238 Y-14.844
X-112.244 Y-14.812
X-112.256 Y-14.666
X-112.266 Y-14.632
X-112.288 Y-14.604
X-112.317 Y-14.585
X-112.352 Y-14.577
X-112.387 Y-14.582
X-112.974 Y-14.777
X-113.007 Y-14.795
X-113.031 Y-14.824
X-113.042 Y-14.859
X-113.04 Y-14.896
X-112.975 Y-15.111
X-112.95 Y-15.182
X-112.861 Y-15.303
X-112.729 Y-15.376
X-112.583 Y-15.407
X-112.434 Y-15.394
X-112.394 Y-15.379
X-112.279 Y-15.303
X-112.21 Y-15.183
X-112.202 Y-15.045
X-112.238 Y-14.844
X-112.251 Y-14.811
X-112.275 Y-14.786
X-112.305 Y-14.769
X-112.34 Y-14.765
X-112.374 Y-14.772
X-112.916 Y-14.993
X-112.947 Y-15.012
X-112.968 Y-15.041
X-112.978 Y-15.076
X-112.975 Y-15.111
X-112.907 Y-15.328
X-112.881 Y-15.398
X-112.788 Y-15.516
X-112.653 Y-15.583
X-112.505 Y-15.606
X-112.357 Y-15.583
X-112.327 Y-15.569
X-112.219 Y-15.485
X-112.16 Y-15.363
X-112.161 Y-15.227
X-112.199 Y-15.065
X-112.202 Y-15.045
X-112.216 Y-15.012
X-112.24 Y-14.986
X-112.272 Y-14.97
X-112.307 Y-14.966
X-112.342 Y-14.975
X-112.852 Y-15.21
X-112.881 Y-15.23
X-112.901 Y-15.259
X-112.91 Y-15.293
X-112.907 Y-15.328
X-112.883 Y-15.403
X-112.822 Y-15.551
X-112.79 Y-15.619
X-112.689 Y-15.73
X-112.55 Y-15.786
X-112.4 Y-15.797
X-112.255 Y-15.759
X-112.237 Y-15.747
X-112.138 Y-15.646
X-112.096 Y-15.51
X-112.122 Y-15.371
X-112.141 Y-15.344
X-112.167 Y-15.325
X-112.199 Y-15.316
X-112.231 Y-15.317
X-112.748 Y-15.418
X-112.78 Y-15.43
X-112.806 Y-15.453
X-112.823 Y-15.483
X-112.829 Y-15.517
X-112.822 Y-15.551
X-112.738 Y-15.754
X-112.705 Y-15.822
X-112.6 Y-15.929
X-112.459 Y-15.979
X-112.309 Y-15.984
X-112.167 Y-15.936
X-112.143 Y-15.919
X-112.051 Y-15.816
X-112.014 Y-15.683
X-112.041 Y-15.548
X-112.122 Y-15.371
X-112.142 Y-15.343
X-112.171 Y-15.324
X-112.204 Y-15.315
X-112.238 Y-15.318
X-112.269 Y-15.333
X-112.702 Y-15.638
X-112.725 Y-15.661
X-112.74 Y-15.69
X-112.744 Y-15.722
X-112.738 Y-15.754
X-112.662 Y-15.936
X-112.63 Y-16.004
X-112.53 Y-16.116
X-112.389 Y-16.168
X-112.24 Y-16.172
X-112.097 Y-16.126
X-112.059 Y-16.101
X-111.959 Y-15.991
X-111.924 Y-15.848
X-111.961 Y-15.705
X-111.988 Y-15.656
X-112.03 Y-15.572
X-112.041 Y-15.548
X-112.062 Y-15.521
X-112.09 Y-15.501
X-112.123 Y-15.493
X-112.157 Y-15.496
X-112.188 Y-15.511
X-112.626 Y-15.819
X-112.649 Y-15.842
X-112.664 Y-15.871
X-112.668 Y-15.904
X-112.662 Y-15.936
X-112.638 Y-15.994
X-112.601 Y-16.079
X-112.569 Y-16.123
X-112.508 Y-16.199
X-112.458 Y-16.256
X-112.331 Y-16.335
X-112.182 Y-16.351
X-112.036 Y-16.316
X-111.906 Y-16.242
X-111.896 Y-16.23
X-111.835 Y-16.123
X-111.823 Y-16
X-111.861 Y-15.883
X-111.894 Y-15.825
X-111.961 Y-15.705
X-111.985 Y-15.677
X-112.017 Y-15.661
X-112.053 Y-15.656
X-112.088 Y-15.665
X-112.118 Y-15.686
X-112.498 Y-16.069
X-112.518 Y-16.098
X-112.527 Y-16.133
X-112.523 Y-16.168
X-112.508 Y-16.199
X-112.362 Y-16.379
X-112.312 Y-16.435
X-112.178 Y-16.503
X-112.028 Y-16.506
X-111.884 Y-16.466
X-111.842 Y-16.436
X-111.764 Y-16.352
X-111.722 Y-16.246
X-111.724 Y-16.131
X-111.768 Y-16.026
X-111.846 Y-15.91
X-111.861 Y-15.883
X-111.886 Y-15.855
X-111.92 Y-15.839
X-111.957 Y-15.836
X-111.992 Y-15.847
X-112.021 Y-15.87
X-112.358 Y-16.253
X-112.376 Y-16.282
X-112.383 Y-16.315
X-112.378 Y-16.349
X-112.362 Y-16.379
X-112.23 Y-16.539
X-112.179 Y-16.594
X-112.045 Y-16.661
X-111.895 Y-16.665
X-111.812 Y-16.634
X-111.696 Y-16.555
X-111.626 Y-16.433
X-111.619 Y-16.292
X-111.675 Y-16.163
X-111.688 Y-16.146
X-111.768 Y-16.026
X-111.795 Y-16
X-111.829 Y-15.986
X-111.866
X-111.901 Y-15.999
X-111.929 Y-16.023
X-112.231 Y-16.416
X-112.246 Y-16.445
X-112.251 Y-16.477
X-112.246 Y-16.51
X-112.23 Y-16.539
X-112.12 Y-16.67
X-112.087 Y-16.706
X-112.061 Y-16.736
X-112.002 Y-16.783
X-111.857 Y-16.82
X-111.709 Y-16.793
X-111.582 Y-16.714
X-111.551 Y-16.678
X-111.494 Y-16.579
X-111.478 Y-16.465
X-111.506 Y-16.354
X-111.574 Y-16.261
X-111.675 Y-16.163
X-111.705 Y-16.144
X-111.741 Y-16.137
X-111.776 Y-16.143
X-111.807 Y-16.161
X-111.83 Y-16.189
X-112.071 Y-16.624
X-112.083 Y-16.662
X-112.08 Y-16.701
X-112.061 Y-16.736
X-111.976 Y-16.808
X-111.913 Y-16.86
X-111.853 Y-16.906
X-111.71 Y-16.952
X-111.563 Y-16.923
X-111.437 Y-16.842
X-111.402 Y-16.799
X-111.349 Y-16.7
X-111.337 Y-16.588
X-111.366 Y-16.48
X-111.433 Y-16.39
X-111.574 Y-16.261
X-111.605 Y-16.243
X-111.642 Y-16.237
X-111.678 Y-16.245
X-111.708 Y-16.265
X-111.73 Y-16.295
X-111.937 Y-16.744
X-111.946 Y-16.775
X-111.944 Y-16.806
X-111.933 Y-16.836
X-111.913 Y-16.86
X-111.736 Y-17.008
X-111.676 Y-17.053
X-111.528 Y-17.075
X-111.384 Y-17.032
X-111.264 Y-16.942
X-111.237 Y-16.901
X-111.193 Y-16.797
X-111.19 Y-16.684
X-111.229 Y-16.579
X-111.304 Y-16.495
X-111.384 Y-16.434
X-111.433 Y-16.39
X-111.467 Y-16.371
X-111.505 Y-16.366
X-111.542 Y-16.376
X-111.572 Y-16.399
X-111.592 Y-16.431
X-111.763 Y-16.899
X-111.769 Y-16.938
X-111.76 Y-16.976
X-111.736 Y-17.008
X-111.612 Y-17.111
X-111.594 Y-17.126
X-111.574 Y-17.141
X-111.555 Y-17.151
X-111.518 Y-17.158
X-111.481 Y-17.15
X-111.45 Y-17.128
X-111.431 Y-17.096
X-111.426 Y-17.059
X-111.436 Y-17.022
X-111.459 Y-16.993
X-111.492 Y-16.975
X-111.53 Y-16.972
X-111.566 Y-16.984
X-111.594 Y-17.009
X-111.609 Y-17.044
X-111.61 Y-17.081
X-111.596 Y-17.116
X-111.574 Y-17.141
X-111.563 Y-17.147
X-111.553 Y-17.151
X-111.409 Y-17.194
X-111.262 Y-17.166
X-111.137 Y-17.083
X-111.044 Y-16.966
X-111.037 Y-16.949
X-111.02 Y-16.816
X-111.062 Y-16.689
X-111.155 Y-16.592
X-111.304 Y-16.495
X-111.339 Y-16.479
X-111.378 Y-16.478
X-111.414 Y-16.491
X-111.442 Y-16.517
X-111.459 Y-16.552
X-111.583 Y-17.044
X-111.586 Y-17.08
X-111.575 Y-17.115
X-111.553 Y-17.143
X-111.523 Y-17.162
X-111.3 Y-17.24
X-111.228 Y-17.261
X-111.079 Y-17.24
X-110.952 Y-17.16
X-110.867 Y-17.037
X-110.865 Y-17.03
X-110.858 Y-16.895
X-110.911 Y-16.77
X-111.014 Y-16.681
X-111.036 Y-16.67
X-111.155 Y-16.592
X-111.192 Y-16.579
X-111.232 Y-16.581
X-111.267 Y-16.599
X-111.293 Y-16.628
X-111.306 Y-16.666
X-111.363 Y-17.134
X-111.361 Y-17.167
X-111.349 Y-17.198
X-111.328 Y-17.223
X-111.3 Y-17.24
X-111.13 Y-17.299
X-111.058 Y-17.32
X-110.983 Y-17.318
X-110.841 Y-17.271
X-110.732 Y-17.168
X-110.719 Y-17.139
X-110.692 Y-17.02
X-110.716 Y-16.899
X-110.786 Y-16.799
X-110.891 Y-16.734
X-110.961 Y-16.709
X-111.014 Y-16.681
X-111.051 Y-16.672
X-111.089 Y-16.677
X-111.122 Y-16.696
X-111.146 Y-16.726
X-111.157 Y-16.763
X-111.194 Y-17.197
X-111.191 Y-17.229
X-111.179 Y-17.258
X-111.158 Y-17.282
X-111.13 Y-17.299
X-110.961 Y-17.357
X-110.915 Y-17.369
X-110.877 Y-17.38
X-110.802 Y-17.388
X-110.66 Y-17.339
X-110.56 Y-17.227
X-110.508 Y-17.087
Y-17.083
X-110.532 Y-16.953
X-110.61 Y-16.846
X-110.727 Y-16.783
X-110.826 Y-16.754
X-110.877 Y-16.739
X-110.891 Y-16.734
X-110.924 Y-16.73
X-110.958 Y-16.736
X-110.987 Y-16.754
X-111.008 Y-16.78
X-111.02 Y-16.812
Y-16.846
X-110.946 Y-17.3
X-110.933 Y-17.335
X-110.909 Y-17.363
X-110.877 Y-17.38
X-110.792 Y-17.394
X-110.707 Y-17.405
X-110.633 Y-17.412
X-110.56 Y-17.394
X-110.431 Y-17.317
X-110.347 Y-17.192
X-110.344 Y-17.176
X-110.352 Y-17.028
X-110.43 Y-16.902
X-110.559 Y-16.829
X-110.727 Y-16.783
X-110.766 Y-16.781
X-110.802 Y-16.794
X-110.831 Y-16.82
X-110.847 Y-16.855
X-110.849 Y-16.894
X-110.789 Y-17.321
X-110.78 Y-17.351
X-110.762 Y-17.376
X-110.737 Y-17.395
X-110.707 Y-17.405
X-110.526 Y-17.43
X-110.452 Y-17.437
X-110.379 Y-17.417
X-110.313 Y-17.381
X-110.205 Y-17.277
X-110.156 Y-17.135
X-110.157 Y-17.131
X-110.197 Y-17.001
X-110.291 Y-16.902
X-110.418 Y-16.855
X-110.454 Y-16.85
X-110.523 Y-16.839
X-110.559 Y-16.829
X-110.598 Y-16.828
X-110.635 Y-16.841
X-110.664 Y-16.869
X-110.68 Y-16.905
Y-16.944
X-110.608 Y-17.349
X-110.598 Y-17.378
X-110.58 Y-17.402
X-110.555 Y-17.42
X-110.526 Y-17.43
X-110.322 Y-17.458
X-110.248 Y-17.465
X-110.109 Y-17.408
X-110.011 Y-17.294
X-109.975 Y-17.149
X-110.017 Y-17.019
X-110.112 Y-16.922
X-110.239 Y-16.877
X-110.418 Y-16.855
X-110.457 Y-16.859
X-110.491 Y-16.877
X-110.516 Y-16.907
X-110.527 Y-16.945
X-110.523 Y-16.983
X-110.401 Y-17.388
X-110.384 Y-17.421
X-110.357 Y-17.445
X-110.322 Y-17.458
X-110.153 Y-17.481
X-110.115 Y-17.487
X-110.105
X-110.03 Y-17.482
X-109.898 Y-17.409
X-109.814 Y-17.285
X-109.806 Y-17.238
X-109.813 Y-17.109
X-109.874 Y-16.995
X-109.978 Y-16.917
X-110.105 Y-16.891
X-110.239 Y-16.877
X-110.272 Y-16.88
X-110.302 Y-16.894
X-110.327 Y-16.916
X-110.342 Y-16.946
X-110.347 Y-16.979
X-110.341 Y-17.012
X-110.187 Y-17.423
X-110.168 Y-17.454
X-110.139 Y-17.477
X-110.105 Y-17.487
X-110.031 Y-17.482
X-109.899 Y-17.472
X-109.825 Y-17.462
X-109.76 Y-17.424
X-109.661 Y-17.312
X-109.622 Y-17.167
X-109.625 Y-17.141
X-109.661 Y-17.032
X-109.734 Y-16.944
X-109.836 Y-16.891
X-109.95 Y-16.879
X-110.094 Y-16.891
X-110.105
X-110.143 Y-16.901
X-110.175 Y-16.925
X-110.194 Y-16.959
X-110.199 Y-16.998
X-110.188 Y-17.037
X-109.993 Y-17.417
X-109.969 Y-17.447
X-109.937 Y-17.466
X-109.899 Y-17.472
X-109.73 Y-17.458
X-109.656 Y-17.448
X-109.528 Y-17.37
X-109.455 Y-17.238
X-109.443 Y-17.089
X-109.448 Y-17.072
X-109.517 Y-16.951
X-109.634 Y-16.874
X-109.773 Y-16.858
X-109.95 Y-16.879
X-109.986 Y-16.891
X-110.016 Y-16.916
X-110.033 Y-16.95
X-110.037 Y-16.988
X-110.026 Y-17.025
X-109.823 Y-17.405
X-109.8 Y-17.434
X-109.767 Y-17.453
X-109.73 Y-17.458
X-109.607 Y-17.447
X-109.523 Y-17.438
X-109.449 Y-17.427
X-109.328 Y-17.338
X-109.263 Y-17.202
X-109.261 Y-17.052
X-109.268 Y-17.032
X-109.323 Y-16.933
X-109.411 Y-16.86
X-109.519 Y-16.826
X-109.633 Y-16.835
X-109.665 Y-16.852
X-109.689 Y-16.879
X-109.701 Y-16.912
Y-16.948
X-109.628 Y-17.356
X-109.616 Y-17.39
X-109.591 Y-17.418
X-109.559 Y-17.434
X-109.523 Y-17.438
X-109.438 Y-17.429
X-109.354 Y-17.417
X-109.282 Y-17.395
X-109.216 Y-17.359
X-109.117 Y-17.247
X-109.075 Y-17.102
X-109.093 Y-16.953
X-109.101 Y-16.936
X-109.19 Y-16.83
X-109.317 Y-16.775
X-109.455 Y-16.783
X-109.633 Y-16.835
X-109.665 Y-16.852
X-109.689 Y-16.879
X-109.701 Y-16.913
Y-16.949
X-109.688 Y-16.983
X-109.45 Y-17.37
X-109.425 Y-17.397
X-109.391 Y-17.414
X-109.354 Y-17.417
X-109.138 Y-17.365
X-109.066 Y-17.343
X-108.951 Y-17.247
X-108.895 Y-17.108
X-108.893 Y-16.958
X-108.908 Y-16.916
X-108.967 Y-16.816
X-109.059 Y-16.745
X-109.172 Y-16.715
X-109.288 Y-16.73
X-109.36 Y-16.754
X-109.455 Y-16.783
X-109.487 Y-16.801
X-109.511 Y-16.829
X-109.522 Y-16.864
X-109.521 Y-16.9
X-109.506 Y-16.934
X-109.241 Y-17.323
X-109.213 Y-17.35
X-109.177 Y-17.365
X-109.138
X-108.969 Y-17.324
X-108.897 Y-17.302
X-108.835 Y-17.26
X-108.742 Y-17.142
X-108.706 Y-16.997
X-108.725 Y-16.848
X-108.752 Y-16.794
X-108.829 Y-16.698
X-108.939 Y-16.641
X-109.061 Y-16.633
X-109.177 Y-16.675
X-109.2 Y-16.696
X-109.216 Y-16.723
X-109.222 Y-16.754
X-109.218 Y-16.785
X-109.085 Y-17.253
X-109.068 Y-17.286
X-109.041 Y-17.311
X-109.006 Y-17.324
X-108.969
X-108.827 Y-17.289
X-108.808 Y-17.282
X-108.761 Y-17.257
X-108.703 Y-17.222
X-108.641 Y-17.181
X-108.553 Y-17.059
X-108.523 Y-16.912
X-108.55 Y-16.765
X-108.618 Y-16.631
X-108.639 Y-16.609
X-108.756 Y-16.534
X-108.894 Y-16.521
X-109.023 Y-16.57
X-109.177 Y-16.675
X-109.202 Y-16.699
X-109.218 Y-16.73
X-109.221 Y-16.765
X-109.213 Y-16.799
X-109.193 Y-16.828
X-108.822 Y-17.205
X-108.797 Y-17.224
X-108.766 Y-17.233
X-108.734
X-108.703 Y-17.222
X-108.508 Y-17.107
X-108.445 Y-17.066
X-108.369 Y-16.936
X-108.354 Y-16.787
X-108.382 Y-16.64
X-108.457 Y-16.51
X-108.482 Y-16.486
X-108.606 Y-16.413
X-108.75 Y-16.406
X-108.88 Y-16.467
X-108.922 Y-16.501
X-109.023 Y-16.57
X-109.048 Y-16.596
X-109.062 Y-16.628
X-109.063 Y-16.664
X-109.053 Y-16.697
X-109.031 Y-16.725
X-108.622 Y-17.093
X-108.597 Y-17.11
X-108.567 Y-17.118
X-108.537 Y-17.117
X-108.508 Y-17.107
X-108.339 Y-17.008
X-108.338 Y-17.007
X-108.296 Y-16.982
X-108.243 Y-16.941
Y-16.932
X-108.248 Y-16.896
X-108.265 Y-16.865
X-108.293 Y-16.842
X-108.327 Y-16.83
X-108.363
X-108.946 Y-16.95
X-109.077 Y-16.976
X-109.111 Y-16.99
X-109.138 Y-17.015
X-109.154 Y-17.048
X-109.157 Y-17.084
X-109.147 Y-17.119
X-109.125 Y-17.148
X-109.094 Y-17.168
X-109.058 Y-17.174
G3 X-108.296 Y-16.982 I0.006 J1.583
G1 X-108.275 Y-16.968
X-108.223 Y-16.923
X-108.196 Y-16.897
X-108.165 Y-16.751
X-108.181 Y-16.602
X-108.236 Y-16.462
X-108.328 Y-16.344
X-108.365 Y-16.317
X-108.493 Y-16.265
X-108.631 Y-16.275
X-108.75 Y-16.346
X-108.821 Y-16.416
X-108.846 Y-16.44
X-108.88 Y-16.467
X-108.904 Y-16.497
X-108.914 Y-16.533
X-108.911 Y-16.571
X-108.893 Y-16.605
X-108.864 Y-16.629
X-108.336 Y-16.932
X-108.308 Y-16.943
X-108.278 Y-16.945
X-108.249 Y-16.939
X-108.223 Y-16.923
X-108.126 Y-16.839
X-108.072 Y-16.787
X-108.012 Y-16.649
X-108.014 Y-16.499
X-108.06 Y-16.356
X-108.144 Y-16.232
X-108.258 Y-16.135
X-108.268 Y-16.13
X-108.386 Y-16.106
X-108.504 Y-16.131
X-108.603 Y-16.199
X-108.649 Y-16.248
X-108.75 Y-16.346
X-108.769 Y-16.375
X-108.777 Y-16.408
X-108.774 Y-16.442
X-108.759 Y-16.473
X-108.735 Y-16.497
X-108.247 Y-16.843
X-108.218 Y-16.857
X-108.186 Y-16.861
X-108.154 Y-16.855
X-108.126 Y-16.839
X-107.963 Y-16.696
X-107.909 Y-16.644
X-107.854 Y-16.505
X-107.86 Y-16.355
X-107.907 Y-16.212
X-107.987 Y-16.085
X-108.1 Y-15.987
X-108.136 Y-15.97
X-108.279 Y-15.94
X-108.42 Y-15.982
X-108.523 Y-16.086
X-108.57 Y-16.163
X-108.603 Y-16.199
X-108.621 Y-16.228
X-108.628 Y-16.26
X-108.624 Y-16.294
X-108.609 Y-16.324
X-108.586 Y-16.347
X-108.084 Y-16.701
X-108.055 Y-16.715
X-108.023 Y-16.719
X-107.991 Y-16.712
X-107.963 Y-16.696
X-107.831 Y-16.581
X-107.809 Y-16.559
X-107.79 Y-16.541
X-107.711 Y-16.414
X-107.695 Y-16.264
X-107.727 Y-16.118
X-107.796 Y-15.985
X-107.894 Y-15.871
X-108.02 Y-15.789
X-108.061 Y-15.775
X-108.197 Y-15.762
X-108.325 Y-15.81
X-108.418 Y-15.909
X-108.523 Y-16.086
X-108.535 Y-16.122
X-108.532 Y-16.161
X-108.515 Y-16.195
X-108.486 Y-16.221
X-108.479 Y-16.225
X-107.908 Y-16.554
X-107.878 Y-16.565
X-107.847 Y-16.567
X-107.817 Y-16.558
X-107.79 Y-16.541
X-107.762 Y-16.501
X-107.71 Y-16.416
X-107.626 Y-16.274
X-107.592 Y-16.207
X-107.575 Y-16.058
X-107.613 Y-15.913
X-107.69 Y-15.784
X-107.793 Y-15.676
X-107.922 Y-15.599
X-107.969 Y-15.585
X-108.112 Y-15.576
X-108.242 Y-15.634
X-108.331 Y-15.745
X-108.369 Y-15.825
X-108.418 Y-15.909
X-108.428 Y-15.94
Y-15.973
X-108.417 Y-16.004
X-108.396 Y-16.03
X-108.369 Y-16.048
X-108.342 Y-16.06
X-107.75 Y-16.313
X-107.716 Y-16.321
X-107.681 Y-16.316
X-107.649 Y-16.3
X-107.626 Y-16.274
X-107.61 Y-16.248
X-107.519 Y-16.079
X-107.487 Y-16.011
X-107.467 Y-15.862
X-107.507 Y-15.718
X-107.586 Y-15.59
X-107.691 Y-15.484
X-107.822 Y-15.409
X-107.965 Y-15.365
X-107.969
X-108.084 Y-15.389
X-108.182 Y-15.455
X-108.246 Y-15.554
X-108.289 Y-15.656
X-108.331 Y-15.745
X-108.338 Y-15.784
X-108.33 Y-15.823
X-108.308 Y-15.856
X-108.274 Y-15.877
X-108.243 Y-15.89
X-107.641 Y-16.121
X-107.607 Y-16.128
X-107.572 Y-16.122
X-107.542 Y-16.105
X-107.519 Y-16.079
X-107.408 Y-15.873
X-107.376 Y-15.806
X-107.362 Y-15.656
X-107.407 Y-15.513
X-107.49 Y-15.388
X-107.599 Y-15.285
X-107.726 Y-15.206
X-107.804 Y-15.182
X-107.95 Y-15.176
X-108.082 Y-15.24
X-108.168 Y-15.358
X-108.246 Y-15.554
X-108.252 Y-15.592
X-108.242 Y-15.63
X-108.219 Y-15.662
X-108.186 Y-15.682
X-108.137 Y-15.699
X-107.528 Y-15.917
X-107.494 Y-15.923
X-107.46 Y-15.917
X-107.43 Y-15.9
X-107.408 Y-15.873
X-107.336 Y-15.741
X-107.297 Y-15.656
X-107.269 Y-15.587
X-107.266 Y-15.437
X-107.318 Y-15.296
X-107.405 Y-15.174
X-107.517 Y-15.073
X-107.649 Y-15.003
X-107.793 Y-14.961
X-107.844 Y-14.962
X-107.975 Y-14.994
X-108.078 Y-15.08
X-108.134 Y-15.202
X-108.165 Y-15.351
X-108.168 Y-15.358
X-108.174 Y-15.39
X-108.169 Y-15.422
X-108.155 Y-15.45
X-108.132 Y-15.473
X-108.104 Y-15.488
X-108.031 Y-15.511
X-107.417 Y-15.707
X-107.382 Y-15.711
X-107.348 Y-15.703
X-107.318 Y-15.684
X-107.297 Y-15.656
X-107.239 Y-15.529
X-107.222 Y-15.487
X-107.202 Y-15.403
X-107.181 Y-15.254
X-107.223 Y-15.111
X-107.306 Y-14.985
X-107.415 Y-14.882
X-107.542 Y-14.803
X-107.684 Y-14.755
X-107.833 Y-14.742
X-107.853 Y-14.746
X-107.964 Y-14.791
X-108.048 Y-14.876
X-108.092 Y-14.987
X-108.106 Y-15.065
X-108.134 Y-15.202
X-108.133 Y-15.24
X-108.118 Y-15.275
X-108.091 Y-15.301
X-108.056 Y-15.316
X-107.939 Y-15.341
X-107.32 Y-15.475
X-107.282 Y-15.476
X-107.247 Y-15.462
X-107.219 Y-15.437
X-107.202 Y-15.403
X-107.152 Y-15.15
X-107.134 Y-15.001
X-107.182 Y-14.858
X-107.27 Y-14.737
X-107.386 Y-14.642
X-107.519 Y-14.572
X-107.662 Y-14.528
X-107.812 Y-14.523
X-107.832 Y-14.527
X-107.949 Y-14.58
X-108.033 Y-14.676
X-108.069 Y-14.799
X-108.07 Y-14.812
X-108.091 Y-14.981
X-108.092 Y-14.987
X-108.09 Y-15.025
X-108.074 Y-15.06
X-108.046 Y-15.086
X-108.01 Y-15.1
X-107.892 Y-15.12
X-107.266 Y-15.225
X-107.229
X-107.194 Y-15.21
X-107.168 Y-15.184
X-107.152 Y-15.15
X-107.138 Y-15.065
X-107.111 Y-14.896
X-107.096 Y-14.747
X-107.151 Y-14.607
X-107.247 Y-14.492
X-107.367 Y-14.402
X-107.502 Y-14.338
X-107.648 Y-14.301
X-107.798
X-107.825 Y-14.308
X-107.939 Y-14.362
X-108.02 Y-14.459
X-108.054 Y-14.58
X-108.069 Y-14.799
X-108.063 Y-14.836
X-108.044 Y-14.869
X-108.015 Y-14.892
X-107.979 Y-14.902
X-107.854 Y-14.915
X-107.219 Y-14.977
X-107.183 Y-14.973
X-107.15 Y-14.957
X-107.125 Y-14.93
X-107.111 Y-14.896
X-107.073 Y-14.643
X-107.065 Y-14.568
X-107.096 Y-14.421
X-107.182 Y-14.298
X-107.296 Y-14.201
X-107.427 Y-14.128
X-107.57 Y-14.083
X-107.72 Y-14.07
X-107.868 Y-14.091
X-107.878 Y-14.096
X-107.973 Y-14.163
X-108.036 Y-14.262
X-108.055 Y-14.378
X-108.052 Y-14.474
X-108.053 Y-14.558
X-108.054 Y-14.58
X-108.048 Y-14.618
X-108.028 Y-14.651
X-107.997 Y-14.673
X-107.959 Y-14.683
X-107.817 Y-14.69
X-107.176 Y-14.724
X-107.141 Y-14.72
X-107.109 Y-14.703
X-107.085 Y-14.676
X-107.073 Y-14.643
X-107.06 Y-14.558
X-107.043 Y-14.389
X-107.04 Y-14.316
X-107.08 Y-14.172
X-107.17 Y-14.052
X-107.288 Y-13.959
X-107.422 Y-13.893
X-107.567 Y-13.853
X-107.716 Y-13.838
X-107.865 Y-13.861
X-107.88 Y-13.868
X-107.983 Y-13.938
X-108.048 Y-14.044
X-108.065 Y-14.167
X-108.061 Y-14.22
X-108.056 Y-14.345
X-108.055 Y-14.378
X-108.046 Y-14.414
X-108.024 Y-14.444
X-107.993 Y-14.464
X-107.956 Y-14.471
X-107.784 Y-14.473
X-107.143 Y-14.476
X-107.107 Y-14.47
X-107.077 Y-14.452
X-107.054 Y-14.424
X-107.043 Y-14.389
X-107.035 Y-14.305
Y-14.263
X-107.047 Y-14.136
X-107.052 Y-14.089
X-107.076 Y-13.941
X-107.164 Y-13.82
X-107.282 Y-13.727
X-107.417 Y-13.662
X-107.561 Y-13.622
X-107.711 Y-13.608
X-107.859 Y-13.629
X-107.901 Y-13.646
X-108.01 Y-13.72
X-108.075 Y-13.835
X-108.081 Y-13.967
X-108.073 Y-14.051
X-108.065 Y-14.167
X-108.054 Y-14.203
X-108.03 Y-14.233
X-107.996 Y-14.251
X-107.958 Y-14.256
X-107.771 Y-14.242
X-107.144 Y-14.197
X-107.107 Y-14.186
X-107.076 Y-14.162
X-107.057 Y-14.128
X-107.052 Y-14.089
X-107.066 Y-13.967
X-107.092 Y-13.798
X-107.108 Y-13.725
X-107.183 Y-13.595
X-107.298 Y-13.498
X-107.432 Y-13.431
X-107.577 Y-13.392
X-107.726 Y-13.38
X-107.874 Y-13.402
X-107.931 Y-13.423
X-108.045 Y-13.501
X-108.113 Y-13.621
X-108.12 Y-13.759
X-108.081 Y-13.967
X-108.066 Y-14.002
X-108.039 Y-14.028
X-108.004 Y-14.043
X-107.966 Y-14.044
X-107.798 Y-14.015
X-107.174 Y-13.909
X-107.139 Y-13.896
X-107.111 Y-13.87
X-107.095 Y-13.836
X-107.092 Y-13.798
X-107.133 Y-13.545
X-107.149 Y-13.471
X-107.228 Y-13.344
X-107.347 Y-13.252
X-107.483 Y-13.19
X-107.63 Y-13.159
X-107.78 Y-13.155
X-107.927 Y-13.184
X-107.986 Y-13.209
X-108.098 Y-13.291
X-108.161 Y-13.414
X-108.162 Y-13.553
X-108.145 Y-13.629
X-108.12 Y-13.759
X-108.104 Y-13.795
X-108.075 Y-13.822
X-108.039 Y-13.836
X-108 Y-13.835
X-107.832 Y-13.797
X-107.21 Y-13.655
X-107.176 Y-13.64
X-107.15 Y-13.615
X-107.135 Y-13.581
X-107.133 Y-13.545
X-107.154 Y-13.416
X-107.161 Y-13.376
X-107.181 Y-13.291
X-107.202 Y-13.219
X-107.286 Y-13.095
X-107.408 Y-13.008
X-107.548 Y-12.953
X-107.696 Y-12.929
X-107.846 Y-12.932
X-107.991 Y-12.968
X-108.127 Y-13.032
X-108.147 Y-13.049
X-108.223 Y-13.15
X-108.25 Y-13.273
X-108.224 Y-13.397
X-108.201 Y-13.428
X-108.167 Y-13.448
X-108.129 Y-13.453
X-107.887 Y-13.441
X-107.274 Y-13.41
X-107.241 Y-13.403
X-107.212 Y-13.385
X-107.191 Y-13.358
X-107.18 Y-13.325
X-107.181 Y-13.291
X-107.211 Y-13.165
X-107.219 Y-13.143
X-107.297 Y-12.991
X-107.372 Y-12.862
X-107.495 Y-12.775
X-107.636 Y-12.725
X-107.785 Y-12.707
X-107.935 Y-12.718
X-108.08 Y-12.753
X-108.213 Y-12.823
X-108.238 Y-12.845
X-108.314 Y-12.947
X-108.341 Y-13.072
X-108.314 Y-13.197
X-108.296 Y-13.222
X-108.271 Y-13.241
X-108.242 Y-13.251
X-108.211
X-107.966 Y-13.217
X-107.374 Y-13.133
X-107.338 Y-13.121
X-107.31 Y-13.097
X-107.292 Y-13.064
X-107.288 Y-13.027
X-107.297 Y-12.991
X-107.404 Y-12.784
X-107.458 Y-12.7
X-107.501 Y-12.639
X-107.622 Y-12.551
X-107.765 Y-12.505
X-107.915 Y-12.493
X-108.064 Y-12.513
X-108.206 Y-12.559
X-108.334 Y-12.638
X-108.36 Y-12.664
X-108.43 Y-12.777
X-108.445 Y-12.91
X-108.4 Y-13.036
X-108.348 Y-13.122
X-108.309 Y-13.207
X-108.196 Y-13.46
X-108.169 Y-13.528
X-108.162 Y-13.553
X-108.146 Y-13.587
X-108.118 Y-13.612
X-108.082 Y-13.625
X-108.044
X-108.009 Y-13.61
X-107.983 Y-13.583
X-107.837 Y-13.365
X-107.461 Y-12.806
X-107.447 Y-12.772
X-107.445 Y-12.735
X-107.458 Y-12.7
X-107.577 Y-12.511
X-107.67 Y-12.393
X-107.801 Y-12.321
X-107.948 Y-12.291
X-108.098 Y-12.295
X-108.244 Y-12.331
X-108.38 Y-12.394
X-108.497 Y-12.488
X-108.511 Y-12.508
X-108.562 Y-12.618
X-108.564 Y-12.74
X-108.518 Y-12.853
X-108.423 Y-12.999
X-108.4 Y-13.036
X-108.373 Y-13.063
X-108.337 Y-13.077
X-108.299 Y-13.078
X-108.263 Y-13.064
X-108.142 Y-12.986
X-107.61 Y-12.646
X-107.582 Y-12.62
X-107.566 Y-12.585
X-107.564 Y-12.547
X-107.577 Y-12.511
X-107.744 Y-12.278
X-107.746 Y-12.275
X-107.762 Y-12.253
X-107.796 Y-12.212
X-107.811 Y-12.196
X-107.827 Y-12.182
X-107.86 Y-12.166
X-107.897 Y-12.163
X-107.932 Y-12.173
X-107.961 Y-12.195
X-107.981 Y-12.226
X-107.988 Y-12.262
X-107.981 Y-12.298
X-107.961 Y-12.33
X-107.92 Y-12.376
X-107.89 Y-12.398
X-107.854 Y-12.408
X-107.817 Y-12.404
X-107.784 Y-12.387
X-107.759 Y-12.359
X-107.747 Y-12.324
X-107.748 Y-12.287
X-107.762 Y-12.253
X-107.776 Y-12.234
X-107.792 Y-12.214
X-107.803 Y-12.202
X-107.831 Y-12.179
X-107.891 Y-12.135
X-108.036 Y-12.097
X-108.186
X-108.334 Y-12.126
X-108.472 Y-12.184
X-108.594 Y-12.272
X-108.623 Y-12.306
X-108.688 Y-12.433
X-108.687 Y-12.575
X-108.621 Y-12.7
X-108.594 Y-12.725
X-108.56 Y-12.739
X-108.523 Y-12.74
X-108.488 Y-12.727
X-108.357 Y-12.648
X-107.845 Y-12.34
X-107.817 Y-12.315
X-107.801 Y-12.282
X-107.797 Y-12.245
X-107.808 Y-12.209
X-107.831 Y-12.179
X-108 Y-12.042
X-108.121 Y-11.953
X-108.268 Y-11.923
X-108.417 Y-11.936
X-108.56 Y-11.983
X-108.688 Y-12.062
X-108.793 Y-12.168
X-108.813 Y-12.206
X-108.849 Y-12.335
X-108.826 Y-12.467
X-108.747 Y-12.575
X-108.677 Y-12.637
X-108.621 Y-12.7
X-108.518 Y-12.853
X-108.494 Y-12.876
X-108.464 Y-12.89
X-108.431 Y-12.894
X-108.398 Y-12.886
X-108.37 Y-12.868
X-108.349 Y-12.842
X-108.291 Y-12.735
X-107.978 Y-12.165
X-107.967 Y-12.133
Y-12.099
X-107.979 Y-12.068
X-108 Y-12.042
X-108.169 Y-11.904
X-108.237 Y-11.855
X-108.37 Y-11.787
X-108.519 Y-11.774
X-108.666 Y-11.807
X-108.8 Y-11.875
X-108.914 Y-11.972
X-108.999 Y-12.095
X-109.004 Y-12.108
X-109.018 Y-12.23
X-108.983 Y-12.346
X-108.904 Y-12.439
X-108.895 Y-12.447
X-108.747 Y-12.575
X-108.718 Y-12.591
X-108.686 Y-12.597
X-108.653 Y-12.593
X-108.624 Y-12.578
X-108.601 Y-12.554
X-108.574 Y-12.514
X-108.216 Y-11.991
X-108.2 Y-11.956
X-108.199 Y-11.919
X-108.212 Y-11.884
X-108.237 Y-11.855
X-108.47 Y-11.72
X-108.603 Y-11.651
X-108.753 Y-11.65
X-108.895 Y-11.697
X-109.021 Y-11.779
X-109.126 Y-11.886
X-109.154 Y-11.939
X-109.188 Y-12.084
X-109.15 Y-12.227
X-109.047 Y-12.334
X-109.003 Y-12.362
X-108.904 Y-12.439
X-108.874 Y-12.454
X-108.841 Y-12.458
X-108.808 Y-12.452
X-108.78 Y-12.434
X-108.758 Y-12.409
X-108.754 Y-12.401
X-108.436 Y-11.855
X-108.424 Y-11.819
X-108.426 Y-11.781
X-108.442 Y-11.746
X-108.47 Y-11.72
X-108.635 Y-11.625
X-108.656 Y-11.615
X-108.677 Y-11.607
X-108.808 Y-11.573
X-108.881 Y-11.558
X-109.03 Y-11.574
X-109.166 Y-11.639
X-109.275 Y-11.742
X-109.353 Y-11.87
X-109.36 Y-11.897
X-109.364 Y-12.023
X-109.315 Y-12.139
X-109.224 Y-12.225
X-109.19 Y-12.237
X-109.153 Y-12.235
X-109.12 Y-12.221
X-109.094 Y-12.196
X-108.756 Y-11.727
X-108.74 Y-11.693
X-108.738 Y-11.655
X-108.75 Y-11.619
X-108.774 Y-11.591
X-108.808 Y-11.573
X-109.063 Y-11.506
X-109.1 Y-11.497
X-109.175 Y-11.49
X-109.318 Y-11.536
X-109.437 Y-11.626
X-109.502 Y-11.722
X-109.549 Y-11.844
X-109.536 Y-11.975
X-109.466 Y-12.086
X-109.354 Y-12.155
X-109.322 Y-12.163
X-109.29 Y-12.161
X-109.26 Y-12.149
X-109.236 Y-12.128
X-109.219 Y-12.1
X-109.035 Y-11.629
X-109.028 Y-11.597
X-109.032 Y-11.564
X-109.047 Y-11.534
X-109.07 Y-11.511
X-109.1 Y-11.497
X-109.316 Y-11.467
X-109.39 Y-11.461
X-109.534 Y-11.503
X-109.647 Y-11.601
X-109.72 Y-11.732
X-109.725 Y-11.757
X-109.718 Y-11.904
X-109.642 Y-12.03
X-109.515 Y-12.105
X-109.479 Y-12.107
X-109.444 Y-12.096
X-109.415 Y-12.073
X-109.397 Y-12.041
X-109.238 Y-11.599
X-109.233 Y-11.565
X-109.239 Y-11.531
X-109.256 Y-11.501
X-109.283 Y-11.479
X-109.316 Y-11.467
X-109.438 Y-11.452
X-109.523 Y-11.443
X-109.598 Y-11.439
X-109.742 Y-11.481
X-109.851 Y-11.583
X-109.879 Y-11.646
X-109.904 Y-11.77
X-109.876 Y-11.894
X-109.799 Y-11.994
X-109.688 Y-12.054
X-109.65 Y-12.057
X-109.614 Y-12.045
X-109.585 Y-12.02
X-109.568 Y-11.987
X-109.441 Y-11.571
X-109.437 Y-11.537
X-109.445 Y-11.503
X-109.463 Y-11.475
X-109.49 Y-11.454
X-109.523 Y-11.443
X-109.616 Y-11.433
X-109.692 Y-11.426
X-109.739 Y-11.425
X-109.777
X-109.851 Y-11.433
X-109.983 Y-11.505
X-110.066 Y-11.629
X-110.096 Y-11.778
X-110.052 Y-11.896
X-109.962 Y-11.985
X-109.844 Y-12.03
X-109.805 Y-12.026
X-109.771 Y-12.009
X-109.745 Y-11.979
X-109.733 Y-11.943
X-109.683 Y-11.537
X-109.684 Y-11.504
X-109.696 Y-11.474
X-109.717 Y-11.449
X-109.745 Y-11.432
X-109.777 Y-11.425
X-109.9 Y-11.433
X-109.946 Y-11.437
X-109.992 Y-11.442
X-110.066 Y-11.454
X-110.191 Y-11.537
X-110.266 Y-11.667
X-110.267 Y-11.683
X-110.256 Y-11.796
X-110.203 Y-11.897
X-110.116 Y-11.97
X-110.008 Y-12.006
X-109.976 Y-12.004
X-109.946 Y-11.992
X-109.921 Y-11.97
X-109.905 Y-11.942
X-109.898 Y-11.91
X-109.885 Y-11.545
X-109.889 Y-11.512
X-109.904 Y-11.482
X-109.928 Y-11.459
X-109.959 Y-11.445
X-109.992 Y-11.442
X-110.2 Y-11.468
X-110.273 Y-11.484
X-110.333 Y-11.528
X-110.419 Y-11.651
X-110.42 Y-11.66
X-110.408 Y-11.784
X-110.346 Y-11.892
X-110.246 Y-11.966
X-110.124 Y-11.993
X-110.09 Y-11.986
X-110.06 Y-11.968
X-110.039 Y-11.941
X-110.028 Y-11.908
Y-11.874
X-110.092 Y-11.548
X-110.106 Y-11.514
X-110.131 Y-11.487
X-110.163 Y-11.471
X-110.2 Y-11.468
X-110.284 Y-11.482
X-110.412 Y-11.517
X-110.447 Y-11.529
X-110.502 Y-11.581
X-110.538 Y-11.647
X-110.535 Y-11.78
X-110.472 Y-11.898
X-110.363 Y-11.975
X-110.231 Y-11.995
X-110.195 Y-11.983
X-110.165 Y-11.959
X-110.147 Y-11.925
X-110.144 Y-11.887
X-110.154 Y-11.85
X-110.299 Y-11.569
X-110.319 Y-11.542
X-110.347 Y-11.524
X-110.379 Y-11.515
X-110.412 Y-11.517
X-110.538 Y-11.553
X-110.573 Y-11.566
X-110.625 Y-11.62
X-110.659 Y-11.687
X-110.649 Y-11.813
X-110.586 Y-11.921
X-110.48 Y-11.991
X-110.355 Y-12.007
X-110.319 Y-11.994
X-110.29 Y-11.969
X-110.272 Y-11.934
X-110.27 Y-11.895
X-110.282 Y-11.859
X-110.427 Y-11.601
X-110.448 Y-11.576
X-110.475 Y-11.558
X-110.506 Y-11.55
X-110.538 Y-11.553
X-110.623 Y-11.579
X-110.652 Y-11.592
X-110.696 Y-11.613
X-110.796 Y-11.724
X-110.869 Y-11.782
X-110.858 Y-11.82
X-110.786 Y-11.945
X-110.662 Y-12.019
X-110.517 Y-12.024
X-110.484 Y-12.013
X-110.457 Y-11.991
X-110.439 Y-11.961
X-110.432 Y-11.927
X-110.438 Y-11.892
X-110.523 Y-11.652
X-110.543 Y-11.618
X-110.575 Y-11.594
X-110.613 Y-11.585
X-110.652 Y-11.592
X-110.677 Y-11.602
X-110.707 Y-11.616
X-110.792 Y-11.662
X-110.877 Y-11.711
X-110.979 Y-11.771
X-111.046 Y-11.819
X-111.091 Y-11.855
X-111.269 Y-12.024
X-111.3 Y-12.054
X-111.351 Y-12.109
X-111.36 Y-12.119
X-111.366 Y-12.13
X-111.37 Y-12.14
X-111.373 Y-12.151
X-111.375 Y-12.162
X-111.376 Y-12.172
Y-12.183
X-111.375 Y-12.193
X-111.372 Y-12.204
X-111.368 Y-12.214
X-111.363 Y-12.225
X-111.341 Y-12.257
X-111.329 Y-12.269
X-111.316 Y-12.278
X-111.3 Y-12.286
X-111.289 Y-12.289
X-111.278 Y-12.291
X-111.268 Y-12.292
X-111.257
X-111.247 Y-12.29
X-111.236 Y-12.288
X-111.225 Y-12.284
X-111.213 Y-12.278
X-111.13 Y-12.23
X-111.046 Y-12.191
X-110.855 Y-12.109
X-110.792 Y-12.085
X-110.517 Y-12.024
X-110.454 Y-12.017
X-110.284 Y-12
X-110.2 Y-11.993
X-110.115
X-110.031 Y-12.003
X-109.946 Y-12.014
X-109.777 Y-12.039
X-109.692 Y-12.053
X-109.438 Y-12.127
X-109.354 Y-12.155
X-109.276 Y-12.193
X-109.138 Y-12.278
X-109.047 Y-12.334
X-109.01 Y-12.347
X-108.971 Y-12.344
X-108.936 Y-12.327
X-108.911 Y-12.298
X-108.892 Y-12.264 Z-0.982
X-108.875 Y-12.236 Z-0.961
X-108.865 Y-12.218 Z-0.928
X-108.861 Y-12.211 Z-0.89
G0 Z2
X-111.838 Y-12.774
Z1.11
G1 Z1.01 F1000
Z-0.99
G3 X-112.216 Y-12.085 I-3.367 J-1.398
G1 X-112.23 Y-12.066
X-112.256 Y-12.024
X-112.277 Y-11.982
X-112.294 Y-11.94
X-112.305 Y-11.898
X-112.317 Y-11.862
X-112.419 Y-11.752
X-112.555 Y-11.689
X-112.703 Y-11.665
X-112.853 Y-11.672
X-112.999 Y-11.707
X-113.048 Y-11.728
X-113.142 Y-11.789
X-113.207 Y-11.88
X-113.233 Y-11.989
X-113.248 Y-12.262
X-113.243 Y-12.295
X-113.227 Y-12.325
X-113.202 Y-12.348
X-113.172 Y-12.361
X-113.138 Y-12.363
X-113.106 Y-12.355
X-112.95 Y-12.283
X-112.361 Y-12.012
X-112.333 Y-11.992
X-112.313 Y-11.965
X-112.303 Y-11.932
X-112.305 Y-11.898
X-112.316 Y-11.855
X-112.322 Y-11.813
X-112.325 Y-11.771
X-112.328 Y-11.733
X-112.393 Y-11.598
X-112.515 Y-11.51
X-112.657 Y-11.462
X-112.806 Y-11.446
X-112.956 Y-11.458
X-113.006 Y-11.473
X-113.114 Y-11.531
X-113.19 Y-11.627
X-113.221 Y-11.745
X-113.233 Y-11.989
X-113.227 Y-12.027
X-113.207 Y-12.059
X-113.177 Y-12.081
X-113.14 Y-12.091
X-113.103 Y-12.086
X-113.029 Y-12.063
X-112.395 Y-11.859
X-112.36 Y-11.84
X-112.336 Y-11.809
X-112.325 Y-11.771
X-112.322 Y-11.686
X-112.318 Y-11.64
X-112.316 Y-11.565
X-112.367 Y-11.424
X-112.479 Y-11.324
X-112.614 Y-11.259
X-112.761 Y-11.226
X-112.911 Y-11.224
X-112.969 Y-11.236
X-113.087 Y-11.289
X-113.172 Y-11.387
X-113.207 Y-11.512
X-113.221 Y-11.745
X-113.215 Y-11.78
X-113.198 Y-11.81
X-113.172 Y-11.833
X-113.139 Y-11.845
X-113.104
X-113.049 Y-11.836
X-112.401 Y-11.727
X-112.371 Y-11.716
X-112.345 Y-11.697
X-112.327 Y-11.671
X-112.318 Y-11.64
X-112.301 Y-11.433
X-112.297 Y-11.358
X-112.357 Y-11.22
X-112.466 Y-11.117
X-112.598 Y-11.047
X-112.742 Y-11.006
X-112.892 Y-11
X-112.943 Y-11.009
X-113.063 Y-11.059
X-113.151 Y-11.155
X-113.19 Y-11.279
X-113.203 Y-11.433
X-113.207 Y-11.512
X-113.202 Y-11.546
X-113.186 Y-11.576
X-113.16 Y-11.599
X-113.129 Y-11.612
X-113.094 Y-11.613
X-113.035 Y-11.606
X-112.387 Y-11.519
X-112.356 Y-11.51
X-112.329 Y-11.491
X-112.31 Y-11.464
X-112.301 Y-11.433
X-112.285 Y-11.264
X-112.282 Y-11.189
X-112.317 Y-11.043
X-112.415 Y-10.93
X-112.54 Y-10.846
X-112.68 Y-10.795
X-112.829 Y-10.775
X-112.896 Y-10.782
X-113.021 Y-10.823
X-113.117 Y-10.915
X-113.164 Y-11.038
X-113.172 Y-11.095
X-113.181 Y-11.18
X-113.19 Y-11.279
X-113.186 Y-11.312
X-113.171 Y-11.342
X-113.148 Y-11.365
X-113.118 Y-11.38
X-113.085 Y-11.384
X-113.025 Y-11.381
X-112.379 Y-11.351
X-112.346 Y-11.344
X-112.316 Y-11.325
X-112.295 Y-11.297
X-112.285 Y-11.264
X-112.277 Y-11.18
X-112.261 Y-11.049
X-112.255 Y-10.974
X-112.297 Y-10.83
X-112.393 Y-10.715
X-112.518 Y-10.631
X-112.657 Y-10.576
X-112.806 Y-10.557
X-112.853 Y-10.56
X-112.975 Y-10.598
X-113.07 Y-10.682
X-113.122 Y-10.799
X-113.13 Y-10.842
X-113.161 Y-11.019
X-113.164 Y-11.038
X-113.161 Y-11.072
X-113.148 Y-11.103
X-113.125 Y-11.128
X-113.095 Y-11.144
X-113.062 Y-11.149
X-113.004 Y-11.148
X-112.357 Y-11.133
X-112.323 Y-11.126
X-112.294 Y-11.108
X-112.272 Y-11.081
X-112.261 Y-11.049
X-112.245 Y-10.926
X-112.233 Y-10.842
X-112.225 Y-10.767
X-112.265 Y-10.623
X-112.36 Y-10.506
X-112.482 Y-10.419
X-112.62 Y-10.361
X-112.768 Y-10.339
X-112.806 Y-10.342
X-112.929 Y-10.379
X-113.025 Y-10.463
X-113.077 Y-10.581
X-113.122 Y-10.799
X-113.121 Y-10.833
X-113.11 Y-10.866
X-113.088 Y-10.892
X-113.058 Y-10.91
X-113.024 Y-10.916
X-112.979
X-112.332 Y-10.922
X-112.298 Y-10.917
X-112.268 Y-10.9
X-112.245 Y-10.874
X-112.233 Y-10.842
X-112.197 Y-10.626
X-112.188 Y-10.552
X-112.232 Y-10.408
X-112.326 Y-10.292
X-112.448 Y-10.204
X-112.586 Y-10.145
X-112.734 Y-10.123
X-112.764 Y-10.126
X-112.885 Y-10.163
X-112.979 Y-10.247
X-113.031 Y-10.363
X-113.077 Y-10.581
Y-10.615
X-113.065 Y-10.647
X-113.043 Y-10.674
X-113.013 Y-10.691
X-112.979 Y-10.697
X-112.944 Y-10.698
X-112.297 Y-10.706
X-112.263 Y-10.701
X-112.233 Y-10.684
X-112.21 Y-10.658
X-112.197 Y-10.626
X-112.191 Y-10.588
X-112.163 Y-10.457
X-112.151 Y-10.383
X-112.17 Y-10.235
X-112.253 Y-10.109
X-112.367 Y-10.011
X-112.5 Y-9.944
X-112.647 Y-9.91
X-112.691
X-112.818 Y-9.94
X-112.921 Y-10.022
X-112.979 Y-10.138
X-113.006 Y-10.25
X-113.031 Y-10.363
Y-10.396
X-113.021 Y-10.428
X-113 Y-10.454
X-112.973 Y-10.472
X-112.94 Y-10.48
X-112.911 Y-10.482
X-112.268 Y-10.533
X-112.233 Y-10.53
X-112.202 Y-10.514
X-112.177 Y-10.489
X-112.163 Y-10.457
X-112.119 Y-10.25
X-112.104 Y-10.177
X-112.124 Y-10.028
X-112.205 Y-9.902
X-112.317 Y-9.803
X-112.45 Y-9.732
X-112.596 Y-9.698
X-112.625 Y-9.699
X-112.742 Y-9.723
X-112.84 Y-9.791
X-112.904 Y-9.892
X-112.944 Y-9.997
X-112.979 Y-10.138
X-112.98 Y-10.172
X-112.97 Y-10.204
X-112.95 Y-10.231
X-112.923 Y-10.25
X-112.89 Y-10.259
X-112.869 Y-10.261
X-112.224 Y-10.321
X-112.19 Y-10.319
X-112.159 Y-10.305
X-112.134 Y-10.281
X-112.119 Y-10.25
X-112.067 Y-10.054
X-112.051 Y-9.981
X-112.067 Y-9.832
X-112.144 Y-9.703
X-112.253 Y-9.6
X-112.384 Y-9.526
X-112.529 Y-9.49
X-112.538 Y-9.489
X-112.653 Y-9.511
X-112.751 Y-9.575
X-112.816 Y-9.672
X-112.846 Y-9.744
X-112.893 Y-9.863
X-112.904 Y-9.892
X-112.91 Y-9.926
X-112.903 Y-9.96
X-112.885 Y-9.99
X-112.858 Y-10.012
X-112.825 Y-10.023
X-112.813 Y-10.025
X-112.178 Y-10.123
X-112.142
X-112.11 Y-10.109
X-112.083 Y-10.086
X-112.067 Y-10.054
X-112.005 Y-9.828
X-111.988 Y-9.755
X-112.016 Y-9.608
X-112.098 Y-9.482
X-112.211 Y-9.383
X-112.343 Y-9.312
X-112.395 Y-9.301
X-112.531 Y-9.303
X-112.652 Y-9.366
X-112.733 Y-9.476
X-112.816 Y-9.672
X-112.823 Y-9.707
X-112.817 Y-9.742
X-112.799 Y-9.773
X-112.771 Y-9.795
X-112.737 Y-9.807
X-112.115 Y-9.896
X-112.08 Y-9.895
X-112.048 Y-9.882
X-112.022 Y-9.859
X-112.005 Y-9.828
X-111.976 Y-9.728
X-111.949 Y-9.659
X-111.921 Y-9.59
X-111.932 Y-9.44
X-112.004 Y-9.308
X-112.108 Y-9.2
X-112.238 Y-9.127
X-112.293 Y-9.112
X-112.434 Y-9.107
X-112.561 Y-9.168
X-112.646 Y-9.279
X-112.719 Y-9.444
X-112.733 Y-9.476
X-112.739 Y-9.51
X-112.734 Y-9.545
X-112.716 Y-9.576
X-112.689 Y-9.599
X-112.656 Y-9.611
X-112.053 Y-9.71
X-112.022
X-111.993 Y-9.701
X-111.968 Y-9.684
X-111.949 Y-9.659
X-111.876 Y-9.515
X-111.846 Y-9.447
X-111.831 Y-9.297
X-111.886 Y-9.157
X-111.981 Y-9.041
X-112.103 Y-8.955
X-112.244 Y-8.903
X-112.259 Y-8.902
X-112.372 Y-8.917
X-112.471 Y-8.972
X-112.543 Y-9.061
X-112.569 Y-9.109
X-112.59 Y-9.152
X-112.646 Y-9.279
X-112.654 Y-9.312
X-112.649 Y-9.346
X-112.634 Y-9.376
X-112.609 Y-9.4
X-112.578 Y-9.414
X-111.988 Y-9.563
X-111.956 Y-9.566
X-111.924 Y-9.558
X-111.897 Y-9.54
X-111.876 Y-9.515
X-111.777 Y-9.321
X-111.746 Y-9.253
X-111.741 Y-9.103
X-111.799 Y-8.965
X-111.895 Y-8.849
X-112.015 Y-8.759
X-112.059 Y-8.742
X-112.188 Y-8.725
X-112.311 Y-8.763
X-112.407 Y-8.85
X-112.502 Y-8.984
X-112.543 Y-9.061
X-112.552 Y-9.094
X-112.55 Y-9.129
X-112.536 Y-9.16
X-112.512 Y-9.185
X-112.48 Y-9.201
X-111.892 Y-9.369
X-111.859 Y-9.373
X-111.826 Y-9.365
X-111.798 Y-9.347
X-111.777 Y-9.321
X-111.723 Y-9.216
X-111.686 Y-9.152
X-111.649 Y-9.087
X-111.637 Y-8.938
X-111.689 Y-8.797
X-111.778 Y-8.676
X-111.898 Y-8.586
X-111.922 Y-8.577
X-112.05 Y-8.555
X-112.176 Y-8.589
X-112.274 Y-8.673
X-112.407 Y-8.85
X-112.421 Y-8.884
X-112.423 Y-8.92
X-112.411 Y-8.954
X-112.388 Y-8.982
X-112.356 Y-9
X-111.8 Y-9.189
X-111.769 Y-9.195
X-111.737 Y-9.19
X-111.709 Y-9.175
X-111.686 Y-9.152
X-111.638 Y-9.079
X-111.585 Y-9.01
X-111.542 Y-8.948
X-111.516 Y-8.801
X-111.555 Y-8.656
X-111.636 Y-8.53
X-111.75 Y-8.433
X-111.774 Y-8.421
X-111.896 Y-8.392
X-112.018 Y-8.415
X-112.121 Y-8.486
X-112.146 Y-8.512
X-112.189 Y-8.561
X-112.274 Y-8.673
X-112.29 Y-8.706
X-112.292 Y-8.741
X-112.282 Y-8.776
X-112.261 Y-8.804
X-112.23 Y-8.824
X-111.699 Y-9.039
X-111.669 Y-9.046
X-111.637 Y-9.043
X-111.609 Y-9.031
X-111.585 Y-9.01
X-111.553 Y-8.97
X-111.469 Y-8.869
X-111.423 Y-8.809
X-111.387 Y-8.663
X-111.417 Y-8.517
X-111.491 Y-8.386
X-111.601 Y-8.284
X-111.612 Y-8.277
X-111.725 Y-8.244
X-111.843 Y-8.256
X-111.946 Y-8.313
X-111.976 Y-8.339
X-112.032 Y-8.392
X-112.121 Y-8.486
X-112.139 Y-8.517
X-112.146 Y-8.553
X-112.139 Y-8.589
X-112.119 Y-8.62
X-112.09 Y-8.642
X-111.587 Y-8.891
X-111.557 Y-8.901
X-111.524 Y-8.9
X-111.494 Y-8.889
X-111.469 Y-8.869
X-111.423 Y-8.815
X-111.348 Y-8.73
X-111.301 Y-8.672
X-111.253 Y-8.53
X-111.276 Y-8.381
X-111.343 Y-8.247
X-111.387 Y-8.203
X-111.512 Y-8.128
X-111.658 Y-8.121
X-111.79 Y-8.183
X-111.813 Y-8.213
X-111.823 Y-8.248
X-111.82 Y-8.285
X-111.803 Y-8.319
X-111.5 Y-8.721
X-111.475 Y-8.744
X-111.443 Y-8.758
X-111.409 Y-8.76
X-111.376 Y-8.75
X-111.348 Y-8.73
X-111.3 Y-8.677
X-111.262 Y-8.646
X-111.236 Y-8.625
X-111.179 Y-8.577
X-111.11 Y-8.444
X-111.113 Y-8.294
X-111.169 Y-8.155
X-111.264 Y-8.039
X-111.277 Y-8.03
X-111.39 Y-7.988
X-111.51 Y-7.994
X-111.618 Y-8.046
X-111.736 Y-8.139
X-111.94 Y-8.308
X-111.946 Y-8.313
X-111.968 Y-8.341
X-111.978 Y-8.375
X-111.976 Y-8.411
X-111.962 Y-8.443
X-111.937 Y-8.469
X-111.905 Y-8.484
X-111.321 Y-8.641
X-111.291 Y-8.644
X-111.262 Y-8.639
X-111.236 Y-8.625
X-111.215 Y-8.609
X-111.138 Y-8.561
X-111.105 Y-8.543
X-111.041 Y-8.504
X-110.955 Y-8.381
X-110.943 Y-8.231
X-110.981 Y-8.086
X-111.057 Y-7.957
X-111.155 Y-7.898
X-111.266 Y-7.881
X-111.376 Y-7.905
X-111.469 Y-7.949
X-111.512 Y-7.97
X-111.532 Y-7.982
X-111.553 Y-7.996
X-111.618 Y-8.046
X-111.641 Y-8.073
X-111.654 Y-8.106
Y-8.141
X-111.641 Y-8.174
X-111.618 Y-8.201
X-111.212 Y-8.531
X-111.179 Y-8.549
X-111.141 Y-8.553
X-111.105 Y-8.543
X-111.046 Y-8.511
X-110.936 Y-8.457
X-110.87 Y-8.421
X-110.787 Y-8.296
X-110.768 Y-8.147
X-110.795 Y-7.999
X-110.818 Y-7.958
X-110.918 Y-7.852
X-111.056 Y-7.805
X-111.2 Y-7.829
X-111.376 Y-7.905
X-111.406 Y-7.928
X-111.426 Y-7.959
X-111.433 Y-7.996
X-111.426 Y-8.033
X-111.405 Y-8.065
X-111.048 Y-8.435
X-111.024 Y-8.454
X-110.995 Y-8.464
X-110.965 Y-8.465
X-110.936 Y-8.457
X-110.877 Y-8.428
X-110.796 Y-8.392
X-110.728 Y-8.359
X-110.625 Y-8.25
X-110.588 Y-8.105
X-110.606 Y-7.956
X-110.668 Y-7.819
X-110.672 Y-7.815
X-110.769 Y-7.747
X-110.885 Y-7.723
X-111.002 Y-7.745
X-111.136 Y-7.801
X-111.2 Y-7.829
X-111.229 Y-7.85
X-111.249 Y-7.881
X-111.257 Y-7.916
X-111.251 Y-7.952
X-111.233 Y-7.984
X-110.908 Y-8.364
X-110.885 Y-8.384
X-110.856 Y-8.396
X-110.826 Y-8.399
X-110.796 Y-8.392
X-110.707 Y-8.357
X-110.623 Y-8.328
X-110.552 Y-8.303
X-110.447 Y-8.196
X-110.405 Y-8.052
X-110.412 Y-7.902
X-110.428 Y-7.858
X-110.503 Y-7.747
X-110.62 Y-7.679
X-110.754 Y-7.669
X-110.792 Y-7.675
X-110.834 Y-7.683
X-110.961 Y-7.728
X-111.002 Y-7.745
X-111.031 Y-7.765
X-111.052 Y-7.795
X-111.06 Y-7.831
X-111.056 Y-7.867
X-111.038 Y-7.899
X-110.719 Y-8.293
X-110.692 Y-8.316
X-110.658 Y-8.328
X-110.623
X-110.454 Y-8.29
X-110.381 Y-8.27
X-110.27 Y-8.169
X-110.217 Y-8.029
X-110.218 Y-7.879
X-110.227 Y-7.85
X-110.298 Y-7.73
X-110.416 Y-7.654
X-110.555 Y-7.641
X-110.754 Y-7.669
X-110.79 Y-7.683
X-110.817 Y-7.71
X-110.833 Y-7.745
X-110.834 Y-7.784
X-110.82 Y-7.82
X-110.557 Y-8.244
X-110.529 Y-8.273
X-110.493 Y-8.289
X-110.454 Y-8.29
X-110.284 Y-8.253
X-110.212 Y-8.233
X-110.092 Y-8.143
X-110.031 Y-8.006
X-110.028 Y-7.856
X-110.034 Y-7.834
X-110.103 Y-7.712
X-110.219 Y-7.634
X-110.358 Y-7.617
X-110.394 Y-7.63
X-110.422 Y-7.655
X-110.439 Y-7.688
X-110.443 Y-7.725
X-110.402 Y-8.164
X-110.393 Y-8.195
X-110.375 Y-8.223
X-110.349 Y-8.243
X-110.317 Y-8.253
X-110.284
X-110.115 Y-8.216
X-110.069 Y-8.21
X-110.032 Y-8.203
X-109.97 Y-8.16
X-109.877 Y-8.043
X-109.84 Y-7.897
X-109.845 Y-7.861
X-109.88 Y-7.753
X-109.952 Y-7.666
X-110.051 Y-7.612
X-110.164 Y-7.599
X-110.195 Y-7.607
X-110.222 Y-7.626
X-110.242 Y-7.652
X-110.252 Y-7.683
X-110.251 Y-7.716
X-110.177 Y-8.128
X-110.164 Y-8.163
X-110.139 Y-8.19
X-110.106 Y-8.207
X-110.069 Y-8.21
X-110.031 Y-8.205
X-109.988
X-109.946 Y-8.208
X-109.908 Y-8.21
X-109.839 Y-8.181
X-109.725 Y-8.084
X-109.665 Y-7.946
X-109.664 Y-7.907
X-109.682 Y-7.797
X-109.739 Y-7.7
X-109.828 Y-7.632
X-109.935 Y-7.6
X-109.946 Y-7.599
X-110.031 Y-7.596
X-110.115 Y-7.595
X-110.2 Y-7.601
X-110.284 Y-7.609
X-110.555 Y-7.641
X-110.587 Y-7.652
X-110.614 Y-7.674
X-110.631 Y-7.704
X-110.638 Y-7.738
X-110.632 Y-7.772
X-110.616 Y-7.802
X-110.59 Y-7.825
X-109.984 Y-8.194
X-109.965 Y-8.203
X-109.946 Y-8.208
X-109.828 Y-8.22
X-109.753 Y-8.225
X-109.683 Y-8.199
X-109.559 Y-8.115
X-109.492 Y-7.98
X-109.489 Y-7.943
X-109.501 Y-7.827
X-109.556 Y-7.724
X-109.647 Y-7.651
X-109.759 Y-7.617
X-109.935 Y-7.6
X-109.973 Y-7.605
X-110.006 Y-7.624
X-110.03 Y-7.654
X-110.041 Y-7.691
X-110.037 Y-7.729
X-109.91 Y-8.15
X-109.892 Y-8.184
X-109.864 Y-8.208
X-109.828 Y-8.22
X-109.692 Y-8.236
X-109.646 Y-8.246
X-109.609 Y-8.252
X-109.535 Y-8.237
X-109.404 Y-8.164
X-109.325 Y-8.036
X-109.317 Y-7.991
X-109.319 Y-7.87
X-109.369 Y-7.76
X-109.458 Y-7.678
X-109.572 Y-7.638
X-109.611 Y-7.642
X-109.645 Y-7.661
X-109.67 Y-7.691
X-109.681 Y-7.729
X-109.72 Y-8.14
X-109.717 Y-8.175
X-109.702 Y-8.207
X-109.677 Y-8.231
X-109.646 Y-8.246
X-109.476 Y-8.284
X-109.439 Y-8.29
X-109.294 Y-8.254
X-109.186 Y-8.151
X-109.127 Y-8.012
X-109.126 Y-7.972
X-109.156 Y-7.829
X-109.25 Y-7.717
X-109.386 Y-7.663
X-109.424 Y-7.667
X-109.458 Y-7.684
X-109.483 Y-7.713
X-109.495 Y-7.75
X-109.55 Y-8.174
X-109.548 Y-8.21
X-109.534 Y-8.243
X-109.509 Y-8.269
X-109.476 Y-8.284
X-109.438 Y-8.293
X-109.354 Y-8.317
X-109.281 Y-8.335
X-109.207 Y-8.324
X-109.072 Y-8.258
X-108.977 Y-8.142
X-108.936 Y-7.998
X-108.937 Y-7.979
X-108.973 Y-7.847
X-109.064 Y-7.745
X-109.19 Y-7.693
X-109.225 Y-7.695
X-109.258 Y-7.709
X-109.283 Y-7.734
X-109.299 Y-7.766
X-109.417 Y-8.195
X-109.421 Y-8.233
X-109.41 Y-8.269
X-109.386 Y-8.298
X-109.354 Y-8.317
X-109.269 Y-8.342
X-109.223 Y-8.361
X-109.152 Y-8.386
X-109.077
X-108.933 Y-8.343
X-108.825 Y-8.238
X-108.758 Y-8.104
X-108.753 Y-8.062
X-108.764 Y-7.936
X-108.826 Y-7.827
X-108.928 Y-7.752
X-108.973 Y-7.734
X-109.015 Y-7.724
X-109.1 Y-7.707
X-109.354 Y-7.667
X-109.62 Y-7.632
X-109.692 Y-7.623
X-109.759 Y-7.617
X-109.793 Y-7.621
X-109.824 Y-7.637
X-109.848 Y-7.662
X-109.862 Y-7.694
X-109.864 Y-7.728
X-109.854 Y-7.762
X-109.834 Y-7.789
X-109.796 Y-7.825
X-109.251 Y-8.343
X-109.223 Y-8.361
X-109.184 Y-8.377
X-109.154 Y-8.392
X-109.1 Y-8.427
X-109.037 Y-8.467
X-108.962 Y-8.476
X-108.814 Y-8.451
X-108.691 Y-8.366
X-108.601 Y-8.246
X-108.586 Y-8.2
X-108.575 Y-8.055
X-108.634 Y-7.922
X-108.748 Y-7.833
X-108.783 Y-7.825
X-108.817 Y-7.83
X-108.848 Y-7.847
X-108.872 Y-7.874
X-109.125 Y-8.296
X-109.138 Y-8.33
Y-8.366
X-109.124 Y-8.4
X-109.1 Y-8.427
X-108.969 Y-8.52
X-108.905 Y-8.56
X-108.757 Y-8.584
X-108.616 Y-8.535
X-108.497 Y-8.444
X-108.416 Y-8.317
X-108.404 Y-8.277
X-108.395 Y-8.133
X-108.454 Y-8.003
X-108.567 Y-7.914
X-108.599 Y-7.907
X-108.633 Y-7.911
X-108.663 Y-7.925
X-108.687 Y-7.949
X-108.99 Y-8.383
X-109.006 Y-8.418
X-109.007 Y-8.456
X-108.994 Y-8.491
X-108.969 Y-8.52
X-108.91 Y-8.561
X-108.846 Y-8.609
X-108.824 Y-8.629
X-108.766 Y-8.677
X-108.619 Y-8.706
X-108.474 Y-8.666
X-108.351 Y-8.581
X-108.258 Y-8.464
X-108.234 Y-8.408
X-108.211 Y-8.271
X-108.253 Y-8.138
X-108.35 Y-8.038
X-108.383 Y-8.026
X-108.418
X-108.451 Y-8.039
X-108.478 Y-8.061
X-108.832 Y-8.495
X-108.849 Y-8.527
X-108.854 Y-8.563
X-108.845 Y-8.599
X-108.824 Y-8.629
X-108.806 Y-8.646
X-108.761 Y-8.69
X-108.698 Y-8.757
X-108.643 Y-8.809
X-108.498 Y-8.844
X-108.351 Y-8.812
X-108.221 Y-8.738
X-108.115 Y-8.632
X-108.041 Y-8.501
X-108.035 Y-8.477
X-108.032 Y-8.355
X-108.078 Y-8.241
X-108.167 Y-8.155
X-108.198 Y-8.143
X-108.232 Y-8.142
X-108.265 Y-8.153
X-108.291 Y-8.174
X-108.697 Y-8.623
X-108.716 Y-8.654
X-108.723 Y-8.69
X-108.717 Y-8.726
X-108.698 Y-8.757
X-108.592 Y-8.868
X-108.539 Y-8.921
X-108.402 Y-8.982
X-108.253 Y-8.97
X-108.114 Y-8.912
X-107.996 Y-8.82
X-107.9 Y-8.704
X-107.888 Y-8.677
X-107.863 Y-8.567
X-107.88 Y-8.455
X-107.938 Y-8.358
X-108.045 Y-8.237
X-108.061 Y-8.223
X-108.085 Y-8.207
X-108.458 Y-7.97
X-108.508 Y-7.941
X-108.928 Y-7.752
X-108.967 Y-7.744
X-109.005 Y-7.753
X-109.038 Y-7.776
X-109.059 Y-7.809
X-109.065 Y-7.848
X-109.056 Y-7.887
X-108.928 Y-8.158
X-108.592 Y-8.868
X-108.564 Y-8.899
X-108.506 Y-8.984
X-108.491 Y-9.009
X-108.471 Y-9.04
X-108.409 Y-9.084
X-108.268 Y-9.133
X-108.118 Y-9.122
X-107.978 Y-9.069
X-107.853 Y-8.986
X-107.802 Y-8.93
X-107.737 Y-8.809
X-107.732 Y-8.672
