%
(n-031-035)
(T1  D=1 CR=0 - ZMIN=-2 - flat end mill)
G90 G94
G17
G21
G28 G91 Z0
G90

(Clear 14)
M9
T1 M6
S5000 M3
G54
M8
G0 X-115.211 Y-14.592
Z12
Z2
Z0.5
G3 X-114.727 Y-14.716 Z0.29 I0.242 J-0.062 F333.3
X-115.211 Y-14.592 Z0.079 I-0.242 J0.062
X-114.727 Y-14.716 Z-0.131 I0.242 J-0.062
X-115.211 Y-14.592 Z-0.342 I-0.242 J0.062
X-114.727 Y-14.716 Z-0.552 I0.242 J-0.062
X-115.211 Y-14.592 Z-0.763 I-0.242 J0.062
X-115.001 Y-14.902 Z-0.876 I0.242 J-0.062
X-114.719 Y-14.654 Z-0.99 I0.031 J0.248
X-115.219 I-0.25
X-114.719 I0.25
G1 X-114.682 Y-14.509 F1000
X-114.695 Y-14.435
X-114.732 Y-14.369
X-114.839 Y-14.264
X-114.984 Y-14.224
X-115.132 Y-14.246
X-115.263 Y-14.32
X-115.359 Y-14.434
X-115.411 Y-14.575
X-115.413 Y-14.725
X-115.366 Y-14.867
X-115.274 Y-14.986
X-115.148 Y-15.068
X-115.002 Y-15.103
X-114.853 Y-15.09
X-114.717 Y-15.027
X-114.608 Y-14.924
X-114.53 Y-14.796
X-114.48 Y-14.654
X-114.469 Y-14.505
X-114.504 Y-14.359
X-114.575 Y-14.227
X-114.683 Y-14.123
X-114.814 Y-14.05
X-114.96 Y-14.016
X-115.11 Y-14.024
X-115.255 Y-14.064
X-115.384 Y-14.14
X-115.445 Y-14.201
X-115.499 Y-14.274
X-115.529 Y-14.36
X-115.531 Y-14.451
X-115.508 Y-14.643
X-115.504 Y-14.727
X-115.506 Y-14.812
X-115.509 Y-14.962
X-115.436 Y-15.093
X-115.33 Y-15.198
X-115.2 Y-15.274
X-115.055 Y-15.314
X-114.905 Y-15.317
X-114.758 Y-15.289
X-114.622 Y-15.227
X-114.593 Y-15.205
X-114.539 Y-15.152
X-114.5 Y-15.087
X-114.478 Y-15.015
X-114.446 Y-14.812
X-114.436 Y-14.727
X-114.43 Y-14.66
Y-14.643
X-114.438 Y-14.558
X-114.448 Y-14.474
X-114.486 Y-14.22
X-114.518 Y-14.074
X-114.606 Y-13.953
X-114.729 Y-13.866
X-114.87 Y-13.815
X-115.019 Y-13.796
X-115.169 Y-13.804
X-115.314 Y-13.842
X-115.449 Y-13.907
X-115.456 Y-13.913
X-115.531 Y-13.998
X-115.57 Y-14.105
X-115.565 Y-14.219
X-115.549 Y-14.305
X-115.531 Y-14.451
X-115.521 Y-14.482
X-115.501 Y-14.508
X-115.474 Y-14.526
X-115.442 Y-14.534
X-115.409 Y-14.532
X-115.185 Y-14.478
X-114.562 Y-14.329
X-114.529 Y-14.314
X-114.503 Y-14.289
X-114.488 Y-14.256
X-114.486 Y-14.22
X-114.528 Y-13.967
X-114.568 Y-13.822
X-114.664 Y-13.707
X-114.793 Y-13.63
X-114.936 Y-13.586
X-115.085 Y-13.57
X-115.235 Y-13.581
X-115.381 Y-13.616
X-115.515 Y-13.682
X-115.519 Y-13.684
X-115.593 Y-13.775
X-115.628 Y-13.887
X-115.616 Y-14.004
X-115.565 Y-14.219
X-115.548 Y-14.254
X-115.519 Y-14.28
X-115.483 Y-14.292
X-115.444 Y-14.29
X-115.223 Y-14.234
X-114.602 Y-14.077
X-114.57 Y-14.062
X-114.544 Y-14.036
X-114.53 Y-14.003
X-114.528 Y-13.967
X-114.547 Y-13.883
X-114.572 Y-13.78
X-114.579 Y-13.762
X-114.653 Y-13.629
X-114.735 Y-13.504
X-114.858 Y-13.418
X-115 Y-13.369
X-115.149 Y-13.35
X-115.299 Y-13.358
X-115.445 Y-13.391
X-115.533 Y-13.435
X-115.642 Y-13.527
X-115.697 Y-13.658
X-115.684 Y-13.8
X-115.628 Y-13.967
X-115.616 Y-14.004
X-115.601 Y-14.033
X-115.578 Y-14.055
X-115.549 Y-14.068
X-115.517 Y-14.072
X-115.486 Y-14.065
X-115.283 Y-13.988
X-114.706 Y-13.768
X-114.678 Y-13.751
X-114.656 Y-13.726
X-114.644 Y-13.694
X-114.643 Y-13.661
X-114.653 Y-13.629
X-114.805 Y-13.376
X-114.898 Y-13.258
X-115.027 Y-13.181
X-115.172 Y-13.144
X-115.322 Y-13.137
X-115.47 Y-13.162
X-115.609 Y-13.218
X-115.663 Y-13.256
X-115.755 Y-13.363
X-115.789 Y-13.5
X-115.756 Y-13.637
X-115.717 Y-13.714
X-115.699 Y-13.76
X-115.684 Y-13.8
X-115.668 Y-13.829
X-115.643 Y-13.851
X-115.612 Y-13.863
X-115.579 Y-13.864
X-115.547 Y-13.855
X-115.408 Y-13.787
X-114.848 Y-13.514
X-114.822 Y-13.495
X-114.803 Y-13.469
X-114.793 Y-13.438
X-114.794 Y-13.406
X-114.805 Y-13.376
X-114.853 Y-13.308
X-115 Y-13.122
X-115.099 Y-13.01
X-115.238 Y-12.953
X-115.387 Y-12.937
X-115.536 Y-12.953
X-115.677 Y-13.005
X-115.803 Y-13.086
X-115.837 Y-13.125
X-115.901 Y-13.246
X-115.905 Y-13.382
X-115.848 Y-13.506
X-115.783 Y-13.589
X-115.77 Y-13.609
X-115.756 Y-13.637
X-115.736 Y-13.663
X-115.708 Y-13.681
X-115.675 Y-13.688
X-115.642 Y-13.685
X-115.612 Y-13.671
X-115.538 Y-13.62
X-115.024 Y-13.264
X-114.996 Y-13.235
X-114.982 Y-13.198
X-114.983 Y-13.158
X-115 Y-13.122
X-115.022 Y-13.095
X-115.07 Y-13.038
X-115.107 Y-12.998
X-115.158 Y-12.953
X-115.26 Y-12.869
X-115.276 Y-12.856
X-115.299 Y-12.838
X-115.346 Y-12.805
X-115.364 Y-12.795
X-115.382 Y-12.786
X-115.418 Y-12.779
X-115.454 Y-12.785
X-115.486 Y-12.804
X-115.508 Y-12.833
X-115.519 Y-12.868
X-115.516 Y-12.905
X-115.5 Y-12.938
X-115.473 Y-12.963
X-115.417 Y-12.998
X-115.383 Y-13.012
X-115.346
X-115.311 Y-12.998
X-115.284 Y-12.973
X-115.267 Y-12.94
X-115.265 Y-12.902
X-115.276 Y-12.867
X-115.299 Y-12.838
X-115.318 Y-12.823
X-115.339 Y-12.807
X-115.36 Y-12.795
X-115.385 Y-12.784
X-115.456 Y-12.759
X-115.606 Y-12.761
X-115.751 Y-12.799
X-115.883 Y-12.871
X-115.993 Y-12.973
X-116.009 Y-13
X-116.051 Y-13.122
X-116.037 Y-13.251
X-115.97 Y-13.362
X-115.953 Y-13.381
X-115.884 Y-13.46
X-115.848 Y-13.506
X-115.818 Y-13.53
X-115.782 Y-13.541
X-115.744 Y-13.538
X-115.71 Y-13.521
X-115.685 Y-13.492
X-115.663 Y-13.455
X-115.35 Y-12.922
X-115.338 Y-12.891
X-115.337 Y-12.858
X-115.347 Y-12.826
X-115.367 Y-12.799
X-115.394 Y-12.781
X-115.445 Y-12.759
X-115.53 Y-12.726
X-115.614 Y-12.696
X-115.661 Y-12.681
X-115.733 Y-12.661
X-115.883 Y-12.669
X-116.021 Y-12.726
X-116.134 Y-12.826
X-116.145 Y-12.844
X-116.191 Y-12.968
X-116.179 Y-13.1
X-116.111 Y-13.214
X-115.97 Y-13.362
X-115.938 Y-13.384
X-115.899 Y-13.391
X-115.861 Y-13.383
X-115.829 Y-13.361
X-115.807 Y-13.328
X-115.602 Y-12.811
X-115.595 Y-12.772
X-115.604 Y-12.734
X-115.627 Y-12.701
X-115.661 Y-12.681
X-115.699 Y-12.668
X-115.783 Y-12.624
X-115.797 Y-12.616
X-115.861 Y-12.576
X-116.008 Y-12.548
X-116.151 Y-12.592
X-116.268 Y-12.686
X-116.288 Y-12.715
X-116.333 Y-12.819
X-116.336 Y-12.933
X-116.296 Y-13.039
X-116.219 Y-13.124
X-116.206 Y-13.133
X-116.122 Y-13.203
X-116.111 Y-13.214
X-116.079 Y-13.235
X-116.04 Y-13.242
X-116.002 Y-13.234
X-115.97 Y-13.212
X-115.948 Y-13.18
X-115.768 Y-12.73
X-115.761 Y-12.699
X-115.764 Y-12.668
X-115.776 Y-12.639
X-115.797 Y-12.616
X-115.868 Y-12.561
X-115.896 Y-12.531
X-115.913 Y-12.509
X-115.938 Y-12.481
X-116.005 Y-12.449
X-116.153 Y-12.422
X-116.297 Y-12.465
X-116.414 Y-12.559
X-116.497 Y-12.685
X-116.506 Y-12.811
X-116.463 Y-12.929
X-116.376 Y-13.019
X-116.219 Y-13.124
X-116.186 Y-13.139
X-116.15 Y-13.141
X-116.115 Y-13.13
X-116.087 Y-13.107
X-116.068 Y-13.075
X-115.899 Y-12.603
X-115.893 Y-12.571
X-115.898 Y-12.538
X-115.913 Y-12.509
X-115.953 Y-12.46
X-115.961 Y-12.447
X-115.985 Y-12.404
X-116.003 Y-12.372
X-116.061 Y-12.325
X-116.202 Y-12.274
X-116.351 Y-12.293
X-116.486 Y-12.358
X-116.6 Y-12.456
X-116.631 Y-12.51
X-116.669 Y-12.617
X-116.664 Y-12.73
X-116.618 Y-12.833
X-116.537 Y-12.912
X-116.376 Y-13.019
X-116.345 Y-13.031
X-116.312 Y-13.033
X-116.281 Y-13.024
X-116.253 Y-13.005
X-116.234 Y-12.979
X-115.988 Y-12.488
X-115.978 Y-12.461
X-115.977 Y-12.432
X-115.985 Y-12.404
X-116.004 Y-12.362
X-116.018 Y-12.316
X-116.044 Y-12.245
X-116.095 Y-12.191
X-116.227 Y-12.119
X-116.377 Y-12.11
X-116.522 Y-12.147
X-116.655 Y-12.218
X-116.761 Y-12.323
X-116.839 Y-12.452
X-116.846 Y-12.478
X-116.849 Y-12.62
X-116.786 Y-12.747
X-116.672 Y-12.831
X-116.629 Y-12.852
X-116.537 Y-12.912
X-116.503 Y-12.925
X-116.467
X-116.433 Y-12.911
X-116.406 Y-12.887
X-116.035 Y-12.403
X-116.021 Y-12.376
X-116.015 Y-12.346
X-116.018 Y-12.316
X-116.03 Y-12.278
X-116.037 Y-12.241
X-116.043 Y-12.193
X-116.051 Y-12.119
X-116.093 Y-12.056
X-116.21 Y-11.962
X-116.355 Y-11.924
X-116.505 Y-11.929
X-116.649 Y-11.968
X-116.782 Y-12.038
X-116.896 Y-12.135
X-116.988 Y-12.254
X-117.046 Y-12.392
X-117.053 Y-12.447
X-117.039 Y-12.59
X-116.959 Y-12.71
X-116.833 Y-12.779
X-116.799 Y-12.788
X-116.714 Y-12.813
X-116.672 Y-12.831
X-116.633 Y-12.837
X-116.594 Y-12.827
X-116.563 Y-12.804
X-116.548 Y-12.788
X-116.068 Y-12.255
X-116.05 Y-12.226
X-116.043 Y-12.193
X-116.041 Y-12.109
X-116.037 Y-12.072
X-116.029 Y-11.998
X-116.058 Y-11.929
X-116.154 Y-11.813
X-116.287 Y-11.745
X-116.321 Y-11.739
X-116.402 Y-11.735
X-116.481 Y-11.752
X-116.552 Y-11.79
X-116.714 Y-11.907
X-116.745 Y-11.925
X-116.776 Y-11.94
X-116.799 Y-11.949
X-116.883 Y-11.977
X-117.026 Y-12.025
X-117.137 Y-12.125
X-117.217 Y-12.252
X-117.259 Y-12.396
X-117.26 Y-12.432
X-117.232 Y-12.562
X-117.151 Y-12.667
X-117.032 Y-12.727
X-116.995 Y-12.728
X-116.959 Y-12.715
X-116.931 Y-12.689
X-116.915 Y-12.656
X-116.763 Y-12.101
X-116.76 Y-12.067
X-116.769 Y-12.033
X-116.788 Y-12.005
X-116.816 Y-11.985
X-116.849 Y-11.975
X-116.883 Y-11.977
X-117.055 Y-12.024
X-117.137 Y-12.045
X-117.28 Y-12.089
X-117.386 Y-12.196
X-117.444 Y-12.334
X-117.447 Y-12.366
X-117.426 Y-12.508
X-117.341 Y-12.623
X-117.213 Y-12.687
X-117.173 Y-12.686
X-117.137 Y-12.671
X-117.11 Y-12.642
X-117.096 Y-12.606
X-117.017 Y-12.16
X-117.018 Y-12.121
X-117.034 Y-12.086
X-117.062 Y-12.059
X-117.098 Y-12.044
X-117.137 Y-12.045
X-117.306 Y-12.088
X-117.353 Y-12.096
X-117.426 Y-12.114
X-117.489 Y-12.153
X-117.591 Y-12.264
X-117.596 Y-12.283
X-117.603 Y-12.406
X-117.56 Y-12.522
X-117.474 Y-12.61
X-117.359 Y-12.657
X-117.326 Y-12.656
X-117.294 Y-12.644
X-117.269 Y-12.622
X-117.252 Y-12.593
X-117.245 Y-12.56
X-117.238 Y-12.197
X-117.243 Y-12.163
X-117.26 Y-12.133
X-117.286 Y-12.11
X-117.318 Y-12.097
X-117.353 Y-12.096
X-117.56 Y-12.136
X-117.597 Y-12.143
X-117.66 Y-12.183
X-117.707 Y-12.241
X-117.729 Y-12.366
X-117.695 Y-12.489
X-117.611 Y-12.584
X-117.494 Y-12.633
X-117.455 Y-12.631
X-117.421 Y-12.615
X-117.395 Y-12.586
X-117.381 Y-12.55
X-117.383 Y-12.512
X-117.452 Y-12.213
X-117.466 Y-12.18
X-117.491 Y-12.154
X-117.524 Y-12.138
X-117.56 Y-12.136
X-117.645 Y-12.148
X-117.691 Y-12.152
X-117.729 Y-12.156
X-117.771 Y-12.159
X-117.796 Y-12.166
X-117.803 Y-12.168
X-117.825 Y-12.189
X-117.836 Y-12.217
X-117.835 Y-12.247
X-117.82 Y-12.274
X-117.795 Y-12.292
X-117.765 Y-12.297
X-117.736 Y-12.289
X-117.713 Y-12.269
X-117.701 Y-12.241
X-117.702 Y-12.21
X-117.717 Y-12.183
X-117.741 Y-12.165
X-117.771 Y-12.159
X-117.782 Y-12.161
X-117.793 Y-12.164
X-117.803 Y-12.168
X-117.814 Y-12.174
X-117.825 Y-12.182
X-117.836 Y-12.193
X-117.865 Y-12.237
X-117.872 Y-12.272
X-117.866 Y-12.307
X-117.849 Y-12.338
X-117.823 Y-12.363
X-117.787 Y-12.378
X-117.747 Y-12.38
X-117.709 Y-12.366
X-117.679 Y-12.34
X-117.66 Y-12.305
X-117.656 Y-12.265
X-117.666 Y-12.226
X-117.69 Y-12.194
X-117.724 Y-12.173
X-117.763 Y-12.165
X-117.802 Y-12.172
X-117.836 Y-12.193
X-117.859 Y-12.225
X-117.865 Y-12.235
X-117.869 Y-12.246
X-117.872 Y-12.257
X-117.874 Y-12.267
Y-12.362
Y-12.409
X-117.845 Y-12.506
X-117.774 Y-12.579
X-117.677 Y-12.611
G3 X-117.485 Y-12.344 I0.008 J0.197
X-117.874 Y-12.409 I-0.188 J-0.072
G1 Y-12.499
X-117.872 Y-12.51
X-117.87 Y-12.521
X-117.866 Y-12.531
X-117.858 Y-12.546
X-117.847 Y-12.56
X-117.831 Y-12.576
X-117.814 Y-12.589
X-117.803 Y-12.595
X-117.793 Y-12.599
X-117.782 Y-12.602
X-117.771 Y-12.604
X-117.614 Y-12.616
X-117.56 Y-12.622
X-117.306 Y-12.666
X-117.052 Y-12.722
X-116.968 Y-12.743
X-116.833 Y-12.779
X-116.801 Y-12.781
X-116.769 Y-12.772
X-116.743 Y-12.754
X-116.597 Y-12.619
X-116.066 Y-12.123
X-116.048 Y-12.1
X-116.037 Y-12.072
X-116.028 Y-12.024
X-116.014 Y-11.982
X-115.998 Y-11.94
X-115.985 Y-11.905
X-115.993 Y-11.829
X-116.074 Y-11.723
X-116.191 Y-11.663
X-116.324 Y-11.659
X-116.445 Y-11.712
X-116.552 Y-11.79
X-116.576 Y-11.816
X-116.589 Y-11.848
X-116.59 Y-11.883
X-116.58 Y-11.916
X-116.559 Y-11.943
X-116.53 Y-11.962
X-116.496 Y-11.969
X-116.089 Y-11.989
X-116.054 Y-11.984
X-116.022 Y-11.967
X-115.998 Y-11.94
X-115.953 Y-11.855
X-115.935 Y-11.822
X-115.932 Y-11.747
X-116.003 Y-11.643
X-116.114 Y-11.584
X-116.24 Y-11.583
X-116.352 Y-11.64
X-116.376 Y-11.66
X-116.445 Y-11.712
X-116.468 Y-11.738
X-116.481 Y-11.77
X-116.482 Y-11.805
X-116.471 Y-11.838
X-116.449 Y-11.865
X-116.42 Y-11.883
X-116.386 Y-11.89
X-116.039 Y-11.9
X-116.006 Y-11.895
X-115.976 Y-11.88
X-115.953 Y-11.855
X-115.921 Y-11.813
X-115.901 Y-11.79
X-115.878 Y-11.76
X-115.865 Y-11.686
X-115.928 Y-11.575
X-116.038 Y-11.509
X-116.167
X-116.278 Y-11.572
X-116.308 Y-11.602
X-116.352 Y-11.64
X-116.375 Y-11.672
X-116.384 Y-11.71
X-116.378 Y-11.749
X-116.357 Y-11.782
X-116.325 Y-11.804
X-116.287 Y-11.813
X-115.977 Y-11.822
X-115.949 Y-11.819
X-115.923 Y-11.808
X-115.901 Y-11.79
X-115.884 Y-11.771
X-115.868 Y-11.755
X-115.845 Y-11.735
X-115.817 Y-11.71
X-115.795 Y-11.638
X-115.804 Y-11.564
X-115.88 Y-11.469
X-115.992 Y-11.423
X-116.113 Y-11.436
X-116.212 Y-11.505
X-116.23 Y-11.538
X-116.234 Y-11.575
X-116.225 Y-11.611
X-116.202 Y-11.641
X-116.171 Y-11.661
X-115.943 Y-11.75
X-115.909 Y-11.757
X-115.875 Y-11.752
X-115.845 Y-11.735
X-115.826 Y-11.719
X-115.783 Y-11.694
X-115.752 Y-11.674
X-115.731 Y-11.643
X-115.708 Y-11.571
X-115.714 Y-11.496
X-115.794 Y-11.394
X-115.913 Y-11.344
X-116.042 Y-11.357
X-116.148 Y-11.431
X-116.212 Y-11.505
X-116.229 Y-11.536
X-116.234 Y-11.571
X-116.227 Y-11.605
X-116.208 Y-11.635
X-116.18 Y-11.657
X-116.147 Y-11.667
X-115.842 Y-11.704
X-115.812 Y-11.703
X-115.783 Y-11.694
X-115.699 Y-11.646
X-115.667 Y-11.626
X-115.644 Y-11.597
X-115.613 Y-11.528
Y-11.453
X-115.656 Y-11.309
X-115.756 Y-11.247
X-115.874 Y-11.232
X-115.987 Y-11.266
X-116.076 Y-11.344
X-116.122 Y-11.4
X-116.148 Y-11.431
X-116.165 Y-11.461
X-116.17 Y-11.494
X-116.164 Y-11.528
X-116.147 Y-11.557
X-116.121 Y-11.58
X-116.089 Y-11.592
X-115.764 Y-11.655
X-115.731 Y-11.656
X-115.699 Y-11.646
X-115.589 Y-11.584
X-115.557 Y-11.563
X-115.516 Y-11.5
X-115.495 Y-11.428
X-115.493 Y-11.353
X-115.537 Y-11.21
X-115.548 Y-11.2
X-115.663 Y-11.13
X-115.796 Y-11.117
X-115.922 Y-11.164
X-116.015 Y-11.26
X-116.026 Y-11.296
X-116.024 Y-11.334
X-116.008 Y-11.367
X-115.981 Y-11.393
X-115.689 Y-11.579
X-115.656 Y-11.593
X-115.622 Y-11.594
X-115.589 Y-11.584
X-115.474 Y-11.517
X-115.436 Y-11.488
X-115.393 Y-11.427
X-115.37 Y-11.355
X-115.364 Y-11.28
X-115.394 Y-11.133
X-115.487 Y-11.016
X-115.619 Y-10.942
X-115.753 Y-10.952
X-115.869 Y-11.018
X-115.945 Y-11.129
X-115.951 Y-11.159
X-115.947 Y-11.19
X-115.934 Y-11.217
X-115.914 Y-11.24
X-115.584 Y-11.507
X-115.55 Y-11.525
X-115.511 Y-11.529
X-115.474 Y-11.517
X-115.445 Y-11.497
X-115.36 Y-11.427
X-115.336 Y-11.403
X-115.284 Y-11.349
X-115.252 Y-11.281
X-115.224 Y-11.133
X-115.266 Y-10.989
X-115.356 Y-10.869
X-115.479 Y-10.783
X-115.52 Y-10.771
X-115.633 Y-10.761
X-115.742 Y-10.794
X-115.831 Y-10.864
X-115.887 Y-10.963
X-115.932 Y-11.095
X-115.945 Y-11.129
X-115.95 Y-11.167
X-115.941 Y-11.205
X-115.918 Y-11.236
X-115.885 Y-11.256
X-115.437 Y-11.422
X-115.401 Y-11.428
X-115.366 Y-11.422
X-115.336 Y-11.403
X-115.276 Y-11.346
X-115.191 Y-11.26
X-115.155 Y-11.205
X-115.117 Y-11.14
X-115.092 Y-10.992
X-115.132 Y-10.848
X-115.215 Y-10.723
X-115.331 Y-10.628
X-115.469 Y-10.568
X-115.509 Y-10.564
X-115.65 Y-10.582
X-115.766 Y-10.663
X-115.832 Y-10.788
X-115.846 Y-10.842
X-115.887 Y-10.963
X-115.891 Y-11.003
X-115.879 Y-11.04
X-115.853 Y-11.07
X-115.818 Y-11.088
X-115.263 Y-11.243
X-115.233 Y-11.247
X-115.203 Y-11.241
X-115.176 Y-11.227
X-115.155 Y-11.205
X-115.138 Y-11.18
X-115.037 Y-11.011
X-115.002 Y-10.944
X-114.987 Y-10.795
X-115.036 Y-10.653
X-115.124 Y-10.532
X-115.238 Y-10.435
X-115.376 Y-10.375
X-115.524 Y-10.351
X-115.546 Y-10.355
X-115.665 Y-10.4
X-115.755 Y-10.491
X-115.799 Y-10.611
X-115.807 Y-10.673
X-115.824 Y-10.757
X-115.832 Y-10.788
X-115.833 Y-10.827
X-115.819 Y-10.863
X-115.793 Y-10.891
X-115.758 Y-10.907
X-115.145 Y-11.054
X-115.114 Y-11.056
X-115.084 Y-11.049
X-115.058 Y-11.034
X-115.037 Y-11.011
X-114.987 Y-10.926
X-114.939 Y-10.842
X-114.907 Y-10.774
X-114.883 Y-10.626
X-114.927 Y-10.482
X-115.009 Y-10.357
X-115.121 Y-10.257
X-115.252 Y-10.184
X-115.396 Y-10.142
X-115.546 Y-10.14
X-115.557 Y-10.143
X-115.663 Y-10.197
X-115.74 Y-10.288
X-115.776 Y-10.401
X-115.796 Y-10.588
X-115.799 Y-10.611
X-115.796 Y-10.647
X-115.781 Y-10.679
X-115.756 Y-10.704
X-115.723 Y-10.718
X-115.688 Y-10.727
X-115.048 Y-10.886
X-115.016 Y-10.889
X-114.986 Y-10.882
X-114.959 Y-10.865
X-114.939 Y-10.842
X-114.873 Y-10.715
X-114.863 Y-10.694
X-114.859 Y-10.683
X-114.853 Y-10.656
X-114.838 Y-10.588
X-114.831 Y-10.542
X-114.813 Y-10.393
X-114.863 Y-10.251
X-114.953 Y-10.131
X-115.068 Y-10.036
X-115.2 Y-9.964
X-115.344 Y-9.921
X-115.494 Y-9.915
X-115.522 Y-9.921
X-115.64 Y-9.974
X-115.725 Y-10.074
X-115.76 Y-10.199
X-115.763 Y-10.25
X-115.769 Y-10.335
X-115.776 Y-10.401
X-115.771 Y-10.438
X-115.754 Y-10.471
X-115.726 Y-10.495
X-115.691 Y-10.507
X-115.57 Y-10.525
X-114.944 Y-10.621
X-114.906 Y-10.619
X-114.871 Y-10.604
X-114.845 Y-10.577
X-114.831 Y-10.542
X-114.789 Y-10.288
X-114.773 Y-10.139
X-114.83 Y-10.001
X-114.926 Y-9.886
X-115.046 Y-9.796
X-115.182 Y-9.732
X-115.327 Y-9.693
X-115.477
X-115.537 Y-9.706
X-115.666 Y-9.77
X-115.75 Y-9.887
X-115.771 Y-10.029
X-115.765 Y-10.082
X-115.758 Y-10.166
X-115.76 Y-10.199
X-115.754 Y-10.236
X-115.734 Y-10.268
X-115.705 Y-10.29
X-115.669 Y-10.301
X-115.532 Y-10.313
X-114.896 Y-10.369
X-114.859 Y-10.366
X-114.827 Y-10.349
X-114.802 Y-10.322
X-114.789 Y-10.288
X-114.77 Y-10.166
X-114.759 Y-10.039
X-114.762 Y-9.997
X-114.765 Y-9.966
X-114.789 Y-9.818
X-114.871 Y-9.692
X-114.984 Y-9.594
X-115.115 Y-9.52
X-115.258 Y-9.476
X-115.408 Y-9.461
X-115.556 Y-9.48
X-115.606 Y-9.499
X-115.718 Y-9.574
X-115.785 Y-9.689
X-115.796 Y-9.823
X-115.774 Y-9.997
X-115.771 Y-10.029
X-115.759 Y-10.064
X-115.735 Y-10.093
X-115.703 Y-10.111
X-115.666 Y-10.115
X-115.485 Y-10.106
X-114.86 Y-10.073
X-114.821 Y-10.063
X-114.79 Y-10.039
X-114.77 Y-10.005
X-114.765 Y-9.966
X-114.79 Y-9.744
X-114.803 Y-9.659
X-114.834 Y-9.513
X-114.933 Y-9.4
X-115.058 Y-9.316
X-115.197 Y-9.261
X-115.345 Y-9.234
X-115.495 Y-9.237
X-115.641 Y-9.273
X-115.681 Y-9.294
X-115.782 Y-9.378
X-115.837 Y-9.498
X-115.835 Y-9.63
X-115.808 Y-9.744
X-115.796 Y-9.823
X-115.782 Y-9.859
X-115.755 Y-9.887
X-115.72 Y-9.903
X-115.681 Y-9.904
X-115.51 Y-9.875
X-114.885 Y-9.769
X-114.85 Y-9.756
X-114.822 Y-9.731
X-114.806 Y-9.697
X-114.803 Y-9.659
X-114.83 Y-9.49
X-114.848 Y-9.406
X-114.895 Y-9.264
X-114.993 Y-9.15
X-115.121 Y-9.071
X-115.263 Y-9.024
X-115.412 Y-9.006
X-115.562 Y-9.015
X-115.705 Y-9.059
X-115.751 Y-9.085
X-115.859 Y-9.187
X-115.904 Y-9.328
X-115.876 Y-9.474
X-115.868 Y-9.491
X-115.835 Y-9.63
X-115.818 Y-9.664
X-115.79 Y-9.689
X-115.754 Y-9.702
X-115.716 Y-9.701
X-115.542 Y-9.661
X-114.924 Y-9.52
X-114.89 Y-9.505
X-114.863 Y-9.478
X-114.849 Y-9.443
X-114.848 Y-9.406
X-114.929 Y-9.117
X-114.937 Y-9.087
X-114.948 Y-9.068
X-115.034 Y-8.945
X-115.156 Y-8.858
X-115.297 Y-8.806
X-115.445 Y-8.784
X-115.595 Y-8.79
X-115.74 Y-8.83
X-115.873 Y-8.898
X-115.904 Y-8.927
X-115.976 Y-9.031
X-115.999 Y-9.156
X-115.968 Y-9.279
X-115.948 Y-9.321
X-115.876 Y-9.474
X-115.857 Y-9.5
X-115.83 Y-9.519
X-115.799 Y-9.528
X-115.766 Y-9.526
X-115.736 Y-9.514
X-115.587 Y-9.426
X-115.046 Y-9.105
X-115.017 Y-9.079
X-115 Y-9.044
X-114.998 Y-9.005
X-115.011 Y-8.969
X-115.054 Y-8.899
X-115.109 Y-8.815
X-115.127 Y-8.789
X-115.22 Y-8.671
X-115.354 Y-8.604
X-115.501 Y-8.575
X-115.651 Y-8.577
X-115.798 Y-8.608
X-115.934 Y-8.671
X-116.052 Y-8.764
X-116.06 Y-8.774
X-116.109 Y-8.883
X-116.112 Y-9.002
X-116.068 Y-9.113
X-115.989 Y-9.237
X-115.968 Y-9.279
X-115.943 Y-9.31
X-115.907 Y-9.328
X-115.868 Y-9.331
X-115.83 Y-9.318
X-115.7 Y-9.243
X-115.161 Y-8.931
X-115.136 Y-8.91
X-115.119 Y-8.882
X-115.111 Y-8.851
X-115.114 Y-8.819
X-115.127 Y-8.789
X-115.229 Y-8.646
X-115.335 Y-8.526
X-115.441 Y-8.42
X-115.585 Y-8.379
X-115.735 Y-8.376
X-115.882 Y-8.403
X-116.022 Y-8.459
X-116.144 Y-8.545
X-116.166 Y-8.57
X-116.227 Y-8.685
X-116.234 Y-8.815
X-116.185 Y-8.936
X-116.152 Y-8.984
X-116.068 Y-9.113
X-116.045 Y-9.136
X-116.016 Y-9.151
X-115.984 Y-9.155
X-115.952 Y-9.149
X-115.923 Y-9.133
X-115.836 Y-9.063
X-115.349 Y-8.668
X-115.324 Y-8.638
X-115.312 Y-8.6
X-115.316 Y-8.561
X-115.335 Y-8.526
X-115.492 Y-8.351
X-115.511 Y-8.335
X-115.587 Y-8.287
X-115.718 Y-8.214
X-115.868 Y-8.201
X-116.015 Y-8.226
X-116.155 Y-8.282
X-116.274 Y-8.372
X-116.311 Y-8.417
X-116.372 Y-8.549
X-116.361 Y-8.694
X-116.281 Y-8.815
X-116.242 Y-8.857
X-116.206 Y-8.904
X-116.185 Y-8.936
X-116.159 Y-8.96
X-116.127 Y-8.974
X-116.092 Y-8.976
X-116.058 Y-8.965
X-116.03 Y-8.944
X-115.983 Y-8.891
X-115.569 Y-8.437
X-115.551 Y-8.408
X-115.544 Y-8.375
X-115.548 Y-8.341
X-115.563 Y-8.311
X-115.587 Y-8.287
X-115.823 Y-8.139
X-115.959 Y-8.074
X-116.108 Y-8.066
X-116.253 Y-8.106
X-116.381 Y-8.184
X-116.484 Y-8.293
X-116.503 Y-8.33
X-116.535 Y-8.463
X-116.505 Y-8.596
X-116.419 Y-8.702
X-116.376 Y-8.735
X-116.281 Y-8.815
X-116.252 Y-8.831
X-116.219 Y-8.838
X-116.186 Y-8.833
X-116.156 Y-8.817
X-116.133 Y-8.793
X-115.795 Y-8.276
X-115.781 Y-8.241
Y-8.202
X-115.796 Y-8.166
X-115.823 Y-8.139
X-116.063 Y-8.011
X-116.199 Y-7.947
X-116.349 Y-7.956
X-116.487 Y-8.015
X-116.603 Y-8.109
X-116.688 Y-8.233
X-116.695 Y-8.256
X-116.705 Y-8.386
X-116.659 Y-8.508
X-116.566 Y-8.599
X-116.491 Y-8.646
X-116.419 Y-8.702
X-116.388 Y-8.717
X-116.353 Y-8.72
X-116.319 Y-8.712
X-116.29 Y-8.692
X-116.27 Y-8.663
X-116.022 Y-8.14
X-116.013 Y-8.104
X-116.017 Y-8.067
X-116.034 Y-8.035
X-116.063 Y-8.011
X-116.122 Y-7.98
X-116.332 Y-7.885
X-116.402 Y-7.858
X-116.552 Y-7.866
X-116.688 Y-7.929
X-116.801 Y-8.028
X-116.875 Y-8.158
X-116.877 Y-8.166
X-116.88 Y-8.29
X-116.832 Y-8.404
X-116.743 Y-8.49
X-116.566 Y-8.599
X-116.531 Y-8.611
X-116.495 Y-8.61
X-116.461 Y-8.596
X-116.435 Y-8.57
X-116.42 Y-8.537
X-116.279 Y-8.001
X-116.276 Y-7.967
X-116.285 Y-7.934
X-116.304 Y-7.905
X-116.332 Y-7.885
X-116.46 Y-7.829
X-116.572 Y-7.805
X-116.721 Y-7.784
X-116.861 Y-7.836
X-116.976 Y-7.932
X-117.051 Y-8.062
X-117.055 Y-8.078
X-117.054 Y-8.213
X-116.992 Y-8.334
X-116.883 Y-8.414
X-116.799 Y-8.458
X-116.764 Y-8.477
X-116.743 Y-8.49
X-116.707 Y-8.502
X-116.669 Y-8.5
X-116.635 Y-8.484
X-116.609 Y-8.457
X-116.595 Y-8.422
X-116.497 Y-7.922
Y-7.884
X-116.511 Y-7.849
X-116.538 Y-7.821
X-116.572 Y-7.805
X-116.714 Y-7.778
X-116.845 Y-7.761
X-116.92 Y-7.754
X-117.064 Y-7.797
X-117.176 Y-7.897
X-117.24 Y-8.032
X-117.242 Y-8.048
X-117.223 Y-8.188
X-117.142 Y-8.303
X-117.018 Y-8.369
X-116.968 Y-8.382
X-116.935 Y-8.392
X-116.883 Y-8.414
X-116.845 Y-8.421
X-116.806 Y-8.412
X-116.775 Y-8.389
X-116.754 Y-8.356
X-116.747 Y-8.318
X-116.762 Y-7.856
X-116.769 Y-7.823
X-116.786 Y-7.793
X-116.813 Y-7.772
X-116.845 Y-7.761
X-117.052 Y-7.733
X-117.127 Y-7.727
X-117.27 Y-7.773
X-117.376 Y-7.879
X-117.427 Y-8.02
Y-8.033
X-117.398 Y-8.165
X-117.314 Y-8.27
X-117.193 Y-8.329
X-117.156
X-117.121 Y-8.315
X-117.094 Y-8.289
X-117.078 Y-8.256
X-116.972 Y-7.857
X-116.969 Y-7.824
X-116.977 Y-7.792
X-116.995 Y-7.764
X-117.021 Y-7.744
X-117.052 Y-7.733
X-117.222 Y-7.71
X-117.268 Y-7.705
X-117.343 Y-7.7
X-117.48 Y-7.761
X-117.576 Y-7.876
X-117.614 Y-8.021
Y-8.028
X-117.57 Y-8.16
X-117.473 Y-8.257
X-117.341 Y-8.301
X-117.306 Y-8.304
X-117.285 Y-8.308
X-117.052 Y-8.36
X-117.018 Y-8.369
X-116.979 Y-8.37
X-116.943 Y-8.356
X-116.915 Y-8.329
X-116.899 Y-8.294
X-116.898 Y-8.255
X-116.911 Y-8.219
X-117.197 Y-7.752
X-117.216 Y-7.729
X-117.24 Y-7.713
X-117.268 Y-7.705
X-117.306 Y-7.701
X-117.437 Y-7.69
X-117.512 Y-7.688
X-117.584 Y-7.709
X-117.707 Y-7.795
X-117.782 Y-7.925
X-117.786 Y-7.956
X-117.774 Y-8.074
X-117.719 Y-8.178
X-117.627 Y-8.253
X-117.514 Y-8.286
X-117.341 Y-8.301
X-117.304 Y-8.296
X-117.271 Y-8.278
X-117.248 Y-8.248
X-117.237 Y-8.212
X-117.24 Y-8.175
X-117.352 Y-7.763
X-117.37 Y-7.728
X-117.4 Y-7.702
X-117.437 Y-7.69
X-117.56 Y-7.68
X-117.645 Y-7.682
X-117.719 Y-7.687
X-117.788 Y-7.717
X-117.848 Y-7.762
X-117.938 Y-7.882
X-117.968 Y-8.029
X-117.967 Y-8.034
X-117.911 Y-8.164
X-117.802 Y-8.254
X-117.663 Y-8.284
X-117.56 Y-8.282
X-117.514 Y-8.286
X-117.475 Y-8.28
X-117.442 Y-8.261
X-117.418 Y-8.23
X-117.409 Y-8.192
X-117.414 Y-8.154
X-117.551 Y-7.75
X-117.565 Y-7.722
X-117.587 Y-7.701
X-117.614 Y-7.687
X-117.645 Y-7.682
X-117.814 Y-7.686
X-117.888 Y-7.693
X-117.959 Y-7.719
X-118.076 Y-7.813
X-118.141 Y-7.948
X-118.142 Y-7.983
X-118.119 Y-8.106
X-118.047 Y-8.208
X-117.94 Y-8.273
X-117.816 Y-8.288
X-117.782 Y-8.278
X-117.755 Y-8.256
X-117.736 Y-8.226
X-117.728 Y-8.192
X-117.715 Y-7.789
X-117.721 Y-7.75
X-117.743 Y-7.717
X-117.775 Y-7.694
X-117.814 Y-7.686
X-117.898 Y-7.69
X-118.03 Y-7.698
X-118.104 Y-7.707
X-118.17 Y-7.743
X-118.279 Y-7.846
X-118.322 Y-7.99
X-118.318 Y-8.036
X-118.284 Y-8.149
X-118.208 Y-8.24
X-118.104 Y-8.295
X-117.986 Y-8.305
X-117.951 Y-8.293
X-117.923 Y-8.269
X-117.905 Y-8.236
X-117.901 Y-8.2
X-117.927 Y-7.792
X-117.936 Y-7.755
X-117.959 Y-7.724
X-117.992 Y-7.705
X-118.03 Y-7.698
X-118.152 Y-7.708
X-118.237 Y-7.722
X-118.31 Y-7.739
X-118.371 Y-7.782
X-118.469 Y-7.895
X-118.5 Y-8.042
X-118.493 Y-8.084
X-118.45 Y-8.194
X-118.369 Y-8.279
X-118.261 Y-8.326
X-118.143 Y-8.328
X-118.068 Y-8.314
X-117.898 Y-8.295
X-117.814 Y-8.288
X-117.663 Y-8.284
X-117.628 Y-8.275
X-117.599 Y-8.255
X-117.579 Y-8.226
X-117.569 Y-8.192
X-117.573 Y-8.157
X-117.589 Y-8.125
X-117.614 Y-8.1
X-118.169 Y-7.738
X-118.201 Y-7.724
X-118.237 Y-7.722
X-118.406 Y-7.751
X-118.453 Y-7.762
X-118.525 Y-7.781
X-118.633 Y-7.886
X-118.677 Y-8.029
X-118.667 Y-8.179
X-118.659 Y-8.197
X-118.575 Y-8.309
X-118.45 Y-8.371
X-118.31 Y-8.369
X-118.152 Y-8.33
X-118.143 Y-8.328
X-118.107 Y-8.312
X-118.08 Y-8.283
X-118.066 Y-8.246
X-118.067 Y-8.207
X-118.084 Y-8.171
X-118.354 Y-7.801
X-118.381 Y-7.776
X-118.415 Y-7.762
X-118.453
X-118.624 Y-7.801
X-118.696 Y-7.822
X-118.809 Y-7.92
X-118.862 Y-8.06
X-118.853 Y-8.21
X-118.842 Y-8.239
X-118.782 Y-8.335
X-118.691 Y-8.402
X-118.581 Y-8.431
X-118.468 Y-8.416
X-118.437 Y-8.398
X-118.415 Y-8.369
X-118.404 Y-8.335
X-118.406 Y-8.299
X-118.507 Y-7.876
X-118.523 Y-7.841
X-118.55 Y-7.815
X-118.586 Y-7.801
X-118.624
X-118.66 Y-7.809
X-118.744 Y-7.833
X-118.829 Y-7.866
X-118.897 Y-7.897
X-119.003 Y-8.003
X-119.043 Y-8.148
X-119.026 Y-8.297
X-118.959 Y-8.431
X-118.955 Y-8.434
X-118.845 Y-8.504
X-118.716 Y-8.521
X-118.592 Y-8.482
X-118.567 Y-8.459
X-118.551 Y-8.43
X-118.545 Y-8.397
X-118.551 Y-8.364
X-118.702 Y-7.928
X-118.721 Y-7.894
X-118.752 Y-7.87
X-118.79 Y-7.86
X-118.829 Y-7.866
X-118.998 Y-7.932
X-119.065 Y-7.966
X-119.122 Y-8.015
X-119.199 Y-8.144
X-119.213 Y-8.293
X-119.195 Y-8.38
X-119.133 Y-8.508
X-119.019 Y-8.594
X-118.879 Y-8.617
X-118.744 Y-8.573
X-118.72 Y-8.551
X-118.704 Y-8.521
X-118.699 Y-8.489
X-118.705 Y-8.456
X-118.871 Y-7.992
X-118.891 Y-7.959
X-118.922 Y-7.936
X-118.96 Y-7.926
X-118.998 Y-7.932
X-119.083 Y-7.97
X-119.167 Y-8.01
X-119.208 Y-8.034
X-119.27 Y-8.076
X-119.364 Y-8.193
X-119.39 Y-8.341
X-119.368 Y-8.489
X-119.297 Y-8.622
X-119.274 Y-8.644
X-119.149 Y-8.718
X-119.003 Y-8.724
X-118.872 Y-8.66
X-118.852 Y-8.635
X-118.84 Y-8.605
X-118.839 Y-8.573
X-118.848 Y-8.542
X-119.069 Y-8.079
X-119.088 Y-8.052
X-119.114 Y-8.033
X-119.145 Y-8.023
X-119.177 Y-8.024
X-119.208 Y-8.034
X-119.252 Y-8.061
X-119.337 Y-8.117
X-119.421 Y-8.18
X-119.479 Y-8.227
X-119.547 Y-8.361
X-119.552 Y-8.511
X-119.511 Y-8.655
X-119.424 Y-8.777
X-119.397 Y-8.799
X-119.27 Y-8.856
X-119.132 Y-8.851
X-119.01 Y-8.783
X-118.99 Y-8.756
X-118.981 Y-8.723
X-118.983 Y-8.69
X-118.996 Y-8.658
X-119.28 Y-8.209
X-119.302 Y-8.185
X-119.329 Y-8.169
X-119.361 Y-8.162
X-119.392 Y-8.166
X-119.421 Y-8.18
X-119.506 Y-8.242
X-119.584 Y-8.308
X-119.59 Y-8.313
X-119.687 Y-8.428
X-119.718 Y-8.575
X-119.692 Y-8.722
X-119.625 Y-8.856
X-119.52 Y-8.964
X-119.504 Y-8.972
X-119.384 Y-9.006
X-119.26 Y-8.988
X-119.155 Y-8.922
X-119.136 Y-8.894
X-119.127 Y-8.862
X-119.13 Y-8.829
X-119.143 Y-8.798
X-119.444 Y-8.336
X-119.466 Y-8.312
X-119.496 Y-8.296
X-119.529 Y-8.291
X-119.561 Y-8.297
X-119.59 Y-8.313
X-119.675 Y-8.405
X-119.76 Y-8.5
X-119.806 Y-8.558
X-119.858 Y-8.699
X-119.842 Y-8.848
X-119.782 Y-8.985
X-119.68 Y-9.096
X-119.637 Y-9.123
X-119.525 Y-9.163
X-119.406 Y-9.157
X-119.298 Y-9.105
X-119.22 Y-9.015
X-119.21 Y-8.986
Y-8.955
X-119.218 Y-8.925
X-119.236 Y-8.9
X-119.615 Y-8.5
X-119.64 Y-8.48
X-119.671 Y-8.47
X-119.703
X-119.734 Y-8.48
X-119.76 Y-8.5
X-119.844 Y-8.596
X-119.887 Y-8.646
X-119.91 Y-8.677
X-119.951 Y-8.74
X-119.991 Y-8.885
X-119.964 Y-9.032
X-119.894 Y-9.165
X-119.787 Y-9.27
X-119.655 Y-9.34
X-119.647 Y-9.342
X-119.522
X-119.407 Y-9.291
X-119.324 Y-9.197
X-119.314 Y-9.167
X-119.313 Y-9.135
X-119.323 Y-9.105
X-119.342 Y-9.079
X-119.761 Y-8.668
X-119.789 Y-8.649
X-119.821 Y-8.64
X-119.854 Y-8.642
X-119.885 Y-8.655
X-119.91 Y-8.677
X-120.013 Y-8.823
X-120.058 Y-8.899
X-120.091 Y-8.966
X-120.106 Y-9.116
X-120.058 Y-9.258
X-119.971 Y-9.38
X-119.857 Y-9.478
X-119.72 Y-9.537
X-119.709 Y-9.538
X-119.587 Y-9.526
X-119.48 Y-9.465
X-119.406 Y-9.367
X-119.399 Y-9.336
X-119.401 Y-9.303
X-119.414 Y-9.274
X-119.436 Y-9.249
X-119.912 Y-8.874
X-119.941 Y-8.858
X-119.974 Y-8.853
X-120.007 Y-8.858
X-120.036 Y-8.874
X-120.058 Y-8.899
X-120.152 Y-9.068
X-120.186 Y-9.135
X-120.212 Y-9.283
X-120.17 Y-9.427
X-120.089 Y-9.553
X-119.978 Y-9.654
X-119.843 Y-9.72
X-119.811 Y-9.726
X-119.671 Y-9.718
X-119.55 Y-9.648
X-119.474 Y-9.53
X-119.469 Y-9.5
X-119.474 Y-9.47
X-119.487 Y-9.443
X-119.508 Y-9.421
X-119.516 Y-9.415
X-120.006 Y-9.04
X-120.036 Y-9.025
X-120.069 Y-9.02
X-120.102 Y-9.026
X-120.13 Y-9.043
X-120.152 Y-9.068
X-120.183 Y-9.122
X-120.241 Y-9.237
X-120.246 Y-9.247
X-120.267 Y-9.321
X-120.28 Y-9.368
X-120.296 Y-9.441
X-120.273 Y-9.589
X-120.201 Y-9.721
X-120.095 Y-9.827
X-119.964 Y-9.9
X-119.819 Y-9.938
X-119.812 Y-9.937
X-119.699 Y-9.908
X-119.606 Y-9.838
X-119.547 Y-9.737
X-119.542 Y-9.704
X-119.549 Y-9.671
X-119.567 Y-9.642
X-119.593 Y-9.621
X-119.608 Y-9.612
X-120.135 Y-9.311
X-120.168 Y-9.299
X-120.204 Y-9.3
X-120.237 Y-9.313
X-120.263 Y-9.336
X-120.28 Y-9.368
X-120.334 Y-9.575
X-120.344 Y-9.612
X-120.352 Y-9.643
X-120.367 Y-9.716
X-120.319 Y-9.859
X-120.303 Y-9.88
X-120.237 Y-9.943
X-120.155 Y-9.983
X-120.066 Y-9.996
X-120.03 Y-9.988
X-119.999 Y-9.968
X-119.978 Y-9.937
X-119.969 Y-9.901
X-119.974 Y-9.865
X-119.992 Y-9.833
X-120.179 Y-9.607
X-120.206 Y-9.584
X-120.24 Y-9.572
X-120.276 Y-9.573
X-120.309 Y-9.587
X-120.336 Y-9.611
X-120.352 Y-9.643
X-120.377 Y-9.744
X-120.396 Y-9.828
X-120.405 Y-9.87
Y-9.881
X-120.402 Y-9.899
X-120.397 Y-9.914
X-120.391 Y-9.928
X-120.369 Y-9.946
X-120.342 Y-9.955
X-120.314 Y-9.953
X-120.286 Y-9.938
X-120.268 Y-9.913
X-120.262 Y-9.882
X-120.27 Y-9.852
X-120.29 Y-9.828
X-120.318 Y-9.815
X-120.349
X-120.377 Y-9.827
X-120.397 Y-9.851
X-120.405 Y-9.881
X-120.404 Y-9.892
X-120.402 Y-9.902
X-120.398 Y-9.913
X-120.391 Y-9.928
X-120.38 Y-9.943
X-120.352 Y-9.973
X-120.341 Y-9.981
X-120.331 Y-9.987
X-120.32 Y-9.991
X-120.31 Y-9.994
X-120.299 Y-9.996
X-120.267
X-119.76
X-119.675 Y-9.995
X-119.664 Y-9.993
X-119.654 Y-9.989
X-119.643 Y-9.984
X-119.633 Y-9.978
X-119.618 Y-9.965
X-119.608 Y-9.952
X-119.59 Y-9.927
X-119.583 Y-9.913
X-119.58 Y-9.902
X-119.568 Y-9.828
X-119.549 Y-9.744
X-119.46 Y-9.49
X-119.421 Y-9.399
X-119.337 Y-9.22
X-119.188 Y-8.959
X-119.18 Y-8.947
X-119.044 Y-8.815
X-118.914 Y-8.695
X-118.854 Y-8.646
X-118.829 Y-8.627
X-118.724 Y-8.561
X-118.66 Y-8.521
X-118.491 Y-8.424
X-118.396 Y-8.392
X-118.31 Y-8.369
X-118.275 Y-8.351
X-118.25 Y-8.322
X-118.239 Y-8.284
X-118.242 Y-8.245
X-118.253 Y-8.209 Z-0.982
X-118.262 Y-8.178 Z-0.961
X-118.268 Y-8.157 Z-0.928
X-118.27 Y-8.149 Z-0.89
G0 Z2
X-115.52 Y-8.362
Z-0.79
G1 Z-0.89 F1000
X-115.516 Y-8.369 Z-0.928
X-115.505 Y-8.388 Z-0.961
X-115.489 Y-8.416 Z-0.982
X-115.47 Y-8.449 Z-0.99
G3 X-114.961 Y-9.047 I1.913 J1.111
G1 X-115.011 Y-8.969
X-115.038 Y-8.941
X-115.074 Y-8.926
X-115.113 Y-8.927
X-115.149 Y-8.942
X-115.181 Y-8.963 Z-0.982
X-115.208 Y-8.982 Z-0.961
X-115.226 Y-8.994 Z-0.928
X-115.232 Y-8.998 Z-0.89
G0 Z2
X-115.168 Y-13.996
Z-0.79
G1 Z-0.89 F1000
X-115.172 Y-14.003 Z-0.928
X-115.185 Y-14.02 Z-0.961
X-115.204 Y-14.047 Z-0.982
X-115.226 Y-14.078 Z-0.99
G3 X-115.506 Y-14.812 I1.292 J-0.914
G1 X-115.526 Y-15.065
X-115.531 Y-15.14
X-115.481 Y-15.281
X-115.382 Y-15.394
X-115.256 Y-15.475
X-115.115 Y-15.526
X-114.966 Y-15.546
X-114.817 Y-15.537
X-114.754 Y-15.523
X-114.649 Y-15.476
X-114.569 Y-15.393
X-114.526 Y-15.286
X-114.501 Y-15.15
X-114.478 Y-15.015
X-114.48 Y-14.979
X-114.494 Y-14.947
X-114.519 Y-14.921
X-114.551 Y-14.906
X-114.587 Y-14.902
X-114.786 Y-14.921
X-115.436 Y-14.981
X-115.468 Y-14.99
X-115.496 Y-15.008
X-115.516 Y-15.034
X-115.526 Y-15.065
X-115.53 Y-15.094
X-115.556 Y-15.234
X-115.567 Y-15.308
X-115.54 Y-15.456
X-115.451 Y-15.577
X-115.333 Y-15.669
X-115.197 Y-15.733
X-115.051 Y-15.769
X-114.902 Y-15.78
X-114.836 Y-15.771
X-114.721 Y-15.733
X-114.631 Y-15.651
X-114.581 Y-15.541
X-114.549 Y-15.403
X-114.526 Y-15.286
X-114.527 Y-15.252
X-114.539 Y-15.22
X-114.561 Y-15.194
X-114.59 Y-15.177
X-114.624 Y-15.171
X-114.808 Y-15.168
X-115.457 Y-15.156
X-115.491 Y-15.161
X-115.52 Y-15.177
X-115.543 Y-15.203
X-115.556 Y-15.234
X-115.572 Y-15.318
X-115.601 Y-15.449
X-115.614 Y-15.523
X-115.579 Y-15.669
X-115.49 Y-15.79
X-115.373 Y-15.884
X-115.239 Y-15.952
X-115.096 Y-15.996
X-114.947 Y-16.011
X-114.925 Y-16.008
X-114.832 Y-15.984
X-114.752 Y-15.932
X-114.692 Y-15.857
X-114.674 Y-15.825
X-114.629 Y-15.741
X-114.607 Y-15.656
X-114.581 Y-15.541
X-114.58 Y-15.507
X-114.591 Y-15.475
X-114.611 Y-15.448
X-114.64 Y-15.43
X-114.673 Y-15.422
X-114.851 Y-15.412
X-115.498 Y-15.375
X-115.532 Y-15.379
X-115.563 Y-15.394
X-115.587 Y-15.418
X-115.601 Y-15.449
X-115.614 Y-15.506
X-115.633 Y-15.572
X-115.645 Y-15.597
X-115.672 Y-15.667
X-115.666 Y-15.817
X-115.595 Y-15.949
X-115.491 Y-16.057
X-115.367 Y-16.141
X-115.229 Y-16.2
X-115.15 Y-16.219
X-115.028 Y-16.221
X-114.915 Y-16.175
X-114.829 Y-16.088
X-114.768 Y-15.992
X-114.692 Y-15.857
X-114.682 Y-15.822
X-114.684 Y-15.786
X-114.7 Y-15.753
X-114.726 Y-15.727
X-114.759 Y-15.713
X-114.896 Y-15.683
X-115.533 Y-15.543
X-115.566 Y-15.542
X-115.598 Y-15.551
X-115.625 Y-15.57
X-115.645 Y-15.597
X-115.671 Y-15.656
X-115.729 Y-15.766
X-115.761 Y-15.834
X-115.76 Y-15.984
X-115.698 Y-16.121
X-115.603 Y-16.237
X-115.486 Y-16.331
X-115.352 Y-16.399
X-115.294 Y-16.416
X-115.169 Y-16.425
X-115.051 Y-16.381
X-114.961 Y-16.293
X-114.931 Y-16.248
X-114.829 Y-16.088
X-114.817 Y-16.054
Y-16.018
X-114.83 Y-15.984
X-114.854 Y-15.958
X-114.886 Y-15.941
X-114.99 Y-15.91
X-115.614 Y-15.721
X-115.647 Y-15.717
X-115.68 Y-15.724
X-115.708 Y-15.741
X-115.729 Y-15.766
X-115.783 Y-15.867
X-115.809 Y-15.91
X-115.848 Y-15.974
X-115.871 Y-16.122
X-115.826 Y-16.265
X-115.744 Y-16.391
X-115.637 Y-16.496
X-115.511 Y-16.577
X-115.445 Y-16.602
X-115.314 Y-16.619
X-115.188 Y-16.579
X-115.092 Y-16.488
X-114.961 Y-16.293
X-114.949 Y-16.261
X-114.948 Y-16.227
X-114.958 Y-16.194
X-114.98 Y-16.166
X-115.009 Y-16.148
X-115.084 Y-16.118
X-115.692 Y-15.876
X-115.724 Y-15.869
X-115.756 Y-15.873
X-115.786 Y-15.887
X-115.809 Y-15.91
X-115.925 Y-16.079
X-115.964 Y-16.143
X-115.984 Y-16.291
X-115.945 Y-16.436
X-115.868 Y-16.565
X-115.767 Y-16.675
X-115.643 Y-16.76
X-115.611 Y-16.773
X-115.51 Y-16.795
X-115.408 Y-16.782
X-115.316 Y-16.734
X-115.22 Y-16.661
X-115.209 Y-16.649
X-115.191 Y-16.629
X-115.159 Y-16.585
X-115.092 Y-16.488
X-115.079 Y-16.456
X-115.077 Y-16.422
X-115.087 Y-16.39
X-115.108 Y-16.363
X-115.136 Y-16.344
X-115.21 Y-16.311
X-115.804 Y-16.047
X-115.836 Y-16.038
X-115.87 Y-16.041
X-115.901 Y-16.055
X-115.925 Y-16.079
X-115.953 Y-16.119
X-116.037 Y-16.229
X-116.08 Y-16.29
X-116.111 Y-16.437
X-116.081 Y-16.584
X-116.015 Y-16.718
X-115.92 Y-16.834
X-115.865 Y-16.876
X-115.748 Y-16.93
X-115.619
X-115.502 Y-16.876
X-115.316 Y-16.734
X-115.292 Y-16.705
X-115.28 Y-16.669
X-115.282 Y-16.632
X-115.298 Y-16.598
X-115.326 Y-16.572
X-115.363 Y-16.549
X-115.907 Y-16.208
X-115.94 Y-16.195
X-115.976 Y-16.194
X-116.01 Y-16.206
X-116.037 Y-16.229
X-116.052 Y-16.248
X-116.125 Y-16.332
X-116.15 Y-16.353
X-116.204 Y-16.405
X-116.254 Y-16.546
X-116.241 Y-16.695
X-116.188 Y-16.836
X-116.101 Y-16.958
X-116.065 Y-16.989
X-115.951 Y-17.051
X-115.821 Y-17.06
X-115.7 Y-17.012
X-115.53 Y-16.897
X-115.502 Y-16.876
X-115.479 Y-16.848
X-115.467 Y-16.813
X-115.468 Y-16.777
X-115.482 Y-16.743
X-115.508 Y-16.717
X-116.03 Y-16.349
X-116.059 Y-16.335
X-116.09 Y-16.331
X-116.122 Y-16.337
X-116.15 Y-16.353
X-116.206 Y-16.402
X-116.262 Y-16.442
X-116.291 Y-16.463
X-116.35 Y-16.509
X-116.41 Y-16.647
Y-16.797
X-116.368 Y-16.94
X-116.288 Y-17.067
X-116.262 Y-17.092
X-116.157 Y-17.158
X-116.034 Y-17.176
X-115.915 Y-17.143
X-115.819 Y-17.092
X-115.7 Y-17.012
X-115.675 Y-16.986
X-115.661 Y-16.952
X-115.66 Y-16.915
X-115.673 Y-16.881
X-115.696 Y-16.853
X-116.173 Y-16.468
X-116.2 Y-16.453
X-116.231 Y-16.446
X-116.262 Y-16.45
X-116.291 Y-16.463
X-116.422 Y-16.556
X-116.481 Y-16.602
X-116.566 Y-16.726
X-116.583 Y-16.875
X-116.554 Y-17.022
X-116.485 Y-17.155
X-116.465 Y-17.177
X-116.359 Y-17.252
X-116.23 Y-17.275
X-116.104 Y-17.241
X-115.915 Y-17.143
X-115.887 Y-17.119
X-115.869 Y-17.087
X-115.864 Y-17.052
X-115.872 Y-17.016
X-115.892 Y-16.986
X-116.295 Y-16.57
X-116.323 Y-16.55
X-116.356 Y-16.54
X-116.391 Y-16.542
X-116.422 Y-16.556
X-116.464 Y-16.585
X-116.545 Y-16.633
X-116.582 Y-16.654
X-116.646 Y-16.692
X-116.735 Y-16.813
X-116.76 Y-16.961
X-116.739 Y-17.11
X-116.673 Y-17.245
X-116.667 Y-17.252
X-116.584 Y-17.319
X-116.483 Y-17.354
X-116.376 Y-17.35
X-116.291 Y-17.331
X-116.259 Y-17.322
X-116.104 Y-17.241
X-116.077 Y-17.218
X-116.059 Y-17.187
X-116.053 Y-17.151
X-116.061 Y-17.116
X-116.08 Y-17.086
X-116.465 Y-16.675
X-116.49 Y-16.655
X-116.52 Y-16.645
X-116.552 Y-16.644
X-116.582 Y-16.654
X-116.714 Y-16.724
X-116.746 Y-16.741
X-116.811 Y-16.778
X-116.907 Y-16.894
X-116.94 Y-17.04
X-116.925 Y-17.189
X-116.911 Y-17.221
X-116.829 Y-17.33
X-116.708 Y-17.391
X-116.573 Y-17.393
X-116.376 Y-17.35
X-116.341 Y-17.333
X-116.315 Y-17.305
X-116.301 Y-17.268
X-116.303 Y-17.23
X-116.319 Y-17.194
X-116.622 Y-16.773
X-116.647 Y-16.749
X-116.679 Y-16.735
X-116.713 Y-16.732
X-116.746 Y-16.741
X-116.773 Y-16.754
X-116.799 Y-16.765
X-116.883 Y-16.793
X-116.93 Y-16.805
X-116.965 Y-16.817
X-117.075 Y-16.919
X-117.125 Y-17.061
X-117.119 Y-17.211
X-117.108 Y-17.241
X-117.03 Y-17.36
X-116.905 Y-17.43
X-116.762 Y-17.434
X-116.573 Y-17.393
X-116.537 Y-17.376
X-116.511 Y-17.346
X-116.498 Y-17.308
X-116.501 Y-17.269
X-116.519 Y-17.234
X-116.83 Y-16.841
X-116.858 Y-16.817
X-116.893 Y-16.804
X-116.93 Y-16.805
X-116.968 Y-16.815
X-117.052 Y-16.835
X-117.125 Y-16.853
X-117.186 Y-16.897
X-117.277 Y-17.017
X-117.311 Y-17.163
X-117.303 Y-17.212
X-117.266 Y-17.318
X-117.193 Y-17.403
X-117.093 Y-17.455
X-116.982 Y-17.466
X-116.883 Y-17.455
X-116.799 Y-17.442
X-116.762 Y-17.434
X-116.728 Y-17.418
X-116.702 Y-17.391
X-116.688 Y-17.356
Y-17.319
X-116.702 Y-17.284
X-116.951 Y-16.881
X-116.978 Y-16.853
X-117.013 Y-16.837
X-117.052 Y-16.835
X-117.222 Y-16.869
X-117.295 Y-16.886
X-117.417 Y-16.973
X-117.482 Y-17.108
X-117.49 Y-17.258
X-117.487 Y-17.269
X-117.42 Y-17.385
X-117.31 Y-17.461
X-117.178 Y-17.481
X-117.013 Y-17.469
X-116.982 Y-17.466
X-116.945 Y-17.455
X-116.915 Y-17.43
X-116.898 Y-17.395
X-116.894 Y-17.357
X-116.905 Y-17.32
X-117.118 Y-16.92
X-117.137 Y-16.896
X-117.162 Y-16.878
X-117.191 Y-16.869
X-117.222
X-117.306 Y-16.885
X-117.391 Y-16.893
X-117.465 Y-16.905
X-117.529 Y-16.943
X-117.63 Y-17.054
X-117.676 Y-17.197
X-117.673 Y-17.224
X-117.64 Y-17.334
X-117.568 Y-17.424
X-117.467 Y-17.48
X-117.353 Y-17.494
X-117.178 Y-17.481
X-117.141 Y-17.47
X-117.112 Y-17.446
X-117.093 Y-17.412
X-117.089 Y-17.374
X-117.099 Y-17.337
X-117.295 Y-16.948
X-117.319 Y-16.917
X-117.352 Y-16.898
X-117.391 Y-16.893
X-117.56 Y-16.911
X-117.635 Y-16.918
X-117.764 Y-16.995
X-117.84 Y-17.124
X-117.856 Y-17.273
X-117.853 Y-17.285
X-117.797 Y-17.395
X-117.702 Y-17.473
X-117.584 Y-17.507
X-117.56 Y-17.509
X-117.353 Y-17.494
X-117.316 Y-17.482
X-117.286 Y-17.458
X-117.268 Y-17.424
X-117.264 Y-17.385
X-117.275 Y-17.348
X-117.476 Y-16.964
X-117.497 Y-16.937
X-117.526 Y-16.918
X-117.56 Y-16.911
X-117.581 Y-16.91
X-117.729 Y-16.896
X-117.767 Y-16.895
X-117.837 Y-16.92
X-117.961 Y-17.005
X-118.032 Y-17.137
X-118.034 Y-17.173
X-118.02 Y-17.289
X-117.963 Y-17.39
X-117.871 Y-17.462
X-117.759 Y-17.493
X-117.584 Y-17.507
X-117.545 Y-17.5
X-117.512 Y-17.48
X-117.489 Y-17.448
X-117.48 Y-17.409
X-117.487 Y-17.37
X-117.649 Y-16.959
X-117.667 Y-16.929
X-117.695 Y-16.907
X-117.729 Y-16.896
X-117.814 Y-16.889
X-117.898 Y-16.879
X-117.936 Y-16.876
X-118.007 Y-16.9
X-118.071 Y-16.939
X-118.175 Y-17.047
X-118.219 Y-17.191
X-118.218 Y-17.204
X-118.175 Y-17.336
X-118.076 Y-17.435
X-117.944 Y-17.478
X-117.759 Y-17.493
X-117.72 Y-17.487
X-117.687 Y-17.467
X-117.664 Y-17.435
X-117.655 Y-17.396
X-117.661 Y-17.358
X-117.82 Y-16.942
X-117.838 Y-16.912
X-117.865 Y-16.89
X-117.898 Y-16.879
X-118.03 Y-16.863
X-118.104 Y-16.858
X-118.177 Y-16.877
X-118.303 Y-16.959
X-118.383 Y-17.086
X-118.388 Y-17.125
X-118.38 Y-17.245
X-118.325 Y-17.353
X-118.232 Y-17.43
X-118.116 Y-17.464
X-117.944 Y-17.478
X-117.907 Y-17.473
X-117.875 Y-17.455
X-117.851 Y-17.426
X-117.84 Y-17.391
X-117.842 Y-17.354
X-117.948 Y-16.938
X-117.964 Y-16.903
X-117.993 Y-16.877
X-118.03 Y-16.863
X-118.068 Y-16.859
X-118.152 Y-16.842
X-118.164 Y-16.839
X-118.237 Y-16.823
X-118.312 Y-16.831
X-118.449 Y-16.89
X-118.541 Y-17.009
X-118.581 Y-17.153
X-118.58 Y-17.172
X-118.537 Y-17.303
X-118.441 Y-17.401
X-118.311 Y-17.446
X-118.277 Y-17.442
X-118.246 Y-17.428
X-118.222 Y-17.403
X-118.208 Y-17.372
X-118.097 Y-16.96
X-118.094 Y-16.922
X-118.106 Y-16.886
X-118.13 Y-16.857
X-118.164 Y-16.839
X-118.321 Y-16.796
X-118.368 Y-16.781
X-118.404 Y-16.772
X-118.479 Y-16.783
X-118.618 Y-16.838
X-118.717 Y-16.951
X-118.767 Y-17.092
Y-17.108
X-118.74 Y-17.237
X-118.66 Y-17.342
X-118.543 Y-17.402
X-118.437 Y-17.43
X-118.406 Y-17.435
X-118.321 Y-17.445
X-118.237 Y-17.454
X-118.116 Y-17.464
X-118.081 Y-17.459
X-118.049 Y-17.442
X-118.025 Y-17.415
X-118.013 Y-17.382
Y-17.346
X-118.025 Y-17.313
X-118.314 Y-16.825
X-118.337 Y-16.798
X-118.368 Y-16.781
X-118.406 Y-16.77
X-118.491 Y-16.739
X-118.562 Y-16.717
X-118.712 Y-16.729
X-118.835 Y-16.814
X-118.923 Y-16.936
X-118.961 Y-17.082
X-118.927 Y-17.201
X-118.848 Y-17.296
X-118.738 Y-17.351
X-118.704 Y-17.353
X-118.671 Y-17.343
X-118.643 Y-17.323
X-118.624 Y-17.294
X-118.437 Y-16.872
X-118.428 Y-16.833
X-118.436 Y-16.794
X-118.457 Y-16.761
X-118.491 Y-16.739
X-118.617 Y-16.692
X-118.659 Y-16.67
X-118.692 Y-16.652
X-118.767 Y-16.645
X-118.913 Y-16.676
X-119.034 Y-16.765
X-119.119 Y-16.888
X-119.132 Y-16.942
X-119.138 Y-17.057
X-119.099 Y-17.166
X-119.022 Y-17.253
X-118.918 Y-17.303
X-118.883 Y-17.305
X-118.849 Y-17.295
X-118.821 Y-17.273
X-118.803 Y-17.243
X-118.622 Y-16.79
X-118.615 Y-16.757
X-118.619 Y-16.723
X-118.634 Y-16.693
X-118.659 Y-16.67
X-118.744 Y-16.616
X-118.769 Y-16.599
X-118.833 Y-16.56
X-118.982 Y-16.546
X-119.121 Y-16.602
X-119.235 Y-16.7
X-119.309 Y-16.83
X-119.321 Y-16.883
X-119.324 Y-17.002
X-119.281 Y-17.112
X-119.199 Y-17.197
X-119.167 Y-17.218
X-119.125 Y-17.245
X-119.115 Y-17.25
X-119.104 Y-17.254
X-118.66 Y-17.372
X-118.543 Y-17.402
X-118.506 Y-17.404
X-118.471 Y-17.391
X-118.443 Y-17.367
X-118.425 Y-17.334
X-118.422 Y-17.297
X-118.431 Y-17.261
X-118.739 Y-16.635
X-118.752 Y-16.616
X-118.769 Y-16.599
X-118.789 Y-16.585
X-118.894 Y-16.501
X-118.954 Y-16.457
X-119.101 Y-16.424
X-119.246 Y-16.464
X-119.368 Y-16.551
X-119.462 Y-16.668
X-119.481 Y-16.713
X-119.504 Y-16.846
X-119.465 Y-16.976
X-119.374 Y-17.076
X-119.341 Y-17.09
X-119.306 Y-17.091
X-119.272 Y-17.08
X-119.245 Y-17.058
X-118.884 Y-16.642
X-118.865 Y-16.608
X-118.86 Y-16.569
X-118.87 Y-16.532
X-118.894 Y-16.501
X-118.994 Y-16.416
X-119.024 Y-16.388
X-119.081 Y-16.339
X-119.224 Y-16.295
X-119.371 Y-16.324
X-119.501 Y-16.399
X-119.606 Y-16.506
X-119.678 Y-16.637
X-119.68 Y-16.644
X-119.681 Y-16.76
X-119.637 Y-16.868
X-119.556 Y-16.951
X-119.525 Y-16.964
X-119.491 Y-16.966
X-119.459 Y-16.957
X-119.431 Y-16.938
X-119.024 Y-16.529
X-119.003 Y-16.496
X-118.995 Y-16.458
X-119.003 Y-16.42
X-119.024 Y-16.388
X-119.083 Y-16.332
X-119.155 Y-16.248
X-119.18 Y-16.22
X-119.316 Y-16.156
X-119.466 Y-16.167
X-119.604 Y-16.224
X-119.723 Y-16.316
X-119.818 Y-16.432
X-119.827 Y-16.451
X-119.85 Y-16.566
X-119.827 Y-16.681
X-119.763 Y-16.779
X-119.732 Y-16.798
X-119.696 Y-16.806
X-119.66 Y-16.8
X-119.629 Y-16.781
X-119.168 Y-16.385
X-119.145 Y-16.355
X-119.134 Y-16.319
X-119.137 Y-16.281
X-119.155 Y-16.248
X-119.167 Y-16.232
X-119.238 Y-16.141
X-119.286 Y-16.083
X-119.416 Y-16.008
X-119.566 Y-16.006
X-119.709 Y-16.05
X-119.838 Y-16.127
X-119.945 Y-16.233
X-119.962 Y-16.262
X-120.002 Y-16.386
X-119.985 Y-16.515
X-119.916 Y-16.625
X-119.888 Y-16.643
X-119.855 Y-16.652
X-119.822 Y-16.649
X-119.792 Y-16.635
X-119.784 Y-16.63
X-119.264 Y-16.281
X-119.236 Y-16.253
X-119.222 Y-16.217
Y-16.177
X-119.238 Y-16.141
X-119.369 Y-15.969
X-119.417 Y-15.911
X-119.553 Y-15.849
X-119.703
X-119.848 Y-15.89
X-119.98 Y-15.962
X-120.087 Y-16.066
X-120.107 Y-16.098
X-120.151 Y-16.221
X-120.138 Y-16.352
X-120.071 Y-16.464
X-120.043 Y-16.483
X-120.01 Y-16.492
X-119.976 Y-16.49
X-119.945 Y-16.476
X-119.916 Y-16.456
X-119.395 Y-16.109
X-119.367 Y-16.081
X-119.352 Y-16.045
X-119.353 Y-16.005
X-119.369 Y-15.969
X-119.421 Y-15.899
X-119.434 Y-15.881
X-119.445 Y-15.862
X-119.46 Y-15.825
X-119.476 Y-15.791
X-119.593 Y-15.698
X-119.74 Y-15.669
X-119.889 Y-15.686
X-120.029 Y-15.74
X-120.155 Y-15.821
X-120.256 Y-15.932
X-120.263 Y-15.945
X-120.294 Y-16.028
X-120.298 Y-16.116
X-120.277 Y-16.202
X-120.249 Y-16.269
X-120.243 Y-16.279
X-120.235 Y-16.29
X-120.013 Y-16.524
X-119.955 Y-16.585
X-119.703 Y-16.839
X-119.675 Y-16.866
X-119.59 Y-16.928
X-119.199 Y-17.197
X-119.166 Y-17.21
X-119.132 Y-17.212
X-119.098 Y-17.201
X-119.071 Y-17.18
X-119.052 Y-17.15
X-119.045 Y-17.116
X-119.05 Y-17.082
X-119.216 Y-16.572
X-119.46 Y-15.825
X-119.518 Y-15.681
X-119.549 Y-15.612
X-119.667 Y-15.519
X-119.813 Y-15.485
X-119.962 Y-15.492
X-120.107 Y-15.532
X-120.239 Y-15.603
X-120.28 Y-15.637
X-120.358 Y-15.735
X-120.389 Y-15.855
X-120.369 Y-15.978
X-120.277 Y-16.202
X-120.257 Y-16.231
X-120.227 Y-16.252
X-120.192 Y-16.26
X-120.156 Y-16.256
X-120.125 Y-16.24
X-120.072 Y-16.198
X-119.55 Y-15.793
X-119.529 Y-15.771
X-119.516 Y-15.742
X-119.512 Y-15.711
X-119.518 Y-15.681
X-119.527 Y-15.656
X-119.556 Y-15.572
X-119.571 Y-15.525
X-119.597 Y-15.455
X-119.701 Y-15.347
X-119.842 Y-15.296
X-119.991 Y-15.285
X-120.139 Y-15.31
X-120.279 Y-15.364
X-120.34 Y-15.405
X-120.431 Y-15.502
X-120.472 Y-15.629
X-120.453 Y-15.761
X-120.433 Y-15.791
X-120.405 Y-15.812
X-120.372 Y-15.822
X-120.337 Y-15.819
X-120.251 Y-15.798
X-119.643 Y-15.649
X-119.607 Y-15.632
X-119.581 Y-15.602
X-119.568 Y-15.565
X-119.571 Y-15.525
X-119.609 Y-15.403
X-119.622 Y-15.356
X-119.634 Y-15.318
X-119.646 Y-15.272
X-119.657 Y-15.238
X-119.772 Y-15.143
X-119.914 Y-15.093
X-119.982 Y-15.088
X-119.99
X-120.027 Y-15.097
X-120.058 Y-15.119
X-120.079 Y-15.151
X-120.086 Y-15.188
X-120.079 Y-15.226
X-120.058 Y-15.258
X-120.026 Y-15.28
X-119.784 Y-15.386
X-119.748 Y-15.394
X-119.712 Y-15.389
X-119.68 Y-15.371
X-119.656 Y-15.343
X-119.644 Y-15.309
X-119.646 Y-15.272
X-119.675 Y-15.16
X-119.68 Y-15.15
X-119.688 Y-15.139
X-119.709 Y-15.115
X-119.72 Y-15.106
X-119.74 Y-15.095
X-119.76 Y-15.09
X-119.77 Y-15.088
X-120.013
X-120.163 Y-15.096
X-120.308 Y-15.134
X-120.441 Y-15.204
X-120.45 Y-15.213
X-120.516 Y-15.3
X-120.546 Y-15.404
X-120.536 Y-15.513
X-120.519 Y-15.546
X-120.49 Y-15.57
X-120.455 Y-15.582
X-120.418 Y-15.58
X-120.384 Y-15.565
X-119.96 Y-15.27
X-119.935 Y-15.245
X-119.92 Y-15.213
X-119.917 Y-15.177
X-119.928 Y-15.143
X-119.949 Y-15.115
X-119.979 Y-15.096
X-120.013 Y-15.088
X-120.398
X-120.436
X-120.479
X-120.499 Y-15.09
X-120.524 Y-15.102
X-120.542 Y-15.123
X-120.549 Y-15.15
X-120.543 Y-15.178
X-120.527 Y-15.2
X-120.502 Y-15.213
X-120.474 Y-15.214
X-120.469 Y-15.213
X-120.441 Y-15.2
X-120.423 Y-15.176
X-120.418 Y-15.146
X-120.428 Y-15.117
X-120.45 Y-15.096
X-120.479 Y-15.088
X-120.489 Y-15.089
X-120.5 Y-15.091
X-120.51 Y-15.094
X-120.521 Y-15.098
X-120.564 Y-15.128
X-120.583 Y-15.154
X-120.591 Y-15.186
X-120.586 Y-15.218
X-120.57 Y-15.247
X-120.544 Y-15.266
X-120.512 Y-15.275
X-120.48 Y-15.271
X-120.451 Y-15.255
X-120.436 Y-15.242
X-120.416 Y-15.216
X-120.407 Y-15.183
X-120.411 Y-15.15
X-120.428 Y-15.121
X-120.455 Y-15.101
X-120.488 Y-15.093
X-120.521 Y-15.098
X-120.552 Y-15.117
X-120.57 Y-15.133
X-120.582 Y-15.15
X-120.587 Y-15.16
X-120.591 Y-15.171
X-120.594 Y-15.181
X-120.595 Y-15.192
X-120.596 Y-15.202
X-120.592 Y-15.234
X-120.579 Y-15.318
X-120.565 Y-15.403
X-120.543 Y-15.487
X-120.52 Y-15.572
X-120.491 Y-15.656
X-120.461 Y-15.741
X-120.369 Y-15.978
X-120.354 Y-16.002
X-120.333 Y-16.021
X-120.304 Y-16.03 Z-0.985
X-120.277 Y-16.038 Z-0.971
X-120.256 Y-16.034 Z-0.948
X-120.242 Y-16.031 Z-0.921
X-120.238 Y-16.03 Z-0.89
G0 Z2
X-109.188 Y-9.32
Z0.5
G3 X-108.704 Y-9.445 Z0.29 I0.242 J-0.062 F333.3
X-109.188 Y-9.32 Z0.079 I-0.242 J0.062
X-108.704 Y-9.445 Z-0.131 I0.242 J-0.062
X-109.188 Y-9.32 Z-0.342 I-0.242 J0.062
X-108.704 Y-9.445 Z-0.552 I0.242 J-0.062
X-109.188 Y-9.32 Z-0.763 I-0.242 J0.062
X-108.977 Y-9.631 Z-0.876 I0.242 J-0.062
X-108.696 Y-9.383 Z-0.99 I0.031 J0.248
X-109.196 I-0.25
X-108.696 I0.25
G1 X-108.659 Y-9.237 F1000
X-108.672 Y-9.164
X-108.709 Y-9.098
X-108.816 Y-8.993
X-108.96 Y-8.953
X-109.109 Y-8.975
X-109.239 Y-9.049
X-109.336 Y-9.163
X-109.388 Y-9.304
X-109.39 Y-9.454
X-109.343 Y-9.596
X-109.251 Y-9.715
X-109.125 Y-9.796
X-108.979 Y-9.832
X-108.83 Y-9.818
X-108.693 Y-9.756
X-108.585 Y-9.653
X-108.507 Y-9.525
X-108.457 Y-9.383
X-108.446 Y-9.234
X-108.481 Y-9.088
X-108.552 Y-8.956
X-108.66 Y-8.852
X-108.791 Y-8.778
X-108.937 Y-8.745
X-109.087 Y-8.752
X-109.231 Y-8.793
X-109.361 Y-8.869
X-109.467 Y-8.975
X-109.549 Y-9.1
X-109.599 Y-9.242
X-109.613 Y-9.391
X-109.597 Y-9.54
X-109.547 Y-9.682
X-109.464 Y-9.807
X-109.358 Y-9.913
X-109.23 Y-9.991
X-109.087 Y-10.038
X-108.938 Y-10.054
X-108.789 Y-10.036
X-108.649 Y-9.983
X-108.522 Y-9.903
X-108.413 Y-9.8
X-108.326 Y-9.678
X-108.263 Y-9.542
X-108.225 Y-9.397
X-108.217 Y-9.247
X-108.239 Y-9.099
X-108.288 Y-8.957
X-108.364 Y-8.828
X-108.465 Y-8.717
X-108.586 Y-8.627
X-108.72 Y-8.561
X-108.866 Y-8.524
X-109.015 Y-8.515
X-109.164 Y-8.531
X-109.195 Y-8.54
X-109.252 Y-8.564
X-109.304 Y-8.599
X-109.347 Y-8.644
X-109.416 Y-8.73
X-109.438 Y-8.753
X-109.506 Y-8.815
X-109.569 Y-8.867
X-109.679 Y-8.969
X-109.763 Y-9.094
X-109.815 Y-9.234
X-109.838 Y-9.383
X-109.832 Y-9.532
X-109.797 Y-9.678
X-109.737 Y-9.816
X-109.718 Y-9.847
X-109.675 Y-9.9
X-109.621 Y-9.942
X-109.559 Y-9.971
X-109.522 Y-9.975
X-109.487 Y-9.965
X-109.458 Y-9.944
X-109.438 Y-9.913
X-109.431 Y-9.878
X-109.422 Y-9.508
X-109.408 Y-8.949
X-109.414 Y-8.912
X-109.433 Y-8.88
X-109.463 Y-8.857
X-109.499 Y-8.847
X-109.536 Y-8.85
X-109.569 Y-8.867
X-109.708 Y-8.984
X-109.777 Y-9.035
X-109.826 Y-9.068
X-109.946 Y-9.158
X-110.015 Y-9.291
X-110.046 Y-9.438
X-110.047 Y-9.588
X-110.032 Y-9.674
X-109.978 Y-9.801
X-109.872 Y-9.891
X-109.738 Y-9.923
X-109.699 Y-9.914
X-109.667 Y-9.891
X-109.647 Y-9.857
X-109.641 Y-9.818
X-109.645 Y-9.725
X-109.674 Y-9.148
X-109.681 Y-9.114
X-109.7 Y-9.085
X-109.727 Y-9.064
X-109.76 Y-9.054
X-109.794 Y-9.055
X-109.826 Y-9.068
X-109.953 Y-9.152
X-110.031 Y-9.199
X-110.095 Y-9.238
X-110.193 Y-9.351
X-110.242 Y-9.493
X-110.248 Y-9.643
X-110.24 Y-9.683
X-110.184 Y-9.806
X-110.078 Y-9.892
X-109.946 Y-9.923
X-109.915 Y-9.917
X-109.887 Y-9.901
X-109.865 Y-9.877
X-109.853 Y-9.847
X-109.85 Y-9.815
X-109.893 Y-9.284
X-109.903 Y-9.248
X-109.925 Y-9.218
X-109.957 Y-9.199
X-109.994 Y-9.192
X-110.031 Y-9.199
X-110.2 Y-9.275
X-110.267 Y-9.309
X-110.378 Y-9.409
X-110.434 Y-9.548
X-110.437 Y-9.698
X-110.434 Y-9.708
X-110.373 Y-9.82
X-110.271 Y-9.896
X-110.147 Y-9.923
X-110.109 Y-9.914
X-110.077 Y-9.892
X-110.057 Y-9.859
X-110.05 Y-9.821
X-110.062 Y-9.365
X-110.071 Y-9.328
X-110.092 Y-9.296
X-110.124 Y-9.275
X-110.162 Y-9.268
X-110.2 Y-9.275
X-110.284 Y-9.313
X-110.369 Y-9.346
X-110.415 Y-9.362
X-110.485 Y-9.39
X-110.583 Y-9.504
X-110.624 Y-9.648
X-110.622 Y-9.659
X-110.572 Y-9.793
X-110.464 Y-9.889
X-110.325 Y-9.923
X-110.292 Y-9.916
X-110.263 Y-9.899
X-110.241 Y-9.873
X-110.23 Y-9.841
X-110.229 Y-9.808
X-110.287 Y-9.442
X-110.298 Y-9.41
X-110.319 Y-9.383
X-110.348 Y-9.365
X-110.382 Y-9.358
X-110.415 Y-9.362
X-110.454 Y-9.375
X-110.556 Y-9.406
X-110.593 Y-9.415
X-110.629 Y-9.426
X-110.688 Y-9.472
X-110.732 Y-9.533
X-110.743 Y-9.671
X-110.689 Y-9.8
X-110.583 Y-9.891
X-110.448 Y-9.923
X-110.411 Y-9.915
X-110.38 Y-9.893
X-110.359 Y-9.861
X-110.351 Y-9.824
X-110.358 Y-9.787
X-110.479 Y-9.477
X-110.497 Y-9.447
X-110.524 Y-9.425
X-110.558 Y-9.414
X-110.593 Y-9.415
X-110.754 Y-9.455
X-110.79 Y-9.466
X-110.839 Y-9.522
X-110.861 Y-9.661
X-110.815 Y-9.794
X-110.711 Y-9.889
X-110.575 Y-9.923
X-110.542 Y-9.916
X-110.513 Y-9.898
X-110.491 Y-9.872
X-110.48 Y-9.84
Y-9.806
X-110.492 Y-9.774
X-110.646 Y-9.503
X-110.666 Y-9.479
X-110.692 Y-9.462
X-110.723 Y-9.453
X-110.754 Y-9.455
X-110.792 Y-9.464
X-110.838 Y-9.473
X-110.875 Y-9.482
X-110.934 Y-9.528
X-110.967 Y-9.661
X-110.931 Y-9.792
X-110.834 Y-9.888
X-110.702 Y-9.923
X-110.664 Y-9.914
X-110.632 Y-9.891
X-110.611 Y-9.858
X-110.605 Y-9.819
X-110.615 Y-9.781
X-110.733 Y-9.53
X-110.751 Y-9.503
X-110.776 Y-9.484
X-110.806 Y-9.474
X-110.838 Y-9.473
X-110.877 Y-9.48
X-110.942 Y-9.49
X-110.979 Y-9.498
X-111.039 Y-9.543
X-111.07 Y-9.671
X-111.034 Y-9.797
X-110.94 Y-9.889
X-110.813 Y-9.923
X-110.775 Y-9.914
X-110.743 Y-9.891
X-110.722 Y-9.857
X-110.717 Y-9.818
X-110.727 Y-9.779
X-110.841 Y-9.546
X-110.858 Y-9.521
X-110.882 Y-9.502
X-110.911 Y-9.492
X-110.942 Y-9.49
X-111.046 Y-9.506
X-111.083 Y-9.513
X-111.142 Y-9.558
X-111.171 Y-9.681
X-111.135 Y-9.803
X-111.045 Y-9.891
X-110.922 Y-9.923
X-110.884 Y-9.914
X-110.852 Y-9.89
X-110.832 Y-9.856
X-110.826 Y-9.817
X-110.837 Y-9.778
X-110.946 Y-9.56
X-110.963 Y-9.536
X-110.987 Y-9.518
X-111.016 Y-9.507
X-111.046 Y-9.506
X-111.13 Y-9.518
X-111.167 Y-9.524
X-111.231 Y-9.563
X-111.267 Y-9.681
X-111.238 Y-9.802
X-111.151 Y-9.891
X-111.032 Y-9.923
X-110.994 Y-9.914
X-110.963 Y-9.892
X-110.942 Y-9.86
X-110.935 Y-9.822
X-110.943 Y-9.784
X-111.03 Y-9.579
X-111.046 Y-9.552
X-111.07 Y-9.532
X-111.099 Y-9.52
X-111.13 Y-9.518
X-111.261 Y-9.533
X-111.298 Y-9.539
X-111.352 Y-9.592
X-111.372 Y-9.706
X-111.335 Y-9.816
X-111.249 Y-9.895
X-111.137 Y-9.923
X-111.103 Y-9.916
X-111.074 Y-9.898
X-111.053 Y-9.871
X-111.042 Y-9.839
Y-9.804
X-111.054 Y-9.772
X-111.167 Y-9.582
X-111.192 Y-9.554
X-111.225 Y-9.537
X-111.261 Y-9.533
X-111.346 Y-9.543
X-111.383 Y-9.549
X-111.443 Y-9.594
X-111.468 Y-9.706
X-111.435 Y-9.815
X-111.353 Y-9.894
X-111.242 Y-9.923
X-111.205 Y-9.914
X-111.174 Y-9.891
G3 X-111.346 Y-9.543 I-0.155 J0.14
G1 X-111.431 Y-9.553
X-111.468 Y-9.559
X-111.531 Y-9.599
X-111.56 Y-9.707
X-111.531 Y-9.815
X-111.451 Y-9.894
X-111.343 Y-9.923
X-111.312 Y-9.917
X-111.284 Y-9.9
G3 X-111.431 Y-9.553 I-0.131 J0.149
G1 X-111.469 Y-9.557
X-111.553 Y-9.564
X-111.583 Y-9.566
X-111.598 Y-9.569
X-111.62 Y-9.579
X-111.643 Y-9.6
X-111.654 Y-9.63
X-111.652 Y-9.661
X-111.636 Y-9.688
X-111.609 Y-9.705
X-111.578 Y-9.71
X-111.548 Y-9.7
X-111.525 Y-9.679
X-111.514 Y-9.65
X-111.517 Y-9.618
X-111.533 Y-9.591
X-111.559 Y-9.573
X-111.578 Y-9.569
X-111.598
X-111.613 Y-9.575
X-111.626 Y-9.582
X-111.638 Y-9.591
X-111.653 Y-9.608
X-111.666 Y-9.625
X-111.676 Y-9.642
X-111.682 Y-9.659
X-111.684 Y-9.67
X-111.685 Y-9.68
Y-9.744
X-111.684 Y-9.79
X-111.681 Y-9.838
X-111.665 Y-9.87
X-111.637 Y-9.893
X-111.602 Y-9.903
X-111.566 Y-9.898
X-111.535 Y-9.88
X-111.514 Y-9.85
X-111.506 Y-9.815
Y-9.793
X-111.512 Y-9.759
X-111.531 Y-9.73
X-111.559 Y-9.71
X-111.593 Y-9.703
X-111.628 Y-9.709
X-111.657 Y-9.728
X-111.677 Y-9.756
X-111.684 Y-9.79
Y-9.828
X-111.679 Y-9.846
X-111.671 Y-9.863
X-111.658 Y-9.881
X-111.638 Y-9.898
X-111.627 Y-9.906
X-111.616 Y-9.913
X-111.6 Y-9.919
X-111.585 Y-9.922
X-111.553 Y-9.923
X-109.734
X-109.703 Y-9.924
X-109.692 Y-9.927
X-109.449 Y-10.007
X-109.438 Y-10.012
X-109.353 Y-10.082
X-109.242 Y-10.182
X-109.105 Y-10.244
X-108.958 Y-10.272
X-108.808 Y-10.268
X-108.661 Y-10.236
X-108.522 Y-10.18
X-108.393 Y-10.103
X-108.278 Y-10.006
X-108.222 Y-9.941
X-108.182 Y-9.882
X-108.157 Y-9.816
X-108.149 Y-9.745
Y-8.984
X-108.156 Y-8.834
X-108.213 Y-8.695
X-108.3 Y-8.573
X-108.41 Y-8.47
X-108.536 Y-8.389
X-108.673 Y-8.329
X-108.818 Y-8.29
X-108.897 Y-8.281
X-109.008 Y-8.289
X-109.109 Y-8.337
X-109.184 Y-8.419
X-109.198 Y-8.456
X-109.197 Y-8.495
X-109.18 Y-8.531
X-109.151 Y-8.557
X-108.796 Y-8.769
X-108.3 Y-9.066
X-108.268 Y-9.078
X-108.234 Y-9.079
X-108.201 Y-9.068
X-108.174 Y-9.046
X-108.156 Y-9.017
X-108.149 Y-8.984
Y-8.646
X-108.156 Y-8.496
X-108.233 Y-8.367
X-108.337 Y-8.259
X-108.46 Y-8.173
X-108.594 Y-8.107
X-108.738 Y-8.064
X-108.772 Y-8.061
X-108.896 Y-8.073
X-109.003 Y-8.135
X-109.077 Y-8.234
X-109.085 Y-8.271
X-109.078 Y-8.307
X-109.059 Y-8.339
X-109.029 Y-8.362
X-108.817 Y-8.469
X-108.294 Y-8.732
X-108.255 Y-8.742
X-108.216 Y-8.737
X-108.182 Y-8.716
X-108.158 Y-8.684
X-108.149 Y-8.646
Y-8.392
X-108.156 Y-8.242
X-108.229 Y-8.111
X-108.333 Y-8.004
X-108.458 Y-7.92
X-108.597 Y-7.864
X-108.658 Y-7.853
X-108.793 Y-7.86
X-108.91 Y-7.926
X-108.988 Y-8.036
X-108.994 Y-8.072
X-108.987 Y-8.108
X-108.967 Y-8.138
X-108.938 Y-8.16
X-108.818 Y-8.219
X-108.293 Y-8.478
X-108.255 Y-8.489
X-108.215 Y-8.483
X-108.181 Y-8.463
X-108.158 Y-8.431
X-108.149 Y-8.392
Y-8.139
Y-8.092
Y-8.054
X-108.153 Y-7.979
X-108.229 Y-7.851
X-108.276 Y-7.807
X-108.337 Y-7.764
X-108.406 Y-7.736
X-108.48 Y-7.727
X-108.518 Y-7.736
X-108.549 Y-7.758
X-108.57 Y-7.791
X-108.577 Y-7.829
X-108.568 Y-7.867
X-108.547 Y-7.899
X-108.319 Y-8.122
X-108.287 Y-8.143
X-108.249 Y-8.151
X-108.212 Y-8.144
X-108.179 Y-8.123
X-108.157 Y-8.092
X-108.149 Y-8.054
Y-7.885
Y-7.843
Y-7.833
X-108.153 Y-7.813
X-108.167 Y-7.788
X-108.191 Y-7.771
X-108.22 Y-7.766
X-108.248 Y-7.774
X-108.269 Y-7.793
X-108.281 Y-7.82
X-108.279 Y-7.849
X-108.265 Y-7.875
X-108.264 Y-7.876
X-108.238 Y-7.894
X-108.207 Y-7.898
X-108.177 Y-7.887
X-108.157 Y-7.863
X-108.149 Y-7.833
X-108.151 Y-7.822
X-108.153 Y-7.812
X-108.157 Y-7.801
X-108.162 Y-7.791
X-108.169 Y-7.78
X-108.19 Y-7.756
X-108.201 Y-7.747
X-108.212 Y-7.74
X-108.222 Y-7.735
X-108.233 Y-7.731
X-108.243 Y-7.729
X-108.254 Y-7.727
X-108.761
X-108.804 Y-7.728
X-108.814 Y-7.73
X-108.825 Y-7.733
X-108.836 Y-7.737
X-108.865 Y-7.755
X-108.884 Y-7.772
X-108.895 Y-7.786
X-108.902 Y-7.801
X-108.961 Y-7.97
X-108.995 Y-8.054
X-109.1 Y-8.284
X-109.184 Y-8.419
X-109.223 Y-8.477
X-109.282 Y-8.561
X-109.347 Y-8.644
X-109.361 Y-8.672
X-109.366 Y-8.702
X-109.371 Y-9.302
X-109.376 Y-10.016
X-109.37 Y-10.051
X-109.353 Y-10.082
X-109.314 Y-10.124
X-109.283 Y-10.166
X-109.269 Y-10.187
X-109.235 Y-10.25
X-109.2 Y-10.317
X-109.088 Y-10.417
X-108.947 Y-10.468
X-108.798 Y-10.483
X-108.648 Y-10.469
X-108.504 Y-10.43
X-108.366 Y-10.369
X-108.292 Y-10.324
X-108.216 Y-10.257
X-108.166 Y-10.168
X-108.149 Y-10.068
Y-9.745
X-108.156 Y-9.712
X-108.173 Y-9.683
X-108.199 Y-9.662
X-108.23 Y-9.65
X-108.263
X-108.295 Y-9.66
X-108.618 Y-9.83
X-109.187 Y-10.129
X-109.215 Y-10.151
X-109.234 Y-10.181
X-109.241 Y-10.216
X-109.235 Y-10.25
X-109.219 Y-10.293
X-109.206 Y-10.335
X-109.198 Y-10.381
X-109.181 Y-10.455
X-109.098 Y-10.579
X-108.968 Y-10.655
X-108.823 Y-10.692
X-108.673 Y-10.699
X-108.524 Y-10.68
X-108.38 Y-10.64
X-108.322 Y-10.613
X-108.231 Y-10.547
X-108.17 Y-10.451
X-108.149 Y-10.341
Y-10.068
X-108.157 Y-10.032
X-108.178 Y-10.001
X-108.209 Y-9.98
X-108.245 Y-9.972
X-108.282 Y-9.977
X-108.519 Y-10.06
X-109.131 Y-10.274
X-109.161 Y-10.29
X-109.184 Y-10.316
X-109.196 Y-10.347
X-109.198 Y-10.381
X-109.191 Y-10.419
X-109.188 Y-10.504
Y-10.55
X-109.184 Y-10.625
X-109.112 Y-10.757
X-108.992 Y-10.847
X-108.852 Y-10.9
X-108.704 Y-10.924
X-108.554 Y-10.923
X-108.406 Y-10.898
X-108.345 Y-10.876
X-108.242 Y-10.812
X-108.173 Y-10.713
X-108.149 Y-10.594
Y-10.341
X-108.156 Y-10.306
X-108.175 Y-10.276
X-108.204 Y-10.255
X-108.238 Y-10.245
X-108.273 Y-10.247
X-108.476 Y-10.298
X-109.112 Y-10.456
X-109.142 Y-10.469
X-109.166 Y-10.491
X-109.181 Y-10.519
X-109.188 Y-10.55
Y-10.719
X-109.184 Y-10.794
X-109.133 Y-10.935
X-109.023 Y-11.037
X-108.89 Y-11.106
X-108.745 Y-11.146
X-108.596 Y-11.16
X-108.446 Y-11.148
X-108.368 Y-11.127
X-108.255 Y-11.066
X-108.177 Y-10.964
X-108.149 Y-10.838
Y-10.594
X-108.156 Y-10.561
X-108.173 Y-10.533
X-108.199 Y-10.511
X-108.23 Y-10.499
X-108.264
X-108.463 Y-10.528
X-109.102 Y-10.624
X-109.135 Y-10.635
X-109.162 Y-10.656
X-109.18 Y-10.685
X-109.188 Y-10.719
Y-10.926
X-109.184 Y-11.001
X-109.133 Y-11.142
X-109.027 Y-11.248
X-108.897 Y-11.323
X-108.754 Y-11.37
X-108.606 Y-11.392
X-108.456 Y-11.385
X-108.31 Y-11.35
X-108.307 Y-11.348
X-108.223 Y-11.282
X-108.168 Y-11.19
X-108.149 Y-11.084
Y-10.838
X-108.155 Y-10.806
X-108.172 Y-10.777
X-108.196 Y-10.756
X-108.227 Y-10.744
X-108.259 Y-10.742
X-108.459 Y-10.763
X-109.098 Y-10.83
X-109.132 Y-10.84
X-109.161 Y-10.862
X-109.18 Y-10.891
X-109.188 Y-10.926
Y-11.142
X-109.184 Y-11.217
X-109.133 Y-11.358
X-109.03 Y-11.466
X-108.902 Y-11.545
X-108.761 Y-11.596
X-108.613 Y-11.622
X-108.463 Y-11.623
X-108.385 Y-11.606
X-108.263 Y-11.549
X-108.179 Y-11.444
X-108.149 Y-11.313
Y-11.084
X-108.155 Y-11.053
X-108.171 Y-11.025
X-108.195 Y-11.004
X-108.224 Y-10.991
X-108.256 Y-10.988
X-108.457 Y-11.002
X-109.094 Y-11.045
X-109.13 Y-11.054
X-109.159 Y-11.076
X-109.18 Y-11.106
X-109.188 Y-11.142
Y-11.395
X-109.184 Y-11.47
X-109.119 Y-11.605
X-109.011 Y-11.709
X-108.881 Y-11.784
X-108.739 Y-11.833
X-108.591 Y-11.857
X-108.441 Y-11.85
X-108.379 Y-11.835
X-108.26 Y-11.777
X-108.178 Y-11.673
X-108.149 Y-11.544
Y-11.313
X-108.155 Y-11.281
X-108.172 Y-11.253
X-108.196 Y-11.232
X-108.226 Y-11.219
X-108.258 Y-11.217
X-108.459 Y-11.237
X-109.097 Y-11.299
X-109.132 Y-11.309
X-109.16 Y-11.33
X-109.18 Y-11.36
X-109.188 Y-11.395
Y-11.602
X-109.184 Y-11.677
X-109.129 Y-11.816
X-109.026 Y-11.925
X-108.899 Y-12.005
X-108.758 Y-12.059
X-108.611 Y-12.087
X-108.461 Y-12.085
X-108.314 Y-12.053
X-108.311 Y-12.052
X-108.225 Y-11.985
X-108.169 Y-11.892
X-108.149 Y-11.785
Y-11.544
X-108.155 Y-11.512
X-108.171 Y-11.484
X-108.195 Y-11.463
X-108.224 Y-11.45
X-108.256 Y-11.447
X-108.457 Y-11.461
X-109.094 Y-11.506
X-109.13 Y-11.515
X-109.159 Y-11.536
X-109.18 Y-11.566
X-109.188 Y-11.602
Y-11.817
X-109.18 Y-11.967
X-109.1 Y-12.094
X-108.986 Y-12.191
X-108.853 Y-12.262
X-108.709 Y-12.305
X-108.561 Y-12.322
X-108.411 Y-12.316
X-108.363 Y-12.302
X-108.252 Y-12.24
X-108.176 Y-12.138
X-108.149 Y-12.014
Y-11.785
X-108.158 Y-11.747
X-108.181 Y-11.715
X-108.214 Y-11.695
X-108.253 Y-11.689
X-108.456 Y-11.697
X-109.091 Y-11.721
X-109.128 Y-11.729
X-109.158 Y-11.75
X-109.179 Y-11.781
X-109.188 Y-11.817
Y-12.071
X-109.184 Y-12.146
X-109.127 Y-12.285
X-109.023 Y-12.393
X-108.896 Y-12.472
X-108.756 Y-12.525
X-108.609 Y-12.555
X-108.459 Y-12.554
X-108.31 Y-12.522
X-108.225 Y-12.455
X-108.168 Y-12.362
X-108.149 Y-12.255
Y-12.014
X-108.155 Y-11.983
X-108.171 Y-11.955
X-108.194 Y-11.934
X-108.224 Y-11.921
X-108.256 Y-11.918
X-108.457 Y-11.931
X-109.094 Y-11.974
X-109.13 Y-11.984
X-109.159 Y-12.005
X-109.18 Y-12.035
X-109.188 Y-12.071
Y-12.278
X-109.18 Y-12.427
X-109.102 Y-12.556
X-108.989 Y-12.654
X-108.857 Y-12.726
X-108.714 Y-12.771
X-108.565 Y-12.79
X-108.415 Y-12.786
X-108.366 Y-12.771
X-108.253 Y-12.71
X-108.176 Y-12.608
X-108.149 Y-12.483
Y-12.255
X-108.158 Y-12.218
X-108.18 Y-12.186
X-108.213 Y-12.165
X-108.251 Y-12.159
X-108.456 Y-12.164
X-109.09 Y-12.181
X-109.127 Y-12.189
X-109.158 Y-12.21
X-109.179 Y-12.241
X-109.188 Y-12.278
Y-12.531
X-109.184 Y-12.606
X-109.13 Y-12.746
X-109.027 Y-12.855
X-108.901 Y-12.936
X-108.761 Y-12.991
X-108.614 Y-13.022
X-108.465 Y-13.023
X-108.318 Y-12.993
X-108.313 Y-12.991
X-108.226 Y-12.924
X-108.169 Y-12.831
X-108.149 Y-12.723
Y-12.483
X-108.158 Y-12.445
X-108.181 Y-12.413
X-108.215 Y-12.392
X-108.254 Y-12.387
X-108.457 Y-12.398
X-109.093 Y-12.435
X-109.129 Y-12.444
X-109.159 Y-12.465
X-109.179 Y-12.495
X-109.188 Y-12.531
Y-12.746
X-109.18 Y-12.896
X-109.101 Y-13.024
X-108.988 Y-13.122
X-108.856 Y-13.194
X-108.713 Y-13.24
X-108.564 Y-13.259
X-108.414 Y-13.254
X-108.366 Y-13.239
X-108.253 Y-13.179
X-108.176 Y-13.076
X-108.149 Y-12.951
Y-12.723
X-108.158 Y-12.685
X-108.18 Y-12.654
X-108.213 Y-12.633
X-108.252 Y-12.627
X-108.456 Y-12.632
X-109.09 Y-12.65
X-109.127 Y-12.658
X-109.158 Y-12.679
X-109.179 Y-12.71
X-109.188 Y-12.746
Y-13
X-109.184 Y-13.075
X-109.129 Y-13.214
X-109.026 Y-13.324
X-108.9 Y-13.405
X-108.76 Y-13.46
X-108.614 Y-13.491
X-108.464 Y-13.492
X-108.317 Y-13.461
X-108.313 Y-13.459
X-108.226 Y-13.392
X-108.169 Y-13.299
X-108.149 Y-13.191
Y-12.951
X-108.158 Y-12.913
X-108.181 Y-12.881
X-108.215 Y-12.861
X-108.255 Y-12.855
X-108.457 Y-12.867
X-109.093 Y-12.904
X-109.129 Y-12.912
X-109.159 Y-12.933
X-109.179 Y-12.964
X-109.188 Y-13
Y-13.253
X-109.184 Y-13.328
X-109.119 Y-13.463
X-109.012 Y-13.569
X-108.884 Y-13.647
X-108.743 Y-13.698
X-108.596 Y-13.724
X-108.446 Y-13.725
X-108.379 Y-13.709
X-108.26 Y-13.651
X-108.178 Y-13.547
X-108.149 Y-13.418
Y-13.191
X-108.155 Y-13.16
X-108.171 Y-13.132
X-108.195 Y-13.111
X-108.224 Y-13.098
X-108.256 Y-13.095
X-108.457 Y-13.11
X-109.095 Y-13.157
X-109.13 Y-13.166
X-109.16 Y-13.187
X-109.18 Y-13.218
X-109.188 Y-13.253
Y-13.46
X-109.184 Y-13.535
X-109.131 Y-13.675
X-109.03 Y-13.786
X-108.904 Y-13.868
X-108.765 Y-13.924
X-108.618 Y-13.956
X-108.468 Y-13.957
X-108.321 Y-13.928
X-108.315 Y-13.925
X-108.227 Y-13.859
X-108.169 Y-13.765
X-108.149 Y-13.657
Y-13.418
X-108.158 Y-13.379
X-108.181 Y-13.347
X-108.215 Y-13.327
X-108.254 Y-13.321
X-108.457 Y-13.332
X-109.093 Y-13.364
X-109.129 Y-13.372
X-109.159 Y-13.394
X-109.179 Y-13.424
X-109.188 Y-13.46
Y-13.714
X-109.184 Y-13.788
X-109.121 Y-13.925
X-109.016 Y-14.032
X-108.888 Y-14.111
X-108.748 Y-14.163
X-108.6 Y-14.189
X-108.45 Y-14.191
X-108.381 Y-14.175
X-108.261 Y-14.117
X-108.178 Y-14.013
X-108.149 Y-13.883
Y-13.657
X-108.155 Y-13.625
X-108.171 Y-13.598
X-108.194 Y-13.576
X-108.224 Y-13.563
X-108.256 Y-13.561
X-108.457 Y-13.574
X-109.094 Y-13.617
X-109.13 Y-13.626
X-109.159 Y-13.648
X-109.18 Y-13.678
X-109.188 Y-13.714
Y-13.929
X-109.184 Y-14.004
X-109.129 Y-14.144
X-109.027 Y-14.254
X-108.901 Y-14.335
X-108.762 Y-14.39
X-108.615 Y-14.422
X-108.465
X-108.318 Y-14.393
X-108.313 Y-14.39
X-108.226 Y-14.324
X-108.169 Y-14.23
X-108.149 Y-14.123
Y-13.883
X-108.158 Y-13.845
X-108.181 Y-13.813
X-108.215 Y-13.792
X-108.254 Y-13.787
X-108.457 Y-13.798
X-109.093 Y-13.833
X-109.129 Y-13.841
X-109.159 Y-13.862
X-109.179 Y-13.893
X-109.188 Y-13.929
Y-14.182
X-109.184 Y-14.257
X-109.12 Y-14.393
X-109.014 Y-14.499
X-108.886 Y-14.577
X-108.745 Y-14.629
X-108.597 Y-14.654
X-108.447 Y-14.656
X-108.38 Y-14.641
X-108.261 Y-14.582
X-108.178 Y-14.478
X-108.149 Y-14.349
Y-14.123
X-108.155 Y-14.091
X-108.171 Y-14.063
X-108.195 Y-14.042
X-108.224 Y-14.029
X-108.256 Y-14.026
X-108.457 Y-14.041
X-109.095 Y-14.086
X-109.13 Y-14.095
X-109.16 Y-14.116
X-109.18 Y-14.147
X-109.188 Y-14.182
Y-14.389
X-109.184 Y-14.464
X-109.132 Y-14.605
X-109.031 Y-14.716
X-108.905 Y-14.798
X-108.766 Y-14.854
X-108.62 Y-14.887
X-108.47 Y-14.888
X-108.323 Y-14.86
X-108.315 Y-14.856
X-108.227 Y-14.79
X-108.169 Y-14.696
X-108.149 Y-14.587
Y-14.349
X-108.158 Y-14.31
X-108.181 Y-14.278
X-108.215 Y-14.258
X-108.254 Y-14.252
X-108.456 Y-14.262
X-109.092 Y-14.293
X-109.128 Y-14.302
X-109.159 Y-14.323
X-109.179 Y-14.353
X-109.188 Y-14.389
Y-14.643
X-109.184 Y-14.718
X-109.122 Y-14.854
X-109.017 Y-14.961
X-108.89 Y-15.041
X-108.749 Y-15.093
X-108.601 Y-15.12
X-108.451 Y-15.122
X-108.382 Y-15.106
X-108.261 Y-15.048
X-108.178 Y-14.944
X-108.149 Y-14.814
Y-14.587
X-108.158 Y-14.549
X-108.182 Y-14.517
X-108.216 Y-14.496
X-108.255 Y-14.491
X-108.457 Y-14.504
X-109.094 Y-14.546
X-109.13 Y-14.555
X-109.159 Y-14.577
X-109.18 Y-14.607
X-109.188 Y-14.643
Y-14.858
X-109.184 Y-14.933
X-109.13 Y-15.073
X-109.028 Y-15.183
X-108.903 Y-15.265
X-108.763 Y-15.321
X-108.617 Y-15.352
X-108.467 Y-15.353
X-108.32 Y-15.324
X-108.314 Y-15.321
X-108.227 Y-15.255
X-108.169 Y-15.161
X-108.149 Y-15.053
Y-14.814
X-108.158 Y-14.775
X-108.181 Y-14.744
X-108.215 Y-14.723
X-108.254 Y-14.717
X-108.457 Y-14.728
X-109.093 Y-14.762
X-109.129 Y-14.77
X-109.159 Y-14.792
X-109.179 Y-14.822
X-109.188 Y-14.858
Y-15.111
X-109.184 Y-15.186
X-109.12 Y-15.322
X-109.015 Y-15.429
X-108.887 Y-15.508
X-108.746 Y-15.559
X-108.598 Y-15.585
X-108.449 Y-15.587
X-108.38 Y-15.571
X-108.261 Y-15.513
X-108.178 Y-15.409
X-108.149 Y-15.279
Y-15.053
X-108.155 Y-15.022
X-108.171 Y-14.994
X-108.195 Y-14.973
X-108.224 Y-14.96
X-108.256 Y-14.957
X-108.457 Y-14.971
X-109.095 Y-15.015
X-109.13 Y-15.024
X-109.159 Y-15.046
X-109.18 Y-15.076
X-109.188 Y-15.111
Y-15.318
X-109.184 Y-15.393
X-109.133 Y-15.534
X-109.032 Y-15.646
X-108.907 Y-15.728
X-108.768 Y-15.784
X-108.621 Y-15.817
X-108.471 Y-15.819
X-108.324 Y-15.791
X-108.316 Y-15.787
X-108.228 Y-15.721
X-108.169 Y-15.627
X-108.149 Y-15.518
Y-15.279
X-108.158 Y-15.241
X-108.181 Y-15.209
X-108.215 Y-15.189
X-108.253 Y-15.183
X-108.456 Y-15.192
X-109.092 Y-15.222
X-109.128 Y-15.231
X-109.159 Y-15.252
X-109.179 Y-15.282
X-109.188 Y-15.318
Y-15.572
X-109.184 Y-15.647
X-109.123 Y-15.784
X-109.018 Y-15.891
X-108.891 Y-15.971
X-108.75 Y-16.023
X-108.603 Y-16.05
X-108.453 Y-16.053
X-108.382 Y-16.037
X-108.262 Y-15.979
X-108.179 Y-15.875
X-108.149 Y-15.744
Y-15.518
X-108.158 Y-15.479
X-108.182 Y-15.447
X-108.216 Y-15.427
X-108.255 Y-15.422
X-108.457 Y-15.435
X-109.094 Y-15.476
X-109.129 Y-15.485
X-109.159 Y-15.506
X-109.18 Y-15.536
X-109.188 Y-15.572
Y-15.787
X-109.184 Y-15.862
X-109.131 Y-16.002
X-109.03 Y-16.113
X-108.904 Y-16.195
X-108.765 Y-16.251
X-108.618 Y-16.283
X-108.468 Y-16.284
X-108.321 Y-16.255
X-108.315 Y-16.252
X-108.227 Y-16.185
X-108.169 Y-16.092
X-108.149 Y-15.984
Y-15.744
X-108.158 Y-15.706
X-108.181 Y-15.674
X-108.215 Y-15.654
X-108.254 Y-15.648
X-108.457 Y-15.658
X-109.093 Y-15.691
X-109.129 Y-15.699
X-109.159 Y-15.721
X-109.179 Y-15.751
X-109.188 Y-15.787
Y-16.041
X-109.184 Y-16.116
X-109.121 Y-16.252
X-109.016 Y-16.359
X-108.888 Y-16.438
X-108.748 Y-16.489
X-108.6 Y-16.516
X-108.45 Y-16.518
X-108.381 Y-16.502
X-108.261 Y-16.444
X-108.178 Y-16.34
X-108.149 Y-16.21
Y-15.984
X-108.155 Y-15.952
X-108.171 Y-15.924
X-108.194 Y-15.903
X-108.224 Y-15.89
X-108.256 Y-15.887
X-108.457 Y-15.901
X-109.094 Y-15.944
X-109.13 Y-15.953
X-109.159 Y-15.975
X-109.18 Y-16.005
X-109.188 Y-16.041
Y-16.248
X-109.18 Y-16.397
X-109.099 Y-16.523
X-108.984 Y-16.62
X-108.851 Y-16.69
X-108.708 Y-16.735
X-108.559 Y-16.754
X-108.41 Y-16.741
X-108.364 Y-16.728
X-108.252 Y-16.667
X-108.176 Y-16.565
X-108.149 Y-16.44
Y-16.21
X-108.158 Y-16.172
X-108.181 Y-16.14
X-108.214 Y-16.119
X-108.253 Y-16.113
X-108.456 Y-16.123
X-109.092 Y-16.151
X-109.128 Y-16.16
X-109.159 Y-16.181
X-109.179 Y-16.211
X-109.188 Y-16.248
Y-16.501
X-109.184 Y-16.576
X-109.126 Y-16.714
X-109.022 Y-16.822
X-108.895 Y-16.902
X-108.755 Y-16.956
X-108.607 Y-16.983
X-108.457 Y-16.982
X-108.309 Y-16.948
X-108.224 Y-16.881
X-108.168 Y-16.789
X-108.149 Y-16.683
Y-16.44
X-108.155 Y-16.409
X-108.171 Y-16.381
X-108.195 Y-16.359
X-108.224 Y-16.347
X-108.256 Y-16.344
X-108.457 Y-16.358
X-109.095 Y-16.405
X-109.13 Y-16.414
X-109.16 Y-16.435
X-109.18 Y-16.465
X-109.188 Y-16.501
Y-16.716
X-109.184 Y-16.791
X-109.133 Y-16.932
X-109.033 Y-17.044
X-108.907 Y-17.127
X-108.768 Y-17.182
X-108.621 Y-17.213
X-108.471 Y-17.218
X-108.324 Y-17.19
X-108.232 Y-17.124
X-108.17 Y-17.029
X-108.149 Y-16.917
Y-16.683
X-108.158 Y-16.644
X-108.181 Y-16.613
X-108.214 Y-16.592
X-108.253 Y-16.586
X-108.456 Y-16.594
X-109.092 Y-16.62
X-109.128 Y-16.628
X-109.158 Y-16.649
X-109.179 Y-16.68
X-109.188 Y-16.716
Y-16.97
Y-17.008
Y-17.054
X-109.186 Y-17.08
X-109.175 Y-17.1
X-109.108 Y-17.179
X-109.018 Y-17.23
X-108.916 Y-17.247
G3 X-108.756 Y-16.928 I-0.007 J0.204
X-109.188 Y-17.054 I-0.195 J-0.135
G1 X-109.187 Y-17.137
X-109.184 Y-17.152
X-109.181 Y-17.164
X-109.175 Y-17.177
X-109.149 Y-17.211
X-109.137 Y-17.223
X-109.119 Y-17.236
X-109.1 Y-17.243
X-109.089 Y-17.246
X-109.079 Y-17.247
X-108.292
X-108.254
X-108.243 Y-17.246
X-108.225 Y-17.24
X-108.211 Y-17.234
X-108.198 Y-17.226
X-108.182 Y-17.201
X-108.178 Y-17.173
X-108.184 Y-17.145
X-108.202 Y-17.12
X-108.23 Y-17.106
X-108.261 Y-17.104
X-108.289 Y-17.116
X-108.311 Y-17.138
X-108.32 Y-17.168
X-108.317 Y-17.199
X-108.3 Y-17.225
X-108.274 Y-17.242
X-108.243 Y-17.246
X-108.233 Y-17.244
X-108.222 Y-17.24
X-108.212 Y-17.235
X-108.198 Y-17.226
X-108.184 Y-17.212
X-108.176 Y-17.201
X-108.162 Y-17.177
X-108.156 Y-17.166
X-108.153 Y-17.156
X-108.15 Y-17.145
X-108.149 Y-17.134
Y-16.917
X-108.154 Y-16.889
X-108.167 Y-16.864
X-108.196 Y-16.847 Z-0.983
X-108.221 Y-16.832 Z-0.966
X-108.239 Y-16.821 Z-0.939
X-108.249 Z-0.916
X-108.252 Z-0.89
G0 Z2
X-90.658 Y-14.587
Z0.5
G3 X-90.173 Y-14.711 Z0.29 I0.242 J-0.062 F333.3
X-90.658 Y-14.587 Z0.079 I-0.242 J0.062
X-90.173 Y-14.711 Z-0.131 I0.242 J-0.062
X-90.658 Y-14.587 Z-0.342 I-0.242 J0.062
X-90.173 Y-14.711 Z-0.552 I0.242 J-0.062
X-90.658 Y-14.587 Z-0.763 I-0.242 J0.062
X-90.447 Y-14.897 Z-0.876 I0.242 J-0.062
X-90.166 Y-14.649 Z-0.99 I0.031 J0.248
X-90.666 I-0.25
X-90.166 I0.25
G1 X-90.128 Y-14.504 F1000
X-90.141 Y-14.43
X-90.178 Y-14.364
X-90.285 Y-14.259
X-90.43 Y-14.219
X-90.578 Y-14.241
X-90.709 Y-14.315
X-90.806 Y-14.429
X-90.858 Y-14.57
X-90.86 Y-14.72
X-90.812 Y-14.862
X-90.72 Y-14.981
X-90.594 Y-15.063
X-90.449 Y-15.098
X-90.299 Y-15.085
X-90.163 Y-15.022
X-90.054 Y-14.919
X-89.976 Y-14.791
X-89.926 Y-14.649
X-89.915 Y-14.5
X-89.95 Y-14.354
X-90.021 Y-14.222
X-90.13 Y-14.118
X-90.26 Y-14.045
X-90.407 Y-14.011
X-90.557 Y-14.019
X-90.701 Y-14.059
X-90.83 Y-14.135
X-90.891 Y-14.196
X-90.945 Y-14.269
X-90.975 Y-14.355
X-90.978 Y-14.446
X-90.954 Y-14.643
X-90.95 Y-14.727
X-90.952 Y-14.812
X-90.953 Y-14.887
X-90.912 Y-15.031
X-90.823 Y-15.151
X-90.701 Y-15.24
X-90.561 Y-15.294
X-90.413 Y-15.315
X-90.264 Y-15.3
X-90.123 Y-15.25
X-90.061 Y-15.212
X-89.996 Y-15.157
X-89.948 Y-15.086
X-89.923 Y-15.005
X-89.895 Y-14.84
X-89.877 Y-14.685
X-89.876 Y-14.664
Y-14.643
X-89.884 Y-14.558
X-89.895 Y-14.466
X-89.932 Y-14.22
X-89.964 Y-14.074
X-90.05 Y-13.951
X-90.172 Y-13.864
X-90.313 Y-13.812
X-90.462 Y-13.791
X-90.611 Y-13.799
X-90.757 Y-13.836
X-90.892 Y-13.901
X-90.901 Y-13.908
X-90.978 Y-13.993
X-91.017 Y-14.101
X-91.012 Y-14.215
X-90.995 Y-14.305
X-90.978 Y-14.446
X-90.967 Y-14.477
X-90.948 Y-14.503
X-90.921 Y-14.521
X-90.889 Y-14.53
X-90.856 Y-14.527
X-90.632 Y-14.475
X-90.009 Y-14.329
X-89.975 Y-14.315
X-89.95 Y-14.289
X-89.934 Y-14.256
X-89.932 Y-14.22
X-89.974 Y-13.967
X-89.98 Y-13.935
X-90.023 Y-13.791
X-90.128 Y-13.684
X-90.26 Y-13.614
X-90.405 Y-13.574
X-90.554 Y-13.564
X-90.704 Y-13.579
X-90.848 Y-13.618
X-90.916 Y-13.654
X-91.017 Y-13.742
X-91.071 Y-13.865
X-91.065 Y-13.998
X-91.051 Y-14.051
X-91.012 Y-14.215
X-90.995 Y-14.251
X-90.965 Y-14.276
X-90.928 Y-14.288
X-90.888 Y-14.285
X-90.667 Y-14.222
X-90.051 Y-14.047
X-90.019 Y-14.031
X-89.994 Y-14.005
X-89.981 Y-13.971
X-89.98 Y-13.935
X-90.019 Y-13.777
X-90.029 Y-13.756
X-90.113 Y-13.604
X-90.193 Y-13.476
X-90.321 Y-13.398
X-90.465 Y-13.356
X-90.614 Y-13.342
X-90.764 Y-13.354
X-90.908 Y-13.396
X-90.985 Y-13.436
X-91.092 Y-13.528
X-91.145 Y-13.66
X-91.131 Y-13.801
X-91.074 Y-13.967
X-91.065 Y-13.998
X-91.05 Y-14.028
X-91.026 Y-14.051
X-90.996 Y-14.065
X-90.963 Y-14.069
X-90.931 Y-14.061
X-90.737 Y-13.98
X-90.164 Y-13.741
X-90.136 Y-13.724
X-90.115 Y-13.698
X-90.104 Y-13.668
X-90.103 Y-13.635
X-90.113 Y-13.604
X-90.149 Y-13.539
X-90.197 Y-13.46
X-90.25 Y-13.376
X-90.269 Y-13.35
X-90.364 Y-13.234
X-90.497 Y-13.165
X-90.644 Y-13.134
X-90.794
X-90.94 Y-13.166
X-91.077 Y-13.227
X-91.123 Y-13.263
X-91.208 Y-13.37
X-91.237 Y-13.504
X-91.203 Y-13.636
X-91.163 Y-13.714
X-91.131 Y-13.801
X-91.114 Y-13.83
X-91.088 Y-13.851
X-91.057 Y-13.863
X-91.024 Y-13.864
X-90.992 Y-13.853
X-90.852 Y-13.78
X-90.305 Y-13.495
X-90.278 Y-13.475
X-90.26 Y-13.447
X-90.252 Y-13.414
X-90.255 Y-13.381
X-90.269 Y-13.35
X-90.318 Y-13.283
X-90.469 Y-13.094
X-90.488 Y-13.07
X-90.539 Y-13.018
X-90.674 Y-12.953
X-90.823 Y-12.933
X-90.972 Y-12.947
X-91.115 Y-12.995
X-91.241 Y-13.075
X-91.278 Y-13.115
X-91.347 Y-13.239
X-91.352 Y-13.381
X-91.29 Y-13.509
X-91.249 Y-13.559
X-91.207 Y-13.629
X-91.203 Y-13.636
X-91.179 Y-13.664
X-91.147 Y-13.682
X-91.111 Y-13.687
X-91.075 Y-13.679
X-91.045 Y-13.658
X-90.989 Y-13.601
X-90.542 Y-13.152
X-90.521 Y-13.121
X-90.513 Y-13.084
X-90.519 Y-13.047
X-90.539 Y-13.014
X-90.572 Y-12.98
X-90.707 Y-12.869
X-90.741 Y-12.84
X-90.765 Y-12.823
X-90.799 Y-12.801
X-90.807 Y-12.796
X-90.844 Y-12.786
X-90.881 Y-12.79
X-90.915 Y-12.808
X-90.939 Y-12.837
X-90.951 Y-12.873
X-90.949 Y-12.91
X-90.933 Y-12.944
X-90.905 Y-12.97
X-90.88 Y-12.986
X-90.845 Y-12.999
X-90.808
X-90.773 Y-12.985
X-90.746 Y-12.959
X-90.73 Y-12.925
X-90.728 Y-12.887
X-90.74 Y-12.852
X-90.765 Y-12.823
X-90.784 Y-12.809
X-90.826 Y-12.786
X-90.829 Y-12.784
X-90.97 Y-12.735
X-91.118 Y-12.762
X-91.257 Y-12.817
X-91.378 Y-12.906
X-91.478 Y-13.018
X-91.48 Y-13.022
X-91.507 Y-13.136
X-91.489 Y-13.251
X-91.428 Y-13.351
X-91.33 Y-13.46
X-91.29 Y-13.509
X-91.26 Y-13.532
X-91.224 Y-13.543
X-91.187 Y-13.539
X-91.153 Y-13.522
X-91.129 Y-13.494
X-91.106 Y-13.455
X-90.794 Y-12.922
X-90.783 Y-12.891
X-90.782 Y-12.857
X-90.792 Y-12.825
X-90.812 Y-12.799
X-90.84 Y-12.78
X-90.911 Y-12.751
X-91.08 Y-12.689
X-91.223 Y-12.643
X-91.37 Y-12.671
X-91.503 Y-12.74
X-91.554 Y-12.79
X-91.619 Y-12.886
X-91.643 Y-13
X-91.622 Y-13.114
X-91.559 Y-13.212
X-91.483 Y-13.291
X-91.428 Y-13.351
X-91.396 Y-13.372
X-91.359 Y-13.38
X-91.321 Y-13.374
X-91.289 Y-13.354
X-91.266 Y-13.324
X-91.029 Y-12.824
X-91.02 Y-12.793
X-91.021 Y-12.761
X-91.032 Y-12.731
X-91.053 Y-12.706
X-91.08 Y-12.689
X-91.164 Y-12.657
X-91.249 Y-12.613
X-91.272 Y-12.594
X-91.303 Y-12.573
X-91.45 Y-12.543
X-91.594 Y-12.585
X-91.67 Y-12.641
X-91.759 Y-12.747
X-91.792 Y-12.881
X-91.761 Y-13.016
X-91.672 Y-13.122
X-91.588 Y-13.186
X-91.564 Y-13.207
X-91.559 Y-13.212
X-91.531 Y-13.231
X-91.499 Y-13.239
X-91.465 Y-13.237
X-91.435 Y-13.224
X-91.41 Y-13.201
X-91.394 Y-13.171
X-91.242 Y-12.702
X-91.237 Y-12.663
X-91.248 Y-12.625
X-91.272 Y-12.594
X-91.291 Y-12.579
X-91.334 Y-12.539
X-91.341 Y-12.531
X-91.361 Y-12.506
X-91.386 Y-12.477
X-91.453 Y-12.445
X-91.601 Y-12.419
X-91.743 Y-12.466
X-91.864 Y-12.556
X-91.949 Y-12.68
X-91.951 Y-12.687
X-91.958 Y-12.811
X-91.914 Y-12.926
X-91.828 Y-13.015
X-91.757 Y-13.062
X-91.672 Y-13.122
X-91.64 Y-13.136
X-91.604 Y-13.138
X-91.57 Y-13.127
X-91.542 Y-13.104
X-91.523 Y-13.074
X-91.348 Y-12.599
X-91.342 Y-12.567
X-91.346 Y-12.535
X-91.361 Y-12.506
X-91.407 Y-12.447
X-91.418 Y-12.428
X-91.436 Y-12.392
X-91.454 Y-12.359
X-91.515 Y-12.316
X-91.658 Y-12.272
X-91.807 Y-12.293
X-91.941 Y-12.359
X-92.054 Y-12.458
X-92.084 Y-12.509
X-92.12 Y-12.616
X-92.115 Y-12.728
X-92.068 Y-12.831
X-91.987 Y-12.909
X-91.841 Y-13.006
X-91.828 Y-13.015
X-91.797 Y-13.027
X-91.764 Y-13.029
X-91.732 Y-13.02
X-91.705 Y-13.001
X-91.686 Y-12.974
X-91.438 Y-12.476
X-91.429 Y-12.449
X-91.428 Y-12.42
X-91.436 Y-12.392
X-91.45 Y-12.362
X-91.464 Y-12.316
X-91.49 Y-12.245
X-91.541 Y-12.19
X-91.672 Y-12.117
X-91.822 Y-12.108
X-91.967 Y-12.143
X-92.101 Y-12.211
X-92.209 Y-12.315
X-92.256 Y-12.391
X-92.299 Y-12.511
X-92.289 Y-12.638
X-92.228 Y-12.749
X-92.127 Y-12.827
X-92.116 Y-12.832
X-92.011 Y-12.894
X-91.987 Y-12.909
X-91.953 Y-12.922
X-91.917
X-91.884 Y-12.909
X-91.857 Y-12.885
X-91.482 Y-12.403
X-91.467 Y-12.376
X-91.461 Y-12.346
X-91.464 Y-12.316
X-91.476 Y-12.278
X-91.484 Y-12.235
X-91.489 Y-12.193
X-91.497 Y-12.119
X-91.538 Y-12.056
X-91.654 Y-11.961
X-91.799 Y-11.921
X-91.949 Y-11.925
X-92.094 Y-11.962
X-92.227 Y-12.031
X-92.342 Y-12.128
X-92.433 Y-12.247
X-92.491 Y-12.386
X-92.499 Y-12.442
X-92.486 Y-12.587
X-92.407 Y-12.709
X-92.279 Y-12.779
X-92.257 Y-12.784
X-92.127 Y-12.827
X-92.091 Y-12.83
X-92.056 Y-12.821
X-92.026 Y-12.799
X-92.006 Y-12.777
X-91.516 Y-12.256
X-91.497 Y-12.227
X-91.489 Y-12.193
X-91.487 Y-12.109
X-91.48 Y-12.062
X-91.476 Y-12.025
X-91.495 Y-11.952
X-91.579 Y-11.828
X-91.708 Y-11.752
X-91.75 Y-11.742
X-91.836 Y-11.733
X-91.922 Y-11.75
X-91.998 Y-11.791
X-92.095 Y-11.861
X-92.18 Y-11.919
X-92.221 Y-11.94
X-92.264 Y-11.957
X-92.311 Y-11.97
X-92.453 Y-12.019
X-92.569 Y-12.113
X-92.655 Y-12.236
X-92.701 Y-12.379
X-92.703 Y-12.419
X-92.68 Y-12.553
X-92.6 Y-12.662
X-92.48 Y-12.726
X-92.443 Y-12.727
X-92.408 Y-12.715
X-92.38 Y-12.69
X-92.362 Y-12.657
X-92.359 Y-12.646
X-92.191 Y-12.097
X-92.187 Y-12.062
X-92.195 Y-12.028
X-92.214 Y-11.999
X-92.242 Y-11.978
X-92.276 Y-11.968
X-92.311 Y-11.97
X-92.518 Y-12.03
X-92.603 Y-12.05
X-92.675 Y-12.071
X-92.796 Y-12.16
X-92.873 Y-12.288
X-92.882 Y-12.336
Y-12.453
X-92.838 Y-12.561
X-92.755 Y-12.644
X-92.648 Y-12.689
X-92.615
X-92.585 Y-12.679
X-92.559 Y-12.659
X-92.541 Y-12.632
X-92.532 Y-12.601
X-92.484 Y-12.159
X-92.487 Y-12.122
X-92.503 Y-12.088
X-92.531 Y-12.063
X-92.565 Y-12.05
X-92.603
X-92.772 Y-12.09
X-92.818 Y-12.099
X-92.891 Y-12.118
X-93.008 Y-12.212
X-93.067 Y-12.35
Y-12.355
X-93.037 Y-12.492
X-92.947 Y-12.6
X-92.819 Y-12.655
X-92.785 Y-12.654
X-92.753 Y-12.642
X-92.728 Y-12.62
X-92.711 Y-12.59
X-92.705 Y-12.557
X-92.702 Y-12.199
X-92.708 Y-12.165
X-92.725 Y-12.134
X-92.751 Y-12.112
X-92.784 Y-12.1
X-92.818 Y-12.099
X-92.865 Y-12.109
X-92.988 Y-12.131
X-93.061 Y-12.148
X-93.123 Y-12.19
X-93.169 Y-12.249
X-93.188 Y-12.373
X-93.152 Y-12.494
X-93.067 Y-12.587
X-92.95 Y-12.634
X-92.914 Y-12.632
X-92.882 Y-12.617
X-92.856 Y-12.592
X-92.841 Y-12.559
X-92.839 Y-12.523
X-92.874 Y-12.219
X-92.886 Y-12.181
X-92.912 Y-12.151
X-92.948 Y-12.133
X-92.988 Y-12.131
X-93.026 Y-12.138
X-93.11 Y-12.151
X-93.157 Y-12.155
X-93.195 Y-12.158
X-93.215 Y-12.16
X-93.235 Y-12.164
X-93.259 Y-12.18
X-93.274 Y-12.204
X-93.277 Y-12.233
X-93.267 Y-12.26
X-93.246 Y-12.28
X-93.218 Y-12.289
X-93.19 Y-12.284
X-93.166 Y-12.268
X-93.165 Y-12.267
X-93.15 Y-12.241
X-93.149 Y-12.211
X-93.162 Y-12.183
X-93.186 Y-12.165
X-93.215 Y-12.16
X-93.226 Y-12.162
X-93.236 Y-12.165
X-93.246 Y-12.169
X-93.257 Y-12.175
X-93.28 Y-12.197
X-93.287 Y-12.204
X-93.306 Y-12.236
X-93.313 Y-12.272
X-93.305 Y-12.309
X-93.285 Y-12.34
X-93.254 Y-12.361
X-93.218 Y-12.37
X-93.181 Y-12.365
X-93.149 Y-12.347
X-93.125 Y-12.319
X-93.121 Y-12.312
X-93.11 Y-12.277
X-93.111 Y-12.241
X-93.126 Y-12.207
X-93.152 Y-12.181
X-93.185 Y-12.166
X-93.222 Y-12.164
X-93.257 Y-12.175
X-93.267 Y-12.183
X-93.299 Y-12.216
X-93.306 Y-12.226
X-93.311 Y-12.237
X-93.315 Y-12.247
X-93.318 Y-12.257
X-93.32 Y-12.267
Y-12.409
Y-12.447
X-93.297 Y-12.525
X-93.24 Y-12.583
X-93.162 Y-12.608
G3 X-93.01 Y-12.396 I0.005 J0.157
X-93.32 Y-12.447 I-0.15 J-0.057
G1 Y-12.499
X-93.318 Y-12.51
X-93.316 Y-12.521
X-93.312 Y-12.531
X-93.307 Y-12.541
X-93.3 Y-12.552
X-93.29 Y-12.563
X-93.28 Y-12.572
X-93.248 Y-12.593
X-93.237 Y-12.598
X-93.227 Y-12.601
X-93.216 Y-12.603
X-93.11 Y-12.611
X-93.064 Y-12.616
X-92.857 Y-12.649
X-92.772 Y-12.663
X-92.518 Y-12.716
X-92.279 Y-12.779
X-92.247 Y-12.78
X-92.216 Y-12.772
X-92.189 Y-12.754
X-92.037 Y-12.611
X-91.509 Y-12.116
X-91.49 Y-12.091
X-91.48 Y-12.062
X-91.474 Y-12.024
X-91.46 Y-11.982
X-91.444 Y-11.94
X-91.431 Y-11.905
X-91.438 Y-11.83
X-91.517 Y-11.723
X-91.634 Y-11.662
X-91.767 Y-11.657
X-91.889 Y-11.71
X-91.998 Y-11.791
X-92.021 Y-11.817
X-92.034 Y-11.848
X-92.036 Y-11.883
X-92.025 Y-11.916
X-92.004 Y-11.943
X-91.976 Y-11.962
X-91.942 Y-11.969
X-91.538 Y-11.992
X-91.501 Y-11.987
X-91.468 Y-11.969
X-91.444 Y-11.94
X-91.418 Y-11.888
X-91.399 Y-11.855
X-91.379 Y-11.823
X-91.376 Y-11.748
X-91.445 Y-11.645
X-91.554 Y-11.584
X-91.679 Y-11.58
X-91.791 Y-11.634
X-91.841 Y-11.675
X-91.889 Y-11.71
X-91.912 Y-11.736
X-91.924 Y-11.769
X-91.925 Y-11.804
X-91.914 Y-11.837
X-91.892 Y-11.864
X-91.862 Y-11.882
X-91.828 Y-11.888
X-91.478 Y-11.893
X-91.448 Y-11.889
X-91.421 Y-11.876
X-91.399 Y-11.855
X-91.368 Y-11.815
X-91.349 Y-11.792
X-91.326 Y-11.762
X-91.311 Y-11.689
X-91.374 Y-11.574
X-91.486 Y-11.508
X-91.617 Y-11.509
X-91.729 Y-11.577
X-91.748 Y-11.61
X-91.753 Y-11.649
X-91.744 Y-11.686
X-91.721 Y-11.717
X-91.687 Y-11.737
X-91.457 Y-11.819
X-91.418 Y-11.825
X-91.381 Y-11.815
X-91.349 Y-11.792
X-91.331 Y-11.771
X-91.29 Y-11.735
X-91.262 Y-11.71
X-91.24 Y-11.638
X-91.249 Y-11.564
X-91.325 Y-11.469
X-91.437 Y-11.421
X-91.558 Y-11.433
X-91.659 Y-11.501
X-91.729 Y-11.577
X-91.748 Y-11.609
X-91.754 Y-11.646
X-91.745 Y-11.682
X-91.725 Y-11.713
X-91.694 Y-11.734
X-91.657 Y-11.743
X-91.353 Y-11.754
X-91.32 Y-11.75
X-91.29 Y-11.735
X-91.249 Y-11.703
X-91.221 Y-11.686
X-91.19 Y-11.666
X-91.152 Y-11.601
X-91.151 Y-11.526
X-91.171 Y-11.454
X-91.173 Y-11.451
X-91.258 Y-11.368
X-91.372 Y-11.331
X-91.491 Y-11.351
X-91.588 Y-11.421
X-91.659 Y-11.501
X-91.677 Y-11.532
X-91.682 Y-11.568
X-91.675 Y-11.603
X-91.655 Y-11.633
X-91.627 Y-11.655
X-91.592 Y-11.665
X-91.278 Y-11.697
X-91.249 Y-11.696
X-91.221 Y-11.686
X-91.164 Y-11.654
X-91.139 Y-11.64
X-91.107 Y-11.621
X-91.063 Y-11.56
X-91.047 Y-11.487
X-91.057 Y-11.413
X-91.116 Y-11.274
X-91.213 Y-11.224
X-91.323 Y-11.216
X-91.427 Y-11.252
X-91.508 Y-11.326
X-91.526 Y-11.349
X-91.588 Y-11.421
X-91.604 Y-11.451
X-91.609 Y-11.484
X-91.603 Y-11.518
X-91.586 Y-11.547
X-91.561 Y-11.569
X-91.529 Y-11.581
X-91.203 Y-11.649
X-91.17 Y-11.65
X-91.139 Y-11.64
X-91.067 Y-11.602
X-91.028 Y-11.58
X-90.996 Y-11.559
X-90.953 Y-11.498
X-90.916 Y-11.353
X-90.954 Y-11.207
X-90.969 Y-11.191
X-91.082 Y-11.113
X-91.219 Y-11.094
X-91.349 Y-11.139
X-91.446 Y-11.236
X-91.463 Y-11.264
X-91.508 Y-11.326
X-91.523 Y-11.36
X-91.525 Y-11.397
X-91.513 Y-11.432
X-91.488 Y-11.46
X-91.456 Y-11.478
X-91.103 Y-11.586
X-91.065 Y-11.59
X-91.028 Y-11.58
X-90.92 Y-11.517
X-90.911 Y-11.512
X-90.854 Y-11.463
X-90.815 Y-11.399
X-90.793 Y-11.327
X-90.791 Y-11.252
X-90.83 Y-11.107
X-90.926 Y-10.991
X-91.057 Y-10.919
X-91.06 Y-10.918
X-91.191 Y-10.929
X-91.305 Y-10.993
X-91.38 Y-11.101
X-91.412 Y-11.18
X-91.418 Y-11.191
X-91.446 Y-11.236
X-91.457 Y-11.269
Y-11.304
X-91.445 Y-11.336
X-91.422 Y-11.363
X-91.392 Y-11.38
X-90.995 Y-11.52
X-90.967 Y-11.526
X-90.938 Y-11.523
X-90.911 Y-11.512
X-90.826 Y-11.446
X-90.741 Y-11.365
X-90.69 Y-11.31
X-90.645 Y-11.167
X-90.673 Y-11.02
X-90.751 Y-10.891
X-90.86 Y-10.788
X-90.998 Y-10.731
X-91.014 Y-10.73
X-91.144 Y-10.748
X-91.254 Y-10.82
X-91.322 Y-10.932
X-91.38 Y-11.101
X-91.386 Y-11.132
X-91.382 Y-11.164
X-91.368 Y-11.193
X-91.346 Y-11.216
X-91.317 Y-11.231
X-90.839 Y-11.385
X-90.805 Y-11.39
X-90.771 Y-11.383
X-90.741 Y-11.365
X-90.657 Y-11.281
X-90.611 Y-11.218
X-90.584 Y-11.18
X-90.549 Y-11.113
X-90.529 Y-10.965
X-90.573 Y-10.821
X-90.656 Y-10.696
X-90.77 Y-10.599
X-90.909 Y-10.542
X-90.944 Y-10.537
X-91.086 Y-10.554
X-91.204 Y-10.635
X-91.271 Y-10.761
X-91.292 Y-10.842
X-91.322 Y-10.932
X-91.326 Y-10.972
X-91.314 Y-11.009
X-91.289 Y-11.039
X-91.254 Y-11.057
X-90.691 Y-11.215
X-90.651 Y-11.218
X-90.614 Y-11.206
X-90.584 Y-11.18
X-90.483 Y-11.011
X-90.448 Y-10.944
X-90.419 Y-10.797
X-90.459 Y-10.652
X-90.539 Y-10.526
X-90.65 Y-10.425
X-90.784 Y-10.356
X-90.882 Y-10.336
X-91.004 Y-10.335
X-91.117 Y-10.384
X-91.201 Y-10.473
X-91.242 Y-10.589
X-91.253 Y-10.673
X-91.271 Y-10.761
X-91.272 Y-10.798
X-91.259 Y-10.834
X-91.234 Y-10.862
X-91.201 Y-10.879
X-90.594 Y-11.052
X-90.563 Y-11.056
X-90.532 Y-11.05
X-90.504 Y-11.034
X-90.483 Y-11.011
X-90.433 Y-10.926
X-90.372 Y-10.816
X-90.339 Y-10.749
X-90.318 Y-10.6
X-90.361 Y-10.457
X-90.445 Y-10.332
X-90.556 Y-10.231
X-90.687 Y-10.159
X-90.831 Y-10.117
X-90.981 Y-10.116
X-90.995 Y-10.119
X-91.104 Y-10.172
X-91.183 Y-10.264
X-91.219 Y-10.379
X-91.242 Y-10.589
X-91.239 Y-10.624
X-91.224 Y-10.657
X-91.198 Y-10.682
X-91.166 Y-10.696
X-91.121 Y-10.707
X-90.482 Y-10.863
X-90.45 Y-10.865
X-90.419 Y-10.858
X-90.392 Y-10.841
X-90.372 Y-10.816
X-90.34 Y-10.757
X-90.309 Y-10.693
X-90.303 Y-10.673
X-90.284 Y-10.588
X-90.27 Y-10.504
X-90.253 Y-10.355
X-90.305 Y-10.214
X-90.398 Y-10.096
X-90.515 Y-10.003
X-90.649 Y-9.935
X-90.793 Y-9.895
X-90.943 Y-9.892
X-90.971 Y-9.898
X-91.088 Y-9.953
X-91.171 Y-10.051
X-91.205 Y-10.176
X-91.209 Y-10.25
X-91.215 Y-10.335
X-91.219 Y-10.379
X-91.215 Y-10.416
X-91.197 Y-10.449
X-91.168 Y-10.473
X-91.133 Y-10.485
X-91.011 Y-10.501
X-90.381 Y-10.583
X-90.344 Y-10.581
X-90.31 Y-10.565
X-90.284 Y-10.538
X-90.27 Y-10.504
X-90.234 Y-10.284
X-90.229 Y-10.25
X-90.214 Y-10.101
X-90.275 Y-9.964
X-90.374 Y-9.851
X-90.496 Y-9.764
X-90.632 Y-9.702
X-90.778 Y-9.667
X-90.928 Y-9.668
X-90.99 Y-9.683
X-91.117 Y-9.748
X-91.199 Y-9.864
X-91.219 Y-10.005
X-91.211 Y-10.082
X-91.204 Y-10.166
X-91.205 Y-10.176
X-91.198 Y-10.213
X-91.179 Y-10.245
X-91.148 Y-10.267
X-91.112 Y-10.277
X-90.973 Y-10.287
X-90.334 Y-10.331
X-90.298 Y-10.327
X-90.266 Y-10.311
X-90.242 Y-10.284
X-90.229 Y-10.25
X-90.216 Y-10.166
X-90.205 Y-10.039
X-90.208 Y-9.997
X-90.217 Y-9.913
X-90.241 Y-9.765
X-90.331 Y-9.645
X-90.449 Y-9.552
X-90.583 Y-9.484
X-90.728 Y-9.445
X-90.877 Y-9.436
X-91.025 Y-9.46
X-91.068 Y-9.479
X-91.172 Y-9.553
X-91.235 Y-9.664
X-91.246 Y-9.791
X-91.219 Y-10.005
X-91.207 Y-10.041
X-91.182 Y-10.07
X-91.149 Y-10.087
X-91.111 Y-10.091
X-90.935 Y-10.076
X-90.308 Y-10.02
X-90.271 Y-10.009
X-90.241 Y-9.985
X-90.222 Y-9.951
X-90.217 Y-9.913
X-90.236 Y-9.744
X-90.256 Y-9.613
X-90.272 Y-9.539
X-90.351 Y-9.412
X-90.467 Y-9.317
X-90.603 Y-9.253
X-90.748 Y-9.217
X-90.898 Y-9.208
X-91.046 Y-9.233
X-91.108 Y-9.259
X-91.222 Y-9.341
X-91.286 Y-9.466
X-91.287 Y-9.606
X-91.254 Y-9.744
X-91.249 Y-9.768
X-91.246 Y-9.791
X-91.232 Y-9.829
X-91.205 Y-9.857
X-91.168 Y-9.873
X-91.129 Y-9.874
X-90.96 Y-9.842
X-90.337 Y-9.724
X-90.302 Y-9.71
X-90.275 Y-9.684
X-90.259 Y-9.65
X-90.256 Y-9.613
X-90.276 Y-9.49
X-90.294 Y-9.406
X-90.307 Y-9.359
X-90.354 Y-9.217
X-90.461 Y-9.112
X-90.592 Y-9.039
X-90.736 Y-8.995
X-90.885 Y-8.98
X-91.034 Y-8.995
X-91.176 Y-9.042
X-91.223 Y-9.071
X-91.322 Y-9.175
X-91.361 Y-9.313
X-91.332 Y-9.454
X-91.309 Y-9.483
X-91.277 Y-9.502
X-91.24 Y-9.507
X-91.008 Y-9.501
X-90.401 Y-9.483
X-90.366 Y-9.476
X-90.336 Y-9.457
X-90.315 Y-9.429
X-90.305 Y-9.395
X-90.307 Y-9.359
X-90.376 Y-9.11
X-90.383 Y-9.089
X-90.388 Y-9.079
X-90.427 Y-9.015
X-90.513 Y-8.892
X-90.642 Y-8.815
X-90.786 Y-8.772
X-90.935 Y-8.758
X-91.084 Y-8.771
X-91.227 Y-8.818
X-91.356 Y-8.894
X-91.376 Y-8.915
X-91.439 Y-9.016
X-91.458 Y-9.134
X-91.429 Y-9.25
X-91.332 Y-9.454
X-91.308 Y-9.483
X-91.275 Y-9.502
X-91.238 Y-9.507
X-91.201 Y-9.498
X-91.032 Y-9.419
X-90.471 Y-9.156
X-90.444 Y-9.137
X-90.425 Y-9.11
X-90.415 Y-9.079
X-90.416 Y-9.046
X-90.427 Y-9.015
X-90.5 Y-8.899
X-90.556 Y-8.815
X-90.599 Y-8.759
X-90.695 Y-8.644
X-90.83 Y-8.578
X-90.977 Y-8.551
X-91.127 Y-8.556
X-91.273 Y-8.591
X-91.408 Y-8.656
X-91.523 Y-8.752
X-91.57 Y-8.863
Y-8.981
X-91.525 Y-9.09
X-91.483 Y-9.152
X-91.436 Y-9.237
X-91.429 Y-9.25
X-91.41 Y-9.276
X-91.383 Y-9.295
X-91.352 Y-9.304
X-91.32 Y-9.302
X-91.29 Y-9.29
X-91.164 Y-9.217
X-90.63 Y-8.902
X-90.604 Y-8.881
X-90.587 Y-8.853
X-90.581 Y-8.821
X-90.584 Y-8.788
X-90.599 Y-8.759
X-90.741 Y-8.57
X-90.791 Y-8.515
X-90.897 Y-8.408
X-91.04 Y-8.362
X-91.19 Y-8.354
X-91.337 Y-8.379
X-91.477 Y-8.435
X-91.601 Y-8.518
X-91.625 Y-8.546
X-91.688 Y-8.662
X-91.695 Y-8.793
X-91.645 Y-8.915
X-91.588 Y-8.997
X-91.525 Y-9.09
X-91.502 Y-9.113
X-91.473 Y-9.127
X-91.442 Y-9.131
X-91.41 Y-9.125
X-91.382 Y-9.11
X-91.298 Y-9.044
X-90.806 Y-8.657
X-90.781 Y-8.627
X-90.769 Y-8.589
X-90.773 Y-8.55
X-90.791 Y-8.515
X-90.931 Y-8.36
X-90.953 Y-8.338
X-91.044 Y-8.28
X-91.175 Y-8.207
X-91.324 Y-8.186
X-91.472 Y-8.208
X-91.612 Y-8.261
X-91.733 Y-8.35
X-91.767 Y-8.391
X-91.823 Y-8.494
X-91.835 Y-8.611
X-91.801 Y-8.723
X-91.727 Y-8.814
X-91.7 Y-8.829
X-91.67 Y-8.835
X-91.639 Y-8.831
X-91.611 Y-8.818
X-91.538 Y-8.77
X-91.045 Y-8.447
X-91.018 Y-8.419
X-91.002 Y-8.383
Y-8.344
X-91.017 Y-8.308
X-91.044 Y-8.28
X-91.305 Y-8.117
X-91.334 Y-8.099
X-91.471 Y-8.039
X-91.62 Y-8.054
X-91.76 Y-8.108
X-91.88 Y-8.199
X-91.972 Y-8.317
X-91.979 Y-8.334
X-92.002 Y-8.46
X-91.97 Y-8.585
X-91.888 Y-8.684
X-91.757 Y-8.79
X-91.727 Y-8.814
X-91.695 Y-8.831
X-91.659 Y-8.834
X-91.624 Y-8.825
X-91.594 Y-8.804
X-91.574 Y-8.774
X-91.334 Y-8.203
X-91.326 Y-8.168
X-91.331 Y-8.132
X-91.35 Y-8.1
X-91.378 Y-8.077
X-91.549 Y-7.991
X-91.618 Y-7.961
X-91.766 Y-7.939
X-91.91 Y-7.981
X-92.036 Y-8.063
X-92.13 Y-8.18
X-92.142 Y-8.206
X-92.167 Y-8.35
X-92.122 Y-8.488
X-92.016 Y-8.588
X-91.985 Y-8.599
X-91.952 Y-8.598
X-91.921 Y-8.587
X-91.895 Y-8.566
X-91.522 Y-8.145
X-91.504 Y-8.115
X-91.497 Y-8.08
X-91.503 Y-8.044
X-91.522 Y-8.014
X-91.549 Y-7.991
X-91.592 Y-7.97
X-91.672 Y-7.933
X-91.778 Y-7.885
X-91.848 Y-7.858
X-91.998 Y-7.851
X-92.137 Y-7.907
X-92.252 Y-8.004
X-92.331 Y-8.131
X-92.337 Y-8.155
X-92.34 Y-8.283
X-92.289 Y-8.401
X-92.194 Y-8.487
X-92.016 Y-8.588
X-91.983 Y-8.599
X-91.947 Y-8.597
X-91.915 Y-8.583
X-91.889 Y-8.559
X-91.874 Y-8.527
X-91.726 Y-8.002
X-91.722 Y-7.968
X-91.731 Y-7.934
X-91.75 Y-7.906
X-91.778 Y-7.885
X-91.905 Y-7.829
X-91.915 Y-7.826
X-92.049 Y-7.801
X-92.123 Y-7.791
X-92.272 Y-7.809
X-92.399 Y-7.889
X-92.45 Y-7.956
X-92.505 Y-8.074
X-92.504 Y-8.205
X-92.448 Y-8.323
X-92.346 Y-8.406
X-92.264 Y-8.447
X-92.194 Y-8.487
X-92.158 Y-8.498
X-92.12 Y-8.495
X-92.086 Y-8.478
X-92.061 Y-8.45
X-92.049 Y-8.414
X-91.972 Y-7.914
X-91.973 Y-7.876
X-91.988 Y-7.842
X-92.015 Y-7.816
X-92.049 Y-7.801
X-92.18 Y-7.777
X-92.311 Y-7.758
X-92.386 Y-7.752
X-92.528 Y-7.799
X-92.635 Y-7.904
X-92.695 Y-8.042
X-92.696 Y-8.057
X-92.673 Y-8.194
X-92.59 Y-8.305
X-92.467 Y-8.368
X-92.434 Y-8.376
X-92.38 Y-8.392
X-92.346 Y-8.406
X-92.314 Y-8.415
X-92.28 Y-8.412
X-92.249 Y-8.398
X-92.224 Y-8.374
X-92.209 Y-8.344
X-92.205 Y-8.31
X-92.228 Y-7.851
X-92.235 Y-7.819
X-92.253 Y-7.79
X-92.279 Y-7.769
X-92.311 Y-7.758
X-92.518 Y-7.73
X-92.593 Y-7.724
X-92.733 Y-7.778
X-92.835 Y-7.888
X-92.882 Y-8.03
Y-8.041
X-92.849 Y-8.172
X-92.764 Y-8.275
X-92.641 Y-8.33
X-92.604 Y-8.329
X-92.569 Y-8.315
X-92.542 Y-8.288
X-92.527 Y-8.254
X-92.437 Y-7.851
X-92.435 Y-7.818
X-92.444 Y-7.787
X-92.462 Y-7.76
X-92.488 Y-7.741
X-92.518 Y-7.73
X-92.687 Y-7.708
X-92.762 Y-7.702
X-92.835 Y-7.72
X-92.962 Y-7.799
X-93.045 Y-7.924
X-93.049 Y-7.953
X-93.046 Y-8.074
X-92.994 Y-8.183
X-92.904 Y-8.264
X-92.789 Y-8.302
X-92.772 Y-8.304
X-92.518 Y-8.356
X-92.467 Y-8.368
X-92.429
X-92.394 Y-8.355
X-92.366 Y-8.329
X-92.35 Y-8.295
X-92.348 Y-8.257
X-92.359 Y-8.221
X-92.616 Y-7.758
X-92.635 Y-7.734
X-92.659 Y-7.717
X-92.687 Y-7.708
X-92.772 Y-7.697
X-92.903 Y-7.688
X-92.978 Y-7.686
X-93.047 Y-7.715
X-93.168 Y-7.804
X-93.231 Y-7.94
X-93.232 Y-7.974
X-93.215 Y-8.087
X-93.157 Y-8.185
X-93.067 Y-8.255
X-92.957 Y-8.286
X-92.857 Y-8.294
X-92.789 Y-8.302
X-92.751 Y-8.298
X-92.716 Y-8.279
X-92.692 Y-8.248
X-92.681 Y-8.211
X-92.686 Y-8.172
X-92.818 Y-7.757
X-92.836 Y-7.723
X-92.866 Y-7.699
X-92.903 Y-7.688
X-93.026 Y-7.679
X-93.11
X-93.185 Y-7.686
X-93.251 Y-7.722
X-93.363 Y-7.821
X-93.384 Y-7.879
X-93.399 Y-8.019
X-93.347 Y-8.151
X-93.241 Y-8.245
X-93.104 Y-8.279
X-93.026 Y-8.28
X-92.957 Y-8.286
X-92.918 Y-8.28
X-92.884 Y-8.259
X-92.861 Y-8.227
X-92.852 Y-8.188
X-92.859 Y-8.149
X-93.022 Y-7.742
X-93.042 Y-7.71
X-93.073 Y-7.688
X-93.11 Y-7.679
X-93.326 Y-7.689
X-93.363 Y-7.693
X-93.43 Y-7.728
X-93.533 Y-7.836
X-93.577 Y-7.98
X-93.576 Y-8.007
X-93.546 Y-8.12
X-93.475 Y-8.213
X-93.374 Y-8.272
X-93.258 Y-8.288
X-93.104 Y-8.279
X-93.071 Y-8.273
X-93.041 Y-8.255
X-93.02 Y-8.229
X-93.008 Y-8.197
Y-8.163
X-93.019 Y-8.131
X-93.237 Y-7.74
X-93.26 Y-7.713
X-93.291 Y-7.695
X-93.326 Y-7.689
X-93.364 Y-7.691
X-93.495 Y-7.7
X-93.532 Y-7.705
X-93.664 Y-7.777
X-93.741 Y-7.906
X-93.76 Y-8.054
X-93.754 Y-8.078
X-93.687 Y-8.208
X-93.565 Y-8.29
X-93.42 Y-8.305
X-93.384 Y-8.291
X-93.357 Y-8.265
