%
(n-036-040)
(T1  D=1 CR=0 - ZMIN=-2 - flat end mill)
G90 G94
G17
G21
G28 G91 Z0
G90

(Clear 13)
M9
T1 M6
S5000 M3
G54
M8
G0 X-116.155 Y-14.513
Z12
Z2
Z0.5
G3 X-115.671 Y-14.638 Z0.29 I0.242 J-0.062 F333.3
X-116.155 Y-14.513 Z0.079 I-0.242 J0.062
X-115.671 Y-14.638 Z-0.131 I0.242 J-0.062
X-116.155 Y-14.513 Z-0.342 I-0.242 J0.062
X-115.671 Y-14.638 Z-0.552 I0.242 J-0.062
X-116.155 Y-14.513 Z-0.763 I-0.242 J0.062
X-115.944 Y-14.824 Z-0.876 I0.242 J-0.062
X-115.663 Y-14.575 Z-0.99 I0.031 J0.248
X-116.163 I-0.25
X-115.663 I0.25
G1 X-115.626 Y-14.43 F1000
X-115.639 Y-14.356
X-115.676 Y-14.291
X-115.783 Y-14.186
X-115.927 Y-14.146
X-116.076 Y-14.167
X-116.206 Y-14.241
X-116.303 Y-14.356
X-116.355 Y-14.497
X-116.357 Y-14.647
X-116.309 Y-14.789
X-116.217 Y-14.908
X-116.092 Y-14.989
X-115.946 Y-15.025
X-115.797 Y-15.011
X-115.66 Y-14.949
X-115.552 Y-14.845
X-115.474 Y-14.717
X-115.423 Y-14.576
X-115.413 Y-14.426
X-115.448 Y-14.281
X-115.519 Y-14.148
X-115.627 Y-14.045
X-115.758 Y-13.971
X-115.904 Y-13.938
X-116.054 Y-13.945
X-116.198 Y-13.986
X-116.328 Y-14.062
X-116.39 Y-14.124
X-116.444 Y-14.197
X-116.474 Y-14.283
X-116.476 Y-14.374
X-116.454 Y-14.558
X-116.445 Y-14.643
X-116.444 Y-14.727
X-116.443 Y-14.877
X-116.375 Y-15.011
X-116.27 Y-15.118
X-116.141 Y-15.195
X-115.996 Y-15.235
X-115.846 Y-15.238
X-115.699 Y-15.21
X-115.563 Y-15.147
X-115.522 Y-15.116
X-115.469 Y-15.064
X-115.431 Y-15
X-115.409 Y-14.929
X-115.39 Y-14.812
X-115.37 Y-14.643
X-115.375 Y-14.558
X-115.385 Y-14.474
X-115.42 Y-14.22
X-115.434 Y-14.136
X-115.466 Y-13.989
X-115.556 Y-13.87
X-115.68 Y-13.785
X-115.821 Y-13.735
X-115.97 Y-13.717
X-116.12 Y-13.727
X-116.265 Y-13.766
X-116.399 Y-13.833
X-116.406 Y-13.839
X-116.479 Y-13.921
X-116.517 Y-14.024
X-116.516 Y-14.133
X-116.499 Y-14.22
X-116.485 Y-14.305
X-116.476 Y-14.374
X-116.466 Y-14.405
X-116.446 Y-14.431
X-116.418 Y-14.449
X-116.387 Y-14.458
X-116.354 Y-14.455
X-116.13 Y-14.4
X-115.509 Y-14.246
X-115.476 Y-14.231
X-115.451 Y-14.205
X-115.436 Y-14.172
X-115.434 Y-14.136
X-115.462 Y-13.967
X-115.49 Y-13.836
X-115.499 Y-13.798
X-115.509 Y-13.756
X-115.522 Y-13.723
X-115.547 Y-13.692
X-115.582 Y-13.673
X-115.622 Y-13.669
X-115.66 Y-13.681
X-115.69 Y-13.707
X-115.708 Y-13.742
X-115.71 Y-13.782
X-115.698 Y-13.82
X-115.693 Y-13.827
X-115.671 Y-13.853
X-115.64 Y-13.87
X-115.606 Y-13.876
X-115.571 Y-13.869
X-115.541 Y-13.851
X-115.519 Y-13.824
X-115.508 Y-13.791
X-115.509 Y-13.756
X-115.512 Y-13.745
X-115.527 Y-13.714
X-115.566 Y-13.65
X-115.691 Y-13.567
X-115.832 Y-13.515
X-115.98 Y-13.492
X-116.13 Y-13.494
X-116.278 Y-13.522
X-116.417 Y-13.577
X-116.448 Y-13.598
X-116.538 Y-13.691
X-116.579 Y-13.814
X-116.565 Y-13.943
X-116.545 Y-14.004
X-116.532 Y-14.051
X-116.516 Y-14.133
X-116.502 Y-14.166
X-116.477 Y-14.191
X-116.445 Y-14.207
X-116.41 Y-14.21
X-116.376 Y-14.201
X-116.151 Y-14.094
X-115.586 Y-13.827
X-115.554 Y-13.803
X-115.534 Y-13.769
X-115.529 Y-13.729
X-115.54 Y-13.691
X-115.636 Y-13.519
X-115.717 Y-13.393
X-115.847 Y-13.318
X-115.992 Y-13.279
X-116.142 Y-13.269
X-116.291 Y-13.285
X-116.434 Y-13.33
X-116.564 Y-13.404
X-116.57 Y-13.409
X-116.633 Y-13.503
X-116.658 Y-13.614
X-116.639 Y-13.725
X-116.629 Y-13.752
X-116.565 Y-13.943
X-116.549 Y-13.971
X-116.524 Y-13.992
X-116.494 Y-14.005
X-116.462 Y-14.007
X-116.43 Y-13.998
X-116.25 Y-13.916
X-115.683 Y-13.656
X-115.657 Y-13.638
X-115.637 Y-13.613
X-115.626 Y-13.582
Y-13.55
X-115.636 Y-13.519
X-115.718 Y-13.376
X-115.783 Y-13.285
X-115.802 Y-13.262
X-115.901 Y-13.149
X-116.037 Y-13.086
X-116.185 Y-13.061
X-116.335 Y-13.067
X-116.481 Y-13.102
X-116.576 Y-13.149
X-116.673 Y-13.223
X-116.734 Y-13.33
X-116.748 Y-13.451
X-116.714 Y-13.569
X-116.682 Y-13.629
X-116.644 Y-13.714
X-116.639 Y-13.725
X-116.622 Y-13.754
X-116.595 Y-13.775
X-116.564 Y-13.786
X-116.53
X-116.498 Y-13.775
X-116.373 Y-13.706
X-115.834 Y-13.409
X-115.808 Y-13.387
X-115.79 Y-13.359
X-115.783 Y-13.326
X-115.787 Y-13.292
X-115.802 Y-13.262
X-115.98 Y-13.038
X-116.011 Y-13.002
X-116.037 Y-12.972
X-116.094 Y-12.924
X-116.236 Y-12.874
X-116.385 Y-12.864
X-116.533 Y-12.889
X-116.672 Y-12.946
X-116.792 Y-13.037
X-116.815 Y-13.067
X-116.873 Y-13.193
X-116.868 Y-13.331
X-116.802 Y-13.452
X-116.76 Y-13.502
X-116.729 Y-13.545
X-116.714 Y-13.569
X-116.689 Y-13.595
X-116.656 Y-13.61
X-116.62 Y-13.613
X-116.586 Y-13.603
X-116.557 Y-13.581
X-116.509 Y-13.529
X-116.086 Y-13.065
X-116.066 Y-13.032
X-116.06 Y-12.993
X-116.069 Y-12.955
X-116.093 Y-12.924
X-116.206 Y-12.829
X-116.237 Y-12.805
X-116.263 Y-12.784
X-116.291 Y-12.766
X-116.431 Y-12.712
X-116.581 Y-12.705
X-116.726 Y-12.742
X-116.859 Y-12.812
X-116.967 Y-12.916
X-116.98 Y-12.939
X-117.02 Y-13.058
X-117.008 Y-13.183
X-116.945 Y-13.292
X-116.802 Y-13.452
X-116.773 Y-13.473
X-116.739 Y-13.482
X-116.704 Y-13.479
X-116.672 Y-13.464
X-116.647 Y-13.439
X-116.626 Y-13.407
X-116.282 Y-12.898
X-116.268 Y-12.867
X-116.265 Y-12.833
X-116.274 Y-12.8
X-116.294 Y-12.772
X-116.321 Y-12.752
X-116.376 Y-12.728
X-116.46 Y-12.696
X-116.629 Y-12.634
X-116.701 Y-12.611
X-116.851 Y-12.612
X-116.99 Y-12.667
X-117.103 Y-12.766
X-117.121 Y-12.792
X-117.166 Y-12.926
X-117.141 Y-13.066
X-117.052 Y-13.176
X-117.022 Y-13.207
X-116.945 Y-13.292
X-116.913 Y-13.315
X-116.875 Y-13.323
X-116.836 Y-13.315
X-116.803 Y-13.294
X-116.781 Y-13.261
X-116.575 Y-12.765
X-116.567 Y-12.726
X-116.575 Y-12.688
X-116.597 Y-12.655
X-116.629 Y-12.634
X-116.679 Y-12.616
X-116.714 Y-12.596
X-116.756 Y-12.569
X-116.78 Y-12.55
X-116.84 Y-12.506
X-116.989 Y-12.489
X-117.131 Y-12.537
X-117.246 Y-12.634
X-117.267 Y-12.665
X-117.31 Y-12.771
X-117.311 Y-12.885
X-117.269 Y-12.992
X-117.191 Y-13.075
X-117.124 Y-13.122
X-117.052 Y-13.176
X-117.018 Y-13.191
X-116.981 Y-13.193
X-116.946 Y-13.181
X-116.918 Y-13.157
X-116.9 Y-13.125
X-116.749 Y-12.656
X-116.745 Y-12.618
X-116.756 Y-12.581
X-116.78 Y-12.55
X-116.803 Y-12.531
X-116.863 Y-12.464
X-116.916 Y-12.41
X-116.986 Y-12.383
X-117.134 Y-12.363
X-117.277 Y-12.41
X-117.393 Y-12.505
X-117.426 Y-12.555
X-117.469 Y-12.661
X-117.468 Y-12.776
X-117.425 Y-12.882
X-117.345 Y-12.965
X-117.191 Y-13.075
X-117.159 Y-13.089
X-117.124 Y-13.091
X-117.09 Y-13.08
X-117.062 Y-13.059
X-117.043 Y-13.03
X-116.848 Y-12.567
X-116.84 Y-12.531
X-116.845 Y-12.495
X-116.863 Y-12.464
X-116.883 Y-12.44
X-116.928 Y-12.362
X-116.965 Y-12.297
X-117.027 Y-12.254
X-117.17 Y-12.209
X-117.318 Y-12.228
X-117.454 Y-12.292
X-117.564 Y-12.394
X-117.64 Y-12.523
X-117.641 Y-12.529
X-117.647 Y-12.654
X-117.6 Y-12.771
X-117.51 Y-12.858
X-117.391 Y-12.934
X-117.345 Y-12.965
X-117.315 Y-12.978
X-117.283 Y-12.98
X-117.251 Y-12.973
X-117.224 Y-12.955
X-117.204 Y-12.929
X-116.935 Y-12.444
X-116.925 Y-12.417
X-116.922 Y-12.39
X-116.928 Y-12.362
X-116.961 Y-12.278
X-116.968 Y-12.255
X-116.99 Y-12.184
X-117.04 Y-12.128
X-117.171 Y-12.053
X-117.32 Y-12.039
X-117.467 Y-12.071
X-117.601 Y-12.138
X-117.715 Y-12.235
X-117.8 Y-12.359
X-117.816 Y-12.403
X-117.833 Y-12.516
X-117.807 Y-12.627
X-117.741 Y-12.72
X-117.645 Y-12.782
X-117.612 Y-12.788
X-117.579 Y-12.783
X-117.55 Y-12.767
X-117.544 Y-12.763
X-117.006 Y-12.351
X-116.982 Y-12.324
X-116.968 Y-12.291
Y-12.255
X-116.98 Y-12.193
X-116.982 Y-12.147
X-116.988 Y-12.072
X-117.024 Y-12.006
X-117.133 Y-11.903
X-117.275 Y-11.855
X-117.425 Y-11.851
X-117.572 Y-11.882
X-117.709 Y-11.943
X-117.83 Y-12.032
X-117.931 Y-12.142
X-118.004 Y-12.274
X-118.041 Y-12.419
Y-12.444
X-118.012 Y-12.57
X-117.933 Y-12.673
X-117.817 Y-12.732
X-117.729 Y-12.756
X-117.645 Y-12.782
X-117.61 Y-12.785
X-117.576 Y-12.776
X-117.547 Y-12.756
X-117.509 Y-12.718
X-117.011 Y-12.218
X-116.989 Y-12.185
X-116.982 Y-12.147
X-116.983 Y-12.109
X-116.975 Y-12.024
X-116.967 Y-11.95
X-116.99 Y-11.878
X-117.078 Y-11.756
X-117.208 Y-11.68
X-117.294 Y-11.672
X-117.38 Y-11.689
X-117.457 Y-11.73
X-117.628 Y-11.855
X-117.645 Y-11.866
X-117.687 Y-11.891
X-117.729 Y-11.909
X-117.864 Y-11.953
X-117.898 Y-11.964
X-118.041 Y-12.011
X-118.144 Y-12.119
X-118.217 Y-12.251
X-118.247 Y-12.397
X-118.246 Y-12.41
X-118.212 Y-12.528
X-118.133 Y-12.623
X-118.023 Y-12.678
X-117.984 Y-12.679
X-117.948 Y-12.666
X-117.92 Y-12.639
X-117.904 Y-12.604
X-117.778 Y-12.084
X-117.776 Y-12.051
X-117.785 Y-12.018
X-117.804 Y-11.99
X-117.832 Y-11.971
X-117.865 Y-11.961
X-117.898 Y-11.964
X-118.152 Y-12.034
X-118.225 Y-12.053
X-118.344 Y-12.144
X-118.419 Y-12.274
X-118.423 Y-12.306
X-118.418 Y-12.42
X-118.37 Y-12.524
X-118.286 Y-12.602
X-118.18 Y-12.644
X-118.147 Y-12.643
X-118.116 Y-12.632
X-118.091 Y-12.611
X-118.073 Y-12.584
X-118.065 Y-12.552
X-118.037 Y-12.139
X-118.041 Y-12.104
X-118.057 Y-12.072
X-118.083 Y-12.048
X-118.116 Y-12.034
X-118.152
X-118.368 Y-12.076
X-118.441 Y-12.094
X-118.555 Y-12.192
X-118.564 Y-12.218
X-118.581 Y-12.346
X-118.542 Y-12.47
X-118.455 Y-12.566
X-118.336 Y-12.616
X-118.3 Y-12.614
X-118.267 Y-12.6
X-118.241 Y-12.576
X-118.225 Y-12.543
X-118.222 Y-12.508
X-118.253 Y-12.166
X-118.261 Y-12.134
X-118.279 Y-12.107
X-118.304 Y-12.087
X-118.335 Y-12.076
X-118.368
X-118.406 Y-12.083
X-118.537 Y-12.102
X-118.574 Y-12.109
X-118.636 Y-12.151
X-118.683 Y-12.209
X-118.702 Y-12.337
X-118.663 Y-12.46
X-118.574 Y-12.553
X-118.452 Y-12.597
X-118.414 Y-12.593
X-118.38 Y-12.575
X-118.356 Y-12.545
X-118.344 Y-12.509
X-118.348 Y-12.47
X-118.431 Y-12.174
X-118.446 Y-12.143
X-118.471 Y-12.119
X-118.503 Y-12.105
X-118.537 Y-12.102
X-118.66 Y-12.118
X-118.702 Y-12.124
X-118.723 Y-12.127
X-118.738 Y-12.132
X-118.759 Y-12.142
X-118.774 Y-12.163
X-118.779 Y-12.187
X-118.774 Y-12.212
X-118.756 Y-12.235
X-118.729 Y-12.248
X-118.7 Y-12.246
X-118.675 Y-12.23
X-118.66 Y-12.205
X-118.658 Y-12.176
X-118.671 Y-12.149
X-118.694 Y-12.131
X-118.723 Y-12.127
X-118.734 Y-12.13
X-118.744 Y-12.134
X-118.759 Y-12.142
X-118.774 Y-12.155
X-118.792 Y-12.174
X-118.804 Y-12.193
X-118.808 Y-12.204
X-118.811 Y-12.214
X-118.813 Y-12.225
X-118.814 Y-12.235
Y-12.362
Y-12.409
Y-12.447
X-118.812 Y-12.48
X-118.795 Y-12.512
X-118.769 Y-12.538
X-118.736 Y-12.553
X-118.7 Y-12.557
X-118.66 Y-12.546
X-118.628 Y-12.522
X-118.607 Y-12.487
X-118.601 Y-12.447
X-118.61 Y-12.407
X-118.633 Y-12.373
X-118.667 Y-12.351
X-118.707 Y-12.344
X-118.747 Y-12.351
X-118.781 Y-12.374
X-118.805 Y-12.407
X-118.814 Y-12.447
Y-12.468
X-118.812 Y-12.478
X-118.809 Y-12.489
X-118.805 Y-12.499
X-118.8 Y-12.51
X-118.792 Y-12.521
X-118.783 Y-12.531
X-118.763 Y-12.548
X-118.744 Y-12.56
X-118.734 Y-12.564
X-118.723 Y-12.567
X-118.491 Y-12.593
X-118.406 Y-12.603
X-118.152 Y-12.649
X-118.068 Y-12.666
X-117.817 Y-12.732
X-117.786 Y-12.734
X-117.755 Y-12.727
X-117.729 Y-12.71
X-117.551 Y-12.553
X-117.005 Y-12.072
X-116.986 Y-12.051
X-116.975 Y-12.024
X-116.968 Y-11.995
X-116.952 Y-11.94
X-116.941 Y-11.914
X-116.913 Y-11.844
X-116.921 Y-11.77
X-116.998 Y-11.666
X-117.112 Y-11.606
X-117.241 Y-11.603
X-117.359 Y-11.657
X-117.397 Y-11.686
X-117.457 Y-11.73
X-117.481 Y-11.759
X-117.494 Y-11.795
X-117.491 Y-11.833
X-117.475 Y-11.868
X-117.447 Y-11.894
X-117.411 Y-11.907
X-117.047 Y-11.969
X-117.015
X-116.985 Y-11.959
X-116.959 Y-11.94
X-116.941 Y-11.914
X-116.914 Y-11.855
X-116.883 Y-11.809
X-116.863 Y-11.778
X-116.855 Y-11.703
X-116.921 Y-11.594
X-117.032 Y-11.531
X-117.159 Y-11.527
X-117.272 Y-11.586
X-117.306 Y-11.616
X-117.359 Y-11.657
X-117.384 Y-11.688
X-117.394 Y-11.726
X-117.389 Y-11.766
X-117.37 Y-11.8
X-117.338 Y-11.824
X-117.299 Y-11.834
X-116.967 Y-11.848
X-116.935 Y-11.845
X-116.906 Y-11.831
X-116.883 Y-11.809
X-116.856 Y-11.771
X-116.824 Y-11.739
X-116.8 Y-11.711
X-116.786 Y-11.637
X-116.804 Y-11.564
X-116.881 Y-11.479
X-116.988 Y-11.439
X-117.102 Y-11.453
X-117.197 Y-11.517
X-117.222 Y-11.541
X-117.272 Y-11.586
X-117.294 Y-11.618
X-117.303 Y-11.656
X-117.296 Y-11.694
X-117.275 Y-11.727
X-117.244 Y-11.75
X-117.206 Y-11.758
X-116.896 Y-11.766
X-116.857 Y-11.76
X-116.824 Y-11.739
X-116.799 Y-11.712
X-116.768 Y-11.686
X-116.74 Y-11.662
X-116.706 Y-11.595
X-116.709 Y-11.52
X-116.782 Y-11.417
X-116.895 Y-11.362
X-117.021 Y-11.371
X-117.127 Y-11.44
X-117.197 Y-11.517
X-117.215 Y-11.549
X-117.22 Y-11.585
X-117.212 Y-11.621
X-117.192 Y-11.651
X-117.162 Y-11.672
X-117.127 Y-11.682
X-116.829 Y-11.702
X-116.798 Y-11.699
X-116.768 Y-11.686
X-116.714 Y-11.65
X-116.688 Y-11.636
X-116.656 Y-11.616
X-116.617 Y-11.552
X-116.613 Y-11.477
X-116.631 Y-11.405
X-116.717 Y-11.314
X-116.835 Y-11.273
X-116.959 Y-11.291
X-117.061 Y-11.364
X-117.127 Y-11.44
X-117.145 Y-11.471
X-117.15 Y-11.506
X-117.144 Y-11.54
X-117.125 Y-11.571
X-117.097 Y-11.593
X-117.064 Y-11.603
X-116.747 Y-11.646
X-116.717 Y-11.645
X-116.688 Y-11.636
X-116.602 Y-11.588
X-116.57 Y-11.569
X-116.525 Y-11.508
X-116.509 Y-11.435
X-116.519 Y-11.361
X-116.575 Y-11.222
X-116.676 Y-11.168
X-116.79 Y-11.157
X-116.898 Y-11.192
X-116.985 Y-11.267
X-117.052 Y-11.354
X-117.061 Y-11.364
X-117.077 Y-11.393
X-117.083 Y-11.427
X-117.077 Y-11.46
X-117.061 Y-11.489
X-117.035 Y-11.512
X-117.004 Y-11.524
X-116.668 Y-11.597
X-116.634 Y-11.598
X-116.602 Y-11.588
X-116.505 Y-11.535
X-116.473 Y-11.516
X-116.424 Y-11.459
X-116.377 Y-11.316
X-116.405 Y-11.169
X-116.5 Y-11.052
X-116.511 Y-11.046
X-116.624 Y-11.011
X-116.742 Y-11.023
X-116.847 Y-11.079
X-116.921 Y-11.171
X-116.93 Y-11.203
X-116.928 Y-11.236
X-116.916 Y-11.266
X-116.894 Y-11.291
X-116.614 Y-11.523
X-116.58 Y-11.541
X-116.542 Y-11.546
X-116.505 Y-11.535
X-116.46 Y-11.51
X-116.376 Y-11.458
X-116.345 Y-11.433
X-116.292 Y-11.379
X-116.261 Y-11.311
X-116.237 Y-11.163
X-116.281 Y-11.02
X-116.382 Y-10.908
X-116.514 Y-10.837
X-116.525 Y-10.835
X-116.664 Y-10.843
X-116.785 Y-10.913
X-116.861 Y-11.03
X-116.885 Y-11.095
X-116.903 Y-11.137
X-116.921 Y-11.171
X-116.93 Y-11.204
X-116.928 Y-11.238
X-116.914 Y-11.269
X-116.891 Y-11.294
X-116.862 Y-11.309
X-116.436 Y-11.448
X-116.404 Y-11.453
X-116.373 Y-11.448
X-116.345 Y-11.433
X-116.291 Y-11.383
X-116.206 Y-11.302
X-116.163 Y-11.255
X-116.131 Y-11.187
X-116.101 Y-11.04
X-116.144 Y-10.896
X-116.233 Y-10.775
X-116.352 Y-10.684
X-116.494 Y-10.635
X-116.508
X-116.632 Y-10.661
X-116.735 Y-10.735
X-116.797 Y-10.845
X-116.824 Y-10.926
X-116.861 Y-11.03
X-116.866 Y-11.068
X-116.855 Y-11.105
X-116.831 Y-11.135
X-116.798 Y-11.155
X-116.305 Y-11.322
X-116.271 Y-11.328
X-116.236 Y-11.321
X-116.206 Y-11.302
X-116.167 Y-11.264
X-116.122 Y-11.212
X-116.1 Y-11.18
X-116.047 Y-11.095
X-116.012 Y-11.029
X-115.984 Y-10.881
X-116.026 Y-10.737
X-116.109 Y-10.612
X-116.223 Y-10.515
X-116.358 Y-10.451
X-116.412 Y-10.442
X-116.561 Y-10.457
X-116.684 Y-10.54
X-116.753 Y-10.673
X-116.773 Y-10.757
X-116.797 Y-10.845
X-116.8 Y-10.884
X-116.788 Y-10.92
X-116.763 Y-10.95
X-116.729 Y-10.968
X-116.157 Y-11.135
X-116.126 Y-11.139
X-116.095 Y-11.133
X-116.068 Y-11.118
X-116.047 Y-11.095
X-115.932 Y-10.901
X-115.898 Y-10.834
X-115.882 Y-10.685
X-115.929 Y-10.543
X-116.016 Y-10.42
X-116.129 Y-10.321
X-116.264 Y-10.257
X-116.411 Y-10.227
X-116.461 Y-10.232
X-116.589 Y-10.276
X-116.685 Y-10.371
X-116.729 Y-10.5
X-116.74 Y-10.588
X-116.753 Y-10.673
X-116.751 Y-10.709
X-116.736 Y-10.742
X-116.711 Y-10.767
X-116.679 Y-10.782
X-116.042 Y-10.945
X-116.01 Y-10.947
X-115.98 Y-10.941
X-115.953 Y-10.924
X-115.932 Y-10.901
X-115.868 Y-10.789
X-115.851 Y-10.757
X-115.828 Y-10.711
X-115.81 Y-10.673
X-115.8 Y-10.652
X-115.785 Y-10.578
X-115.799 Y-10.429
X-115.864 Y-10.294
X-115.964 Y-10.182
X-116.087 Y-10.096
X-116.224 Y-10.035
X-116.372 Y-10.012
X-116.431 Y-10.016
X-116.564 Y-10.058
X-116.663 Y-10.156
X-116.708 Y-10.288
X-116.729 Y-10.5
X-116.725 Y-10.537
X-116.707 Y-10.57
X-116.679 Y-10.594
X-116.643 Y-10.606
X-116.557 Y-10.618
X-115.905 Y-10.708
X-115.873 Y-10.707
X-115.843 Y-10.697
X-115.818 Y-10.678
X-115.8 Y-10.652
X-115.795 Y-10.631
X-115.783 Y-10.58
X-115.769 Y-10.504
X-115.748 Y-10.373
X-115.739 Y-10.298
X-115.768 Y-10.151
X-115.849 Y-10.025
X-115.959 Y-9.923
X-116.089 Y-9.849
X-116.232 Y-9.803
X-116.382 Y-9.791
X-116.444 Y-9.8
X-116.58 Y-9.856
X-116.673 Y-9.971
X-116.701 Y-10.116
X-116.698 Y-10.166
X-116.708 Y-10.288
X-116.703 Y-10.326
X-116.684 Y-10.359
X-116.653 Y-10.383
X-116.616 Y-10.393
X-116.492 Y-10.403
X-115.853 Y-10.453
X-115.818 Y-10.449
X-115.785 Y-10.433
X-115.761 Y-10.407
X-115.748 Y-10.373
X-115.741 Y-10.335
X-115.713 Y-10.12
X-115.707 Y-10.049
X-115.742 Y-9.903
X-115.829 Y-9.78
X-115.944 Y-9.685
X-116.078 Y-9.617
X-116.222 Y-9.575
X-116.372 Y-9.568
X-116.52 Y-9.59
X-116.55 Y-9.604
X-116.648 Y-9.678
X-116.708 Y-9.786
X-116.72 Y-9.908
X-116.71 Y-9.997
X-116.703 Y-10.082
X-116.701 Y-10.116
X-116.691 Y-10.151
X-116.669 Y-10.18
X-116.637 Y-10.199
X-116.601 Y-10.206
X-116.456 Y-10.205
X-115.811 Y-10.203
X-115.777 Y-10.197
X-115.746 Y-10.179
X-115.724 Y-10.152
X-115.713 Y-10.12
X-115.708 Y-10.082
X-115.699 Y-9.997
X-115.707 Y-9.913
X-115.722 Y-9.782
X-115.734 Y-9.708
X-115.805 Y-9.576
X-115.915 Y-9.474
X-116.046 Y-9.4
X-116.189 Y-9.355
X-116.338 Y-9.336
X-116.487 Y-9.35
X-116.55 Y-9.371
X-116.671 Y-9.45
X-116.742 Y-9.577
X-116.745 Y-9.722
X-116.74 Y-9.744
X-116.729 Y-9.828
X-116.72 Y-9.908
X-116.707 Y-9.945
X-116.681 Y-9.974
X-116.647 Y-9.991
X-116.608 Y-9.993
X-116.437 Y-9.971
X-115.809 Y-9.888
X-115.773 Y-9.877
X-115.744 Y-9.852
X-115.726 Y-9.819
X-115.722 Y-9.782
X-115.726 Y-9.744
X-115.756 Y-9.528
X-115.77 Y-9.456
X-115.842 Y-9.324
X-115.955 Y-9.226
X-116.089 Y-9.158
X-116.234 Y-9.12
X-116.384 Y-9.108
X-116.532 Y-9.132
X-116.673 Y-9.184
X-116.684 Y-9.192
X-116.76 Y-9.277
X-116.8 Y-9.384
X-116.796 Y-9.499
X-116.745 Y-9.722
X-116.728 Y-9.756
X-116.701 Y-9.781
X-116.666 Y-9.795
X-116.629 Y-9.794
X-116.461 Y-9.761
X-115.836 Y-9.637
X-115.802 Y-9.623
X-115.775 Y-9.598
X-115.759 Y-9.565
X-115.756 Y-9.528
X-115.762 Y-9.49
X-115.778 Y-9.406
X-115.825 Y-9.237
X-115.849 Y-9.166
X-115.936 Y-9.044
X-116.06 Y-8.959
X-116.2 Y-8.906
X-116.349 Y-8.884
X-116.499 Y-8.89
X-116.645 Y-8.923
X-116.778 Y-8.992
X-116.79 Y-9.004
X-116.862 Y-9.107
X-116.885 Y-9.231
X-116.856 Y-9.353
X-116.811 Y-9.446
X-116.798 Y-9.49
X-116.796 Y-9.499
X-116.779 Y-9.534
X-116.749 Y-9.56
X-116.712 Y-9.572
X-116.673 Y-9.569
X-116.505 Y-9.523
X-115.896 Y-9.357
X-115.862 Y-9.34
X-115.836 Y-9.311
X-115.823 Y-9.275
X-115.825 Y-9.237
X-115.873 Y-9.068
X-115.881 Y-9.047
X-115.893 Y-9.026
X-115.953 Y-8.931
X-116.039 Y-8.808
X-116.163 Y-8.724
X-116.306 Y-8.677
X-116.455 Y-8.662
X-116.604 Y-8.677
X-116.748 Y-8.718
X-116.877 Y-8.795
X-116.898 Y-8.815
X-116.969 Y-8.926
X-116.986 Y-9.057
X-116.944 Y-9.183
X-116.912 Y-9.237
X-116.856 Y-9.353
X-116.832 Y-9.383
X-116.8 Y-9.401
X-116.763 Y-9.407
X-116.726 Y-9.398
X-116.562 Y-9.324
X-115.998 Y-9.072
X-115.97 Y-9.054
X-115.95 Y-9.027
X-115.94 Y-8.995
X-115.941 Y-8.962
X-115.953 Y-8.931
X-116.037 Y-8.796
X-116.08 Y-8.73
X-116.147 Y-8.646
X-116.246 Y-8.533
X-116.385 Y-8.476
X-116.533 Y-8.456
X-116.683 Y-8.466
X-116.828 Y-8.506
X-116.958 Y-8.579
X-117.003 Y-8.62
X-117.082 Y-8.733
X-117.101 Y-8.87
X-117.057 Y-9
X-116.944 Y-9.183
X-116.917 Y-9.211
X-116.881 Y-9.226
X-116.841 Y-9.227
X-116.805 Y-9.212
X-116.69 Y-9.135
X-116.172 Y-8.788
X-116.148 Y-8.766
X-116.133 Y-8.738
X-116.127 Y-8.706
X-116.132 Y-8.674
X-116.147 Y-8.646
X-116.214 Y-8.561
X-116.331 Y-8.429
X-116.437 Y-8.322
X-116.578 Y-8.272
X-116.728 Y-8.264
X-116.875 Y-8.291
X-117.014 Y-8.349
X-117.134 Y-8.439
X-117.162 Y-8.473
X-117.22 Y-8.59
X-117.223 Y-8.721
X-117.169 Y-8.841
X-117.126 Y-8.899
X-117.068 Y-8.984
X-117.057 Y-9
X-117.034 Y-9.024
X-117.005 Y-9.04
X-116.973 Y-9.045
X-116.94 Y-9.039
X-116.912 Y-9.023
X-116.835 Y-8.962
X-116.346 Y-8.571
X-116.32 Y-8.541
X-116.308 Y-8.503
X-116.312 Y-8.464
X-116.331 Y-8.429
X-116.424 Y-8.326
X-116.442 Y-8.308
X-116.46 Y-8.295
X-116.629 Y-8.188
X-116.761 Y-8.116
X-116.911 Y-8.107
X-117.057 Y-8.141
X-117.191 Y-8.207
X-117.303 Y-8.307
X-117.328 Y-8.346
X-117.374 Y-8.477
X-117.356 Y-8.616
X-117.278 Y-8.731
X-117.222 Y-8.782
X-117.189 Y-8.815
X-117.169 Y-8.841
X-117.142 Y-8.864
X-117.109 Y-8.877
X-117.073
X-117.04 Y-8.864
X-117.013 Y-8.841
X-116.995 Y-8.818
X-116.607 Y-8.333
X-116.591 Y-8.305
X-116.586 Y-8.272
X-116.59 Y-8.24
X-116.606 Y-8.211
X-116.629 Y-8.188
X-116.714 Y-8.137
X-116.883 Y-8.035
X-116.95 Y-8.001
X-117.099 Y-7.981
X-117.244 Y-8.016
X-117.375 Y-8.09
X-117.479 Y-8.198
X-117.503 Y-8.243
X-117.539 Y-8.383
X-117.506 Y-8.523
X-117.411 Y-8.632
X-117.306 Y-8.708
X-117.278 Y-8.731
X-117.247 Y-8.749
X-117.211 Y-8.754
X-117.176 Y-8.747
X-117.146 Y-8.729
X-117.124 Y-8.7
X-116.849 Y-8.165
X-116.838 Y-8.13
X-116.841 Y-8.094
X-116.857 Y-8.061
X-116.883 Y-8.035
X-116.968 Y-7.987
X-117.137 Y-7.911
X-117.207 Y-7.884
X-117.357 Y-7.883
X-117.496 Y-7.94
X-117.611 Y-8.036
X-117.695 Y-8.16
X-117.701 Y-8.182
X-117.71 Y-8.308
X-117.666 Y-8.427
X-117.577 Y-8.517
X-117.513 Y-8.561
X-117.411 Y-8.632
X-117.377 Y-8.646
X-117.341 Y-8.647
X-117.306 Y-8.635
X-117.279 Y-8.611
X-117.261 Y-8.579
X-117.086 Y-8.032
X-117.081 Y-7.996
X-117.089 Y-7.962
X-117.108 Y-7.932
X-117.137 Y-7.911
X-117.349 Y-7.817
X-117.383 Y-7.801
X-117.391 Y-7.798
X-117.465 Y-7.785
X-117.612 Y-7.811
X-117.74 Y-7.889
X-117.84 Y-8.001
X-117.859 Y-8.043
X-117.884 Y-8.189
X-117.836 Y-8.329
X-117.727 Y-8.429
X-117.639 Y-8.477
X-117.577 Y-8.517
X-117.541 Y-8.53
X-117.503 Y-8.529
X-117.468 Y-8.513
X-117.441 Y-8.486
X-117.427 Y-8.45
X-117.324 Y-7.912
X-117.323 Y-7.875
X-117.337 Y-7.841
X-117.362 Y-7.813
X-117.395 Y-7.797
X-117.475 Y-7.778
X-117.56 Y-7.762
X-117.645 Y-7.749
X-117.719 Y-7.741
X-117.864 Y-7.781
X-117.979 Y-7.877
X-118.009 Y-7.928
X-118.048 Y-8.046
X-118.037 Y-8.171
X-117.977 Y-8.28
X-117.877 Y-8.356
X-117.727 Y-8.429
X-117.689 Y-8.439
X-117.65 Y-8.434
X-117.616 Y-8.414
X-117.592 Y-8.382
X-117.583 Y-8.343
X-117.564 Y-7.851
X-117.568 Y-7.816
X-117.585 Y-7.785
X-117.612 Y-7.761
X-117.645 Y-7.749
X-117.855 Y-7.717
X-117.93 Y-7.71
X-118.073 Y-7.754
X-118.178 Y-7.861
X-118.235 Y-8
Y-8.019
X-118.211 Y-8.153
X-118.129 Y-8.262
X-118.007 Y-8.324
X-117.877 Y-8.356
X-117.84 Y-8.359
X-117.805 Y-8.347
X-117.776 Y-8.324
X-117.758 Y-8.292
X-117.753 Y-8.255
X-117.773 Y-7.811
X-117.78 Y-7.778
X-117.797 Y-7.749
X-117.823 Y-7.728
X-117.855 Y-7.717
X-118.068 Y-7.688
X-118.142 Y-7.682
X-118.281 Y-7.74
X-118.379 Y-7.853
X-118.423 Y-7.996
Y-8.003
X-118.385 Y-8.136
X-118.292 Y-8.238
X-118.163 Y-8.288
X-118.152 Y-8.289
X-118.007 Y-8.324
X-117.968
X-117.931 Y-8.309
X-117.903 Y-8.281
X-117.888 Y-8.244
X-117.889 Y-8.205
X-117.987 Y-7.765
X-118.003 Y-7.729
X-118.031 Y-7.702
X-118.068 Y-7.688
X-118.237 Y-7.666
X-118.312 Y-7.664
X-118.384 Y-7.684
X-118.509 Y-7.766
X-118.588 Y-7.894
X-118.593 Y-7.925
X-118.586 Y-8.043
X-118.535 Y-8.149
X-118.446 Y-8.227
X-118.335 Y-8.265
X-118.163 Y-8.288
X-118.125 Y-8.284
X-118.091 Y-8.267
X-118.067 Y-8.239
X-118.054 Y-8.203
X-118.056 Y-8.165
X-118.155 Y-7.742
X-118.171 Y-7.707
X-118.2 Y-7.68
X-118.237 Y-7.666
X-118.406 Y-7.652
X-118.453 Y-7.651
X-118.527 Y-7.653
X-118.596 Y-7.684
X-118.714 Y-7.776
X-118.774 Y-7.913
X-118.775 Y-7.945
X-118.755 Y-8.059
X-118.694 Y-8.157
X-118.6 Y-8.225
X-118.488 Y-8.252
X-118.406 Y-8.255
X-118.335 Y-8.265
X-118.296 Y-8.261
X-118.261 Y-8.242
X-118.237 Y-8.212
X-118.226 Y-8.174
X-118.23 Y-8.135
X-118.363 Y-7.721
X-118.376 Y-7.694
X-118.397 Y-7.672
X-118.423 Y-7.657
X-118.453 Y-7.651
X-118.66 Y-7.647
X-118.735 Y-7.653
X-118.864 Y-7.728
X-118.94 Y-7.858
X-118.947 Y-7.905
X-118.938 Y-8.03
X-118.879 Y-8.14
X-118.78 Y-8.217
X-118.659 Y-8.247
X-118.488 Y-8.252
X-118.449 Y-8.244
X-118.416 Y-8.222
X-118.394 Y-8.189
X-118.387 Y-8.15
X-118.396 Y-8.112
X-118.574 Y-7.707
X-118.594 Y-7.676
X-118.624 Y-7.656
X-118.66 Y-7.647
X-118.744 Y-7.649
X-118.876 Y-7.657
X-118.913 Y-7.661
X-118.98 Y-7.695
X-119.086 Y-7.801
X-119.132 Y-7.944
X-119.129 Y-7.98
X-119.097 Y-8.093
X-119.024 Y-8.186
X-118.921 Y-8.243
X-118.804 Y-8.256
X-118.744 Y-8.251
X-118.659 Y-8.247
X-118.625 Y-8.241
X-118.595 Y-8.224
X-118.573 Y-8.197
X-118.561 Y-8.165
Y-8.131
X-118.572 Y-8.099
X-118.785 Y-7.709
X-118.808 Y-7.681
X-118.84 Y-7.663
X-118.876 Y-7.657
X-118.998 Y-7.665
X-119.045 Y-7.669
X-119.119 Y-7.681
X-119.24 Y-7.769
X-119.303 Y-7.905
X-119.31 Y-8.055
X-119.306 Y-8.067
X-119.234 Y-8.188
X-119.115 Y-8.263
X-118.974 Y-8.275
X-118.94 Y-8.261
X-118.913 Y-8.236
X-118.896 Y-8.202
X-118.894 Y-8.165
X-118.939 Y-7.758
X-118.95 Y-7.722
X-118.974 Y-7.693
X-119.007 Y-7.674
X-119.045 Y-7.669
X-119.083 Y-7.673
X-119.214 Y-7.691
X-119.283 Y-7.705
X-119.348 Y-7.741
X-119.45 Y-7.852
X-119.496 Y-7.995
X-119.48 Y-8.144
X-119.475 Y-8.154
X-119.391 Y-8.254
X-119.273 Y-8.31
X-119.142
X-119.111 Y-8.296
X-119.086 Y-8.271
X-119.071 Y-8.24
X-119.068 Y-8.205
X-119.104 Y-7.782
X-119.115 Y-7.744
X-119.14 Y-7.714
X-119.175 Y-7.695
X-119.214 Y-7.691
X-119.252 Y-7.697
X-119.347 Y-7.717
X-119.421 Y-7.733
X-119.493 Y-7.753
X-119.613 Y-7.844
X-119.672 Y-7.982
X-119.678 Y-8.131
X-119.67 Y-8.156
X-119.59 Y-8.28
X-119.459 Y-8.351
X-119.311
X-119.252 Y-8.335
X-119.036 Y-8.287
X-118.998 Y-8.278
X-118.914 Y-8.265
X-118.804 Y-8.256
X-118.77 Y-8.245
X-118.742 Y-8.223
X-118.723 Y-8.193
X-118.716 Y-8.158
X-118.722 Y-8.123
X-118.74 Y-8.092
X-118.768 Y-8.069
X-119.354 Y-7.744
X-119.387 Y-7.733
X-119.421
X-119.59 Y-7.772
X-119.637 Y-7.784
X-119.695 Y-7.801
X-119.808 Y-7.9
X-119.864 Y-8.039
X-119.855 Y-8.189
X-119.841 Y-8.226
X-119.775 Y-8.329
X-119.673 Y-8.397
X-119.553 Y-8.419
X-119.434 Y-8.391
X-119.406 Y-8.369
X-119.387 Y-8.34
X-119.379 Y-8.305
X-119.384 Y-8.271
X-119.521 Y-7.851
X-119.538 Y-7.819
X-119.566 Y-7.795
X-119.601 Y-7.783
X-119.637 Y-7.784
X-119.705 Y-7.801
X-119.844 Y-7.854
X-119.911 Y-7.888
X-120.008 Y-8.002
X-120.043 Y-8.148
X-120.021 Y-8.296
X-119.95 Y-8.428
X-119.943 Y-8.434
X-119.832 Y-8.502
X-119.702 Y-8.516
X-119.578 Y-8.473
X-119.554 Y-8.45
X-119.538 Y-8.42
X-119.534 Y-8.386
X-119.541 Y-8.353
X-119.719 Y-7.911
X-119.74 Y-7.879
X-119.77 Y-7.858
X-119.807 Y-7.849
X-119.844 Y-7.854
X-120.013 Y-7.931
X-120.08 Y-7.966
X-120.132 Y-8.02
X-120.201 Y-8.153
X-120.209 Y-8.302
X-120.172 Y-8.448
X-120.144 Y-8.488
X-120.063 Y-8.568
X-119.958 Y-8.611
X-119.845 Y-8.613
X-119.739 Y-8.572
X-119.714 Y-8.549
X-119.699 Y-8.519
X-119.694 Y-8.486
X-119.701 Y-8.453
X-119.882 Y-7.987
X-119.903 Y-7.953
X-119.936 Y-7.931
X-119.975 Y-7.923
X-120.013 Y-7.931
X-120.098 Y-7.97
X-120.183 Y-8.02
X-120.231 Y-8.054
X-120.29 Y-8.101
X-120.37 Y-8.228
X-120.389 Y-8.377
X-120.351 Y-8.522
X-120.273 Y-8.65
X-120.253 Y-8.667
X-120.125 Y-8.732
X-119.981 Y-8.73
X-119.855 Y-8.662
X-119.836 Y-8.636
X-119.826 Y-8.605
Y-8.572
X-119.837 Y-8.542
X-120.089 Y-8.089
X-120.109 Y-8.064
X-120.137 Y-8.046
X-120.169 Y-8.038
X-120.201 Y-8.041
X-120.231 Y-8.054
X-120.398 Y-8.173
X-120.457 Y-8.219
X-120.539 Y-8.345
X-120.552 Y-8.494
X-120.518 Y-8.641
X-120.436 Y-8.767
X-120.403 Y-8.797
X-120.274 Y-8.865
X-120.129 Y-8.864
X-120 Y-8.795
X-119.981 Y-8.768
X-119.971 Y-8.736
X-119.972 Y-8.703
X-119.984 Y-8.673
X-120.257 Y-8.206
X-120.278 Y-8.181
X-120.305 Y-8.164
X-120.337 Y-8.157
X-120.369 Y-8.16
X-120.398 Y-8.173
X-120.436 Y-8.2
X-120.467 Y-8.223
X-120.521 Y-8.269
X-120.56 Y-8.308
X-120.606 Y-8.357
X-120.653 Y-8.415
X-120.705 Y-8.556
X-120.691 Y-8.705
X-120.631 Y-8.843
X-120.576 Y-8.905
X-120.47 Y-8.984
X-120.341 Y-9.011
X-120.212 Y-8.981
X-120.108 Y-8.899
X-120.092 Y-8.869
X-120.087 Y-8.836
X-120.094 Y-8.803
X-120.111 Y-8.774
X-120.459 Y-8.363
X-120.484 Y-8.342
X-120.514 Y-8.33
X-120.547 Y-8.329
X-120.579 Y-8.338
X-120.606 Y-8.357
X-120.637 Y-8.392
X-120.746 Y-8.517
X-120.792 Y-8.576
X-120.842 Y-8.718
X-120.824 Y-8.867
X-120.756 Y-9.001
X-120.653 Y-9.109
X-120.523 Y-9.184
X-120.517 Y-9.185
X-120.391 Y-9.183
X-120.277 Y-9.13
X-120.194 Y-9.035
X-120.185 Y-9.005
Y-8.975
X-120.194 Y-8.946
X-120.211 Y-8.92
X-120.601 Y-8.516
X-120.627 Y-8.497
X-120.657 Y-8.487
X-120.69
X-120.72 Y-8.498
X-120.746 Y-8.517
X-120.784 Y-8.561
X-120.859 Y-8.652
X-120.891 Y-8.695
X-120.917 Y-8.73
X-120.953 Y-8.796
X-120.969 Y-8.945
X-120.925 Y-9.088
X-120.842 Y-9.213
X-120.731 Y-9.314
X-120.594 Y-9.375
X-120.474 Y-9.366
X-120.367 Y-9.309
X-120.291 Y-9.215
X-120.282 Y-9.184
X-120.284 Y-9.151
X-120.296 Y-9.12
X-120.318 Y-9.096
X-120.774 Y-8.715
X-120.809 Y-8.697
X-120.849 Y-8.693
X-120.887 Y-8.705
X-120.917 Y-8.73
X-120.969 Y-8.815
X-121.018 Y-8.899
X-121.051 Y-8.966
X-121.078 Y-9.114
X-121.039 Y-9.258
X-120.96 Y-9.386
X-120.851 Y-9.489
X-120.717 Y-9.556
X-120.696 Y-9.56
X-120.562 Y-9.554
X-120.445 Y-9.491
X-120.366 Y-9.384
X-120.359 Y-9.353
X-120.362 Y-9.322
X-120.375 Y-9.294
X-120.395 Y-9.27
X-120.397 Y-9.269
X-120.869 Y-8.875
X-120.899 Y-8.858
X-120.932 Y-8.852
X-120.966 Y-8.857
X-120.995 Y-8.874
X-121.018 Y-8.899
X-121.126 Y-9.097
X-121.158 Y-9.164
X-121.18 Y-9.313
X-121.137 Y-9.456
X-121.054 Y-9.581
X-120.943 Y-9.682
X-120.807 Y-9.745
X-120.773 Y-9.751
X-120.635 Y-9.744
X-120.515 Y-9.676
X-120.439 Y-9.561
X-120.434 Y-9.53
X-120.438 Y-9.499
X-120.452 Y-9.472
X-120.473 Y-9.449
X-120.488 Y-9.438
X-120.98 Y-9.067
X-121.009 Y-9.052
X-121.043 Y-9.047
X-121.076 Y-9.053
X-121.105 Y-9.071
X-121.126 Y-9.097
X-121.156 Y-9.152
X-121.178 Y-9.195
X-121.187 Y-9.216
X-121.217 Y-9.321
X-121.229 Y-9.368
X-121.261 Y-9.514
X-121.219 Y-9.659
X-121.134 Y-9.782
X-121.021 Y-9.88
X-120.883 Y-9.94
X-120.765 Y-9.96
X-120.732 Y-9.962
X-120.695 Y-9.954
X-120.665 Y-9.933
X-120.644 Y-9.902
X-120.635 Y-9.866
X-120.641 Y-9.829
X-120.659 Y-9.797
X-120.686 Y-9.766
X-121.058 Y-9.332
X-121.085 Y-9.31
X-121.119 Y-9.298
X-121.154 Y-9.299
X-121.187 Y-9.312
X-121.213 Y-9.336
X-121.229 Y-9.368
X-121.295 Y-9.621
X-121.304 Y-9.659
X-121.316 Y-9.706
X-121.323 Y-9.743
X-121.318 Y-9.756
X-121.256 Y-9.863
X-121.155 Y-9.936
X-121.034 Y-9.962
X-120.999 Y-9.954
X-120.969 Y-9.935
X-120.948 Y-9.907
X-120.938 Y-9.873
X-120.94 Y-9.838
X-120.955 Y-9.805
X-120.979 Y-9.78
X-121.162 Y-9.651
X-121.196 Y-9.636
X-121.234 Y-9.634
X-121.27 Y-9.647
X-121.299 Y-9.672
X-121.316 Y-9.706
X-121.336 Y-9.79
X-121.344 Y-9.828
X-121.346 Y-9.839
X-121.345 Y-9.863
X-121.344 Y-9.87
X-121.329 Y-9.895
X-121.306 Y-9.91
X-121.278 Y-9.915
X-121.248 Y-9.905
X-121.226 Y-9.882
X-121.218 Y-9.851
X-121.225 Y-9.82
X-121.246 Y-9.797
X-121.276 Y-9.786
X-121.307 Y-9.791
X-121.333 Y-9.81
X-121.346 Y-9.839
Y-9.849
Y-9.86
X-121.344 Y-9.87
X-121.341 Y-9.881
X-121.336 Y-9.892
X-121.33 Y-9.902
X-121.323 Y-9.913
X-121.303 Y-9.936
X-121.292 Y-9.944
X-121.282 Y-9.95
X-121.272 Y-9.955
X-121.261 Y-9.958
X-121.251 Y-9.961
X-121.24 Y-9.962
X-120.728
X-120.69
X-120.648
X-120.601 Y-9.952
X-120.56 Y-9.928
X-120.529 Y-9.893
X-120.521 Y-9.855
X-120.525 Y-9.816
X-120.539 Y-9.781
X-120.566 Y-9.749
X-120.602 Y-9.728
X-120.643 Y-9.721
X-120.684 Y-9.727
X-120.72 Y-9.748
X-120.747 Y-9.779
X-120.762 Y-9.818
X-120.763 Y-9.859
X-120.75 Y-9.899
X-120.724 Y-9.931
X-120.689 Y-9.953
X-120.648 Y-9.962
X-120.616 Y-9.961
X-120.606 Y-9.959
X-120.59 Y-9.954
X-120.574 Y-9.946
X-120.554 Y-9.929
X-120.542 Y-9.913
X-120.529 Y-9.893
X-120.521 Y-9.873
X-120.499 Y-9.744
X-120.475 Y-9.659
X-120.412 Y-9.49
X-120.302 Y-9.237
X-120.258 Y-9.152
X-120.166 Y-8.984
X-120.108 Y-8.899
X-120.098 Y-8.887
X-120.013 Y-8.806
X-119.837 Y-8.646
X-119.76 Y-8.585
X-119.506 Y-8.429
X-119.437 Y-8.392
X-119.421 Y-8.385
X-119.337 Y-8.357
X-119.311 Y-8.351
X-119.277 Y-8.332
X-119.252 Y-8.302
X-119.24 Y-8.265
X-119.243 Y-8.226
X-119.254 Y-8.19 Z-0.982
X-119.263 Y-8.159 Z-0.961
X-119.27 Y-8.138 Z-0.928
X-119.272 Y-8.13 Z-0.89
G0 Z2
X-115.687 Y-13.783
Z-0.79
G1 Z-0.89 F1000
X-115.689 Y-13.775 Z-0.928
X-115.693 Y-13.754 Z-0.961
X-115.699 Y-13.722 Z-0.982
X-115.706 Y-13.685 Z-0.99
G3 X-116.037 Y-12.972 I-1.556 J-0.291
G1 X-116.057 Y-12.953
X-116.074 Y-12.939
X-116.105 Y-12.923
X-116.14 Y-12.918
X-116.174 Y-12.926
X-116.204 Y-12.945
X-116.225 Y-12.972
X-116.235 Y-13.006
X-116.304 Y-13.576
X-116.349 Y-13.948
X-116.444 Y-14.727
X-116.449 Y-14.812
X-116.46 Y-14.957
X-116.465 Y-15.107
X-116.395 Y-15.24
X-116.285 Y-15.342
X-116.153 Y-15.413
X-116.009 Y-15.454
X-115.859 Y-15.467
X-115.71 Y-15.45
X-115.666 Y-15.437
X-115.569 Y-15.387
X-115.497 Y-15.306
X-115.458 Y-15.205
X-115.432 Y-15.065
X-115.409 Y-14.929
X-115.41 Y-14.894
X-115.424 Y-14.861
X-115.448 Y-14.835
X-115.479 Y-14.819
X-115.514 Y-14.815
X-115.722 Y-14.828
X-116.367 Y-14.869
X-116.401 Y-14.877
X-116.43 Y-14.896
X-116.45 Y-14.924
X-116.46 Y-14.957
X-116.469 Y-15.065
X-116.484 Y-15.15
X-116.494 Y-15.196
X-116.506 Y-15.27
X-116.457 Y-15.412
X-116.358 Y-15.525
X-116.234 Y-15.609
X-116.095 Y-15.665
X-115.948 Y-15.694
X-115.798 Y-15.698
X-115.749 Y-15.69
X-115.642 Y-15.648
X-115.558 Y-15.569
X-115.51 Y-15.465
X-115.495 Y-15.403
X-115.458 Y-15.205
X-115.459 Y-15.17
X-115.472 Y-15.137
X-115.495 Y-15.111
X-115.526 Y-15.095
X-115.56 Y-15.09
X-115.745 Y-15.096
X-116.4 Y-15.12
X-116.432 Y-15.126
X-116.46 Y-15.142
X-116.481 Y-15.166
X-116.494 Y-15.196
X-116.53 Y-15.365
X-116.542 Y-15.439
X-116.516 Y-15.586
X-116.429 Y-15.709
X-116.313 Y-15.804
X-116.18 Y-15.873
X-116.036 Y-15.917
X-115.887 Y-15.934
X-115.842 Y-15.93
X-115.747 Y-15.906
X-115.665 Y-15.852
X-115.605 Y-15.774
X-115.587 Y-15.741
X-115.567 Y-15.699
X-115.556 Y-15.656
X-115.51 Y-15.465
X-115.509 Y-15.431
X-115.519 Y-15.398
X-115.54 Y-15.371
X-115.568 Y-15.353
X-115.601 Y-15.345
X-115.781 Y-15.333
X-116.426 Y-15.29
X-116.461 Y-15.294
X-116.492 Y-15.309
X-116.516 Y-15.334
X-116.53 Y-15.365
X-116.558 Y-15.487
X-116.571 Y-15.53
X-116.587 Y-15.572
X-116.6 Y-15.607
X-116.589 Y-15.756
X-116.514 Y-15.886
X-116.407 Y-15.992
X-116.281 Y-16.073
X-116.142 Y-16.13
X-116.058 Y-16.147
X-115.938
X-115.828 Y-16.101
X-115.745 Y-16.015
X-115.732 Y-15.994
X-115.681 Y-15.91
X-115.633 Y-15.825
X-115.605 Y-15.774
X-115.595 Y-15.738
X-115.599 Y-15.701
X-115.616 Y-15.667
X-115.645 Y-15.643
X-115.681 Y-15.631
X-115.827 Y-15.611
X-116.485 Y-15.521
X-116.515
X-116.544 Y-15.53
X-116.568 Y-15.548
X-116.587 Y-15.572
X-116.629 Y-15.657
X-116.643 Y-15.682
X-116.675 Y-15.75
X-116.686 Y-15.9
X-116.629 Y-16.038
X-116.536 Y-16.156
X-116.42 Y-16.251
X-116.288 Y-16.322
X-116.215 Y-16.344
X-116.086 Y-16.354
X-115.966 Y-16.31
X-115.875 Y-16.219
X-115.745 Y-16.015
X-115.732 Y-15.981
Y-15.945
X-115.745 Y-15.912
X-115.769 Y-15.885
X-115.8 Y-15.869
X-115.907 Y-15.835
X-116.526 Y-15.637
X-116.559 Y-15.633
X-116.592 Y-15.639
X-116.621 Y-15.657
X-116.643 Y-15.682
X-116.734 Y-15.851
X-116.767 Y-15.918
X-116.785 Y-16.067
X-116.736 Y-16.209
X-116.651 Y-16.332
X-116.542 Y-16.436
X-116.414 Y-16.513
X-116.355 Y-16.533
X-116.225 Y-16.549
X-116.102 Y-16.508
X-116.007 Y-16.418
X-115.893 Y-16.248
X-115.875 Y-16.219
X-115.863 Y-16.186
X-115.862 Y-16.152
X-115.873 Y-16.119
X-115.895 Y-16.092
X-115.925 Y-16.074
X-116.01 Y-16.042
X-116.612 Y-15.809
X-116.646 Y-15.802
X-116.68 Y-15.808
X-116.711 Y-15.825
X-116.734 Y-15.851
X-116.766 Y-15.91
X-116.799 Y-15.962
X-116.823 Y-15.994
X-116.866 Y-16.056
X-116.903 Y-16.201
X-116.871 Y-16.347
X-116.799 Y-16.479
X-116.7 Y-16.592
X-116.579 Y-16.681
X-116.521 Y-16.707
X-116.418 Y-16.731
X-116.312 Y-16.719
X-116.218 Y-16.671
X-116.165 Y-16.63
X-116.142 Y-16.608
X-116.122 Y-16.582
X-116.063 Y-16.501
X-116.007 Y-16.418
X-115.994 Y-16.387
X-115.993 Y-16.353
X-116.002 Y-16.321
X-116.022 Y-16.294
X-116.049 Y-16.275
X-116.112 Y-16.245
X-116.703 Y-15.967
X-116.735 Y-15.959
X-116.768 Y-15.96
X-116.798 Y-15.973
X-116.823 Y-15.994
X-116.953 Y-16.163
X-116.998 Y-16.223
X-117.028 Y-16.37
X-116.997 Y-16.517
X-116.929 Y-16.651
X-116.834 Y-16.767
X-116.771 Y-16.815
X-116.654 Y-16.869
X-116.525
X-116.408 Y-16.815
X-116.218 Y-16.671
X-116.194 Y-16.642
X-116.182 Y-16.606
X-116.185 Y-16.568
X-116.201 Y-16.534
X-116.229 Y-16.508
X-116.274 Y-16.48
X-116.826 Y-16.144
X-116.859 Y-16.132
X-116.893 Y-16.131
X-116.926 Y-16.142
X-116.953 Y-16.163
X-117.064 Y-16.297
X-117.112 Y-16.355
X-117.163 Y-16.496
X-117.146 Y-16.645
X-117.09 Y-16.784
X-117.001 Y-16.904
X-116.96 Y-16.939
X-116.842 Y-17
X-116.708 Y-17.004
X-116.586 Y-16.95
X-116.408 Y-16.815
X-116.384 Y-16.787
X-116.372 Y-16.752
X-116.374 Y-16.716
X-116.388 Y-16.682
X-116.414 Y-16.656
X-116.94 Y-16.289
X-116.97 Y-16.275
X-117.004 Y-16.272
X-117.036 Y-16.279
X-117.064 Y-16.297
X-117.079 Y-16.311
X-117.179 Y-16.39
X-117.236 Y-16.439
X-117.311 Y-16.569
X-117.318 Y-16.718
X-117.28 Y-16.863
X-117.206 Y-16.994
X-117.171 Y-17.03
X-117.065 Y-17.101
X-116.939 Y-17.121
X-116.816 Y-17.088
X-116.664 Y-17.008
X-116.586 Y-16.95
X-116.563 Y-16.923
X-116.551 Y-16.891
X-116.55 Y-16.856
X-116.562 Y-16.823
X-116.584 Y-16.796
X-117.056 Y-16.394
X-117.084 Y-16.377
X-117.117 Y-16.371
X-117.15 Y-16.375
X-117.179 Y-16.39
X-117.222 Y-16.422
X-117.328 Y-16.501
X-117.388 Y-16.545
X-117.471 Y-16.67
X-117.487 Y-16.82
X-117.458 Y-16.967
X-117.388 Y-17.099
X-117.367 Y-17.122
X-117.261 Y-17.197
X-117.132 Y-17.22
X-117.006 Y-17.187
X-116.816 Y-17.088
X-116.788 Y-17.064
X-116.771 Y-17.032
X-116.766 Y-16.996
X-116.774 Y-16.96
X-116.795 Y-16.93
X-117.209 Y-16.518
X-117.235 Y-16.499
X-117.266 Y-16.489
X-117.298 Y-16.49
X-117.328 Y-16.501
X-117.391 Y-16.539
X-117.475 Y-16.588
X-117.538 Y-16.629
X-117.635 Y-16.744
X-117.665 Y-16.891
X-117.647 Y-17.04
X-117.585 Y-17.177
X-117.566 Y-17.2
X-117.483 Y-17.272
X-117.379 Y-17.308
X-117.269 Y-17.305
X-117.222 Y-17.294
X-117.203 Y-17.288
X-117.185 Y-17.28
X-117.006 Y-17.187
X-116.979 Y-17.164
X-116.961 Y-17.134
X-116.955 Y-17.099
X-116.962 Y-17.064
X-116.98 Y-17.034
X-117.353 Y-16.61
X-117.379 Y-16.589
X-117.41 Y-16.578
X-117.444 Y-16.577
X-117.475 Y-16.588
X-117.617 Y-16.67
X-117.645 Y-16.685
X-117.711 Y-16.72
X-117.809 Y-16.833
X-117.843 Y-16.98
X-117.83 Y-17.129
X-117.811 Y-17.173
X-117.73 Y-17.284
X-117.608 Y-17.347
X-117.471 Y-17.349
X-117.269 Y-17.305
X-117.234 Y-17.288
X-117.208 Y-17.26
X-117.195 Y-17.223
X-117.196 Y-17.185
X-117.212 Y-17.149
X-117.524 Y-16.718
X-117.548 Y-16.694
X-117.578 Y-16.68
X-117.612 Y-16.677
X-117.645 Y-16.685
X-117.729 Y-16.725
X-117.81 Y-16.754
X-117.881 Y-16.78
X-117.985 Y-16.888
X-118.029 Y-17.031
X-118.015 Y-17.181
X-118.005 Y-17.206
X-117.926 Y-17.321
X-117.803 Y-17.387
X-117.663 Y-17.39
X-117.471 Y-17.349
X-117.436 Y-17.332
X-117.41 Y-17.304
X-117.397 Y-17.267
X-117.398 Y-17.228
X-117.415 Y-17.193
X-117.706 Y-16.793
X-117.735 Y-16.766
X-117.771 Y-16.753
X-117.81 Y-16.754
X-117.898 Y-16.778
X-117.983 Y-16.799
X-118.055 Y-16.82
X-118.165 Y-16.922
X-118.214 Y-17.064
X-118.205 Y-17.214
X-118.198 Y-17.234
X-118.129 Y-17.343
X-118.021 Y-17.412
X-117.894 Y-17.431
X-117.814 Y-17.422
X-117.663 Y-17.39
X-117.629 Y-17.374
X-117.603 Y-17.346
X-117.589 Y-17.31
X-117.59 Y-17.272
X-117.605 Y-17.236
X-117.88 Y-16.84
X-117.908 Y-16.813
X-117.944 Y-16.798
X-117.983 Y-16.799
X-118.15 Y-16.839
X-118.223 Y-16.856
X-118.341 Y-16.949
X-118.397 Y-17.088
X-118.395 Y-17.238
X-118.394 Y-17.242
X-118.326 Y-17.353
X-118.217 Y-17.425
X-118.088 Y-17.445
X-117.894 Y-17.431
X-117.862 Y-17.422
X-117.835 Y-17.403
X-117.815 Y-17.376
X-117.806 Y-17.344
X-117.807 Y-17.31
X-117.819 Y-17.279
X-118.057 Y-16.887
X-118.082 Y-16.859
X-118.114 Y-16.843
X-118.15 Y-16.839
X-118.321 Y-16.858
X-118.395 Y-16.87
X-118.517 Y-16.958
X-118.581 Y-17.094
X-118.585 Y-17.244
X-118.584 Y-17.247
X-118.518 Y-17.362
X-118.408 Y-17.438
X-118.276 Y-17.458
X-118.088 Y-17.445
X-118.051 Y-17.433
X-118.021 Y-17.408
X-118.003 Y-17.373
X-117.999 Y-17.334
X-118.011 Y-17.297
X-118.226 Y-16.909
X-118.25 Y-16.88
X-118.284 Y-16.862
X-118.321 Y-16.858
X-118.406 Y-16.868
X-118.491 Y-16.873
X-118.565 Y-16.878
X-118.693 Y-16.958
X-118.763 Y-17.09
X-118.774 Y-17.24
X-118.716 Y-17.355
X-118.616 Y-17.434
X-118.492 Y-17.465
X-118.406 Y-17.467
X-118.276 Y-17.458
X-118.239 Y-17.446
X-118.209 Y-17.422
X-118.191 Y-17.387
X-118.187 Y-17.348
X-118.198 Y-17.311
X-118.406 Y-16.926
X-118.427 Y-16.898
X-118.457 Y-16.88
X-118.491 Y-16.873
X-118.575
X-118.66 Y-16.865
X-118.697 Y-16.863
X-118.767 Y-16.89
X-118.888 Y-16.978
X-118.955 Y-17.113
X-118.956 Y-17.149
X-118.938 Y-17.263
X-118.878 Y-17.362
X-118.786 Y-17.431
X-118.674 Y-17.459
X-118.492 Y-17.465
X-118.453 Y-17.457
X-118.421 Y-17.434
X-118.399 Y-17.401
X-118.393 Y-17.362
X-118.402 Y-17.324
X-118.583 Y-16.922
X-118.602 Y-16.895
X-118.628 Y-16.875
X-118.66 Y-16.865
X-118.791 Y-16.85
X-118.866 Y-16.845
X-119.007 Y-16.897
X-119.103 Y-17.011
X-119.144 Y-17.156
X-119.142 Y-17.174
X-119.097 Y-17.305
X-118.999 Y-17.402
X-118.868 Y-17.445
X-118.744 Y-17.455
X-118.674 Y-17.459
X-118.636 Y-17.453
X-118.604 Y-17.433
X-118.581 Y-17.403
X-118.572 Y-17.366
X-118.576 Y-17.328
X-118.711 Y-16.918
X-118.728 Y-16.886
X-118.756 Y-16.862
X-118.791 Y-16.85
X-118.914 Y-16.836
X-118.96 Y-16.83
X-119.035 Y-16.824
X-119.107 Y-16.843
X-119.232 Y-16.926
X-119.31 Y-17.055
X-119.315 Y-17.095
X-119.305 Y-17.214
X-119.25 Y-17.321
X-119.157 Y-17.397
X-119.042 Y-17.43
X-119.006 Y-17.425
X-118.974 Y-17.408
X-118.95 Y-17.38
X-118.938 Y-17.345
X-118.878 Y-16.943
X-118.88 Y-16.905
X-118.896 Y-16.87
X-118.924 Y-16.844
X-118.96 Y-16.83
X-118.998 Y-16.825
X-119.083 Y-16.812
X-119.129 Y-16.8
X-119.203 Y-16.786
X-119.346 Y-16.831
X-119.451 Y-16.938
X-119.503 Y-17.079
Y-17.118
X-119.466 Y-17.26
X-119.366 Y-17.367
X-119.228 Y-17.415
X-119.192 Y-17.41
X-119.16 Y-17.392
X-119.136 Y-17.365
X-119.124 Y-17.33
X-119.058 Y-16.912
X-119.059 Y-16.876
X-119.073 Y-16.842
X-119.097 Y-16.816
X-119.129 Y-16.8
X-119.167 Y-16.791
X-119.252 Y-16.766
X-119.287 Y-16.754
X-119.359 Y-16.734
X-119.506 Y-16.766
X-119.617 Y-16.867
X-119.682 Y-17.002
X-119.688 Y-17.048
X-119.671 Y-17.188
X-119.591 Y-17.305
X-119.467 Y-17.373
X-119.429 Y-17.374
X-119.394 Y-17.362
X-119.366 Y-17.337
X-119.349 Y-17.303
X-119.227 Y-16.875
X-119.223 Y-16.839
X-119.233 Y-16.803
X-119.256 Y-16.774
X-119.287 Y-16.754
X-119.421 Y-16.709
X-119.468 Y-16.692
X-119.504 Y-16.681
X-119.578 Y-16.687
X-119.717 Y-16.743
X-119.821 Y-16.852
X-119.875 Y-16.992
X-119.876 Y-17.013
X-119.854 Y-17.148
X-119.775 Y-17.259
X-119.654 Y-17.323
X-119.616 Y-17.324
X-119.581 Y-17.312
X-119.553 Y-17.287
X-119.536 Y-17.253
X-119.409 Y-16.812
X-119.406 Y-16.776
X-119.415 Y-16.741
X-119.437 Y-16.712
X-119.468 Y-16.692
X-119.506 Y-16.678
X-119.526 Y-16.67
X-119.59 Y-16.64
X-119.624 Y-16.624
X-119.699 Y-16.617
X-119.846 Y-16.647
X-119.963 Y-16.741
X-120.043 Y-16.868
X-120.054 Y-16.918
X-120.058 Y-17.032
X-120.018 Y-17.139
X-119.941 Y-17.224
X-119.839 Y-17.274
X-119.803 Y-17.276
X-119.769 Y-17.265
X-119.741 Y-17.242
X-119.723 Y-17.212
X-119.553 Y-16.758
X-119.547 Y-16.725
X-119.551 Y-16.693
X-119.566 Y-16.663
X-119.59 Y-16.64
X-119.677 Y-16.585
X-119.702 Y-16.568
X-119.766 Y-16.528
X-119.916 Y-16.518
X-120.053 Y-16.579
X-120.163 Y-16.68
X-120.234 Y-16.812
X-120.246 Y-16.868
Y-16.984
X-120.202 Y-17.091
X-120.121 Y-17.174
X-120.077 Y-17.204
X-120.056 Y-17.214
X-120.013 Y-17.227
X-119.421 Y-17.385
X-119.337 Y-17.404
X-119.252 Y-17.413
X-118.868 Y-17.445
X-118.833 Y-17.44
X-118.801 Y-17.423
X-118.777 Y-17.396
X-118.765 Y-17.362
Y-17.326
X-118.778 Y-17.293
X-118.802 Y-17.266
X-119.081 Y-17.049
X-119.702 Y-16.568
X-119.76 Y-16.528
X-119.821 Y-16.477
X-119.881 Y-16.433
X-120.027 Y-16.399
X-120.172 Y-16.44
X-120.293 Y-16.528
X-120.386 Y-16.646
X-120.405 Y-16.691
X-120.427 Y-16.824
X-120.389 Y-16.954
X-120.298 Y-17.053
X-120.265 Y-17.066
X-120.229 Y-17.068
X-120.195 Y-17.056
X-120.168 Y-17.034
X-119.811 Y-16.617
X-119.792 Y-16.584
X-119.788 Y-16.545
X-119.798 Y-16.508
X-119.821 Y-16.477
X-119.894 Y-16.416
X-119.929 Y-16.386
X-119.961 Y-16.356
X-120.018 Y-16.308
X-120.164 Y-16.272
X-120.31 Y-16.307
X-120.438 Y-16.385
X-120.539 Y-16.495
X-120.567 Y-16.549
X-120.6 Y-16.689
X-120.565 Y-16.827
X-120.47 Y-16.934
X-120.438 Y-16.948
X-120.403 Y-16.949
X-120.37 Y-16.939
X-120.343 Y-16.917
X-119.957 Y-16.494
X-119.937 Y-16.462
X-119.931 Y-16.425
X-119.939 Y-16.387
X-119.961 Y-16.356
X-120.013 Y-16.306
X-120.069 Y-16.248
X-120.12 Y-16.193
X-120.259 Y-16.135
X-120.408 Y-16.15
X-120.544 Y-16.212
X-120.66 Y-16.308
X-120.746 Y-16.431
X-120.753 Y-16.451
X-120.77 Y-16.562
X-120.745 Y-16.672
X-120.681 Y-16.765
X-120.606 Y-16.84
X-120.486 Y-16.923
X-120.121 Y-17.174
X-120.087 Y-17.188
X-120.05
X-120.015 Y-17.175
X-119.988 Y-17.15
X-119.971 Y-17.116
X-119.968 Y-17.079
X-119.974 Y-17.025
X-120.05 Y-16.297
X-120.056 Y-16.271
X-120.069 Y-16.248
X-120.161 Y-16.129
X-120.183 Y-16.101
X-120.231 Y-16.044
X-120.369 Y-15.984
X-120.519 Y-15.991
X-120.66 Y-16.042
X-120.783 Y-16.127
X-120.884 Y-16.239
X-120.894 Y-16.259
X-120.926 Y-16.379
X-120.907 Y-16.502
X-120.839 Y-16.607
X-120.811 Y-16.625
X-120.777 Y-16.633
X-120.743 Y-16.629
X-120.712 Y-16.614
X-120.711
X-120.205 Y-16.239
X-120.178 Y-16.211
X-120.165 Y-16.175
X-120.167 Y-16.136
X-120.183 Y-16.101
X-120.286 Y-15.966
X-120.335 Y-15.909
X-120.464 Y-15.832
X-120.613 Y-15.825
X-120.759 Y-15.863
X-120.89 Y-15.934
X-121.002 Y-16.034
X-121.028 Y-16.074
X-121.075 Y-16.199
X-121.063 Y-16.333
X-120.994 Y-16.447
X-120.967 Y-16.466
X-120.935 Y-16.475
X-120.902 Y-16.473
X-120.871 Y-16.46
X-120.841 Y-16.441
X-120.314 Y-16.109
X-120.29 Y-16.087
X-120.274 Y-16.059
X-120.267 Y-16.027
X-120.272 Y-15.995
X-120.286 Y-15.966
X-120.352 Y-15.88
X-120.386 Y-15.825
X-120.427 Y-15.762
X-120.547 Y-15.673
X-120.696 Y-15.652
X-120.844 Y-15.676
X-120.982 Y-15.734
X-121.104 Y-15.822
X-121.2 Y-15.937
X-121.206 Y-15.95
X-121.229 Y-16.031
X-121.23 Y-16.114
X-121.207 Y-16.195
X-121.184 Y-16.225
X-121.151 Y-16.245
X-121.113 Y-16.251
X-121.076 Y-16.243
X-121.011 Y-16.214
X-120.437 Y-15.957
X-120.405 Y-15.934
X-120.385 Y-15.902
X-120.378 Y-15.863
X-120.386 Y-15.825
X-120.407 Y-15.783
X-120.425 Y-15.741
X-120.447 Y-15.68
X-120.476 Y-15.611
X-120.586 Y-15.509
X-120.731 Y-15.468
X-120.881 Y-15.473
X-121.025 Y-15.512
X-121.159 Y-15.581
X-121.206 Y-15.618
X-121.287 Y-15.716
X-121.321 Y-15.838
X-121.301 Y-15.963
X-121.256 Y-16.079
X-121.221 Y-16.163
X-121.191 Y-16.231
X-121.181 Y-16.248
X-121.103 Y-16.332
X-121.023 Y-16.416
X-120.859 Y-16.586
X-120.681 Y-16.765
X-120.65 Y-16.785
X-120.613 Y-16.792
X-120.577 Y-16.785
X-120.545 Y-16.765
X-120.523 Y-16.735
X-120.514 Y-16.699
X-120.497 Y-16.463
X-120.442 Y-15.718
X-120.447 Y-15.68
X-120.456 Y-15.656
X-120.499 Y-15.525
X-120.512 Y-15.487
X-120.538 Y-15.417
X-120.653 Y-15.321
X-120.796 Y-15.277
X-120.946 Y-15.273
X-121.094 Y-15.302
X-121.231 Y-15.362
X-121.279 Y-15.396
X-121.366 Y-15.493
X-121.404 Y-15.619
X-121.384 Y-15.748
X-121.365 Y-15.778
X-121.336 Y-15.799
X-121.301 Y-15.808
X-121.265 Y-15.805
X-121.185 Y-15.782
X-120.581 Y-15.611
X-120.546 Y-15.593
X-120.52 Y-15.563
X-120.508 Y-15.526
X-120.512 Y-15.487
X-120.539 Y-15.403
X-120.564 Y-15.318
X-120.587 Y-15.247
X-120.691 Y-15.139
X-120.83 Y-15.083
X-120.979 Y-15.066
X-121.129 Y-15.082
X-121.271 Y-15.129
X-121.4 Y-15.207
X-121.458 Y-15.295
X-121.482 Y-15.397
X-121.47 Y-15.501
X-121.448 Y-15.572
X-121.418 Y-15.656
X-121.367 Y-15.793
X-121.301 Y-15.963
X-121.279 Y-15.996
X-121.246 Y-16.017
X-121.207 Y-16.024
X-121.169 Y-16.015
X-121.137 Y-15.992
X-121.06 Y-15.91
X-120.589 Y-15.409
X-120.571 Y-15.382
X-120.562 Y-15.351
X-120.564 Y-15.318
X-120.606 Y-15.16
X-120.608 Y-15.15
X-120.61 Y-15.139
X-120.614 Y-15.128
X-120.619 Y-15.118
X-120.625 Y-15.107
X-120.638 Y-15.092
X-120.651 Y-15.082
X-120.678 Y-15.065
X-120.69 Y-15.059
X-120.701 Y-15.056
X-120.711 Y-15.054
X-120.733 Y-15.053
X-121.329
X-121.391 Y-15.057
X-121.468 Y-15.11
X-121.513 Y-15.192
X-121.519 Y-15.285
G3 X-121.299 Y-15.432 I0.184 J0.037
X-121.329 Y-15.053 I-0.036 J0.188
G1 X-121.43 Y-15.054
X-121.441 Y-15.056
X-121.452 Y-15.059
X-121.466 Y-15.065
X-121.478 Y-15.073
X-121.503 Y-15.094
X-121.515 Y-15.107
X-121.522 Y-15.118
X-121.528 Y-15.128
X-121.531 Y-15.139
X-121.534 Y-15.15
X-121.535 Y-15.16
Y-15.171
X-121.527 Y-15.234
X-121.499 Y-15.403
X-121.47 Y-15.501
X-121.457 Y-15.526
X-121.437 Y-15.547
X-121.404 Y-15.559 Z-0.983
X-121.375 Y-15.569 Z-0.964
X-121.358 Y-15.566 Z-0.943
X-121.347 Y-15.564 Z-0.918
X-121.343 Y-15.563 Z-0.89
G0 Z2
X-112.735 Y-12.662
Z0.5
G3 X-112.25 Y-12.787 Z0.29 I0.242 J-0.062 F333.3
X-112.735 Y-12.662 Z0.079 I-0.242 J0.062
X-112.25 Y-12.787 Z-0.131 I0.242 J-0.062
X-112.735 Y-12.662 Z-0.342 I-0.242 J0.062
X-112.25 Y-12.787 Z-0.552 I0.242 J-0.062
X-112.735 Y-12.662 Z-0.763 I-0.242 J0.062
X-112.524 Y-12.972 Z-0.876 I0.242 J-0.062
X-112.242 Y-12.724 Z-0.99 I0.031 J0.248
X-112.742 I-0.25
X-112.242 I0.25
G1 X-112.205 Y-12.579 F1000
X-112.218 Y-12.505
X-112.255 Y-12.44
X-112.362 Y-12.335
X-112.507 Y-12.295
X-112.655 Y-12.316
X-112.786 Y-12.39
X-112.882 Y-12.505
X-112.934 Y-12.646
X-112.937 Y-12.796
X-112.889 Y-12.938
X-112.797 Y-13.056
X-112.671 Y-13.138
X-112.526 Y-13.174
X-112.376 Y-13.16
X-112.24 Y-13.098
X-112.131 Y-12.994
X-112.053 Y-12.866
X-112.003 Y-12.725
X-111.992 Y-12.575
X-112.027 Y-12.429
X-112.098 Y-12.297
X-112.206 Y-12.193
X-112.337 Y-12.12
X-112.484 Y-12.087
X-112.633 Y-12.094
X-112.778 Y-12.135
X-112.907 Y-12.211
X-113.014 Y-12.316
X-113.096 Y-12.442
X-113.145 Y-12.584
X-113.16 Y-12.733
X-113.143 Y-12.882
X-113.093 Y-13.023
X-113.01 Y-13.148
X-112.904 Y-13.254
X-112.776 Y-13.333
X-112.634 Y-13.379
X-112.485 Y-13.396
X-112.336 Y-13.378
X-112.195 Y-13.325
X-112.068 Y-13.245
X-111.96 Y-13.142
X-111.872 Y-13.02
X-111.809 Y-12.883
X-111.771 Y-12.738
X-111.763 Y-12.589
X-111.785 Y-12.44
X-111.792 Y-12.421
X-111.826 Y-12.352
X-111.876 Y-12.294
X-111.94 Y-12.251
X-111.976 Y-12.233
X-112.037 Y-12.193
X-112.061 Y-12.173
X-112.124 Y-12.109
X-112.146 Y-12.081
X-112.237 Y-11.962
X-112.374 Y-11.9
X-112.521 Y-11.872
X-112.671 Y-11.874
X-112.817 Y-11.907
X-112.954 Y-11.969
X-113.078 Y-12.054
X-113.082 Y-12.058
X-113.13 Y-12.117
X-113.161 Y-12.185
X-113.174 Y-12.259
X-113.187 Y-12.531
X-113.194 Y-12.784
X-113.195 Y-12.869
X-113.191 Y-13.038
X-113.181 Y-13.187
X-113.114 Y-13.322
X-113.014 Y-13.434
X-112.892 Y-13.522
X-112.755 Y-13.583
X-112.61 Y-13.618
X-112.46 Y-13.628
X-112.311 Y-13.612
X-112.255 Y-13.596
X-112.165 Y-13.552
X-112.095 Y-13.482
X-112.051 Y-13.393
X-112.046 Y-13.376
X-112.029 Y-13.333
X-112.009 Y-13.291
X-111.865 Y-13.038
X-111.807 Y-12.939
X-111.759 Y-12.869
X-111.704 Y-12.803
X-111.615 Y-12.682
X-111.608 Y-12.654
X-111.602 Y-12.538
X-111.641 Y-12.429
X-111.718 Y-12.342
X-111.823 Y-12.292
X-111.862 Y-12.291
X-111.899 Y-12.305
X-111.927 Y-12.332
X-111.943 Y-12.369
Y-12.408
X-111.877 Y-12.755
X-111.864 Y-12.789
X-111.839 Y-12.816
X-111.806 Y-12.833
X-111.769 Y-12.836
X-111.733 Y-12.825
X-111.704 Y-12.803
X-111.553 Y-12.621
X-111.549 Y-12.616
X-111.527 Y-12.59
X-111.504 Y-12.56
X-111.52 Y-12.435
X-111.602 Y-12.34
X-111.723 Y-12.306
X-111.761 Y-12.308
X-111.798 Y-12.321
X-111.829 Y-12.344
X-111.853 Y-12.375
X-111.867 Y-12.412
G3 X-111.527 Y-12.59 I0.194 J-0.044
G1 X-111.476 Y-12.531
X-111.469 Y-12.522
X-111.448 Y-12.499
X-111.419 Y-12.464
X-111.45 Y-12.371
X-111.528 Y-12.31
X-111.626 Y-12.3
X-111.651 Y-12.311
X-111.672 Y-12.329
X-111.685 Y-12.353
G3 X-111.448 Y-12.499 I0.135 J-0.046
G1 X-111.4 Y-12.447
X-111.39 Y-12.43
X-111.384 Y-12.413
X-111.382 Y-12.401
X-111.381 Y-12.389
X-111.382 Y-12.377
X-111.385 Y-12.362
X-111.388 Y-12.352
X-111.393 Y-12.341
X-111.408 Y-12.32
X-111.419 Y-12.306
X-111.434 Y-12.292
X-111.447 Y-12.283
X-111.461 Y-12.278
X-111.469 Y-12.275
X-111.483 Y-12.273
X-111.497 Y-12.272
X-111.512 Y-12.274
X-111.553 Y-12.286
X-112.278 Y-12.59
X-112.512 Y-12.688
X-113.13 Y-12.947
X-113.162 Y-12.968
X-113.183 Y-13
X-113.191 Y-13.038
X-113.189 Y-13.122
X-113.179 Y-13.338
X-113.164 Y-13.487
X-113.084 Y-13.614
X-112.972 Y-13.714
X-112.842 Y-13.788
X-112.7 Y-13.837
X-112.552 Y-13.862
X-112.402 Y-13.865
X-112.35 Y-13.856
X-112.241 Y-13.815
X-112.155 Y-13.734
X-112.107 Y-13.627
X-112.061 Y-13.426
X-112.051 Y-13.393
X-112.048 Y-13.357
X-112.058 Y-13.323
X-112.08 Y-13.295
X-112.11 Y-13.275
X-112.144 Y-13.268
X-112.452 Y-13.257
X-113.076 Y-13.236
X-113.108 Y-13.241
X-113.137 Y-13.255
X-113.16 Y-13.277
X-113.174 Y-13.306
X-113.179 Y-13.338
X-113.177 Y-13.376
X-113.171 Y-13.46
X-113.158 Y-13.606
X-113.138 Y-13.755
X-113.052 Y-13.878
X-112.936 Y-13.973
X-112.802 Y-14.04
X-112.658 Y-14.084
X-112.51 Y-14.103
X-112.36 Y-14.093
X-112.357 Y-14.092
X-112.261 Y-14.041
X-112.189 Y-13.959
X-112.152 Y-13.857
X-112.127 Y-13.714
X-112.107 Y-13.627
Y-13.593
X-112.118 Y-13.56
X-112.14 Y-13.533
X-112.17 Y-13.515
X-112.205 Y-13.508
X-112.435 Y-13.506
X-113.058 Y-13.501
X-113.09 Y-13.506
X-113.118 Y-13.521
X-113.141 Y-13.545
X-113.155 Y-13.574
X-113.158 Y-13.606
X-113.134 Y-13.883
X-113.123 Y-13.957
X-113.054 Y-14.09
X-112.944 Y-14.191
X-112.813 Y-14.265
X-112.671 Y-14.312
X-112.523 Y-14.336
X-112.451 Y-14.329
X-112.318 Y-14.285
X-112.22 Y-14.185
X-112.178 Y-14.052
X-112.171 Y-13.967
X-112.152 Y-13.857
X-112.153 Y-13.823
X-112.166 Y-13.79
X-112.19 Y-13.765
X-112.22 Y-13.748
X-112.255 Y-13.744
X-112.412 Y-13.751
X-113.038 Y-13.777
X-113.076 Y-13.787
X-113.108 Y-13.81
X-113.128 Y-13.844
X-113.134 Y-13.883
X-113.114 Y-14.098
X-113.093 Y-14.246
X-113.004 Y-14.368
X-112.885 Y-14.458
X-112.749 Y-14.522
X-112.603 Y-14.555
X-112.453
X-112.416 Y-14.545
X-112.302 Y-14.487
X-112.222 Y-14.388
X-112.191 Y-14.264
X-112.19 Y-14.22
X-112.178 Y-14.052
X-112.182 Y-14.019
X-112.197 Y-13.989
X-112.221 Y-13.966
X-112.251 Y-13.952
X-112.284 Y-13.948
X-112.393 Y-13.955
X-113.02 Y-13.992
X-113.058 Y-14.002
X-113.089 Y-14.026
X-113.109 Y-14.059
X-113.114 Y-14.098
X-113.103 Y-14.22
X-113.093 Y-14.305
X-113.087 Y-14.351
X-113.06 Y-14.499
X-112.969 Y-14.618
X-112.846 Y-14.704
X-112.706 Y-14.758
X-112.558 Y-14.781
X-112.465 Y-14.772
X-112.328 Y-14.724
X-112.229 Y-14.615
X-112.193 Y-14.474
Y-14.305
X-112.191 Y-14.264
X-112.197 Y-14.231
X-112.213 Y-14.202
X-112.238 Y-14.18
X-112.269 Y-14.167
X-112.302 Y-14.165
X-112.373 Y-14.173
X-112.998 Y-14.242
X-113.035 Y-14.254
X-113.065 Y-14.279
X-113.083 Y-14.313
X-113.087 Y-14.351
X-113.071 Y-14.474
X-113.059 Y-14.558
X-113.036 Y-14.643
X-112.99 Y-14.786
X-112.883 Y-14.89
X-112.75 Y-14.96
X-112.604 Y-14.994
X-112.454 Y-14.992
X-112.401 Y-14.977
X-112.282 Y-14.912
X-112.204 Y-14.8
X-112.183 Y-14.666
X-112.191 Y-14.558
X-112.193 Y-14.474
X-112.201 Y-14.44
X-112.22 Y-14.412
X-112.247 Y-14.391
X-112.28 Y-14.381
X-112.314 Y-14.382
X-112.347 Y-14.389
X-112.96 Y-14.523
X-112.996 Y-14.538
X-113.023 Y-14.567
X-113.037 Y-14.603
X-113.036 Y-14.643
X-112.991 Y-14.812
X-112.967 Y-14.896
X-112.942 Y-14.967
X-112.853 Y-15.088
X-112.724 Y-15.164
X-112.579 Y-15.204
X-112.429 Y-15.2
X-112.381 Y-15.186
X-112.253 Y-15.114
X-112.175 Y-14.99
X-112.165 Y-14.844
X-112.171 Y-14.812
X-112.183 Y-14.666
X-112.193 Y-14.632
X-112.214 Y-14.603
X-112.244 Y-14.584
X-112.279 Y-14.577
X-112.314 Y-14.582
X-112.901 Y-14.777
X-112.934 Y-14.795
X-112.957 Y-14.824
X-112.969 Y-14.859
X-112.967 Y-14.896
X-112.898 Y-15.125
X-112.873 Y-15.196
X-112.779 Y-15.313
X-112.645 Y-15.381
X-112.498 Y-15.41
X-112.349 Y-15.393
X-112.313 Y-15.378
X-112.201 Y-15.301
X-112.135 Y-15.182
X-112.129 Y-15.047
X-112.165 Y-14.844
X-112.178 Y-14.812
X-112.202 Y-14.786
X-112.233 Y-14.77
X-112.268 Y-14.765
X-112.303 Y-14.774
X-112.841 Y-15.008
X-112.871 Y-15.028
X-112.891 Y-15.056
X-112.901 Y-15.09
X-112.898 Y-15.125
X-112.865 Y-15.234
X-112.822 Y-15.365
X-112.799 Y-15.427
X-112.694 Y-15.535
X-112.555 Y-15.593
X-112.406 Y-15.608
X-112.259 Y-15.578
X-112.237 Y-15.566
X-112.138 Y-15.481
X-112.085 Y-15.362
X-112.087 Y-15.231
X-112.107 Y-15.15
X-112.125 Y-15.065
X-112.129 Y-15.047
X-112.143 Y-15.013
X-112.168 Y-14.986
X-112.202 Y-14.971
X-112.239 Y-14.969
X-112.274 Y-14.98
X-112.774 Y-15.249
X-112.8 Y-15.27
X-112.818 Y-15.299
X-112.826 Y-15.331
X-112.822 Y-15.365
X-112.81 Y-15.403
X-112.741 Y-15.572
X-112.708 Y-15.64
X-112.599 Y-15.743
X-112.458 Y-15.792
X-112.308 Y-15.799
X-112.164 Y-15.756
X-112.151 Y-15.747
X-112.057 Y-15.645
X-112.02 Y-15.511
X-112.046 Y-15.375
X-112.066 Y-15.348
X-112.093 Y-15.329
X-112.125 Y-15.32
X-112.158 Y-15.322
X-112.669 Y-15.439
X-112.701 Y-15.452
X-112.726 Y-15.475
X-112.742 Y-15.505
X-112.747 Y-15.539
X-112.741 Y-15.572
X-112.653 Y-15.782
X-112.621 Y-15.849
X-112.505 Y-15.945
X-112.361 Y-15.987
X-112.211 Y-15.985
X-112.071 Y-15.931
X-112.055 Y-15.918
X-111.97 Y-15.816
X-111.937 Y-15.687
X-111.964 Y-15.557
X-112.046 Y-15.375
X-112.067 Y-15.347
X-112.096 Y-15.327
X-112.131 Y-15.32
X-112.166 Y-15.324
X-112.197 Y-15.34
X-112.621 Y-15.667
X-112.642 Y-15.691
X-112.656 Y-15.719
X-112.659 Y-15.751
X-112.653 Y-15.782
X-112.583 Y-15.951
X-112.55 Y-16.019
X-112.446 Y-16.126
X-112.304 Y-16.176
X-112.154 Y-16.177
X-112.012 Y-16.129
X-111.98 Y-16.108
X-111.885 Y-16.001
X-111.849 Y-15.863
X-111.882 Y-15.724
X-111.917 Y-15.656
X-111.964 Y-15.557
X-111.984 Y-15.529
X-112.013 Y-15.51
X-112.047 Y-15.501
X-112.081 Y-15.505
X-112.112 Y-15.52
X-112.548 Y-15.835
X-112.57 Y-15.858
X-112.585 Y-15.887
X-112.589 Y-15.919
X-112.583 Y-15.951
X-112.529 Y-16.079
X-112.463 Y-16.163
X-112.419 Y-16.218
X-112.37 Y-16.274
X-112.238 Y-16.346
X-112.088 Y-16.357
X-111.944 Y-16.316
X-111.816 Y-16.237
X-111.812 Y-16.232
X-111.754 Y-16.121
X-111.747 Y-15.995
X-111.792 Y-15.878
X-111.827 Y-15.825
X-111.873 Y-15.741
X-111.882 Y-15.724
X-111.906 Y-15.695
X-111.939 Y-15.677
X-111.976 Y-15.672
X-112.012 Y-15.681
X-112.042 Y-15.703
X-112.411 Y-16.089
X-112.431 Y-16.118
X-112.439 Y-16.152
X-112.435 Y-16.187
X-112.419 Y-16.218
X-112.315 Y-16.349
X-112.284 Y-16.386
X-112.234 Y-16.442
X-112.1 Y-16.51
X-111.95 Y-16.513
X-111.806 Y-16.473
X-111.763 Y-16.442
X-111.685 Y-16.358
X-111.644 Y-16.252
X-111.646 Y-16.138
X-111.69 Y-16.033
X-111.792 Y-15.878
X-111.818 Y-15.853
X-111.852 Y-15.838
X-111.888 Y-15.837
X-111.922 Y-15.848
X-111.951 Y-15.871
X-112.281 Y-16.261
X-112.298 Y-16.29
X-112.305 Y-16.323
X-112.3 Y-16.356
X-112.284 Y-16.386
X-112.146 Y-16.552
X-112.094 Y-16.607
X-111.958 Y-16.67
X-111.808 Y-16.669
X-111.669 Y-16.614
X-111.555 Y-16.516
X-111.515 Y-16.398
X-111.53 Y-16.275
X-111.596 Y-16.17
X-111.603 Y-16.163
X-111.69 Y-16.033
X-111.717 Y-16.007
X-111.752 Y-15.993
X-111.789
X-111.824 Y-16.007
X-111.851 Y-16.032
X-112.147 Y-16.431
X-112.162 Y-16.46
X-112.167 Y-16.492
X-112.161 Y-16.524
X-112.146 Y-16.552
X-112.029 Y-16.691
X-112.014 Y-16.708
X-111.997 Y-16.728
X-111.939 Y-16.775
X-111.798 Y-16.824
X-111.648 Y-16.808
X-111.511 Y-16.748
X-111.474 Y-16.712
X-111.407 Y-16.611
X-111.385 Y-16.493
X-111.412 Y-16.375
X-111.482 Y-16.277
X-111.553 Y-16.212
X-111.596 Y-16.17
X-111.626 Y-16.151
X-111.66 Y-16.143
X-111.695 Y-16.148
X-111.726 Y-16.165
X-111.75 Y-16.191
X-112.005 Y-16.612
X-112.017 Y-16.641
X-112.02 Y-16.671
X-112.013 Y-16.701
X-111.997 Y-16.728
X-111.967 Y-16.754
X-111.833 Y-16.866
X-111.774 Y-16.911
X-111.631 Y-16.959
X-111.483 Y-16.938
X-111.353 Y-16.863
X-111.317 Y-16.82
X-111.261 Y-16.72
X-111.247 Y-16.607
X-111.275 Y-16.497
X-111.343 Y-16.405
X-111.482 Y-16.277
X-111.514 Y-16.259
X-111.549 Y-16.253
X-111.585 Y-16.26
X-111.615 Y-16.28
X-111.637 Y-16.308
X-111.856 Y-16.746
X-111.866 Y-16.777
X-111.865 Y-16.81
X-111.854 Y-16.84
X-111.833 Y-16.866
X-111.663 Y-17.008
X-111.603 Y-17.053
X-111.457 Y-17.088
X-111.311 Y-17.054
X-111.188 Y-16.968
X-111.099 Y-16.847
Y-16.845
X-111.085 Y-16.716
X-111.126 Y-16.594
X-111.215 Y-16.501
X-111.3 Y-16.443
X-111.343 Y-16.405
X-111.376 Y-16.387
X-111.413 Y-16.381
X-111.449 Y-16.39
X-111.48 Y-16.411
X-111.5 Y-16.443
X-111.689 Y-16.895
X-111.696 Y-16.925
X-111.694 Y-16.955
X-111.682 Y-16.984
X-111.663 Y-17.008
X-111.53 Y-17.118
X-111.511 Y-17.133
X-111.49 Y-17.147
X-111.469 Y-17.155
X-111.435 Y-17.167
X-111.363 Y-17.188
X-111.213 Y-17.185
X-111.078 Y-17.12
X-110.97 Y-17.016
X-110.957 Y-16.991
X-110.925 Y-16.852
X-110.961 Y-16.714
X-111.057 Y-16.608
X-111.215 Y-16.501
X-111.249 Y-16.487
X-111.286
X-111.321 Y-16.501
X-111.348 Y-16.526
X-111.364 Y-16.56
X-111.496 Y-17.048
X-111.498 Y-17.084
X-111.488 Y-17.119
X-111.466 Y-17.148
X-111.435 Y-17.167
X-111.215 Y-17.244
X-111.143 Y-17.265
X-110.994 Y-17.25
X-110.865 Y-17.173
X-110.775 Y-17.053
X-110.771 Y-17.038
X-110.764 Y-16.903
X-110.817 Y-16.779
X-110.919 Y-16.691
X-110.961 Y-16.668
X-111.057 Y-16.608
X-111.094 Y-16.594
X-111.133 Y-16.595
X-111.169 Y-16.612
X-111.196 Y-16.641
X-111.209 Y-16.678
X-111.278 Y-17.136
X-111.277 Y-17.169
X-111.265 Y-17.201
X-111.244 Y-17.226
X-111.215 Y-17.244
X-110.999 Y-17.318
X-110.927 Y-17.338
X-110.781 Y-17.306
X-110.661 Y-17.216
X-110.635 Y-17.169
X-110.598 Y-17.044
X-110.617 Y-16.916
X-110.689 Y-16.808
X-110.799 Y-16.74
X-110.877 Y-16.713
X-110.919 Y-16.691
X-110.951 Y-16.681
X-110.985 Y-16.683
X-111.016 Y-16.696
X-111.041 Y-16.718
X-111.057 Y-16.747
X-111.063 Y-16.78
X-111.064 Y-17.224
X-111.059 Y-17.254
X-111.046 Y-17.281
X-111.025 Y-17.303
X-110.999 Y-17.318
X-110.834 Y-17.373
X-110.76 Y-17.382
X-110.685 Y-17.377
X-110.546 Y-17.32
X-110.451 Y-17.204
X-110.438 Y-17.163
X-110.427 Y-17.046
X-110.461 Y-16.934
X-110.536 Y-16.843
X-110.64 Y-16.788
X-110.799 Y-16.74
X-110.837 Y-16.736
X-110.874 Y-16.747
X-110.904 Y-16.771
X-110.923 Y-16.804
X-110.928 Y-16.842
X-110.899 Y-17.286
X-110.889 Y-17.323
X-110.867 Y-17.354
X-110.834 Y-17.373
X-110.792 Y-17.381
X-110.576 Y-17.413
X-110.502 Y-17.42
X-110.433 Y-17.39
X-110.315 Y-17.298
X-110.248 Y-17.163
X-110.247 Y-17.151
X-110.268 Y-17.009
X-110.354 Y-16.893
X-110.484 Y-16.83
X-110.538 Y-16.818
X-110.64 Y-16.788
X-110.674 Y-16.785
X-110.707 Y-16.794
X-110.735 Y-16.814
X-110.755 Y-16.842
X-110.765 Y-16.875
X-110.762 Y-16.909
X-110.655 Y-17.339
X-110.639 Y-17.373
X-110.611 Y-17.399
X-110.576 Y-17.413
X-110.407 Y-17.436
X-110.332 Y-17.443
X-110.194 Y-17.385
X-110.098 Y-17.27
X-110.059 Y-17.125
X-110.06 Y-17.118
X-110.102 Y-16.996
X-110.192 Y-16.903
X-110.313 Y-16.857
X-110.454 Y-16.836
X-110.484 Y-16.83
X-110.517
X-110.548 Y-16.84
X-110.575 Y-16.861
X-110.593 Y-16.889
X-110.601 Y-16.921
X-110.597 Y-16.955
X-110.486 Y-17.364
X-110.47 Y-17.398
X-110.442 Y-17.423
X-110.407 Y-17.436
X-110.238 Y-17.46
X-110.163 Y-17.466
X-110.091 Y-17.444
X-109.968 Y-17.359
X-109.892 Y-17.23
X-109.889 Y-17.209
X-109.9 Y-17.094
X-109.953 Y-16.991
X-110.04 Y-16.916
X-110.15 Y-16.88
X-110.284 Y-16.861
X-110.313 Y-16.857
X-110.352 Y-16.86
X-110.386 Y-16.877
X-110.411 Y-16.906
X-110.424 Y-16.943
X-110.421 Y-16.981
X-110.318 Y-17.386
X-110.301 Y-17.42
X-110.273 Y-17.446
X-110.238 Y-17.46
X-110.069 Y-17.482
X-110.031 Y-17.487
X-109.956 Y-17.478
X-109.887 Y-17.448
X-109.768 Y-17.357
X-109.71 Y-17.219
Y-17.192
X-109.733 Y-17.075
X-109.801 Y-16.976
X-109.901 Y-16.911
X-110.019 Y-16.891
X-110.056 Y-16.901
X-110.087 Y-16.924
X-110.107 Y-16.957
X-110.113 Y-16.994
X-110.099 Y-17.388
X-110.09 Y-17.426
X-110.067 Y-17.458
X-110.034 Y-17.478
X-109.996 Y-17.485
X-109.815 Y-17.471
X-109.74 Y-17.461
X-109.676 Y-17.423
X-109.57 Y-17.317
X-109.53 Y-17.172
X-109.534 Y-17.138
X-109.571 Y-17.027
X-109.647 Y-16.939
X-109.751 Y-16.887
X-109.867 Y-16.878
X-109.946 Y-16.887
X-109.988 Y-16.89
X-110.019 Y-16.891
X-110.057 Y-16.901
X-110.088 Y-16.925
X-110.108 Y-16.96
X-110.112 Y-16.998
X-110.102 Y-17.036
X-109.908 Y-17.416
X-109.885 Y-17.446
X-109.852 Y-17.465
X-109.815 Y-17.471
X-109.607 Y-17.454
X-109.57 Y-17.449
X-109.505 Y-17.412
X-109.451 Y-17.36
X-109.371 Y-17.233
X-109.366 Y-17.184
X-109.383 Y-17.052
X-109.455 Y-16.94
X-109.569 Y-16.871
X-109.702 Y-16.858
X-109.867 Y-16.878
X-109.904 Y-16.891
X-109.933 Y-16.918
X-109.949 Y-16.954
X-109.951 Y-16.993
X-109.936 Y-17.03
X-109.696 Y-17.408
X-109.673 Y-17.433
X-109.642 Y-17.45
X-109.607 Y-17.454
X-109.476 Y-17.444
X-109.404 Y-17.434
X-109.337 Y-17.401
X-109.229 Y-17.297
X-109.184 Y-17.154
X-109.199 Y-17.004
X-109.206 Y-16.989
X-109.289 Y-16.883
X-109.41 Y-16.823
X-109.544
X-109.692 Y-16.856
X-109.702 Y-16.858
X-109.737 Y-16.87
X-109.765 Y-16.896
X-109.782 Y-16.929
X-109.785 Y-16.967
X-109.774 Y-17.003
X-109.569 Y-17.39
X-109.546 Y-17.42
X-109.513 Y-17.438
X-109.476 Y-17.444
X-109.438 Y-17.44
X-109.354 Y-17.43
X-109.223 Y-17.4
X-109.15 Y-17.38
X-109.045 Y-17.274
X-108.997 Y-17.132
X-109.007 Y-16.982
X-109.016 Y-16.959
X-109.101 Y-16.841
X-109.231 Y-16.776
X-109.377 Y-16.781
X-109.438 Y-16.799
X-109.544 Y-16.823
X-109.579 Y-16.84
X-109.605 Y-16.868
X-109.618 Y-16.905
X-109.616 Y-16.943
X-109.6 Y-16.978
X-109.322 Y-17.361
X-109.295 Y-17.386
X-109.26 Y-17.4
X-109.223
X-109.1 Y-17.373
X-109.053 Y-17.362
X-108.981 Y-17.341
X-108.866 Y-17.244
X-108.813 Y-17.104
X-108.818 Y-16.954
X-108.833 Y-16.913
X-108.893 Y-16.812
X-108.988 Y-16.741
X-109.102 Y-16.713
X-109.219 Y-16.731
X-109.269 Y-16.749
X-109.377 Y-16.781
X-109.41 Y-16.799
X-109.434 Y-16.828
X-109.445 Y-16.863
X-109.443 Y-16.9
X-109.428 Y-16.934
X-109.155 Y-17.321
X-109.127 Y-17.348
X-109.092 Y-17.362
X-109.053
X-108.884 Y-17.321
X-108.812 Y-17.3
X-108.751 Y-17.257
X-108.661 Y-17.137
X-108.628 Y-16.99
X-108.65 Y-16.842
X-108.72 Y-16.709
X-108.724 Y-16.704
X-108.839 Y-16.634
X-108.974 Y-16.622
X-109.1 Y-16.669
X-109.122 Y-16.691
X-109.136 Y-16.718
X-109.141 Y-16.748
X-109.137 Y-16.779
X-109 Y-17.251
X-108.984 Y-17.284
X-108.956 Y-17.309
X-108.921 Y-17.321
X-108.884
X-108.761 Y-17.291
X-108.729 Y-17.279
X-108.651 Y-17.235
X-108.589 Y-17.194
X-108.486 Y-17.085
X-108.446 Y-16.94
X-108.457 Y-16.79
X-108.514 Y-16.651
X-108.54 Y-16.62
X-108.657 Y-16.534
X-108.8 Y-16.512
X-108.937 Y-16.561
X-109.1 Y-16.669
X-109.123 Y-16.693
X-109.137 Y-16.723
X-109.141 Y-16.755
X-109.134 Y-16.788
X-109.117 Y-16.816
X-108.775 Y-17.212
X-108.749 Y-17.234
X-108.717 Y-17.245
X-108.683 Y-17.246
X-108.651 Y-17.235
X-108.423 Y-17.1
X-108.36 Y-17.059
X-108.285 Y-16.929
X-108.269 Y-16.78
X-108.299 Y-16.633
X-108.373 Y-16.503
X-108.402 Y-16.476
X-108.527 Y-16.404
X-108.67 Y-16.399
X-108.8 Y-16.462
X-108.848 Y-16.501
X-108.937 Y-16.561
X-108.962 Y-16.587
X-108.976 Y-16.619
X-108.978 Y-16.654
X-108.967 Y-16.688
X-108.946 Y-16.717
X-108.538 Y-17.087
X-108.512 Y-17.103
X-108.483 Y-17.112
X-108.452 Y-17.111
X-108.423 Y-17.1
X-108.266 Y-17.008
X-108.254 Y-17.001
X-108.212 Y-16.975
X-108.156 Y-16.925
X-108.101 Y-16.785
X-108.099 Y-16.635
X-108.139 Y-16.491
X-108.223 Y-16.366
X-108.263 Y-16.331
X-108.395 Y-16.263
X-108.543 Y-16.267
X-108.671 Y-16.341
X-108.761 Y-16.43
X-108.8 Y-16.462
X-108.822 Y-16.489
X-108.833 Y-16.523
X-108.831 Y-16.558
X-108.818 Y-16.591
X-108.793 Y-16.617
X-108.32 Y-16.968
X-108.286 Y-16.984
X-108.248 Y-16.987
X-108.212 Y-16.975
X-108.169 Y-16.94
X-108.053 Y-16.839
X-107.999 Y-16.787
X-107.939 Y-16.649
Y-16.499
X-107.982 Y-16.356
X-108.067 Y-16.232
X-108.179 Y-16.132
X-108.191 Y-16.127
X-108.309 Y-16.102
X-108.427 Y-16.125
X-108.526 Y-16.194
X-108.592 Y-16.262
X-108.671 Y-16.341
X-108.69 Y-16.369
X-108.699 Y-16.402
X-108.696 Y-16.436
X-108.681 Y-16.467
X-108.658 Y-16.491
X-108.175 Y-16.842
X-108.146 Y-16.857
X-108.113 Y-16.861
X-108.081 Y-16.855
X-108.053 Y-16.839
X-107.915 Y-16.719
X-107.862 Y-16.667
X-107.784 Y-16.538
X-107.775 Y-16.388
X-107.813 Y-16.243
X-107.886 Y-16.112
X-107.991 Y-16.004
X-108.04 Y-15.976
X-108.149 Y-15.939
X-108.265 Y-15.945
X-108.369 Y-15.995
X-108.447 Y-16.081
X-108.497 Y-16.163
X-108.526 Y-16.194
X-108.544 Y-16.221
X-108.551 Y-16.252
X-108.549 Y-16.284
X-108.536 Y-16.314
X-108.514 Y-16.338
X-108.041 Y-16.719
X-108.012 Y-16.735
X-107.978 Y-16.741
X-107.945 Y-16.735
X-107.915 Y-16.719
X-107.746 Y-16.571
X-107.727 Y-16.553
X-107.712 Y-16.536
X-107.637 Y-16.406
X-107.623 Y-16.256
X-107.655 Y-16.11
X-107.722 Y-15.976
X-107.823 Y-15.865
X-107.947 Y-15.781
X-107.987 Y-15.767
X-108.122 Y-15.756
X-108.249 Y-15.805
X-108.341 Y-15.904
X-108.447 Y-16.081
X-108.458 Y-16.117
X-108.456 Y-16.156
X-108.439 Y-16.19
X-108.41 Y-16.216
X-108.396 Y-16.224
X-107.835 Y-16.553
X-107.804 Y-16.565
X-107.77 Y-16.566
X-107.738 Y-16.556
X-107.712 Y-16.536
X-107.636 Y-16.416
X-107.577 Y-16.317
X-107.555 Y-16.279
X-107.521 Y-16.212
X-107.5 Y-16.064
X-107.535 Y-15.918
X-107.609 Y-15.787
X-107.71 Y-15.676
X-107.837 Y-15.597
X-107.891 Y-15.579
X-108.033 Y-15.568
X-108.163 Y-15.623
X-108.255 Y-15.731
X-108.341 Y-15.904
X-108.351 Y-15.935
Y-15.967
X-108.34 Y-15.998
X-108.32 Y-16.024
X-108.293 Y-16.042
X-108.266 Y-16.054
X-107.681 Y-16.317
X-107.646 Y-16.326
X-107.611 Y-16.322
X-107.579 Y-16.305
X-107.555 Y-16.279
X-107.537 Y-16.248
X-107.446 Y-16.079
X-107.413 Y-16.011
X-107.391 Y-15.863
X-107.429 Y-15.718
X-107.507 Y-15.589
X-107.611 Y-15.482
X-107.741 Y-15.405
X-107.883 Y-15.36
X-107.888
X-108.006 Y-15.382
X-108.105 Y-15.448
X-108.17 Y-15.548
X-108.18 Y-15.572
X-108.218 Y-15.656
X-108.255 Y-15.731
X-108.263 Y-15.762
X-108.261 Y-15.794
X-108.249 Y-15.824
X-108.228 Y-15.848
X-108.201 Y-15.865
X-108.165 Y-15.879
X-107.569 Y-16.121
X-107.535 Y-16.128
X-107.5 Y-16.123
X-107.469 Y-16.106
X-107.446 Y-16.079
X-107.337 Y-15.878
X-107.305 Y-15.81
X-107.286 Y-15.661
X-107.328 Y-15.517
X-107.408 Y-15.39
X-107.515 Y-15.285
X-107.641 Y-15.204
X-107.723 Y-15.178
X-107.871 Y-15.17
X-108.005 Y-15.233
X-108.092 Y-15.352
X-108.17 Y-15.548
X-108.176 Y-15.586
X-108.167 Y-15.624
X-108.145 Y-15.655
X-108.112 Y-15.675
X-108.062 Y-15.694
X-107.459 Y-15.921
X-107.425 Y-15.928
X-107.39 Y-15.922
X-107.36 Y-15.904
X-107.337 Y-15.878
X-107.265 Y-15.741
X-107.239 Y-15.688
X-107.224 Y-15.656
X-107.196 Y-15.587
X-107.19 Y-15.437
X-107.24 Y-15.296
X-107.326 Y-15.172
X-107.436 Y-15.071
X-107.568 Y-14.999
X-107.712 Y-14.956
X-107.766
X-107.898 Y-14.988
X-108.003 Y-15.074
X-108.059 Y-15.198
X-108.085 Y-15.327
X-108.089 Y-15.346
X-108.092 Y-15.352
X-108.098 Y-15.392
X-108.088 Y-15.43
X-108.064 Y-15.462
X-108.029 Y-15.481
X-107.956 Y-15.505
X-107.345 Y-15.706
X-107.31 Y-15.711
X-107.275 Y-15.704
X-107.245 Y-15.685
X-107.224 Y-15.656
X-107.154 Y-15.505
X-107.148 Y-15.487
X-107.129 Y-15.403
X-107.107 Y-15.254
X-107.147 Y-15.11
X-107.228 Y-14.984
X-107.336 Y-14.88
X-107.463 Y-14.799
X-107.605 Y-14.75
X-107.754 Y-14.736
X-107.78 Y-14.741
X-107.895 Y-14.788
X-107.98 Y-14.877
X-108.023 Y-14.993
X-108.034 Y-15.065
X-108.059 Y-15.198
X-108.058 Y-15.236
X-108.043 Y-15.27
X-108.017 Y-15.297
X-107.982 Y-15.312
X-107.865 Y-15.338
X-107.247 Y-15.475
X-107.209 Y-15.476
X-107.174 Y-15.463
X-107.146 Y-15.437
X-107.129 Y-15.403
X-107.074 Y-15.12
X-107.064 Y-15.046
X-107.09 Y-14.898
X-107.167 Y-14.77
X-107.275 Y-14.665
X-107.402 Y-14.586
X-107.542 Y-14.533
X-107.691 Y-14.515
X-107.732 Y-14.52
X-107.86 Y-14.566
X-107.955 Y-14.665
X-107.996 Y-14.796
X-107.997 Y-14.812
X-108.023 Y-14.993
X-108.02 Y-15.032
X-108.002 Y-15.066
X-107.973 Y-15.091
X-107.936 Y-15.103
X-107.816 Y-15.118
X-107.184 Y-15.198
X-107.147 Y-15.196
X-107.114 Y-15.181
X-107.088 Y-15.154
X-107.074 Y-15.12
X-107.064 Y-15.065
X-107.031 Y-14.85
X-107.023 Y-14.775
X-107.064 Y-14.631
X-107.152 Y-14.509
X-107.267 Y-14.413
X-107.4 Y-14.344
X-107.544 Y-14.301
X-107.694 Y-14.295
X-107.737 Y-14.303
X-107.857 Y-14.355
X-107.944 Y-14.453
X-107.981 Y-14.579
X-107.996 Y-14.796
X-107.989 Y-14.834
X-107.969 Y-14.867
X-107.938 Y-14.89
X-107.9 Y-14.9
X-107.776 Y-14.905
X-107.133 Y-14.931
X-107.098 Y-14.926
X-107.067 Y-14.909
X-107.043 Y-14.883
X-107.031 Y-14.85
X-106.999 Y-14.643
X-106.992 Y-14.568
X-107.022 Y-14.421
X-107.106 Y-14.297
X-107.219 Y-14.199
X-107.35 Y-14.126
X-107.493 Y-14.081
X-107.643 Y-14.068
X-107.791 Y-14.089
X-107.803 Y-14.094
X-107.899 Y-14.162
X-107.962 Y-14.261
X-107.982 Y-14.377
X-107.979 Y-14.474
Y-14.558
X-107.981 Y-14.579
X-107.975 Y-14.616
X-107.954 Y-14.649
X-107.924 Y-14.672
X-107.886 Y-14.681
X-107.743 Y-14.689
X-107.103 Y-14.724
X-107.068 Y-14.72
X-107.036 Y-14.703
X-107.012 Y-14.676
X-106.999 Y-14.643
X-106.985 Y-14.546
X-106.97 Y-14.389
X-106.967 Y-14.317
X-107.005 Y-14.172
X-107.094 Y-14.051
X-107.211 Y-13.957
X-107.346 Y-13.891
X-107.49 Y-13.851
X-107.639 Y-13.836
X-107.788 Y-13.859
X-107.806 Y-13.866
X-107.909 Y-13.936
X-107.975 Y-14.042
X-107.992 Y-14.165
X-107.988 Y-14.22
X-107.983 Y-14.344
X-107.982 Y-14.377
X-107.973 Y-14.413
X-107.951 Y-14.443
X-107.919 Y-14.463
X-107.883 Y-14.47
X-107.71 Y-14.472
X-107.07 Y-14.476
X-107.034 Y-14.47
X-107.003 Y-14.452
X-106.981 Y-14.424
X-106.97 Y-14.389
X-106.962 Y-14.305
Y-14.263
X-106.979 Y-14.089
X-107.003 Y-13.941
X-107.09 Y-13.819
X-107.207 Y-13.726
X-107.342 Y-13.66
X-107.486 Y-13.62
X-107.636 Y-13.606
X-107.784 Y-13.627
X-107.827 Y-13.644
X-107.937 Y-13.719
X-108.001 Y-13.834
X-108.008 Y-13.967
X-108 Y-14.051
X-107.992 Y-14.165
X-107.981 Y-14.202
X-107.956 Y-14.231
X-107.923 Y-14.25
X-107.885 Y-14.255
X-107.699 Y-14.241
X-107.072 Y-14.196
X-107.035 Y-14.186
X-107.004 Y-14.162
X-106.984 Y-14.128
X-106.979 Y-14.089
X-106.992 Y-13.967
X-107.019 Y-13.798
X-107.034 Y-13.725
X-107.109 Y-13.594
X-107.223 Y-13.497
X-107.357 Y-13.43
X-107.502 Y-13.39
X-107.651 Y-13.378
X-107.8 Y-13.4
X-107.857 Y-13.422
X-107.972 Y-13.499
X-108.04 Y-13.619
X-108.047 Y-13.758
X-108.008 Y-13.967
X-107.993 Y-14.002
X-107.966 Y-14.028
X-107.931 Y-14.043
X-107.893 Y-14.044
X-107.725 Y-14.015
X-107.101 Y-13.909
X-107.066 Y-13.896
X-107.038 Y-13.87
X-107.021 Y-13.836
X-107.019 Y-13.798
X-107.06 Y-13.545
X-107.075 Y-13.471
X-107.154 Y-13.344
X-107.272 Y-13.251
X-107.409 Y-13.189
X-107.555 Y-13.157
X-107.705 Y-13.153
X-107.852 Y-13.182
X-107.991 Y-13.24
X-108.066 Y-13.329
X-108.1 Y-13.441
X-108.088 Y-13.557
X-108.067 Y-13.591
X-108.036 Y-13.614
X-107.997 Y-13.624
X-107.774 Y-13.633
X-107.163 Y-13.657
X-107.129 Y-13.653
X-107.098 Y-13.637
X-107.075 Y-13.611
X-107.061 Y-13.579
X-107.06 Y-13.545
X-107.088 Y-13.376
X-107.108 Y-13.291
X-107.128 Y-13.219
X-107.212 Y-13.095
X-107.334 Y-13.007
X-107.473 Y-12.952
X-107.621 Y-12.928
X-107.771 Y-12.931
X-107.919 Y-12.958
X-108.055 Y-13.022
X-108.071 Y-13.035
X-108.15 Y-13.136
X-108.18 Y-13.261
X-108.156 Y-13.387
X-108.133 Y-13.418
X-108.1 Y-13.438
X-108.061 Y-13.444
X-107.814 Y-13.434
X-107.202 Y-13.41
X-107.168 Y-13.403
X-107.139 Y-13.385
X-107.118 Y-13.358
X-107.107 Y-13.326
X-107.108 Y-13.291
X-107.137 Y-13.167
X-107.144 Y-13.147
X-107.221 Y-12.997
X-107.296 Y-12.867
X-107.417 Y-12.778
X-107.558 Y-12.725
X-107.706 Y-12.704
X-107.856 Y-12.711
X-108.002 Y-12.744
X-108.136 Y-12.812
X-108.164 Y-12.835
X-108.242 Y-12.937
X-108.271 Y-13.062
X-108.244 Y-13.188
X-108.16 Y-13.376
X-108.124 Y-13.46
X-108.091 Y-13.545
X-108.085 Y-13.566
X-108.047 Y-13.758
X-108.033 Y-13.791
X-108.008 Y-13.817
X-107.975 Y-13.833
X-107.939 Y-13.835
X-107.904 Y-13.825
X-107.875 Y-13.803
X-107.688 Y-13.599
X-107.238 Y-13.107
X-107.218 Y-13.073
X-107.212 Y-13.034
X-107.221 Y-12.997
X-107.33 Y-12.784
X-107.382 Y-12.7
X-107.426 Y-12.639
X-107.546 Y-12.549
X-107.688 Y-12.502
X-107.838 Y-12.488
X-107.987 Y-12.505
X-108.13 Y-12.55
X-108.258 Y-12.627
X-108.289 Y-12.657
X-108.359 Y-12.766
X-108.377 Y-12.895
X-108.338 Y-13.019
X-108.254 Y-13.167
X-108.244 Y-13.188
X-108.225 Y-13.215
X-108.199 Y-13.234
X-108.168 Y-13.243
X-108.135 Y-13.242
X-108.105 Y-13.231
X-107.964 Y-13.15
X-107.419 Y-12.836
X-107.39 Y-12.81
X-107.373 Y-12.776
X-107.37 Y-12.737
X-107.382 Y-12.7
X-107.492 Y-12.529
X-107.532 Y-12.472
X-107.578 Y-12.413
X-107.701 Y-12.328
X-107.846 Y-12.289
X-107.996 Y-12.286
X-108.143 Y-12.315
X-108.282 Y-12.372
X-108.403 Y-12.461
X-108.426 Y-12.488
X-108.485 Y-12.599
X-108.494 Y-12.726
X-108.449 Y-12.844
X-108.378 Y-12.953
X-108.338 Y-13.019
X-108.317 Y-13.044
X-108.289 Y-13.06
X-108.258 Y-13.067
X-108.226 Y-13.063
X-108.197 Y-13.049
X-108.079 Y-12.968
X-107.559 Y-12.609
X-107.532 Y-12.582
X-107.518 Y-12.546
X-107.517 Y-12.508
X-107.532 Y-12.472
X-107.671 Y-12.278
X-107.688 Y-12.254
X-107.702 Y-12.235
X-107.727 Y-12.207
X-107.752 Y-12.184
X-107.786 Y-12.167
X-107.823 Y-12.164
X-107.859 Y-12.175
X-107.889 Y-12.198
X-107.907 Y-12.23
X-107.913 Y-12.267
X-107.904 Y-12.304
X-107.883 Y-12.335
X-107.855 Y-12.362
X-107.825 Y-12.383
X-107.789 Y-12.391
X-107.753 Y-12.386
X-107.721 Y-12.368
X-107.698 Y-12.34
X-107.686 Y-12.305
X-107.687 Y-12.269
X-107.702 Y-12.235
X-107.718 Y-12.214
X-107.729 Y-12.203
X-107.772 Y-12.168
X-107.832 Y-12.123
X-107.978 Y-12.089
X-108.128 Y-12.091
X-108.274 Y-12.125
X-108.412 Y-12.185
X-108.508 Y-12.26
X-108.588 Y-12.354
X-108.623 Y-12.471
X-108.609 Y-12.593
X-108.546 Y-12.699
X-108.519 Y-12.719
X-108.487 Y-12.729
X-108.454 Y-12.727
X-108.423 Y-12.715
X-108.297 Y-12.638
X-107.786 Y-12.329
X-107.758 Y-12.304
X-107.741 Y-12.27
X-107.738 Y-12.233
X-107.749 Y-12.197
X-107.772 Y-12.168
X-107.948 Y-12.024
X-108.069 Y-11.935
X-108.218 Y-11.916
X-108.366 Y-11.935
X-108.507 Y-11.988
X-108.632 Y-12.07
X-108.732 Y-12.181
X-108.745 Y-12.206
X-108.78 Y-12.334
X-108.755 Y-12.465
X-108.677 Y-12.572
X-108.627 Y-12.616
X-108.592 Y-12.649
X-108.546 Y-12.7
X-108.508 Y-12.754
X-108.449 Y-12.844
X-108.425 Y-12.869
X-108.394 Y-12.883
X-108.36 Y-12.887
X-108.327 Y-12.879
X-108.298 Y-12.86
X-108.278 Y-12.833
X-108.223 Y-12.726
X-107.925 Y-12.145
X-107.915 Y-12.114
X-107.916 Y-12.081
X-107.927 Y-12.05
X-107.948 Y-12.024
X-108.085 Y-11.913
X-108.169 Y-11.856
X-108.298 Y-11.779
X-108.447 Y-11.768
X-108.594 Y-11.801
X-108.727 Y-11.87
X-108.842 Y-11.967
X-108.928 Y-12.09
X-108.933 Y-12.104
X-108.948 Y-12.222
X-108.916 Y-12.337
X-108.843 Y-12.43
X-108.814 Y-12.446
X-108.782 Y-12.451
X-108.75 Y-12.446
X-108.721 Y-12.431
X-108.647 Y-12.376
X-108.168 Y-12.017
X-108.143 Y-11.99
X-108.13 Y-11.955
Y-11.918
X-108.144 Y-11.883
X-108.169 Y-11.856
X-108.254 Y-11.803
X-108.423 Y-11.705
X-108.49 Y-11.67
X-108.638 Y-11.648
X-108.784 Y-11.681
X-108.916 Y-11.753
X-109.029 Y-11.852
X-109.108 Y-11.979
X-109.112 Y-11.991
X-109.12 Y-12.119
X-109.074 Y-12.239
X-108.982 Y-12.329
X-108.929 Y-12.362
X-108.846 Y-12.427
X-108.724 Y-12.531
X-108.677 Y-12.572
X-108.647 Y-12.589
X-108.613 Y-12.594
X-108.579 Y-12.588
X-108.55 Y-12.571
X-108.528 Y-12.545
X-108.515 Y-12.514
X-108.505 Y-12.461
X-108.378 Y-11.809
X-108.377 Y-11.779
X-108.384 Y-11.75
X-108.4 Y-11.724
X-108.423 Y-11.705
X-108.55 Y-11.631
X-108.571 Y-11.62
X-108.592 Y-11.611
X-108.723 Y-11.576
X-108.87 Y-11.545
X-109.014 Y-11.588
X-109.139 Y-11.67
X-109.241 Y-11.781
X-109.268 Y-11.836
X-109.297 Y-11.979
X-109.256 Y-12.118
X-109.155 Y-12.222
X-109.121 Y-12.234
X-109.085 Y-12.233
X-109.052 Y-12.22
X-109.026 Y-12.196
X-108.673 Y-11.732
X-108.656 Y-11.698
X-108.653 Y-11.66
X-108.665 Y-11.623
X-108.689 Y-11.594
X-108.723 Y-11.576
X-108.987 Y-11.509
X-109.06 Y-11.494
X-109.208 Y-11.519
X-109.336 Y-11.597
X-109.429 Y-11.715
X-109.449 Y-11.762
X-109.472 Y-11.881
X-109.446 Y-12
X-109.374 Y-12.098
X-109.269 Y-12.16
X-109.231 Y-12.169
X-109.193 Y-12.163
X-109.16 Y-12.142
X-109.137 Y-12.111
X-108.924 Y-11.646
X-108.915 Y-11.613
X-108.918 Y-11.579
X-108.932 Y-11.548
X-108.956 Y-11.524
X-108.987 Y-11.509
X-109.1 Y-11.48
X-109.231 Y-11.466
X-109.306 Y-11.462
X-109.452 Y-11.497
X-109.567 Y-11.593
X-109.643 Y-11.722
X-109.651 Y-11.76
X-109.643 Y-11.906
X-109.567 Y-12.031
X-109.44 Y-12.105
X-109.404 Y-12.108
X-109.37 Y-12.097
X-109.341 Y-12.075
X-109.322 Y-12.044
X-109.152 Y-11.601
X-109.145 Y-11.566
X-109.151 Y-11.531
X-109.169 Y-11.5
X-109.197 Y-11.477
X-109.231 Y-11.466
X-109.438 Y-11.445
X-109.485 Y-11.441
X-109.56 Y-11.438
X-109.696 Y-11.499
X-109.795 Y-11.612
X-109.846 Y-11.754
Y-11.766
X-109.815 Y-11.895
X-109.733 Y-11.997
X-109.614 Y-12.055
X-109.576
X-109.54 Y-12.041
X-109.513 Y-12.015
X-109.497 Y-11.98
X-109.4 Y-11.563
X-109.398 Y-11.529
X-109.407 Y-11.497
X-109.426 Y-11.47
X-109.453 Y-11.45
X-109.485 Y-11.441
X-109.607 Y-11.43
X-109.654 Y-11.427
X-109.692 Y-11.424
X-109.767 Y-11.433
X-109.903 Y-11.497
X-109.996 Y-11.614
X-110.033 Y-11.759
X-109.99 Y-11.887
X-109.897 Y-11.981
X-109.773 Y-12.026
X-109.735 Y-12.023
X-109.702 Y-12.006
X-109.677 Y-11.977
X-109.664 Y-11.942
X-109.603 Y-11.539
Y-11.506
X-109.614 Y-11.476
X-109.634 Y-11.45
X-109.661 Y-11.433
X-109.692 Y-11.424
X-109.908 Y-11.44
X-109.982 Y-11.449
X-110.114 Y-11.52
X-110.196 Y-11.646
X-110.199 Y-11.67
X-110.191 Y-11.787
X-110.139 Y-11.891
X-110.05 Y-11.968
X-109.939 Y-12.005
X-109.9 Y-12.001
X-109.865 Y-11.982
X-109.841 Y-11.951
X-109.83 Y-11.913
X-109.804 Y-11.547
X-109.807 Y-11.514
X-109.822 Y-11.483
X-109.845 Y-11.459
X-109.875 Y-11.444
X-109.908 Y-11.44
X-109.946 Y-11.443
X-110.115 Y-11.46
X-110.187 Y-11.481
X-110.252 Y-11.518
X-110.346 Y-11.635
X-110.348 Y-11.648
X-110.341 Y-11.773
X-110.285 Y-11.884
X-110.188 Y-11.962
X-110.068 Y-11.995
X-110.034 Y-11.989
X-110.004 Y-11.973
X-109.981 Y-11.948
X-109.968 Y-11.916
X-109.967 Y-11.882
X-110.009 Y-11.547
X-110.021 Y-11.511
X-110.045 Y-11.482
X-110.078 Y-11.464
X-110.115 Y-11.46
X-110.2 Y-11.48
X-110.284 Y-11.501
X-110.315 Y-11.51
X-110.385 Y-11.535
X-110.436 Y-11.59
X-110.471 Y-11.657
X-110.464 Y-11.787
X-110.401 Y-11.902
X-110.294 Y-11.977
X-110.164 Y-11.996
X-110.129 Y-11.985
X-110.101 Y-11.963
X-110.082 Y-11.932
X-110.076 Y-11.896
X-110.083 Y-11.86
X-110.197 Y-11.57
X-110.216 Y-11.54
X-110.244 Y-11.518
X-110.279 Y-11.508
X-110.315 Y-11.51
X-110.454 Y-11.551
X-110.489 Y-11.563
X-110.546 Y-11.611
X-110.584 Y-11.676
X-110.579 Y-11.806
X-110.517 Y-11.919
X-110.409 Y-11.992
X-110.28 Y-12.008
X-110.245 Y-11.995
X-110.216 Y-11.971
X-110.199 Y-11.937
X-110.195 Y-11.9
X-110.206 Y-11.863
X-110.34 Y-11.602
X-110.36 Y-11.575
X-110.388 Y-11.557
X-110.42 Y-11.548
X-110.454 Y-11.551
X-110.538 Y-11.576
X-110.603 Y-11.602
X-110.623 Y-11.611
X-110.752 Y-11.688
X-110.822 Y-11.748
X-110.784 Y-11.893
X-110.703 Y-11.982
X-110.595 Y-12.031
X-110.477 Y-12.034
X-110.445 Y-12.022
X-110.42 Y-11.999
X-110.403 Y-11.969
X-110.397 Y-11.935
X-110.404 Y-11.901
X-110.491 Y-11.668
X-110.507 Y-11.641
X-110.531 Y-11.619
X-110.56 Y-11.607
X-110.592 Y-11.604
X-110.623 Y-11.611
X-110.707 Y-11.656
X-110.877 Y-11.753
X-110.907 Y-11.771
X-110.961 Y-11.808
X-111.017 Y-11.855
X-111.13 Y-11.962
X-111.215 Y-12.043
X-111.278 Y-12.109
X-111.286 Y-12.12
X-111.292 Y-12.131
X-111.297 Y-12.142
X-111.3 Y-12.152
X-111.301 Y-12.163
X-111.302 Y-12.173
X-111.301 Y-12.183
X-111.3 Y-12.194
X-111.297 Y-12.205
X-111.293 Y-12.215
X-111.28 Y-12.236
X-111.265 Y-12.257
X-111.253 Y-12.269
X-111.24 Y-12.278
X-111.227 Y-12.284
X-111.215 Y-12.288
X-111.196 Y-12.291
X-111.177 Y-12.29
X-111.158 Y-12.286
X-111.14 Y-12.278
X-111.046 Y-12.225
X-110.79 Y-12.109
X-110.749 Y-12.093
X-110.538 Y-12.044
X-110.454 Y-12.03
X-110.284 Y-12.008
X-110.2 Y-11.999
X-110.115 Y-11.992
X-110.031 Y-11.997
X-109.946 Y-12.005
X-109.692 Y-12.037
X-109.607 Y-12.057
X-109.428 Y-12.109
X-109.354 Y-12.131
X-109.269 Y-12.16
X-109.202 Y-12.193
X-109.1 Y-12.256
X-108.982 Y-12.329
X-108.945 Y-12.342
X-108.906 Y-12.339
X-108.871 Y-12.322
X-108.846 Y-12.292
X-108.827 Y-12.259 Z-0.982
X-108.81 Y-12.231 Z-0.961
X-108.8 Y-12.212 Z-0.928
X-108.796 Y-12.206 Z-0.89
G0 Z2
X-111.778 Y-12.886
Z-0.79
G1 Z-0.89 F1000
X-111.78 Y-12.879 Z-0.928
X-111.787 Y-12.858 Z-0.961
X-111.798 Y-12.827 Z-0.982
X-111.811 Y-12.791 Z-0.99
G3 X-112.146 Y-12.081 I-3.446 J-1.191
G1 X-112.183 Y-12.024
X-112.221 Y-11.94
X-112.23 Y-11.911
X-112.254 Y-11.84
X-112.362 Y-11.736
X-112.5 Y-11.678
X-112.649 Y-11.659
X-112.799 Y-11.671
X-112.943 Y-11.709
X-112.982 Y-11.726
X-113.072 Y-11.788
X-113.134 Y-11.878
X-113.16 Y-11.985
X-113.174 Y-12.259
X-113.169 Y-12.292
X-113.154 Y-12.321
X-113.129 Y-12.344
X-113.099 Y-12.358
X-113.066 Y-12.36
X-113.034 Y-12.352
X-112.882 Y-12.285
X-112.288 Y-12.022
X-112.26 Y-12.003
X-112.239 Y-11.976
X-112.229 Y-11.944
X-112.23 Y-11.911
X-112.243 Y-11.855
X-112.249 Y-11.813
X-112.252 Y-11.771
X-112.258 Y-11.696
X-112.34 Y-11.571
X-112.468 Y-11.492
X-112.612 Y-11.451
X-112.762 Y-11.441
X-112.911 Y-11.459
X-112.945 Y-11.471
X-113.047 Y-11.53
X-113.118 Y-11.625
X-113.147 Y-11.739
X-113.16 Y-11.985
X-113.154 Y-12.022
X-113.134 Y-12.054
X-113.104 Y-12.077
X-113.067 Y-12.086
X-113.03 Y-12.082
X-112.957 Y-12.059
X-112.322 Y-11.859
X-112.287 Y-11.84
X-112.263 Y-11.809
X-112.252 Y-11.771
X-112.249 Y-11.686
X-112.242 Y-11.602
X-112.24 Y-11.564
X-112.291 Y-11.423
X-112.401 Y-11.321
X-112.536 Y-11.256
X-112.682 Y-11.223
X-112.832 Y-11.218
X-112.894 Y-11.23
X-113.013 Y-11.283
X-113.098 Y-11.381
X-113.134 Y-11.507
X-113.147 Y-11.739
X-113.141 Y-11.774
X-113.124 Y-11.805
X-113.096 Y-11.828
X-113.062 Y-11.84
X-113.026 Y-11.839
X-112.967 Y-11.826
X-112.32 Y-11.688
X-112.291 Y-11.677
X-112.267 Y-11.658
X-112.25 Y-11.632
X-112.242 Y-11.602
X-112.228 Y-11.433
X-112.224 Y-11.358
X-112.28 Y-11.219
X-112.389 Y-11.115
X-112.521 Y-11.044
X-112.665 Y-11.002
X-112.815 Y-10.995
X-112.867 Y-11.004
X-112.988 Y-11.053
X-113.077 Y-11.149
X-113.116 Y-11.274
X-113.129 Y-11.433
X-113.134 Y-11.507
X-113.129 Y-11.541
X-113.113 Y-11.571
X-113.087 Y-11.594
X-113.056 Y-11.607
X-113.021 Y-11.608
X-112.963 Y-11.601
X-112.314 Y-11.519
X-112.283 Y-11.51
X-112.256 Y-11.491
X-112.237 Y-11.464
X-112.228 Y-11.433
X-112.207 Y-11.218
X-112.204 Y-11.143
X-112.266 Y-11.006
X-112.373 Y-10.901
X-112.504 Y-10.827
X-112.647 Y-10.782
X-112.797 Y-10.774
X-112.838 Y-10.78
X-112.954 Y-10.825
X-113.043 Y-10.913
X-113.087 Y-11.029
X-113.098 Y-11.095
X-113.108 Y-11.18
X-113.116 Y-11.274
X-113.112 Y-11.308
X-113.096 Y-11.339
X-113.071 Y-11.362
X-113.04 Y-11.376
X-113.006 Y-11.379
X-112.944 Y-11.372
X-112.296 Y-11.304
X-112.264 Y-11.295
X-112.237 Y-11.276
X-112.217 Y-11.249
X-112.207 Y-11.218
X-112.204 Y-11.18
X-112.188 Y-11.049
X-112.182 Y-10.974
X-112.22 Y-10.829
X-112.316 Y-10.713
X-112.439 Y-10.628
X-112.578 Y-10.573
X-112.727 Y-10.551
X-112.778 Y-10.555
X-112.9 Y-10.592
X-112.996 Y-10.677
X-113.047 Y-10.794
X-113.057 Y-10.842
X-113.087 Y-11.029
X-113.086 Y-11.063
X-113.073 Y-11.095
X-113.05 Y-11.12
X-113.02 Y-11.136
X-112.987 Y-11.142
X-112.931 Y-11.141
X-112.285 Y-11.133
X-112.251 Y-11.126
X-112.221 Y-11.108
X-112.199 Y-11.081
X-112.188 Y-11.049
X-112.172 Y-10.926
X-112.16 Y-10.842
X-112.151 Y-10.767
X-112.189 Y-10.622
X-112.282 Y-10.504
X-112.403 Y-10.416
X-112.541 Y-10.357
X-112.689 Y-10.334
X-112.729 Y-10.336
X-112.852 Y-10.373
X-112.95 Y-10.457
X-113.002 Y-10.575
X-113.047 Y-10.794
Y-10.828
X-113.035 Y-10.86
X-113.014 Y-10.886
X-112.984 Y-10.904
X-112.95 Y-10.91
X-112.906 Y-10.911
X-112.259 Y-10.922
X-112.225 Y-10.917
X-112.195 Y-10.9
X-112.172 Y-10.874
X-112.16 Y-10.842
X-112.124 Y-10.626
X-112.115 Y-10.552
X-112.156 Y-10.408
X-112.249 Y-10.29
X-112.37 Y-10.201
X-112.507 Y-10.141
X-112.656 Y-10.118
X-112.687 Y-10.121
X-112.809 Y-10.158
X-112.905 Y-10.242
X-112.957 Y-10.358
X-113.002 Y-10.575
Y-10.609
X-112.991 Y-10.641
X-112.969 Y-10.667
X-112.939 Y-10.685
X-112.906 Y-10.691
X-112.871 Y-10.692
X-112.224 Y-10.706
X-112.19 Y-10.701
X-112.16 Y-10.684
X-112.137 Y-10.658
X-112.124 Y-10.626
X-112.118 Y-10.588
X-112.09 Y-10.457
X-112.078 Y-10.383
X-112.094 Y-10.234
X-112.175 Y-10.108
X-112.288 Y-10.009
X-112.421 Y-9.94
X-112.567 Y-9.905
X-112.615 Y-9.906
X-112.743 Y-9.935
X-112.847 Y-10.017
X-112.905 Y-10.135
X-112.933 Y-10.25
X-112.957 Y-10.358
Y-10.391
X-112.947 Y-10.422
X-112.926 Y-10.449
X-112.899 Y-10.467
X-112.867 Y-10.475
X-112.837 Y-10.478
X-112.196 Y-10.533
X-112.161 Y-10.53
X-112.129 Y-10.515
X-112.104 Y-10.489
X-112.09 Y-10.457
X-112.061 Y-10.322
X-112.043 Y-10.25
X-112.028 Y-10.177
X-112.046 Y-10.028
X-112.126 Y-9.901
X-112.238 Y-9.801
X-112.37 Y-9.729
X-112.515 Y-9.694
X-112.546
X-112.663 Y-9.717
X-112.763 Y-9.784
X-112.828 Y-9.885
X-112.871 Y-9.997
X-112.905 Y-10.135
X-112.906 Y-10.168
X-112.896 Y-10.2
X-112.877 Y-10.227
X-112.849 Y-10.246
X-112.817 Y-10.255
X-112.792 Y-10.257
X-112.149 Y-10.322
X-112.115 Y-10.32
X-112.083 Y-10.306
X-112.058 Y-10.282
X-112.043 Y-10.25
X-111.988 Y-10.035
X-111.973 Y-9.962
X-111.997 Y-9.814
X-112.078 Y-9.687
X-112.191 Y-9.588
X-112.323 Y-9.517
X-112.469 Y-9.483
X-112.472
X-112.585 Y-9.508
X-112.679 Y-9.574
X-112.742 Y-9.67
X-112.772 Y-9.744
X-112.828 Y-9.885
X-112.833 Y-9.92
X-112.826 Y-9.954
X-112.808 Y-9.984
X-112.78 Y-10.006
X-112.747 Y-10.017
X-112.736 Y-10.019
X-112.098 Y-10.105
X-112.062 Y-10.104
X-112.03 Y-10.09
X-112.004 Y-10.066
X-111.988 Y-10.035
X-111.932 Y-9.828
X-111.915 Y-9.755
X-111.94 Y-9.607
X-112.021 Y-9.481
X-112.132 Y-9.381
X-112.264 Y-9.308
X-112.318 Y-9.296
X-112.455 Y-9.298
X-112.577 Y-9.361
X-112.658 Y-9.472
X-112.742 Y-9.67
X-112.748 Y-9.705
X-112.742 Y-9.739
X-112.724 Y-9.77
X-112.697 Y-9.792
X-112.663 Y-9.803
X-112.042 Y-9.896
X-112.007 Y-9.895
X-111.975 Y-9.882
X-111.949 Y-9.859
X-111.932 Y-9.828
X-111.907 Y-9.744
X-111.892 Y-9.697
X-111.876 Y-9.659
X-111.846 Y-9.59
X-111.855 Y-9.441
X-111.925 Y-9.308
X-112.028 Y-9.199
X-112.158 Y-9.124
X-112.216 Y-9.107
X-112.357 Y-9.102
X-112.485 Y-9.162
X-112.572 Y-9.273
X-112.594 Y-9.321
X-112.658 Y-9.472
X-112.664 Y-9.506
X-112.659 Y-9.541
X-112.641 Y-9.571
X-112.615 Y-9.594
X-112.581 Y-9.606
X-111.981 Y-9.71
X-111.95 Y-9.711
X-111.92 Y-9.702
X-111.894 Y-9.684
X-111.876 Y-9.659
X-111.807 Y-9.523
X-111.79 Y-9.49
X-111.76 Y-9.422
X-111.761 Y-9.272
X-111.823 Y-9.135
X-111.922 Y-9.022
X-112.048 Y-8.942
X-112.19 Y-8.894
X-112.194
X-112.302 Y-8.911
X-112.397 Y-8.967
X-112.465 Y-9.053
X-112.517 Y-9.152
X-112.572 Y-9.273
X-112.579 Y-9.307
X-112.574 Y-9.341
X-112.558 Y-9.372
X-112.533 Y-9.395
X-112.501 Y-9.409
X-111.899 Y-9.539
X-111.867 Y-9.541
X-111.837 Y-9.533
X-111.81 Y-9.515
X-111.79 Y-9.49
X-111.704 Y-9.321
X-111.673 Y-9.253
X-111.664 Y-9.103
X-111.72 Y-8.964
X-111.814 Y-8.847
X-111.934 Y-8.757
X-111.975 Y-8.74
X-112.105 Y-8.72
X-112.231 Y-8.757
X-112.33 Y-8.844
X-112.429 Y-8.984
X-112.465 Y-9.053
X-112.475 Y-9.086
X-112.473 Y-9.12
X-112.459 Y-9.152
X-112.435 Y-9.177
X-112.404 Y-9.192
X-111.82 Y-9.368
X-111.787 Y-9.373
X-111.754 Y-9.365
X-111.725 Y-9.348
X-111.704 Y-9.321
X-111.661 Y-9.237
X-111.611 Y-9.152
X-111.575 Y-9.087
X-111.56 Y-8.938
X-111.61 Y-8.796
X-111.698 Y-8.674
X-111.817 Y-8.584
X-111.843 Y-8.574
X-111.972 Y-8.551
X-112.098 Y-8.585
X-112.198 Y-8.669
X-112.315 Y-8.824
X-112.33 Y-8.844
X-112.344 Y-8.878
X-112.345 Y-8.914
X-112.334 Y-8.948
X-112.311 Y-8.976
X-112.28 Y-8.994
X-111.728 Y-9.191
X-111.696 Y-9.197
X-111.663 Y-9.192
X-111.634 Y-9.176
X-111.611 Y-9.152
X-111.559 Y-9.068
X-111.51 Y-9.008
X-111.466 Y-8.947
X-111.438 Y-8.8
X-111.476 Y-8.655
X-111.556 Y-8.528
X-111.67 Y-8.43
X-111.7 Y-8.416
X-111.827 Y-8.386
X-111.954 Y-8.414
X-112.058 Y-8.492
X-112.116 Y-8.561
X-112.198 Y-8.669
X-112.213 Y-8.702
X-112.216 Y-8.737
X-112.206 Y-8.772
X-112.184 Y-8.8
X-112.154 Y-8.819
X-111.624 Y-9.035
X-111.594 Y-9.042
X-111.563 Y-9.04
X-111.534 Y-9.028
X-111.51 Y-9.008
X-111.469 Y-8.956
X-111.4 Y-8.876
X-111.355 Y-8.816
X-111.309 Y-8.673
X-111.334 Y-8.526
X-111.405 Y-8.393
X-111.512 Y-8.288
X-111.526 Y-8.279
X-111.642 Y-8.242
X-111.764 Y-8.253
X-111.871 Y-8.313
X-111.976 Y-8.404
X-112.045 Y-8.477
X-112.058 Y-8.492
X-112.075 Y-8.523
X-112.08 Y-8.558
X-112.072 Y-8.593
X-112.053 Y-8.622
X-112.025 Y-8.644
X-111.519 Y-8.898
X-111.488 Y-8.907
X-111.456
X-111.426 Y-8.896
X-111.4 Y-8.876
X-111.3 Y-8.757
X-111.276 Y-8.73
X-111.226 Y-8.674
X-111.175 Y-8.533
X-111.196 Y-8.384
X-111.261 Y-8.249
X-111.308 Y-8.202
X-111.433 Y-8.125
X-111.579 Y-8.117
X-111.712 Y-8.18
X-111.807 Y-8.258
X-111.871 Y-8.313
X-111.893 Y-8.343
X-111.902 Y-8.378
X-111.899 Y-8.415
X-111.882 Y-8.448
X-111.854 Y-8.472
X-111.395 Y-8.743
X-111.365 Y-8.755
X-111.333 Y-8.757
X-111.302 Y-8.748
X-111.276 Y-8.73
X-111.215 Y-8.669
X-111.155 Y-8.621
X-111.099 Y-8.572
X-111.031 Y-8.438
X-111.035 Y-8.288
X-111.093 Y-8.15
X-111.188 Y-8.034
X-111.201 Y-8.026
X-111.313 Y-7.984
X-111.432 Y-7.99
X-111.539 Y-8.041
X-111.558 Y-8.054
X-111.712 Y-8.18
X-111.735 Y-8.208
X-111.745 Y-8.243
X-111.743 Y-8.28
X-111.727 Y-8.313
X-111.701 Y-8.338
X-111.27 Y-8.624
X-111.242 Y-8.637
X-111.212 Y-8.641
X-111.182 Y-8.635
X-111.155 Y-8.621
X-111.13 Y-8.602
X-111.046 Y-8.549
X-111.02 Y-8.536
X-110.955 Y-8.499
X-110.874 Y-8.372
X-110.864 Y-8.222
X-110.904 Y-8.078
X-110.933 Y-8.03
X-111.034 Y-7.929
X-111.172 Y-7.886
X-111.313 Y-7.912
X-111.384 Y-7.944
X-111.438 Y-7.97
X-111.469 Y-7.988
X-111.539 Y-8.041
X-111.563 Y-8.068
X-111.575 Y-8.101
Y-8.137
X-111.562 Y-8.17
X-111.538 Y-8.197
X-111.124 Y-8.523
X-111.092 Y-8.54
X-111.055 Y-8.545
X-111.02 Y-8.536
X-110.877 Y-8.464
X-110.811 Y-8.428
X-110.715 Y-8.312
X-110.689 Y-8.164
X-110.717 Y-8.017
X-110.786 Y-7.884
X-110.884 Y-7.82
X-110.997 Y-7.799
X-111.109 Y-7.821
X-111.13 Y-7.83
X-111.313 Y-7.912
X-111.342 Y-7.935
X-111.362 Y-7.966
X-111.368 Y-8.003
X-111.361 Y-8.039
X-111.341 Y-8.071
X-110.99 Y-8.442
X-110.966 Y-8.461
X-110.937 Y-8.471
X-110.906 Y-8.472
X-110.877 Y-8.464
X-110.792 Y-8.422
X-110.707 Y-8.386
X-110.64 Y-8.354
X-110.542 Y-8.24
X-110.512 Y-8.093
X-110.529 Y-7.944
X-110.55 Y-7.898
X-110.617 Y-7.807
X-110.713 Y-7.747
X-110.824 Y-7.727
X-110.935 Y-7.75
X-111.109 Y-7.821
X-111.14 Y-7.842
X-111.16 Y-7.873
X-111.168 Y-7.909
X-111.163 Y-7.946
X-111.144 Y-7.977
X-110.818 Y-8.357
X-110.795 Y-8.377
X-110.767 Y-8.389
X-110.737 Y-8.392
X-110.707 Y-8.386
X-110.623 Y-8.351
X-110.538 Y-8.327
X-110.502 Y-8.316
X-110.444 Y-8.269
X-110.358 Y-8.146
X-110.33 Y-7.999
X-110.356 Y-7.851
X-110.372 Y-7.821
X-110.451 Y-7.729
X-110.56 Y-7.675
X-110.681 Y-7.669
X-110.718 Y-7.684
X-110.746 Y-7.712
X-110.761 Y-7.749
X-110.76 Y-7.789
X-110.657 Y-8.251
X-110.641 Y-8.287
X-110.613 Y-8.313
X-110.577 Y-8.328
X-110.538 Y-8.327
X-110.454 Y-8.306
X-110.407 Y-8.296
X-110.335 Y-8.276
X-110.216 Y-8.184
X-110.156 Y-8.046
X-110.144 Y-7.897
X-110.155 Y-7.859
X-110.223 Y-7.736
X-110.339 Y-7.657
X-110.479 Y-7.64
X-110.514 Y-7.653
X-110.542 Y-7.677
X-110.56 Y-7.71
X-110.564 Y-7.747
X-110.525 Y-8.206
X-110.516 Y-8.238
X-110.498 Y-8.266
X-110.472 Y-8.286
X-110.44 Y-8.296
X-110.407
X-110.2 Y-8.251
X-110.127 Y-8.233
X-110.018 Y-8.131
X-109.96 Y-7.992
X-109.961 Y-7.842
X-109.967 Y-7.824
X-110.036 Y-7.708
X-110.15 Y-7.634
X-110.284 Y-7.617
X-110.32 Y-7.63
X-110.35 Y-7.656
X-110.367 Y-7.69
X-110.369 Y-7.729
X-110.314 Y-8.165
X-110.301 Y-8.202
X-110.275 Y-8.232
X-110.239 Y-8.249
X-110.2 Y-8.251
X-110.031 Y-8.219
X-109.958 Y-8.202
X-109.837 Y-8.113
X-109.775 Y-7.976
X-109.771 Y-7.826
X-109.775 Y-7.814
X-109.84 Y-7.698
X-109.947 Y-7.621
X-110.078 Y-7.598
X-110.115 Y-7.609
X-110.145 Y-7.632
X-110.164 Y-7.666
X-110.169 Y-7.704
X-110.145 Y-8.126
X-110.138 Y-8.158
X-110.12 Y-8.187
X-110.095 Y-8.207
X-110.064 Y-8.219
X-110.031
X-109.956 Y-8.206
X-109.899 Y-8.21
X-109.824 Y-8.212
X-109.757 Y-8.18
X-109.643 Y-8.083
X-109.584 Y-7.945
Y-7.899
X-109.621 Y-7.756
X-109.721 Y-7.648
X-109.86 Y-7.601
X-109.946 Y-7.594
X-110.031 Y-7.596
X-110.115 Y-7.6
X-110.284 Y-7.617
X-110.538 Y-7.647
X-110.707 Y-7.673
X-110.75 Y-7.68
X-110.792 Y-7.694
X-110.854 Y-7.717
X-110.935 Y-7.75
X-110.963 Y-7.769
X-110.984 Y-7.798
X-110.993 Y-7.831
X-110.99 Y-7.866
X-110.976 Y-7.898
X-110.951 Y-7.923
X-110.919 Y-7.937
X-110.658 Y-8.007
X-109.899 Y-8.21
X-109.738 Y-8.223
X-109.663 Y-8.226
X-109.525 Y-8.168
X-109.432 Y-8.05
X-109.397 Y-7.904
X-109.399 Y-7.886
X-109.442 Y-7.759
X-109.536 Y-7.663
X-109.662 Y-7.618
X-109.692 Y-7.614
X-109.86 Y-7.601
X-109.898 Y-7.606
X-109.931 Y-7.626
X-109.954 Y-7.657
X-109.964 Y-7.694
X-109.96 Y-7.732
X-109.821 Y-8.155
X-109.803 Y-8.188
X-109.774 Y-8.212
X-109.738 Y-8.223
X-109.692 Y-8.227
X-109.561 Y-8.25
X-109.487 Y-8.26
X-109.347 Y-8.205
X-109.252 Y-8.089
X-109.211 Y-7.945
Y-7.929
X-109.248 Y-7.795
X-109.342 Y-7.692
X-109.472 Y-7.642
X-109.638 Y-7.621
X-109.662 Y-7.618
X-109.701 Y-7.622
X-109.735 Y-7.64
X-109.759 Y-7.671
X-109.77 Y-7.708
X-109.766 Y-7.746
X-109.636 Y-8.181
X-109.62 Y-8.213
X-109.594 Y-8.237
X-109.561 Y-8.25
X-109.438 Y-8.272
X-109.392 Y-8.285
X-109.355 Y-8.294
X-109.281 Y-8.28
X-109.147 Y-8.214
X-109.056 Y-8.095
X-109.022 Y-7.948
X-109.023 Y-7.937
X-109.065 Y-7.81
X-109.157 Y-7.714
X-109.282 Y-7.667
X-109.32 Y-7.671
X-109.353 Y-7.687
X-109.378 Y-7.715
X-109.391 Y-7.751
X-109.46 Y-8.174
Y-8.209
X-109.447 Y-8.242
X-109.423 Y-8.269
X-109.392 Y-8.285
X-109.315 Y-8.308
X-109.269 Y-8.322
X-109.196 Y-8.34
X-109.122 Y-8.329
X-108.983 Y-8.273
X-108.886 Y-8.159
X-108.836 Y-8.017
Y-7.995
X-108.866 Y-7.861
X-108.953 Y-7.754
X-109.078 Y-7.697
X-109.113 Y-7.698
X-109.146 Y-7.711
X-109.172 Y-7.734
X-109.189 Y-7.765
X-109.331 Y-8.196
X-109.336 Y-8.234
X-109.326 Y-8.272
X-109.303 Y-8.302
X-109.269 Y-8.322
X-109.184 Y-8.348
X-109.1 Y-8.382
X-109.065 Y-8.396
X-108.99 Y-8.398
X-108.845 Y-8.359
X-108.734 Y-8.259
X-108.661 Y-8.127
X-108.654 Y-8.086
X-108.662 Y-7.956
X-108.723 Y-7.842
X-108.828 Y-7.764
X-108.888 Y-7.737
X-108.931 Y-7.726
X-109.1 Y-7.693
X-109.269 Y-7.669
X-109.472 Y-7.642
X-109.51 Y-7.646
X-109.544 Y-7.664
X-109.569 Y-7.694
X-109.581 Y-7.73
X-109.577 Y-7.769
X-109.56 Y-7.803
X-109.124 Y-8.359
X-109.1 Y-8.382
