%
(n-046-050)
(T1  D=1 CR=0 - ZMIN=-2 - flat end mill)
G90 G94
G17
G21
G28 G91 Z0
G90

(Clear 11)
M9
T1 M6
S5000 M3
G54
M8
G0 X-117.178 Y-14.597
Z12
Z2
Z0.5
G3 X-116.694 Y-14.721 Z0.29 I0.242 J-0.062 F333.3
X-117.178 Y-14.597 Z0.079 I-0.242 J0.062
X-116.694 Y-14.721 Z-0.131 I0.242 J-0.062
X-117.178 Y-14.597 Z-0.342 I-0.242 J0.062
X-116.694 Y-14.721 Z-0.552 I0.242 J-0.062
X-117.178 Y-14.597 Z-0.763 I-0.242 J0.062
X-116.967 Y-14.907 Z-0.876 I0.242 J-0.062
X-116.686 Y-14.659 Z-0.99 I0.031 J0.248
X-117.186 I-0.25
X-116.686 I0.25
G1 X-116.649 Y-14.514 F1000
X-116.662 Y-14.44
X-116.699 Y-14.375
X-116.806 Y-14.27
X-116.95 Y-14.23
X-117.099 Y-14.251
X-117.229 Y-14.325
X-117.326 Y-14.44
X-117.378 Y-14.58
X-117.38 Y-14.73
X-117.332 Y-14.873
X-117.241 Y-14.991
X-117.115 Y-15.073
X-116.969 Y-15.109
X-116.82 Y-15.095
X-116.683 Y-15.033
X-116.575 Y-14.929
X-116.497 Y-14.801
X-116.446 Y-14.66
X-116.436 Y-14.51
X-116.471 Y-14.364
X-116.542 Y-14.232
X-116.65 Y-14.128
X-116.781 Y-14.055
X-116.927 Y-14.022
X-117.077 Y-14.029
X-117.221 Y-14.07
X-117.351 Y-14.146
X-117.457 Y-14.251
X-117.539 Y-14.377
X-117.589 Y-14.518
X-117.603 Y-14.668
X-117.587 Y-14.817
X-117.536 Y-14.958
X-117.454 Y-15.083
X-117.347 Y-15.189
X-117.22 Y-15.268
X-117.077 Y-15.314
X-116.928 Y-15.33
X-116.779 Y-15.312
X-116.639 Y-15.26
X-116.512 Y-15.18
X-116.403 Y-15.076
X-116.316 Y-14.954
X-116.253 Y-14.818
X-116.215 Y-14.673
X-116.207 Y-14.523
X-116.229 Y-14.375
X-116.244 Y-14.333
X-116.26 Y-14.294
X-116.281 Y-14.259
X-116.307 Y-14.226
X-116.313 Y-14.22
X-116.376 Y-14.142
X-116.379 Y-14.136
X-116.461 Y-14.01
X-116.576 Y-13.914
X-116.709 Y-13.844
X-116.854 Y-13.804
X-117.003 Y-13.793
X-117.152 Y-13.809
X-117.24 Y-13.834
X-117.329 Y-13.876
X-117.399 Y-13.945
X-117.443 Y-14.032
X-117.449 Y-14.051
X-117.475 Y-14.106
X-117.492 Y-14.136
X-117.56 Y-14.222
X-117.602 Y-14.263
X-117.626 Y-14.28
X-117.74 Y-14.377
X-117.797 Y-14.516
X-117.823 Y-14.664
X-117.818 Y-14.814
X-117.814 Y-14.83
X-117.779 Y-14.915
X-117.72 Y-14.986
X-117.642 Y-15.035
X-117.619 Y-15.045
X-117.607 Y-15.054
X-117.594 Y-15.065
X-117.56 Y-15.098
X-117.517 Y-15.15
X-117.475 Y-15.214
X-117.466 Y-15.234
X-117.401 Y-15.369
X-117.282 Y-15.461
X-117.145 Y-15.522
X-116.999 Y-15.552
X-116.849 Y-15.554
X-116.701 Y-15.53
X-116.642 Y-15.51
X-116.557 Y-15.467
X-116.488 Y-15.401
X-116.44 Y-15.318
X-116.434 Y-15.283
X-116.441 Y-15.247
X-116.46 Y-15.217
X-116.489 Y-15.195
X-116.524 Y-15.185
X-116.781 Y-15.159
X-117.362 Y-15.101
X-117.395 Y-15.103
X-117.426 Y-15.116
X-117.45 Y-15.139
X-117.466 Y-15.168
X-117.472 Y-15.201
X-117.466 Y-15.234
X-117.432 Y-15.318
X-117.421 Y-15.361
X-117.415 Y-15.392
Y-15.403
X-117.409 Y-15.478
X-117.335 Y-15.608
X-117.215 Y-15.699
X-117.076 Y-15.754
X-116.928 Y-15.78
X-116.778
X-116.703 Y-15.765
X-116.58 Y-15.711
X-116.493 Y-15.609
X-116.459 Y-15.479
X-116.466 Y-15.443
X-116.485 Y-15.412
X-116.514 Y-15.39
X-116.549 Y-15.38
X-116.689 Y-15.366
X-117.305 Y-15.304
X-117.338 Y-15.306
X-117.368 Y-15.319
X-117.393 Y-15.341
X-117.409 Y-15.37
X-117.415 Y-15.403
X-117.409 Y-15.618
X-117.403 Y-15.693
X-117.325 Y-15.821
X-117.207 Y-15.913
X-117.069 Y-15.973
X-116.923 Y-16.005
X-116.773 Y-16.006
X-116.707 Y-15.993
X-116.582 Y-15.937
X-116.495 Y-15.832
X-116.464 Y-15.699
Y-15.656
X-116.457 Y-15.392
X-116.451 Y-15.361
X-116.44 Y-15.318
X-116.406 Y-15.234
X-116.376 Y-15.18
X-116.355 Y-15.15
X-116.291 Y-15.078
X-116.276 Y-15.065
X-116.238 Y-15.036
X-116.122 Y-14.941
X-116.044 Y-14.813
X-115.998 Y-14.67
X-115.995 Y-14.636
X-116.005 Y-14.517
X-116.061 Y-14.412
X-116.153 Y-14.337
X-116.189 Y-14.327
X-116.225 Y-14.331
X-116.258 Y-14.347
X-116.282 Y-14.374
X-116.295 Y-14.409
X-116.393 Y-14.936
X-116.392 Y-14.975
X-116.377 Y-15.011
X-116.349 Y-15.038
X-116.313 Y-15.053
X-116.273 Y-15.052
X-116.238 Y-15.036
X-116.206 Y-15.013
X-116.147 Y-14.981
X-116.122 Y-14.969
X-116.079 Y-14.954
X-116.037 Y-14.942
X-116.001 Y-14.933
X-115.883 Y-14.84
X-115.862 Y-14.795
X-115.832 Y-14.668
X-115.859 Y-14.54
X-115.937 Y-14.436
X-116.053 Y-14.375
X-116.09 Y-14.374
X-116.125 Y-14.386
X-116.154 Y-14.41
X-116.171 Y-14.443
X-116.175 Y-14.481
X-116.146 Y-14.851
X-116.135 Y-14.888
X-116.11 Y-14.919
X-116.076 Y-14.938
X-116.037 Y-14.942
X-115.953 Y-14.932
X-115.906 Y-14.93
X-115.869 Y-14.926
X-115.802 Y-14.891
X-115.748 Y-14.839
X-115.746 Y-14.834
X-115.707 Y-14.694
X-115.738 Y-14.552
X-115.833 Y-14.441
X-115.968 Y-14.388
X-116.005 Y-14.392
X-116.038 Y-14.408
X-116.063 Y-14.436
X-116.076 Y-14.471
Y-14.508
X-116.006 Y-14.85
X-115.993 Y-14.882
X-115.97 Y-14.908
X-115.94 Y-14.924
X-115.906 Y-14.93
X-115.868 Y-14.928
X-115.783
X-115.746 Y-14.926
X-115.679 Y-14.893
X-115.624 Y-14.841
X-115.553 Y-14.709
X-115.571 Y-14.589
X-115.635 Y-14.487
X-115.734 Y-14.418
X-115.852 Y-14.394
X-115.868
X-115.953 Y-14.39
X-115.986 Y-14.395
X-116.017 Y-14.411
X-116.039 Y-14.437
X-116.052 Y-14.469
X-116.054 Y-14.503
X-116.043 Y-14.536
X-115.869 Y-14.874
X-115.847 Y-14.901
X-115.818 Y-14.92
X-115.783 Y-14.928
X-115.652
X-115.577 Y-14.924
X-115.512 Y-14.887
X-115.461 Y-14.832
X-115.394 Y-14.698
Y-14.689
X-115.419 Y-14.576
X-115.484 Y-14.48
X-115.581 Y-14.417
X-115.694 Y-14.394
X-115.852
X-115.886 Y-14.401
X-115.915 Y-14.419
X-115.937 Y-14.446
X-115.948 Y-14.479
X-115.947 Y-14.514
X-115.935 Y-14.546
X-115.734 Y-14.879
X-115.713 Y-14.904
X-115.685 Y-14.921
X-115.652 Y-14.928
X-115.483
X-115.445
X-115.398 Y-14.927
X-115.392 Y-14.926
X-115.354 Y-14.919
X-115.318 Y-14.903
X-115.287 Y-14.879
X-115.269 Y-14.837
X-115.265 Y-14.79
X-115.276 Y-14.745
G3 X-115.516 Y-14.847 I-0.12 J-0.051
X-115.398 Y-14.927 I0.12 J0.051
G1 X-115.36 Y-14.926
X-115.346 Y-14.923
X-115.332 Y-14.917
X-115.318 Y-14.908
X-115.304 Y-14.896
X-115.287 Y-14.879
X-115.276 Y-14.863
X-115.27 Y-14.85
X-115.266 Y-14.837
X-115.264 Y-14.824
X-115.263 Y-14.643
Y-14.596
X-115.295 Y-14.494
X-115.372 Y-14.421
X-115.475 Y-14.394
G3 X-115.656 Y-14.65 I0.007 J-0.196
X-115.263 Y-14.596 I0.192 J0.061
G1 Y-14.505
X-115.265 Y-14.495
X-115.267 Y-14.484
X-115.271 Y-14.474
X-115.276 Y-14.465
X-115.294 Y-14.439
X-115.304 Y-14.427
X-115.318 Y-14.414
X-115.329 Y-14.407
X-115.339 Y-14.402
X-115.35 Y-14.398
X-115.36 Y-14.396
X-115.445 Y-14.394
X-115.694
X-115.722 Y-14.399
X-115.748 Y-14.412
X-116.346 Y-14.828
X-116.8 Y-15.143
X-117.366 Y-15.537
X-117.389 Y-15.559
X-117.404 Y-15.587
X-117.409 Y-15.618
X-117.408 Y-15.656
Y-15.787
X-117.404 Y-15.862
X-117.351 Y-16.002
X-117.243 Y-16.107
X-117.112 Y-16.18
X-116.969 Y-16.224
X-116.819 Y-16.236
X-116.67 Y-16.216
X-116.649 Y-16.207
X-116.552 Y-16.142
X-116.487 Y-16.045
X-116.464 Y-15.93
Y-15.699
X-116.471 Y-15.667
X-116.487 Y-15.638
X-116.512 Y-15.617
X-116.543 Y-15.605
X-116.576 Y-15.603
X-116.68 Y-15.616
X-117.32 Y-15.691
X-117.353 Y-15.702
X-117.381 Y-15.723
X-117.4 Y-15.753
X-117.408 Y-15.787
Y-15.994
X-117.404 Y-16.069
X-117.355 Y-16.211
X-117.252 Y-16.32
X-117.123 Y-16.396
X-116.981 Y-16.444
X-116.832 Y-16.463
X-116.683 Y-16.447
X-116.663 Y-16.44
X-116.559 Y-16.376
X-116.489 Y-16.277
X-116.464 Y-16.157
Y-15.93
X-116.471 Y-15.898
X-116.487 Y-15.87
X-116.511 Y-15.849
X-116.541 Y-15.836
X-116.573 Y-15.834
X-116.678 Y-15.843
X-117.316 Y-15.898
X-117.351 Y-15.908
X-117.38 Y-15.929
X-117.4 Y-15.959
X-117.408 Y-15.994
Y-16.248
X-117.404 Y-16.322
X-117.339 Y-16.458
X-117.229 Y-16.56
X-117.098 Y-16.632
X-116.954 Y-16.675
X-116.805 Y-16.689
X-116.656 Y-16.666
X-116.648 Y-16.663
X-116.551 Y-16.598
X-116.487 Y-16.501
X-116.464 Y-16.386
Y-16.157
X-116.471 Y-16.125
X-116.488 Y-16.097
X-116.513 Y-16.075
X-116.543 Y-16.063
X-116.576 Y-16.062
X-116.681 Y-16.074
X-117.32 Y-16.152
X-117.354 Y-16.162
X-117.381 Y-16.183
X-117.4 Y-16.213
X-117.408 Y-16.248
Y-16.463
X-117.404 Y-16.538
X-117.342 Y-16.675
X-117.235 Y-16.779
X-117.104 Y-16.853
X-116.961 Y-16.899
X-116.812 Y-16.916
X-116.664 Y-16.896
X-116.654 Y-16.892
X-116.555 Y-16.828
X-116.488 Y-16.729
X-116.464 Y-16.613
Y-16.386
X-116.471 Y-16.354
X-116.487 Y-16.326
X-116.512 Y-16.305
X-116.542 Y-16.292
X-116.574 Y-16.29
X-116.679 Y-16.301
X-117.318 Y-16.367
X-117.352 Y-16.377
X-117.381 Y-16.398
X-117.4 Y-16.428
X-117.408 Y-16.463
Y-16.67
X-117.404 Y-16.745
X-117.351 Y-16.885
X-117.247 Y-16.993
X-117.119 Y-17.071
X-116.977 Y-17.121
X-116.829 Y-17.142
X-116.68 Y-17.126
X-116.663 Y-17.12
X-116.559 Y-17.057
X-116.489 Y-16.957
X-116.464 Y-16.838
Y-16.613
X-116.471 Y-16.581
X-116.486 Y-16.554
X-116.51 Y-16.532
X-116.54 Y-16.519
X-116.572 Y-16.517
X-116.678 Y-16.525
X-117.315 Y-16.574
X-117.351 Y-16.583
X-117.38 Y-16.604
X-117.4 Y-16.634
X-117.408 Y-16.67
Y-16.885
Y-16.923
Y-16.97
X-117.406 Y-17.007
X-117.381 Y-17.054
X-117.314 Y-17.138
X-117.222 Y-17.193
X-117.116 Y-17.213
X-117.082 Y-17.205
X-117.052 Y-17.187
X-117.031 Y-17.159
X-117.021 Y-17.125
X-117.022 Y-17.09
X-117.036 Y-17.058
X-117.06 Y-17.032
X-117.248 Y-16.893
X-117.281 Y-16.877
X-117.316 Y-16.874
X-117.351 Y-16.883
X-117.38 Y-16.904
X-117.4 Y-16.935
X-117.408 Y-16.97
Y-17.092
Y-17.109
X-117.405 Y-17.125
X-117.4 Y-17.141
X-117.391 Y-17.158
X-117.374 Y-17.177
X-117.357 Y-17.191
X-117.34 Y-17.202
X-117.323 Y-17.209
X-117.306 Y-17.212
X-116.968 Y-17.213
X-116.629
X-116.595 Y-17.211
X-116.565 Y-17.207
X-116.537 Y-17.199
X-116.51 Y-17.186
X-116.486 Y-17.158
X-116.474 Y-17.124
X-116.475 Y-17.088
X-116.489 Y-17.054
X-116.513 Y-17.028
X-116.546 Y-17.012
X-116.582 Y-17.009
X-116.635 Y-17.013
X-116.671 Y-17.023
X-116.7 Y-17.046
X-116.72 Y-17.078
X-116.726 Y-17.115
X-116.718 Y-17.152
X-116.697 Y-17.183
X-116.666 Y-17.204
X-116.629 Y-17.213
X-116.576 Y-17.212
X-116.566 Y-17.211
X-116.555 Y-17.209
X-116.545 Y-17.205
X-116.51 Y-17.186
X-116.498 Y-17.177
X-116.488 Y-17.166
X-116.48 Y-17.156
X-116.474 Y-17.145
X-116.47 Y-17.134
X-116.467 Y-17.124
X-116.465 Y-17.113
X-116.464 Y-17.092
Y-16.838
X-116.472 Y-16.804
X-116.753 Y-16.108
X-117.248 Y-14.885
X-117.475 Y-14.324
X-117.494 Y-14.294
X-117.523 Y-14.272
X-117.557 Y-14.262
X-117.593 Y-14.265
X-117.626 Y-14.28
X-117.645 Y-14.295
X-117.66 Y-14.305
X-117.729 Y-14.343
X-117.771 Y-14.361
X-117.841 Y-14.389
X-117.95 Y-14.491
X-118.011 Y-14.629
X-118.012 Y-14.644
X-117.999 Y-14.769
X-117.936 Y-14.878
X-117.834 Y-14.951
X-117.642 Y-15.035
X-117.606 Y-15.042
X-117.57 Y-15.036
X-117.538 Y-15.017
X-117.516 Y-14.987
X-117.506 Y-14.952
X-117.509 Y-14.915
X-117.648 Y-14.429
X-117.666 Y-14.395
X-117.695 Y-14.369
X-117.733 Y-14.357
X-117.771 Y-14.361
X-117.814 Y-14.374
X-117.856 Y-14.384
X-117.898 Y-14.386
X-117.973 Y-14.393
X-118.039 Y-14.428
X-118.148 Y-14.531
X-118.15 Y-14.536
X-118.163 Y-14.668
X-118.117 Y-14.793
X-118.023 Y-14.887
X-117.898 Y-14.931
X-117.865 Y-14.928
X-117.834 Y-14.915
X-117.81 Y-14.892
X-117.795 Y-14.862
X-117.79 Y-14.829
X-117.798 Y-14.484
X-117.807 Y-14.446
X-117.829 Y-14.415
X-117.861 Y-14.394
X-117.898 Y-14.386
X-118.068 Y-14.392
X-118.142 Y-14.398
X-118.208 Y-14.433
X-118.258 Y-14.49
X-118.325 Y-14.624
Y-14.627
X-118.303 Y-14.742
X-118.238 Y-14.84
X-118.14 Y-14.905
X-118.026 Y-14.928
X-117.983
X-117.898 Y-14.931
X-117.865 Y-14.925
X-117.835 Y-14.909
X-117.813 Y-14.884
X-117.8 Y-14.852
X-117.799 Y-14.818
X-117.809 Y-14.786
X-117.979 Y-14.447
X-118.001 Y-14.418
X-118.032 Y-14.399
X-118.068 Y-14.392
X-118.152 Y-14.394
X-118.237
X-118.274 Y-14.396
X-118.343 Y-14.427
X-118.4 Y-14.475
X-118.477 Y-14.604
X-118.478 Y-14.615
X-118.459 Y-14.734
X-118.395 Y-14.835
X-118.296 Y-14.904
X-118.178 Y-14.928
X-118.026
X-117.991 Y-14.92
X-117.962 Y-14.902
X-117.941 Y-14.874
X-117.93 Y-14.841
X-117.931 Y-14.806
X-117.944 Y-14.774
X-118.156 Y-14.441
X-118.177 Y-14.417
X-118.205 Y-14.401
X-118.237 Y-14.394
X-118.368
X-118.443 Y-14.398
X-118.51 Y-14.431
X-118.564 Y-14.483
X-118.634 Y-14.616
Y-14.627
X-118.612 Y-14.742
X-118.547 Y-14.839
X-118.449 Y-14.905
X-118.334 Y-14.928
X-118.178
X-118.145 Y-14.921
X-118.116 Y-14.903
X-118.094 Y-14.876
X-118.083 Y-14.844
Y-14.81
X-118.095 Y-14.778
X-118.285 Y-14.445
X-118.306 Y-14.419
X-118.335 Y-14.401
X-118.368 Y-14.394
X-118.537
X-118.612 Y-14.398
X-118.677 Y-14.436
X-118.727 Y-14.491
X-118.792 Y-14.626
Y-14.635
X-118.767 Y-14.748
X-118.702 Y-14.842
X-118.605 Y-14.905
X-118.492 Y-14.928
X-118.334
X-118.3 Y-14.92
X-118.271 Y-14.902
X-118.25 Y-14.875
X-118.239 Y-14.842
X-118.24 Y-14.808
X-118.252 Y-14.776
X-118.455 Y-14.442
X-118.477 Y-14.417
X-118.505 Y-14.401
X-118.537 Y-14.394
X-118.706
X-118.744 Y-14.396
X-118.812 Y-14.428
X-118.869 Y-14.477
X-118.945 Y-14.606
X-118.946 Y-14.617
X-118.926 Y-14.735
X-118.862 Y-14.836
X-118.763 Y-14.904
X-118.646 Y-14.928
X-118.492
X-118.458 Y-14.92
X-118.429 Y-14.902
X-118.407 Y-14.874
X-118.397 Y-14.841
X-118.398 Y-14.806
X-118.412 Y-14.774
X-118.626 Y-14.44
X-118.647 Y-14.416
X-118.675 Y-14.4
X-118.706 Y-14.394
X-118.829
X-118.904 Y-14.398
X-118.972 Y-14.429
X-119.027 Y-14.48
X-119.1 Y-14.611
X-119.101 Y-14.622
X-119.079 Y-14.739
X-119.015 Y-14.838
X-118.917 Y-14.904
X-118.801 Y-14.928
X-118.646
X-118.613 Y-14.921
X-118.584 Y-14.903
X-118.562 Y-14.877
X-118.551 Y-14.845
Y-14.811
X-118.562 Y-14.779
X-118.745 Y-14.446
X-118.766 Y-14.419
X-118.795 Y-14.401
X-118.829 Y-14.394
X-118.998
X-119.073 Y-14.398
X-119.139 Y-14.434
X-119.191 Y-14.488
X-119.258 Y-14.622
Y-14.632
X-119.234 Y-14.745
X-119.168 Y-14.841
X-119.072 Y-14.905
X-118.958 Y-14.928
X-118.801
X-118.767 Y-14.92
X-118.738 Y-14.902
X-118.716 Y-14.876
X-118.705 Y-14.843
X-118.706 Y-14.809
X-118.718 Y-14.777
X-118.916 Y-14.443
X-118.937 Y-14.418
X-118.966 Y-14.401
X-118.998 Y-14.394
X-119.167
X-119.242 Y-14.398
X-119.305 Y-14.438
X-119.355 Y-14.495
X-119.417 Y-14.631
Y-14.639
X-119.391 Y-14.75
X-119.325 Y-14.844
X-119.229 Y-14.906
X-119.117 Y-14.928
X-118.958
X-118.924 Y-14.92
X-118.894 Y-14.902
X-118.873 Y-14.874
X-118.862 Y-14.841
X-118.864 Y-14.807
X-118.877 Y-14.774
X-119.086 Y-14.441
X-119.108 Y-14.417
X-119.136 Y-14.401
X-119.167 Y-14.394
X-119.299
X-119.373 Y-14.398
X-119.44 Y-14.432
X-119.496 Y-14.482
X-119.571 Y-14.612
Y-14.621
X-119.55 Y-14.738
X-119.485 Y-14.838
X-119.387 Y-14.904
X-119.271 Y-14.928
X-119.117
X-119.084 Y-14.921
X-119.055 Y-14.903
X-119.034 Y-14.877
X-119.022 Y-14.845
Y-14.812
X-119.033 Y-14.78
X-119.214 Y-14.446
X-119.236 Y-14.419
X-119.265 Y-14.401
X-119.299 Y-14.394
X-119.468
X-119.543 Y-14.398
X-119.609 Y-14.434
X-119.661 Y-14.488
X-119.728 Y-14.622
Y-14.631
X-119.704 Y-14.745
X-119.639 Y-14.841
X-119.542 Y-14.905
X-119.428 Y-14.928
X-119.271
X-119.237 Y-14.92
X-119.208 Y-14.902
X-119.187 Y-14.876
X-119.176 Y-14.843
Y-14.809
X-119.188 Y-14.777
X-119.385 Y-14.443
X-119.407 Y-14.418
X-119.435 Y-14.401
X-119.468 Y-14.394
X-119.637
X-119.712 Y-14.398
X-119.775 Y-14.438
X-119.825 Y-14.495
X-119.887 Y-14.631
Y-14.639
X-119.861 Y-14.75
X-119.795 Y-14.844
X-119.699 Y-14.906
X-119.587 Y-14.928
X-119.428
X-119.394 Y-14.92
X-119.365 Y-14.902
X-119.343 Y-14.875
X-119.333 Y-14.841
X-119.334 Y-14.807
X-119.347 Y-14.775
X-119.556 Y-14.441
X-119.577 Y-14.417
X-119.605 Y-14.401
X-119.637 Y-14.394
X-119.806
X-119.844 Y-14.396
X-119.911 Y-14.43
X-119.966 Y-14.48
X-120.041 Y-14.61
Y-14.62
X-120.021 Y-14.737
X-119.956 Y-14.837
X-119.858 Y-14.904
X-119.741 Y-14.928
X-119.587
X-119.553 Y-14.92
X-119.523 Y-14.901
X-119.502 Y-14.874
X-119.491 Y-14.84
X-119.493 Y-14.805
X-119.507 Y-14.773
X-119.726 Y-14.439
X-119.747 Y-14.416
X-119.775 Y-14.4
X-119.806 Y-14.394
X-119.929
X-120.004 Y-14.398
X-120.071 Y-14.431
X-120.125 Y-14.483
X-120.197 Y-14.615
Y-14.625
X-120.174 Y-14.741
X-120.11 Y-14.839
X-120.012 Y-14.905
X-119.897 Y-14.928
X-119.741
X-119.708 Y-14.921
X-119.679 Y-14.903
X-119.658 Y-14.877
X-119.646 Y-14.845
Y-14.811
X-119.658 Y-14.779
X-119.845 Y-14.445
X-119.867 Y-14.419
X-119.896 Y-14.401
X-119.929 Y-14.394
X-120.098
X-120.173 Y-14.398
X-120.238 Y-14.435
X-120.289 Y-14.49
X-120.355 Y-14.625
X-120.354 Y-14.634
X-120.33 Y-14.747
X-120.264 Y-14.842
X-120.168 Y-14.905
X-120.055 Y-14.928
X-119.897
X-119.863 Y-14.92
X-119.834 Y-14.902
X-119.812 Y-14.875
X-119.801 Y-14.843
X-119.802 Y-14.808
X-119.815 Y-14.776
X-120.016 Y-14.442
X-120.037 Y-14.417
X-120.066 Y-14.401
X-120.098 Y-14.394
X-120.267
X-120.305 Y-14.396
X-120.373 Y-14.428
X-120.43 Y-14.476
X-120.507 Y-14.605
X-120.508 Y-14.616
X-120.488 Y-14.734
X-120.424 Y-14.836
X-120.325 Y-14.904
X-120.208 Y-14.928
X-120.055
X-120.02 Y-14.92
X-119.991 Y-14.902
X-119.97 Y-14.874
X-119.959 Y-14.841
X-119.96 Y-14.806
X-119.974 Y-14.774
X-120.186 Y-14.44
X-120.208 Y-14.416
X-120.236 Y-14.401
X-120.267 Y-14.394
X-120.398
X-120.473 Y-14.398
X-120.54 Y-14.431
X-120.594 Y-14.483
X-120.664 Y-14.616
Y-14.627
X-120.641 Y-14.742
X-120.576 Y-14.839
X-120.479 Y-14.905
X-120.364 Y-14.928
X-120.208
X-120.175 Y-14.921
X-120.145 Y-14.903
X-120.124 Y-14.876
X-120.113 Y-14.844
Y-14.81
X-120.125 Y-14.778
X-120.315 Y-14.444
X-120.337 Y-14.418
X-120.365 Y-14.401
X-120.398 Y-14.394
X-120.568 Y-14.393
X-120.642 Y-14.397
X-120.707 Y-14.435
X-120.758 Y-14.49
X-120.823 Y-14.625
X-120.822 Y-14.635
X-120.798 Y-14.747
X-120.732 Y-14.842
X-120.636 Y-14.905
X-120.522 Y-14.928
X-120.364
X-120.33 Y-14.92
X-120.301 Y-14.902
X-120.28 Y-14.875
X-120.269 Y-14.842
X-120.27 Y-14.808
X-120.282 Y-14.776
X-120.486 Y-14.441
X-120.507 Y-14.416
X-120.536 Y-14.4
X-120.568 Y-14.393
X-120.606
X-120.682 Y-14.389
X-120.69 Y-14.388
X-120.727 Y-14.384
X-120.8 Y-14.402
X-120.865 Y-14.44
X-120.916 Y-14.495
X-120.98 Y-14.631
Y-14.637
X-120.954 Y-14.749
X-120.889 Y-14.843
X-120.792 Y-14.906
X-120.68 Y-14.928
X-120.522
X-120.489 Y-14.921
X-120.461 Y-14.903
X-120.439 Y-14.877
X-120.428 Y-14.846
X-120.427 Y-14.812
X-120.438 Y-14.78
X-120.623 Y-14.439
X-120.64 Y-14.415
X-120.663 Y-14.398
X-120.69 Y-14.388
X-120.733 Y-14.381
X-120.775 Y-14.371
X-120.8 Y-14.36
X-120.836 Y-14.348
X-120.911 Y-14.354
X-121.046 Y-14.419
X-121.135 Y-14.54
X-121.16 Y-14.688
X-121.102 Y-14.812
X-120.997 Y-14.897
X-120.866 Y-14.928
X-120.68
X-120.642 Y-14.919
X-120.611 Y-14.897
X-120.59 Y-14.864
X-120.583 Y-14.827
X-120.591 Y-14.789
X-120.749 Y-14.413
X-120.77 Y-14.382
X-120.8 Y-14.36
X-120.859 Y-14.336
X-120.889 Y-14.319
X-120.956 Y-14.285
X-121.031 Y-14.283
X-121.174 Y-14.328
X-121.279 Y-14.435
X-121.342 Y-14.571
X-121.344 Y-14.619
X-121.323 Y-14.736
X-121.259 Y-14.837
X-121.16 Y-14.904
X-121.044 Y-14.928
X-120.866
X-120.833 Y-14.921
X-120.804 Y-14.903
X-120.782 Y-14.877
X-120.771 Y-14.845
Y-14.811
X-120.844 Y-14.387
X-120.852 Y-14.36
X-120.868 Y-14.337
X-120.889 Y-14.319
X-120.913 Y-14.305
X-120.944 Y-14.283
X-120.981 Y-14.255
X-121.04 Y-14.21
X-121.113 Y-14.191
X-121.262 Y-14.206
X-121.389 Y-14.285
X-121.486 Y-14.399
X-121.535 Y-14.541
X-121.541 Y-14.691
X-121.538 Y-14.704
X-121.478 Y-14.82
X-121.375 Y-14.899
X-121.248 Y-14.928
X-121.044
X-121.006 Y-14.919
X-120.975 Y-14.897
X-120.954 Y-14.864
X-120.947 Y-14.827
X-120.952 Y-14.324
X-120.96 Y-14.287
X-120.981 Y-14.255
X-121.017 Y-14.22
X-121.029 Y-14.207
X-121.057 Y-14.168
X-121.104 Y-14.11
X-121.173 Y-14.079
X-121.322 Y-14.063
X-121.464 Y-14.111
X-121.488 Y-14.128
X-121.555 Y-14.195
X-121.597 Y-14.278
X-121.612 Y-14.371
Y-14.774
Y-14.812
Y-14.822
X-121.608 Y-14.842
X-121.591 Y-14.872
X-121.563 Y-14.893
X-121.529 Y-14.901
X-121.495 Y-14.893
X-121.468 Y-14.871
X-121.452 Y-14.841
X-121.45 Y-14.806
X-121.463 Y-14.773
X-121.489 Y-14.75
X-121.522 Y-14.739
X-121.557 Y-14.743
X-121.586 Y-14.761
X-121.606 Y-14.79
X-121.612 Y-14.822
X-121.61 Y-14.833
X-121.607 Y-14.843
X-121.604 Y-14.854
X-121.594 Y-14.875
X-121.587 Y-14.886
X-121.579 Y-14.896
X-121.568 Y-14.906
X-121.557 Y-14.913
X-121.547 Y-14.919
X-121.536 Y-14.923
X-121.526 Y-14.926
X-121.515 Y-14.927
X-121.248 Y-14.928
X-121.215 Y-14.921
X-121.186 Y-14.903
X-121.165 Y-14.877
X-121.153 Y-14.846
X-121.042 Y-14.242
Y-14.204
X-121.057 Y-14.168
X-121.081 Y-14.136
X-121.113 Y-14.076
X-121.125 Y-14.051
X-121.141 Y-14.017
X-121.197 Y-13.968
X-121.2 Y-13.966
X-121.344 Y-13.946
X-121.48 Y-13.996
X-121.577 Y-14.104
X-121.612 Y-14.245
Y-14.371
X-121.603 Y-14.408
X-121.581 Y-14.44
X-121.549 Y-14.461
X-121.511 Y-14.468
X-121.473 Y-14.46
X-121.441 Y-14.438
X-121.151 Y-14.149
X-121.131 Y-14.12
X-121.122 Y-14.086
X-121.125 Y-14.051
X-121.151 Y-13.967
X-121.162 Y-13.931
X-121.209 Y-13.873
X-121.275 Y-13.837
X-121.397 Y-13.835
X-121.508 Y-13.888
X-121.584 Y-13.983
X-121.612 Y-14.102
Y-14.245
X-121.603 Y-14.282
X-121.581 Y-14.314
X-121.548 Y-14.334
X-121.511 Y-14.341
X-121.473 Y-14.333
X-121.441 Y-14.312
X-121.179 Y-14.049
X-121.162 Y-14.025
X-121.152 Y-13.997
X-121.151 Y-13.967
X-121.163 Y-13.883
Y-13.836
X-121.165 Y-13.799
X-121.219 Y-13.746
X-121.285 Y-13.711
X-121.405 Y-13.713
X-121.512 Y-13.766
X-121.586 Y-13.86
X-121.612 Y-13.977
Y-14.102
X-121.603 Y-14.14
X-121.58 Y-14.172
X-121.547 Y-14.193
X-121.508 Y-14.199
X-121.471 Y-14.19
X-121.439 Y-14.167
X-121.19 Y-13.901
X-121.171 Y-13.871
X-121.163 Y-13.836
X-121.164 Y-13.798
X-121.156 Y-13.752
X-121.152 Y-13.714
X-121.189 Y-13.649
X-121.285 Y-13.605
X-121.39 Y-13.603
X-121.487 Y-13.644
X-121.559 Y-13.721
X-121.593 Y-13.777
X-121.598 Y-13.787
X-121.609 Y-13.819
X-121.611 Y-13.83
X-121.612 Y-13.84
Y-13.977
X-121.603 Y-14.014
X-121.582 Y-14.045
X-121.55 Y-14.066
X-121.513 Y-14.074
X-121.476 Y-14.067
X-121.444 Y-14.047
X-121.186 Y-13.806
X-121.167 Y-13.781
X-121.156 Y-13.752
X-121.15 Y-13.714
X-121.137 Y-13.671
X-121.128 Y-13.635
X-121.156 Y-13.565
X-121.238 Y-13.516
X-121.334 Y-13.507
X-121.425 Y-13.54
X-121.492 Y-13.609
X-121.559 Y-13.721
X-121.571 Y-13.755
X-121.569 Y-13.792
X-121.555 Y-13.826
X-121.529 Y-13.852
X-121.496 Y-13.867
X-121.459 Y-13.869
X-121.424 Y-13.857
X-121.184 Y-13.726
X-121.156 Y-13.703
X-121.137 Y-13.671
X-121.13 Y-13.65
X-121.113 Y-13.618
X-121.097 Y-13.584
X-121.105 Y-13.51
X-121.178 Y-13.445
X-121.273 Y-13.423
X-121.367 Y-13.449
X-121.436 Y-13.517
X-121.492 Y-13.609
X-121.502 Y-13.642
X-121.498 Y-13.675
X-121.482 Y-13.705
X-121.455 Y-13.725
G3 X-121.113 Y-13.618 I0.113 J0.239
G1 X-121.074 Y-13.545
X-121.058 Y-13.511
X-121.062 Y-13.436
X-121.132 Y-13.369
X-121.226 Y-13.346
X-121.319 Y-13.371
X-121.388 Y-13.438
X-121.436 Y-13.517
X-121.446 Y-13.546
X-121.444 Y-13.577
X-121.431 Y-13.605
X-121.409 Y-13.626
G3 X-121.074 Y-13.545 I0.129 J0.2
G1 X-121.029 Y-13.46
X-121.013 Y-13.426
X-121.021 Y-13.352
X-121.091 Y-13.289
X-121.182 Y-13.268
X-121.273 Y-13.293
X-121.34 Y-13.359
X-121.388 Y-13.438
X-121.398 Y-13.468
X-121.396 Y-13.499
X-121.382 Y-13.526
X-121.359 Y-13.547
G3 X-121.029 Y-13.46 I0.122 J0.207
G1 X-120.981 Y-13.376
X-120.963 Y-13.342
X-120.975 Y-13.268
X-121.046 Y-13.208
X-121.137 Y-13.188
X-121.226 Y-13.214
X-121.292 Y-13.28
X-121.34 Y-13.359
X-121.35 Y-13.389
X-121.347 Y-13.42
X-121.332 Y-13.448
X-121.307 Y-13.467
G3 X-120.981 Y-13.376 I0.113 J0.226
G1 X-120.944 Y-13.313
X-120.927 Y-13.279
Y-13.242
X-120.946 Y-13.169
X-121.042 Y-13.11
X-121.154 Y-13.119
X-121.24 Y-13.193
X-121.292 Y-13.28
X-121.302 Y-13.307
X-121.3 Y-13.337
X-121.288 Y-13.363
X-121.267 Y-13.383
G3 X-120.944 Y-13.313 I0.127 J0.194
G1 X-120.883 Y-13.207
X-120.865 Y-13.173
X-120.884 Y-13.101
X-120.954 Y-13.043
X-121.042 Y-13.025
X-121.128 Y-13.051
X-121.192 Y-13.114
X-121.24 Y-13.193
X-121.249 Y-13.223
X-121.246 Y-13.254
X-121.23 Y-13.281
X-121.205 Y-13.3
G3 X-120.883 Y-13.207 I0.109 J0.228
G1 X-120.845 Y-13.142
X-120.828 Y-13.109
X-120.833 Y-13.034
X-120.901 Y-12.972
X-120.991 Y-12.95
X-121.08 Y-12.974
X-121.146 Y-13.039
X-121.192 Y-13.114
X-121.201 Y-13.142
X-121.199 Y-13.171
X-121.186 Y-13.198
X-121.165 Y-13.218
G3 X-120.845 Y-13.142 I0.122 J0.199
G1 X-120.785 Y-13.038
X-120.767 Y-13.005
X-120.79 Y-12.933
X-120.862 Y-12.88
X-120.949 Y-12.866
X-121.034 Y-12.894
X-121.097 Y-12.957
X-121.146 Y-13.039
X-121.156 Y-13.07
X-121.151 Y-13.103
X-121.133 Y-13.13
X-121.106 Y-13.148
G3 X-120.785 Y-13.038 I0.092 J0.254
G1 X-120.753 Y-12.984
X-120.736 Y-12.95
X-120.74 Y-12.876
X-120.806 Y-12.813
X-120.895 Y-12.791
X-120.984 Y-12.815
X-121.049 Y-12.879
X-121.097 Y-12.957
X-121.106 Y-12.984
X-121.104 Y-13.013
X-121.091 Y-13.04
X-121.069 Y-13.059
G3 X-120.753 Y-12.984 I0.119 J0.199
G1 X-120.711 Y-12.91
X-120.693 Y-12.877
X-120.694 Y-12.839
X-120.716 Y-12.768
X-120.809 Y-12.713
X-120.916 Y-12.722
X-120.997 Y-12.793
X-121.049 Y-12.879
X-121.058 Y-12.905
X-121.057 Y-12.934
X-121.045 Y-12.96
X-121.024 Y-12.979
G3 X-120.711 Y-12.91 I0.123 J0.189
G1 X-120.653 Y-12.811
X-120.636 Y-12.778
X-120.654 Y-12.705
X-120.72 Y-12.648
X-120.805 Y-12.63
X-120.889 Y-12.655
X-120.951 Y-12.716
X-120.997 Y-12.793
X-121.006 Y-12.821
X-121.004 Y-12.851
X-120.989 Y-12.877
X-120.966 Y-12.896
G3 X-120.653 Y-12.811 I0.11 J0.213
G1 X-120.62 Y-12.754
X-120.603 Y-12.721
Y-12.683
X-120.621 Y-12.61
X-120.712 Y-12.554
X-120.819 Y-12.563
X-120.9 Y-12.633
X-120.951 Y-12.716
X-120.959 Y-12.741
Y-12.768
X-120.948 Y-12.793
X-120.93 Y-12.813
G3 X-120.62 Y-12.754 I0.127 J0.173
G1 X-120.574 Y-12.674
X-120.557 Y-12.641
X-120.559 Y-12.566
X-120.594 Y-12.5
X-120.684 Y-12.465
X-120.778 Y-12.483
X-120.849 Y-12.548
X-120.9 Y-12.633
X-120.909 Y-12.658
X-120.908 Y-12.684
X-120.899 Y-12.708
X-120.881 Y-12.728
G3 X-120.574 Y-12.674 I0.13 J0.165
G1 X-120.521 Y-12.583
X-120.504 Y-12.55
Y-12.512
X-120.559 Y-12.435
X-120.646 Y-12.4
X-120.738 Y-12.416
X-120.808 Y-12.48
X-120.849 Y-12.548
X-120.858 Y-12.574
X-120.857 Y-12.601
X-120.846 Y-12.626
X-120.827 Y-12.645
G3 X-120.521 Y-12.583 I0.124 J0.176
G1 X-120.491 Y-12.531
X-120.474 Y-12.498
X-120.469 Y-12.46
X-120.486 Y-12.387
X-120.574 Y-12.328
X-120.68 Y-12.333
X-120.76 Y-12.402
X-120.808 Y-12.48
X-120.817 Y-12.511
X-120.812 Y-12.543
X-120.794 Y-12.57
G3 X-120.491 Y-12.531 I0.136 J0.144
G1 X-120.442 Y-12.447
X-120.425 Y-12.413
X-120.428 Y-12.338
X-120.463 Y-12.272
X-120.55 Y-12.238
X-120.641 Y-12.255
X-120.71 Y-12.318
X-120.76 Y-12.402
X-120.77 Y-12.434
X-120.764 Y-12.467
X-120.744 Y-12.494
G3 X-120.442 Y-12.447 I0.131 J0.155
G1 X-120.393 Y-12.362
X-120.376 Y-12.329
X-120.373 Y-12.291
X-120.394 Y-12.219
X-120.481 Y-12.164
X-120.583 Y-12.172
X-120.662 Y-12.238
X-120.71 Y-12.318
X-120.719 Y-12.35
X-120.713 Y-12.383
X-120.693 Y-12.41
G3 X-120.393 Y-12.362 I0.129 J0.155
G1 X-120.344 Y-12.278
X-120.327 Y-12.244
X-120.334 Y-12.17
X-120.393 Y-12.11
X-120.475 Y-12.087
X-120.557 Y-12.108
X-120.618 Y-12.167
X-120.662 Y-12.238
X-120.67 Y-12.263
X-120.669 Y-12.288
X-120.66 Y-12.312
X-120.642 Y-12.331
G3 X-120.344 Y-12.278 I0.125 J0.163
G1 X-120.295 Y-12.193
X-120.278 Y-12.16
X-120.287 Y-12.085
X-120.377 Y-12.02
X-120.489 Y-12.023
X-120.574 Y-12.095
X-120.618 Y-12.167
X-120.627 Y-12.193
X-120.625 Y-12.22
X-120.613 Y-12.245
X-120.593 Y-12.263
G3 X-120.295 Y-12.193 I0.114 J0.186
G1 X-120.246 Y-12.109
X-120.229 Y-12.075
X-120.244 Y-12.002
X-120.337 Y-11.942
X-120.446 Y-11.95
X-120.53 Y-12.021
X-120.574 Y-12.095
X-120.583 Y-12.122
X-120.58 Y-12.151
X-120.566 Y-12.176
X-120.543 Y-12.194
G3 X-120.246 Y-12.109 I0.101 J0.208
G1 X-120.212 Y-12.051
X-120.195 Y-12.017
X-120.201 Y-11.943
X-120.261 Y-11.885
X-120.342 Y-11.863
X-120.423 Y-11.885
X-120.483 Y-11.943
X-120.53 Y-12.021
X-120.538 Y-12.046
X-120.537 Y-12.073
X-120.526 Y-12.097
X-120.507 Y-12.116
G3 X-120.212 Y-12.051 I0.115 J0.177
G1 X-120.164 Y-11.967
X-120.146 Y-11.933
X-120.156 Y-11.859
X-120.245 Y-11.796
X-120.355 Y-11.8
X-120.438 Y-11.87
X-120.483 Y-11.943
X-120.491 Y-11.969
X-120.489 Y-11.996
X-120.477 Y-12.021
X-120.457 Y-12.039
G3 X-120.164 Y-11.967 I0.11 J0.187
G1 X-120.114 Y-11.882
X-120.097 Y-11.849
X-120.114 Y-11.775
X-120.205 Y-11.719
X-120.312 Y-11.727
X-120.394 Y-11.797
X-120.438 Y-11.87
X-120.447 Y-11.897
X-120.444 Y-11.926
X-120.43 Y-11.951
X-120.407 Y-11.968
G3 X-120.114 Y-11.882 I0.098 J0.208
G1 X-120.065 Y-11.797
X-120.048 Y-11.764
X-120.07 Y-11.692
X-120.162 Y-11.639
X-120.267 Y-11.65
X-120.347 Y-11.72
X-120.394 Y-11.797
X-120.403 Y-11.825
X-120.399 Y-11.855
X-120.383 Y-11.88
X-120.357 Y-11.896
G3 X-120.065 Y-11.797 I0.085 J0.229
G1 X-120.03 Y-11.736
X-120.013 Y-11.703
X-120.025 Y-11.629
X-120.112 Y-11.568
X-120.218 Y-11.572
X-120.299 Y-11.64
X-120.347 Y-11.72
X-120.356 Y-11.746
X-120.353 Y-11.774
X-120.34 Y-11.798
X-120.319 Y-11.815
G3 X-120.03 Y-11.736 I0.101 J0.197
G1 X-119.986 Y-11.661
X-119.969 Y-11.628
X-119.982 Y-11.554
X-120.069 Y-11.494
X-120.175 Y-11.5
X-120.256 Y-11.568
X-120.299 Y-11.64
X-120.307 Y-11.666
X-120.305 Y-11.693
X-120.293 Y-11.717
X-120.273 Y-11.734
G3 X-119.986 Y-11.661 I0.105 J0.187
G1 X-119.929 Y-11.562
X-119.912 Y-11.529
X-119.938 Y-11.458
X-120.031 Y-11.412
X-120.133 Y-11.425
X-120.211 Y-11.494
X-120.256 Y-11.568
X-120.264 Y-11.597
X-120.259 Y-11.626
X-120.243 Y-11.651
X-120.217 Y-11.666
G3 X-119.929 Y-11.562 I0.077 J0.237
G1 X-119.888 Y-11.492
X-119.871 Y-11.459
X-119.893 Y-11.387
X-119.981 Y-11.335
X-120.083 Y-11.345
X-120.161 Y-11.412
X-120.211 Y-11.494
X-120.219 Y-11.522
X-120.215 Y-11.551
X-120.199 Y-11.576
X-120.174 Y-11.592
G3 X-119.888 Y-11.492 I0.081 J0.228
G1 X-119.854 Y-11.433
X-119.837 Y-11.4
X-119.848 Y-11.325
X-119.932 Y-11.265
X-120.035 Y-11.269
X-120.114 Y-11.335
X-120.161 Y-11.412
X-120.169 Y-11.437
X-120.167 Y-11.463
X-120.155 Y-11.487
X-120.135 Y-11.504
G3 X-119.854 Y-11.433 I0.103 J0.182
G1 X-119.805 Y-11.349
X-119.788 Y-11.315
X-119.805 Y-11.242
X-119.893 Y-11.19
X-119.995 Y-11.199
X-120.072 Y-11.266
X-120.114 Y-11.335
X-120.123 Y-11.361
X-120.12 Y-11.388
X-120.107 Y-11.412
X-120.085 Y-11.429
G3 X-119.805 Y-11.349 I0.096 J0.196
G1 X-119.76 Y-11.27
X-119.742 Y-11.237
X-119.762 Y-11.164
X-119.85 Y-11.114
X-119.95 Y-11.123
X-120.026 Y-11.19
X-120.072 Y-11.266
X-120.081 Y-11.292
X-120.077 Y-11.32
X-120.062 Y-11.344
X-120.039 Y-11.36
G3 X-119.76 Y-11.27 I0.086 J0.211
G1 X-119.707 Y-11.18
X-119.69 Y-11.146
X-119.717 Y-11.076
X-119.807 Y-11.033
X-119.906 Y-11.047
X-119.98 Y-11.113
X-120.026 Y-11.19
X-120.035 Y-11.218
X-120.03 Y-11.247
X-120.013 Y-11.271
X-119.987 Y-11.286
G3 X-119.707 Y-11.18 I0.07 J0.238
G1 X-119.675 Y-11.124
X-119.658 Y-11.091
X-119.672 Y-11.017
X-119.755 Y-10.962
X-119.855 Y-10.968
X-119.931 Y-11.033
X-119.98 Y-11.113
X-119.988 Y-11.139
X-119.985 Y-11.166
X-119.972 Y-11.189
X-119.95 Y-11.205
G3 X-119.675 Y-11.124 I0.092 J0.196
G1 X-119.624 Y-11.037
X-119.607 Y-11.004
X-119.629 Y-10.932
X-119.716 Y-10.885
X-119.814 Y-10.896
X-119.888 Y-10.962
X-119.931 Y-11.033
X-119.939 Y-11.059
X-119.936 Y-11.086
X-119.922 Y-11.11
X-119.899 Y-11.125
G3 X-119.624 Y-11.037 I0.085 J0.207
G1 X-119.59 Y-10.978
X-119.573 Y-10.945
X-119.585 Y-10.871
X-119.667 Y-10.815
X-119.766 Y-10.821
X-119.842 Y-10.885
X-119.888 Y-10.962
X-119.896 Y-10.986
X-119.894 Y-11.012
X-119.882 Y-11.035
X-119.862 Y-11.051
G3 X-119.59 Y-10.978 I0.096 J0.182
G1 X-119.545 Y-10.901
X-119.528 Y-10.867
X-119.543 Y-10.794
X-119.627 Y-10.743
X-119.725 Y-10.751
X-119.799 Y-10.815
X-119.842 Y-10.885
X-119.849 Y-10.909
X-119.847 Y-10.935
X-119.835 Y-10.958
X-119.815 Y-10.974
G3 X-119.545 Y-10.901 I0.095 J0.182
G1 X-119.511 Y-10.842
X-119.494 Y-10.808
X-119.501 Y-10.734
X-119.581 Y-10.676
X-119.679 Y-10.679
X-119.755 Y-10.742
X-119.799 Y-10.815
X-119.807 Y-10.838
X-119.806 Y-10.862
X-119.796 Y-10.884
X-119.778 Y-10.901
G3 X-119.511 Y-10.842 I0.104 J0.161
G1 X-119.462 Y-10.757
X-119.445 Y-10.724
X-119.461 Y-10.651
X-119.545 Y-10.602
X-119.641 Y-10.611
X-119.715 Y-10.675
X-119.755 Y-10.742
X-119.763 Y-10.766
X-119.761 Y-10.792
X-119.749 Y-10.814
X-119.729 Y-10.83
G3 X-119.462 Y-10.757 I0.093 J0.182
G1 X-119.421 Y-10.687
X-119.404 Y-10.653
X-119.42 Y-10.58
X-119.502 Y-10.53
X-119.597 Y-10.539
X-119.67 Y-10.601
X-119.715 Y-10.675
X-119.722 Y-10.7
X-119.72 Y-10.725
X-119.707 Y-10.748
X-119.686 Y-10.764
G3 X-119.421 Y-10.687 I0.089 J0.187
G1 X-119.386 Y-10.626
X-119.369 Y-10.593
X-119.378 Y-10.519
X-119.457 Y-10.463
X-119.553 Y-10.468
X-119.626 Y-10.529
X-119.67 Y-10.601
X-119.677 Y-10.624
X-119.676 Y-10.648
X-119.666 Y-10.669
X-119.649 Y-10.686
G3 X-119.386 Y-10.626 I0.102 J0.16
G1 X-119.337 Y-10.541
X-119.319 Y-10.507
X-119.338 Y-10.435
X-119.42 Y-10.389
X-119.514 Y-10.399
X-119.585 Y-10.462
X-119.626 Y-10.529
X-119.634 Y-10.554
X-119.631 Y-10.579
X-119.619 Y-10.602
X-119.599 Y-10.617
G3 X-119.337 Y-10.541 I0.088 J0.185
G1 X-119.3 Y-10.478
X-119.283 Y-10.445
X-119.296 Y-10.371
X-119.375 Y-10.32
X-119.469 Y-10.327
X-119.541 Y-10.388
X-119.585 Y-10.462
X-119.593 Y-10.485
X-119.591 Y-10.51
X-119.579 Y-10.532
X-119.56 Y-10.548
G3 X-119.3 Y-10.478 I0.093 J0.174
G1 X-119.252 Y-10.395
X-119.235 Y-10.361
X-119.255 Y-10.289
X-119.337 Y-10.246
X-119.429 Y-10.257
X-119.499 Y-10.318
X-119.541 Y-10.388
X-119.548 Y-10.412
X-119.545 Y-10.438
X-119.532 Y-10.46
X-119.511 Y-10.475
G3 X-119.252 Y-10.395 I0.083 J0.191
G1 X-119.217 Y-10.335
X-119.2 Y-10.302
X-119.213 Y-10.228
X-119.291 Y-10.178
X-119.383 Y-10.184
X-119.454 Y-10.244
X-119.499 Y-10.318
X-119.506 Y-10.342
X-119.504 Y-10.366
X-119.493 Y-10.388
X-119.474 Y-10.403
G3 X-119.217 Y-10.335 I0.092 J0.171
G1 X-119.168 Y-10.25
X-119.151 Y-10.217
X-119.172 Y-10.145
X-119.253 Y-10.103
X-119.344 Y-10.115
X-119.412 Y-10.175
X-119.454 Y-10.244
X-119.461 Y-10.269
X-119.458 Y-10.294
X-119.445 Y-10.316
X-119.424 Y-10.331
G3 X-119.168 Y-10.25 I0.081 J0.19
G1 X-119.119 Y-10.166
X-119.102 Y-10.133
X-119.13 Y-10.063
X-119.211 Y-10.026
X-119.3 Y-10.039
X-119.366 Y-10.1
X-119.412 Y-10.175
X-119.42 Y-10.201
X-119.415 Y-10.228
X-119.4 Y-10.25
X-119.376 Y-10.263
G3 X-119.119 Y-10.166 I0.064 J0.218
G1 X-119.083 Y-10.103
X-119.066 Y-10.07
X-119.086 Y-9.997
X-119.164 Y-9.954
X-119.253 Y-9.964
X-119.32 Y-10.023
X-119.366 Y-10.1
X-119.374 Y-10.124
X-119.37 Y-10.149
X-119.357 Y-10.171
X-119.336 Y-10.185
G3 X-119.083 Y-10.103 I0.077 J0.192
G1 X-119.037 Y-10.024
X-119.02 Y-9.99
X-119.043 Y-9.919
X-119.122 Y-9.88
X-119.21 Y-9.892
X-119.276 Y-9.951
X-119.32 Y-10.023
X-119.327 Y-10.048
X-119.324 Y-10.073
X-119.31 Y-10.095
X-119.288 Y-10.108
G3 X-119.037 Y-10.024 I0.074 J0.196
G1 X-118.998 Y-9.957
X-118.981 Y-9.924
X-119 Y-9.851
X-119.078 Y-9.809
X-119.165 Y-9.819
X-119.231 Y-9.877
X-119.276 Y-9.951
X-119.284 Y-9.975
X-119.281 Y-10
X-119.268 Y-10.021
X-119.248 Y-10.035
G3 X-118.998 Y-9.957 I0.079 J0.185
G1 X-118.958 Y-9.887
X-118.94 Y-9.854
X-118.982 Y-9.785
X-119.054 Y-9.75
X-119.134 Y-9.761
X-119.194 Y-9.815
X-119.231 Y-9.877
X-119.239 Y-9.9
X-119.236 Y-9.924
X-119.224 Y-9.945
X-119.205 Y-9.96
G3 X-118.958 Y-9.887 I0.082 J0.176
G1 X-118.923 Y-9.828
X-118.906 Y-9.795
X-118.926 Y-9.723
X-119.002 Y-9.68
X-119.087 Y-9.689
X-119.152 Y-9.746
X-119.194 Y-9.815
X-119.201 Y-9.838
X-119.199 Y-9.861
X-119.187 Y-9.882
X-119.169 Y-9.897
G3 X-118.923 Y-9.828 I0.085 J0.169
G1 X-118.892 Y-9.774
X-118.875 Y-9.741
X-118.878 Y-9.703
X-118.891 Y-9.668
X-118.961 Y-9.62
X-119.046 Y-9.623
X-119.111 Y-9.678
X-119.152 Y-9.746
X-119.16 Y-9.774
X-119.153 Y-9.801
X-119.135 Y-9.823
X-119.094 Y-9.844
X-119.049 Y-9.854
X-119.003 Y-9.851
X-118.959 Y-9.836
X-118.922 Y-9.809
X-118.892 Y-9.774
X-118.849 Y-9.701
X-118.832 Y-9.667
X-118.84 Y-9.63
X-118.907 Y-9.565
X-119.001 Y-9.561
X-119.075 Y-9.619
X-119.111 Y-9.678
X-119.118 Y-9.706
X-119.111 Y-9.735
X-119.091 Y-9.756
X-119.049 Y-9.775
X-119.004 Y-9.783
X-118.959 Y-9.778
X-118.916 Y-9.762
X-118.879 Y-9.736
X-118.849 Y-9.701
X-118.811 Y-9.634
X-118.793 Y-9.6
X-118.802 Y-9.564
X-118.874 Y-9.504
X-118.968 Y-9.503
X-119.041 Y-9.562
X-119.075 Y-9.619
X-119.082 Y-9.641
X-119.08 Y-9.663
X-119.069 Y-9.684
X-119.051 Y-9.698
X-119.009 Y-9.714
X-118.963 Y-9.719
X-118.918 Y-9.713
X-118.876 Y-9.696
X-118.839 Y-9.669
X-118.811 Y-9.634
X-118.776 Y-9.575
X-118.759 Y-9.541
X-118.767 Y-9.505
X-118.838 Y-9.444
X-118.931 Y-9.442
X-119.003 Y-9.5
X-119.041 Y-9.562
X-119.048 Y-9.584
X-119.045 Y-9.607
X-119.034 Y-9.627
X-119.016 Y-9.642
X-118.973 Y-9.657
X-118.928 Y-9.661
X-118.883 Y-9.655
X-118.841 Y-9.637
X-118.805 Y-9.61
X-118.776 Y-9.575
X-118.744 Y-9.519
X-118.727 Y-9.486
X-118.733 Y-9.449
X-118.801 Y-9.386
X-118.894 Y-9.382
X-118.967 Y-9.44
X-119.003 Y-9.5
X-119.011 Y-9.529
X-119.003 Y-9.557
X-118.982 Y-9.578
X-118.941 Y-9.596
X-118.896 Y-9.602
X-118.851 Y-9.597
X-118.809 Y-9.581
X-118.773 Y-9.554
X-118.744 Y-9.519
X-118.713 Y-9.465
X-118.696 Y-9.431
X-118.7 Y-9.394
X-118.766 Y-9.329
X-118.858 Y-9.324
X-118.931 Y-9.381
X-118.967 Y-9.44
X-118.974 Y-9.467
X-118.967 Y-9.494
X-118.948 Y-9.515
X-118.908 Y-9.535
X-118.864 Y-9.543
X-118.82 Y-9.54
X-118.778 Y-9.525
X-118.741 Y-9.499
X-118.713 Y-9.465
X-118.679 Y-9.406
X-118.661 Y-9.372
X-118.666 Y-9.335
X-118.733 Y-9.272
X-118.825 Y-9.268
X-118.897 Y-9.324
X-118.931 Y-9.381
X-118.938 Y-9.408
X-118.932 Y-9.435
X-118.913 Y-9.456
X-118.873 Y-9.476
X-118.829 Y-9.484
X-118.785 Y-9.48
X-118.743 Y-9.465
X-118.707 Y-9.44
X-118.679 Y-9.406
X-118.643 Y-9.345
X-118.626 Y-9.312
X-118.632 Y-9.275
X-118.7 Y-9.214
X-118.791 Y-9.211
X-118.862 Y-9.268
X-118.897 Y-9.324
X-118.904 Y-9.352
X-118.896 Y-9.38
X-118.877 Y-9.4
X-118.836 Y-9.418
X-118.792 Y-9.425
X-118.749 Y-9.42
X-118.707 Y-9.405
X-118.671 Y-9.379
X-118.643 Y-9.345
X-118.615 Y-9.296
X-118.598 Y-9.262
X-118.601 Y-9.225
X-118.663 Y-9.159
X-118.754 Y-9.153
X-118.826 Y-9.208
X-118.862 Y-9.268
X-118.869 Y-9.294
X-118.864 Y-9.32
X-118.846 Y-9.341
X-118.808 Y-9.361
X-118.765 Y-9.371
X-118.721 Y-9.368
X-118.679 Y-9.354
X-118.643 Y-9.33
X-118.615 Y-9.296
X-118.581 Y-9.237
X-118.563 Y-9.204
X-118.567 Y-9.166
X-118.632 Y-9.103
X-118.722 Y-9.098
X-118.793 Y-9.154
X-118.826 Y-9.208
X-118.833 Y-9.234
X-118.828 Y-9.26
X-118.811 Y-9.281
X-118.772 Y-9.301
X-118.73 Y-9.311
X-118.686 Y-9.309
X-118.645 Y-9.295
X-118.609 Y-9.27
X-118.581 Y-9.237
X-118.551 Y-9.186
X-118.534 Y-9.153
X-118.536 Y-9.115
X-118.597 Y-9.049
X-118.687 Y-9.042
X-118.759 Y-9.097
X-118.793 Y-9.154
X-118.8 Y-9.179
X-118.795 Y-9.204
X-118.78 Y-9.224
X-118.743 Y-9.247
X-118.7 Y-9.258
X-118.657 Y-9.257
X-118.615 Y-9.244
X-118.579 Y-9.22
X-118.551 Y-9.186
X-118.509 Y-9.114
X-118.492 Y-9.08
X-118.501 Y-9.044
X-118.57 Y-8.989
X-118.659
X-118.728 Y-9.046
X-118.759 Y-9.097
X-118.766 Y-9.125
X-118.758 Y-9.152
X-118.738 Y-9.172
X-118.689 Y-9.19
X-118.637 Y-9.193
X-118.587 Y-9.18
X-118.543 Y-9.153
X-118.509 Y-9.114
X-118.483 Y-9.068
X-118.465 Y-9.035
X-118.47 Y-8.997
X-118.532 Y-8.935
X-118.621 Y-8.93
X-118.691 Y-8.984
X-118.728 Y-9.046
X-118.735 Y-9.072
X-118.728 Y-9.099
X-118.71 Y-9.119
X-118.671 Y-9.137
X-118.628 Y-9.144
X-118.585 Y-9.141
X-118.545 Y-9.126
X-118.51 Y-9.101
X-118.483 Y-9.068
X-118.449 Y-9.01
X-118.432 Y-8.977
X-118.437 Y-8.939
X-118.501 Y-8.879
X-118.589 Y-8.875
X-118.658 Y-8.93
X-118.691 Y-8.984
X-118.698 Y-9.01
X-118.692 Y-9.036
X-118.674 Y-9.056
X-118.636 Y-9.075
X-118.594 Y-9.084
X-118.552 Y-9.081
X-118.511 Y-9.067
X-118.476 Y-9.043
X-118.449 Y-9.01
X-118.434 Y-8.984
X-118.406 Y-8.943
X-118.385 Y-8.912
X-118.394 Y-8.876
X-118.465 Y-8.819
X-118.555
X-118.625 Y-8.876
X-118.658 Y-8.93
X-118.664 Y-8.951
X-118.661 Y-8.972
X-118.649 Y-8.99
X-118.631 Y-9.001
X-118.583 Y-9.012
X-118.534 Y-9.011
X-118.486 Y-8.998
X-118.443 Y-8.976
X-118.406 Y-8.943
X-118.369 Y-8.899
X-118.346 Y-8.869
X-118.351 Y-8.832
X-118.381 Y-8.763
X-118.45 Y-8.735
X-118.524 Y-8.749
X-118.579 Y-8.799
X-118.625 Y-8.876
X-118.632 Y-8.897
X-118.629 Y-8.918
X-118.618 Y-8.937
X-118.6 Y-8.95
X-118.552 Y-8.964
X-118.501 Y-8.965
X-118.452 Y-8.955
X-118.407 Y-8.932
X-118.369 Y-8.899
X-118.345 Y-8.871
X-118.333 Y-8.863
X-118.302 Y-8.843
X-118.292 Y-8.807
X-118.294 Y-8.769
X-118.34 Y-8.707
X-118.413 Y-8.679
X-118.489 Y-8.693
X-118.546 Y-8.746
X-118.579 Y-8.799
X-118.584 Y-8.823
X-118.577 Y-8.846
X-118.56 Y-8.863
X-118.505 Y-8.884
X-118.446 Y-8.891
X-118.388 Y-8.884
X-118.333 Y-8.863
X-118.281 Y-8.833
X-118.249 Y-8.813
X-118.237 Y-8.778
X-118.235 Y-8.74
X-118.251 Y-8.667
X-118.332 Y-8.611
X-118.431 Y-8.616
X-118.506 Y-8.68
X-118.546 Y-8.746
X-118.553 Y-8.771
X-118.547 Y-8.797
X-118.53 Y-8.817
X-118.484 Y-8.842
X-118.434 Y-8.857
X-118.381 Y-8.86
X-118.329 Y-8.852
X-118.281 Y-8.833
X-118.211 Y-8.794
X-118.18 Y-8.774
X-118.163 Y-8.74
X-118.151 Y-8.666
X-118.207 Y-8.583
X-118.3 Y-8.543
X-118.4 Y-8.56
X-118.475 Y-8.628
X-118.506 Y-8.68
X-118.514 Y-8.708
X-118.51 Y-8.737
X-118.493 Y-8.76
G3 X-118.211 Y-8.794 I0.166 J0.188
G1 X-118.122 Y-8.744
X-118.091 Y-8.724
X-118.068 Y-8.652
X-118.076 Y-8.578
X-118.15 Y-8.498
X-118.254 Y-8.467
X-118.359 Y-8.492
X-118.438 Y-8.567
X-118.475 Y-8.628
X-118.483 Y-8.653
X-118.482 Y-8.679
X-118.472 Y-8.704
X-118.453 Y-8.723
G3 X-118.122 Y-8.744 I0.183 J0.262
G1 X-118.098 Y-8.73
X-118.083 Y-8.724
X-118.068 Y-8.72
X-118.031 Y-8.713
X-118.007 Y-8.684
X-117.974 Y-8.617
X-117.977 Y-8.542
X-118.002 Y-8.471
X-118.091 Y-8.4
X-118.203 Y-8.378
X-118.311 Y-8.411
X-118.392 Y-8.492
X-118.438 Y-8.567
X-118.449 Y-8.599
Y-8.634
X-118.437 Y-8.666
X-118.415 Y-8.692
X-118.386 Y-8.709
X-118.352 Y-8.716
X-118.068 Y-8.72
X-117.983 Y-8.711
X-117.946 Y-8.706
X-117.892 Y-8.655
X-117.862 Y-8.586
X-117.855 Y-8.511
X-117.913 Y-8.396
X-118.017 Y-8.321
X-118.144 Y-8.301
X-118.266 Y-8.341
X-118.356 Y-8.432
X-118.392 Y-8.492
X-118.404 Y-8.527
X-118.402 Y-8.564
X-118.387 Y-8.598
X-118.36 Y-8.624
X-118.326 Y-8.638
X-117.983 Y-8.711
X-117.898 Y-8.713
X-117.861
X-117.797 Y-8.674
X-117.752 Y-8.614
X-117.733 Y-8.542
X-117.728 Y-8.392
X-117.796 Y-8.258
X-117.833 Y-8.228
X-117.947 Y-8.171
X-118.074 Y-8.165
X-118.192 Y-8.213
X-118.279 Y-8.305
X-118.356 Y-8.432
X-118.368 Y-8.465
X-118.367 Y-8.5
X-118.355 Y-8.532
X-118.332 Y-8.559
X-118.301 Y-8.576
X-117.898 Y-8.713
X-117.884 Y-8.714
X-117.87 Y-8.718
X-117.841 Y-8.73
X-117.806 Y-8.743
X-117.732 Y-8.732
X-117.67 Y-8.689
X-117.578 Y-8.571
X-117.544 Y-8.425
X-117.564 Y-8.276
X-117.638 Y-8.145
X-117.746 Y-8.042
X-117.792 Y-8.02
X-117.934 Y-7.992
X-118.074 Y-8.034
X-118.177 Y-8.136
X-118.279 Y-8.305
X-118.291 Y-8.34
X-118.29 Y-8.376
X-118.276 Y-8.409
X-118.251 Y-8.435
X-117.841 Y-8.73
X-117.767 Y-8.762
X-117.697 Y-8.789
X-117.623 Y-8.778
X-117.485 Y-8.718
X-117.394 Y-8.599
X-117.349 Y-8.456
X-117.348 Y-8.306
X-117.384 Y-8.161
X-117.454 Y-8.028
X-117.555 Y-7.916
X-117.681 Y-7.836
X-117.72 Y-7.824
X-117.851 Y-7.813
X-117.975 Y-7.859
X-118.067 Y-7.954
X-118.177 Y-8.136
X-118.189 Y-8.172
X-118.186 Y-8.21
X-118.169 Y-8.245
X-117.804 Y-8.732
X-117.787 Y-8.75
X-117.767 Y-8.762
X-117.623 Y-8.825
X-117.555 Y-8.855
X-117.405 Y-8.841
X-117.282 Y-8.756
X-117.194 Y-8.634
X-117.143 Y-8.493
X-117.127 Y-8.344
X-117.141 Y-8.195
X-117.183 Y-8.051
X-117.251 Y-7.917
X-117.288 Y-7.871
X-117.353 Y-7.811
X-117.434 Y-7.772
X-117.522 Y-7.759
X-117.814
X-117.898
X-117.917 Y-7.764
X-117.935 Y-7.772
X-117.953 Y-7.785
X-117.972 Y-7.801
X-117.983 Y-7.816
X-118.067 Y-7.954
X-118.078 Y-7.987
Y-8.021
X-118.066 Y-8.053
X-118.014 Y-8.144
X-117.623 Y-8.825
X-117.56 Y-8.892
X-117.533 Y-8.918
X-117.466 Y-8.952
X-117.316 Y-8.963
X-117.179 Y-8.903
X-117.067 Y-8.803
X-116.983 Y-8.679
X-116.927 Y-8.54
X-116.899 Y-8.392
X-116.898 Y-8.242
X-116.921 Y-8.094
X-116.966 Y-7.951
X-116.984 Y-7.918
X-117.05 Y-7.833
X-117.143 Y-7.778
X-117.249 Y-7.759
X-117.522
X-117.56 Y-7.767
X-117.592 Y-7.79
X-117.612 Y-7.823
X-117.619 Y-7.862
X-117.61 Y-8.113
X-117.585 Y-8.829
X-117.578 Y-8.863
X-117.56 Y-8.892
X-117.513 Y-8.941
X-117.505 Y-8.952
X-117.501 Y-8.962
X-117.486 Y-8.997
X-117.433 Y-9.05
X-117.294 Y-9.106
X-117.145 Y-9.088
X-117.009 Y-9.023
X-116.893 Y-8.928
X-116.8 Y-8.811
X-116.73 Y-8.678
X-116.684 Y-8.535
X-116.66 Y-8.387
X-116.656 Y-8.237
X-116.671 Y-8.088
X-116.712 Y-7.944
X-116.721 Y-7.925
X-116.787 Y-7.837
X-116.881 Y-7.779
X-116.99 Y-7.759
X-117.249
X-117.282 Y-7.766
X-117.312 Y-7.784
X-117.333 Y-7.811
X-117.344 Y-7.844
X-117.395 Y-8.186
X-117.505 Y-8.915
X-117.506 Y-8.939
X-117.501 Y-8.962
X-117.443 Y-9.114
X-117.428 Y-9.149
X-117.372 Y-9.198
X-117.237 Y-9.263
X-117.087 Y-9.265
X-116.943 Y-9.222
X-116.813 Y-9.148
X-116.699 Y-9.05
X-116.603 Y-8.935
X-116.526 Y-8.806
X-116.487 Y-8.713
X-116.475 Y-8.676
X-116.467 Y-8.637
X-116.464 Y-8.598
Y-8.139
Y-8.092
Y-8.054
X-116.472 Y-7.905
X-116.538 Y-7.827
X-116.626 Y-7.776
X-116.726 Y-7.759
X-116.762 Y-7.767
X-116.793 Y-7.787
X-116.814 Y-7.817
X-116.823 Y-7.853
X-116.818 Y-7.89
X-116.8 Y-7.922
X-116.641 Y-8.115
X-116.615 Y-8.137
X-116.583 Y-8.149
X-116.549 Y-8.15
X-116.516 Y-8.139
X-116.489 Y-8.117
X-116.471 Y-8.088
X-116.464 Y-8.054
Y-7.864
X-116.466 Y-7.854
X-116.468 Y-7.843
X-116.472 Y-7.833
X-116.477 Y-7.822
X-116.483 Y-7.812
X-116.492 Y-7.801
X-116.505 Y-7.79
X-116.519 Y-7.781
X-116.545 Y-7.766
X-116.555 Y-7.763
X-116.566 Y-7.76
X-116.576 Y-7.759
X-116.99
X-117.02 Y-7.764
X-117.047 Y-7.779
X-117.069 Y-7.802
X-117.082 Y-7.83
X-117.239 Y-8.36
X-117.445 Y-9.054
X-117.449 Y-9.084
X-117.443 Y-9.114
X-117.413 Y-9.195
X-117.41 Y-9.205
X-117.392 Y-9.278
X-117.346 Y-9.337
X-117.223 Y-9.424
X-117.076 Y-9.451
X-116.927 Y-9.435
X-116.785 Y-9.387
X-116.654 Y-9.314
X-116.578 Y-9.253
X-116.517 Y-9.188
X-116.478 Y-9.107
X-116.464 Y-9.018
Y-8.598
X-116.472 Y-8.562
X-116.493 Y-8.531
X-116.523 Y-8.51
X-116.558 Y-8.501
X-116.595 Y-8.506
X-116.627 Y-8.523
X-116.834 Y-8.69
X-117.373 Y-9.122
X-117.394 Y-9.145
X-117.407 Y-9.174
X-117.41 Y-9.205
X-117.408 Y-9.237
Y-9.321
X-117.404 Y-9.396
X-117.372 Y-9.464
X-117.269 Y-9.574
X-117.132 Y-9.633
X-116.983 Y-9.651
X-116.833 Y-9.636
X-116.689 Y-9.594
X-116.631 Y-9.566
X-116.543 Y-9.499
X-116.485 Y-9.405
X-116.464 Y-9.297
Y-9.018
X-116.473 Y-8.981
X-116.495 Y-8.95
X-116.527 Y-8.929
X-116.564 Y-8.922
X-116.602 Y-8.929
X-116.725 Y-8.979
X-117.346 Y-9.232
X-117.377 Y-9.253
X-117.399 Y-9.284
X-117.408 Y-9.321
Y-9.49
X-117.404 Y-9.565
X-117.341 Y-9.701
X-117.222 Y-9.793
X-117.082 Y-9.846
X-116.933 Y-9.866
X-116.783 Y-9.858
X-116.638 Y-9.819
X-116.63 Y-9.815
X-116.543 Y-9.749
X-116.485 Y-9.655
X-116.464 Y-9.547
Y-9.297
X-116.472 Y-9.262
X-116.491 Y-9.232
X-116.52 Y-9.211
X-116.554 Y-9.201
X-116.589 Y-9.203
X-116.697 Y-9.231
X-117.333 Y-9.397
X-117.362 Y-9.41
X-117.386 Y-9.431
X-117.402 Y-9.459
X-117.408 Y-9.49
Y-9.706
X-117.404 Y-9.781
X-117.33 Y-9.911
X-117.212 Y-10.003
X-117.073 Y-10.06
X-116.926 Y-10.088
X-116.776 Y-10.089
X-116.697 Y-10.07
X-116.577 Y-10.012
X-116.494 Y-9.908
X-116.464 Y-9.778
Y-9.547
X-116.472 Y-9.513
X-116.49 Y-9.484
X-116.517 Y-9.462
X-116.55 Y-9.451
X-116.585 Y-9.453
X-116.69 Y-9.475
X-117.329 Y-9.611
X-117.359 Y-9.623
X-117.384 Y-9.645
X-117.401 Y-9.673
X-117.408 Y-9.706
Y-9.875
X-117.404 Y-9.95
X-117.354 Y-10.091
X-117.245 Y-10.195
X-117.113 Y-10.266
X-116.969 Y-10.308
X-116.82 Y-10.319
X-116.671 Y-10.297
X-116.649 Y-10.288
X-116.552 Y-10.223
X-116.487 Y-10.126
X-116.464 Y-10.011
Y-9.778
X-116.471 Y-9.746
X-116.488 Y-9.717
X-116.513 Y-9.696
X-116.544 Y-9.684
X-116.577 Y-9.682
X-116.681 Y-9.696
X-117.321 Y-9.779
X-117.354 Y-9.789
X-117.382 Y-9.811
X-117.4 Y-9.84
X-117.408 Y-9.875
Y-10.128
X-117.404 Y-10.203
X-117.332 Y-10.335
X-117.219 Y-10.433
X-117.084 Y-10.499
X-116.939 Y-10.536
X-116.789 Y-10.546
X-116.642 Y-10.518
X-116.547 Y-10.451
X-116.486 Y-10.355
X-116.464 Y-10.244
Y-10.011
X-116.471 Y-9.978
X-116.489 Y-9.949
X-116.514 Y-9.928
X-116.546 Y-9.916
X-116.58
X-116.684 Y-9.932
X-117.323 Y-10.033
X-117.356 Y-10.044
X-117.383 Y-10.065
X-117.401 Y-10.094
X-117.408 Y-10.128
Y-10.335
X-117.404 Y-10.41
X-117.338 Y-10.545
X-117.228 Y-10.646
X-117.095 Y-10.717
X-116.952 Y-10.76
X-116.802 Y-10.774
X-116.654 Y-10.751
X-116.649 Y-10.749
X-116.552 Y-10.684
X-116.487 Y-10.587
X-116.464 Y-10.472
Y-10.244
X-116.471 Y-10.212
X-116.488 Y-10.183
X-116.513 Y-10.162
X-116.543 Y-10.15
X-116.576 Y-10.148
X-116.681 Y-10.161
X-117.32 Y-10.239
X-117.354 Y-10.25
X-117.382 Y-10.271
X-117.4 Y-10.301
X-117.408 Y-10.335
Y-10.55
X-117.404 Y-10.625
X-117.341 Y-10.761
X-117.232 Y-10.865
X-117.102 Y-10.938
X-116.959 Y-10.984
X-116.81 Y-11.001
X-116.661 Y-10.98
X-116.653 Y-10.977
X-116.554 Y-10.912
X-116.488 Y-10.814
X-116.464 Y-10.698
Y-10.472
X-116.471 Y-10.44
X-116.487 Y-10.412
X-116.512 Y-10.39
X-116.542 Y-10.378
X-116.575 Y-10.376
X-116.68 Y-10.387
X-117.318 Y-10.454
X-117.352 Y-10.464
X-117.381 Y-10.486
X-117.4 Y-10.516
X-117.408 Y-10.55
Y-10.757
X-117.404 Y-10.832
X-117.349 Y-10.972
X-117.245 Y-11.08
X-117.116 Y-11.157
X-116.975 Y-11.207
X-116.826 Y-11.227
X-116.677 Y-11.21
X-116.662 Y-11.205
X-116.558 Y-11.141
X-116.489 Y-11.042
X-116.464 Y-10.923
Y-10.698
X-116.471 Y-10.667
X-116.487 Y-10.639
X-116.511 Y-10.617
X-116.54 Y-10.605
X-116.572 Y-10.602
X-116.678 Y-10.611
X-117.316 Y-10.661
X-117.351 Y-10.67
X-117.38 Y-10.692
X-117.4 Y-10.722
X-117.408 Y-10.757
Y-10.973
X-117.404 Y-11.048
X-117.354 Y-11.189
X-117.252 Y-11.299
X-117.125 Y-11.379
X-116.984 Y-11.43
X-116.835 Y-11.453
X-116.686 Y-11.438
X-116.666 Y-11.431
X-116.561 Y-11.368
X-116.489 Y-11.267
X-116.464 Y-11.147
Y-10.923
X-116.474 Y-10.884
X-116.497 Y-10.852
X-116.531 Y-10.832
X-116.571 Y-10.827
X-116.677 Y-10.834
X-117.314 Y-10.876
X-117.35 Y-10.885
X-117.38 Y-10.907
X-117.4 Y-10.937
X-117.408 Y-10.973
Y-11.226
X-117.404 Y-11.301
X-117.341 Y-11.437
X-117.234 Y-11.542
X-117.103 Y-11.616
X-116.96 Y-11.661
X-116.811 Y-11.678
X-116.663 Y-11.657
X-116.652 Y-11.653
X-116.553 Y-11.588
X-116.487 Y-11.49
X-116.464 Y-11.375
Y-11.147
X-116.471 Y-11.115
X-116.487 Y-11.087
X-116.512 Y-11.065
X-116.542 Y-11.053
X-116.575 Y-11.051
X-116.68 Y-11.062
X-117.318 Y-11.13
X-117.353 Y-11.14
X-117.381 Y-11.161
X-117.4 Y-11.191
X-117.408 Y-11.226
Y-11.433
X-117.404 Y-11.508
X-117.35 Y-11.648
X-117.247 Y-11.756
X-117.118 Y-11.834
X-116.977 Y-11.884
X-116.828 Y-11.904
X-116.679 Y-11.888
X-116.663 Y-11.882
X-116.559 Y-11.818
X-116.489 Y-11.719
X-116.464 Y-11.6
Y-11.375
X-116.471 Y-11.343
X-116.487 Y-11.315
X-116.511 Y-11.294
X-116.54 Y-11.281
X-116.572 Y-11.278
X-116.678 Y-11.287
X-117.316 Y-11.337
X-117.351 Y-11.346
X-117.38 Y-11.367
X-117.4 Y-11.398
X-117.408 Y-11.433
Y-11.648
X-117.404 Y-11.723
X-117.355 Y-11.865
X-117.253 Y-11.976
X-117.127 Y-12.055
X-116.986 Y-12.107
X-116.837 Y-12.13
X-116.688 Y-12.115
X-116.667 Y-12.108
X-116.561 Y-12.045
X-116.49 Y-11.945
X-116.464 Y-11.824
Y-11.6
X-116.474 Y-11.561
X-116.497 Y-11.529
X-116.531 Y-11.509
X-116.571 Y-11.503
X-116.677 Y-11.51
X-117.314 Y-11.552
X-117.35 Y-11.561
X-117.38 Y-11.582
X-117.4 Y-11.613
X-117.408 Y-11.648
Y-11.902
X-117.404 Y-11.977
X-117.342 Y-12.113
X-117.235 Y-12.218
X-117.105 Y-12.293
X-116.962 Y-12.338
X-116.813 Y-12.355
X-116.664 Y-12.334
X-116.652 Y-12.33
X-116.554 Y-12.265
X-116.488 Y-12.167
X-116.464 Y-12.051
Y-11.824
X-116.471 Y-11.792
X-116.487 Y-11.764
X-116.512 Y-11.742
X-116.542 Y-11.73
X-116.575 Y-11.728
X-116.679 Y-11.739
X-117.318 Y-11.806
X-117.352 Y-11.816
X-117.381 Y-11.837
X-117.4 Y-11.867
X-117.408 Y-11.902
Y-12.109
X-117.404 Y-12.184
X-117.351 Y-12.324
X-117.248 Y-12.433
X-117.12 Y-12.511
X-116.978 Y-12.56
X-116.83 Y-12.581
X-116.68 Y-12.565
X-116.663 Y-12.559
X-116.559 Y-12.495
X-116.489 Y-12.396
X-116.464 Y-12.276
Y-12.051
X-116.471 Y-12.02
X-116.486 Y-11.992
X-116.51 Y-11.971
X-116.54 Y-11.958
X-116.572 Y-11.955
X-116.678 Y-11.963
X-117.316 Y-12.013
X-117.351 Y-12.022
X-117.38 Y-12.043
X-117.4 Y-12.073
X-117.408 Y-12.109
Y-12.324
X-117.4 Y-12.474
X-117.319 Y-12.6
X-117.204 Y-12.696
X-117.07 Y-12.763
X-116.924 Y-12.799
X-116.774 Y-12.807
X-116.706 Y-12.793
X-116.582 Y-12.737
X-116.495 Y-12.632
X-116.464 Y-12.499
Y-12.276
X-116.474 Y-12.238
X-116.497 Y-12.206
X-116.531 Y-12.186
X-116.571 Y-12.18
X-116.677 Y-12.187
X-117.314 Y-12.228
X-117.35 Y-12.237
X-117.38 Y-12.258
X-117.4 Y-12.288
X-117.408 Y-12.324
Y-12.578
X-117.404 Y-12.652
X-117.345 Y-12.791
X-117.292 Y-12.843
X-116.998 Y-13.071
X-116.848 Y-13.069
X-116.7 Y-13.043
X-116.654 Y-13.025
X-116.555 Y-12.96
X-116.488 Y-12.862
X-116.464 Y-12.745
Y-12.499
X-116.471 Y-12.467
X-116.487 Y-12.439
X-116.512 Y-12.417
X-116.542 Y-12.405
X-116.575 Y-12.403
X-116.68 Y-12.414
X-117.318 Y-12.482
X-117.352 Y-12.492
X-117.381 Y-12.513
X-117.4 Y-12.543
X-117.408 Y-12.578
Y-12.784
Y-12.831
Y-12.869
X-117.4 Y-13.019
X-117.408 Y-13.213
X-117.399 Y-13.251
X-117.376 Y-13.283
X-117.343 Y-13.303
X-117.304 Y-13.31
X-117.266 Y-13.301
X-117.235 Y-13.278
X-117.214 Y-13.245
X-117.208 Y-13.206
G3 X-117.288 Y-12.847 I-0.999 J-0.035
G1 X-117.305 Y-12.824
X-117.329 Y-12.811
X-117.357 Y-12.81
X-117.383 Y-12.821
X-117.401 Y-12.842
X-117.408 Y-12.869
Y-13.798
X-117.41 Y-13.883
X-117.415 Y-13.925
X-117.423 Y-13.967
X-117.443 Y-14.032
X-117.446 Y-14.065
X-117.438 Y-14.098
X-117.42 Y-14.127
X-117.393 Y-14.147
X-117.361 Y-14.158
X-117.042 Y-14.202
X-116.482 Y-14.281
X-116.445 Y-14.28
X-116.412 Y-14.265
X-116.386 Y-14.24
X-116.371 Y-14.207
X-116.369 Y-14.171
X-116.379 Y-14.136
X-116.403 Y-14.094
X-116.423 Y-14.051
X-116.45 Y-13.967
X-116.46 Y-13.905
X-116.463 Y-13.883
X-116.464 Y-13.798
Y-12.745
X-116.469 Y-12.717
X-116.482 Y-12.692
X-116.511 Y-12.675 Z-0.983
X-116.536 Y-12.66 Z-0.966
X-116.555 Y-12.649 Z-0.939
X-116.564 Z-0.916
X-116.568 Z-0.89
G0 Z2
X-112.735 Y-12.662
Z0.5
G3 X-112.25 Y-12.787 Z0.29 I0.242 J-0.062 F333.3
X-112.735 Y-12.662 Z0.079 I-0.242 J0.062
X-112.25 Y-12.787 Z-0.131 I0.242 J-0.062
X-112.735 Y-12.662 Z-0.342 I-0.242 J0.062
X-112.25 Y-12.787 Z-0.552 I0.242 J-0.062
X-112.735 Y-12.662 Z-0.763 I-0.242 J0.062
X-112.524 Y-12.973 Z-0.876 I0.242 J-0.062
X-112.243 Y-12.725 Z-0.99 I0.031 J0.248
X-112.743 I-0.25
X-112.243 I0.25
G1 X-112.205 Y-12.579 F1000
X-112.218 Y-12.506
X-112.255 Y-12.44
X-112.362 Y-12.335
X-112.507 Y-12.295
X-112.655 Y-12.317
X-112.786 Y-12.391
X-112.882 Y-12.505
X-112.935 Y-12.646
X-112.937 Y-12.796
X-112.889 Y-12.938
X-112.797 Y-13.057
X-112.671 Y-13.139
X-112.526 Y-13.174
X-112.376 Y-13.16
X-112.24 Y-13.098
X-112.131 Y-12.995
X-112.053 Y-12.867
X-112.003 Y-12.725
X-111.992 Y-12.576
X-112.027 Y-12.43
X-112.098 Y-12.298
X-112.207 Y-12.194
X-112.337 Y-12.121
X-112.484 Y-12.087
X-112.633 Y-12.095
X-112.778 Y-12.135
X-112.907 Y-12.211
X-113.014 Y-12.317
X-113.096 Y-12.443
X-113.146 Y-12.584
X-113.16 Y-12.733
X-113.143 Y-12.882
X-113.093 Y-13.024
X-113.01 Y-13.149
X-112.904 Y-13.255
X-112.776 Y-13.333
X-112.634 Y-13.38
X-112.485 Y-13.396
X-112.336 Y-13.378
X-112.195 Y-13.325
X-112.068 Y-13.245
X-111.96 Y-13.142
X-111.872 Y-13.02
X-111.809 Y-12.884
X-111.771 Y-12.739
X-111.763 Y-12.589
X-111.785 Y-12.441
X-111.793 Y-12.42
X-111.827 Y-12.352
X-111.877 Y-12.294
X-111.94 Y-12.251
X-111.976 Y-12.233
X-112.037 Y-12.193
X-112.061 Y-12.173
X-112.124 Y-12.109
X-112.146 Y-12.081
X-112.237 Y-11.962
X-112.374 Y-11.9
X-112.521 Y-11.872
X-112.671 Y-11.874
X-112.817 Y-11.908
X-112.954 Y-11.969
X-113.078 Y-12.054
X-113.082 Y-12.058
X-113.13 Y-12.117
X-113.161 Y-12.185
X-113.174 Y-12.259
X-113.187 Y-12.531
X-113.194 Y-12.784
X-113.195 Y-12.869
X-113.191 Y-13.038
X-113.181 Y-13.187
X-113.114 Y-13.322
X-113.015 Y-13.434
X-112.893 Y-13.522
X-112.756 Y-13.583
X-112.61 Y-13.618
X-112.46 Y-13.628
X-112.311 Y-13.612
X-112.255 Y-13.596
X-112.166 Y-13.553
X-112.095 Y-13.483
X-112.051 Y-13.393
X-112.046 Y-13.376
X-112.029 Y-13.333
X-112.009 Y-13.291
X-111.865 Y-13.038
X-111.807 Y-12.939
X-111.759 Y-12.869
X-111.704 Y-12.803
X-111.615 Y-12.682
X-111.608 Y-12.654
X-111.602 Y-12.538
X-111.641 Y-12.429
X-111.718 Y-12.342
X-111.823 Y-12.292
X-111.862 Y-12.291
X-111.899 Y-12.305
X-111.927 Y-12.332
X-111.943 Y-12.369
Y-12.408
X-111.877 Y-12.755
X-111.864 Y-12.789
X-111.839 Y-12.816
X-111.806 Y-12.833
X-111.769 Y-12.836
X-111.733 Y-12.825
X-111.704 Y-12.803
X-111.553 Y-12.621
X-111.549 Y-12.616
X-111.527 Y-12.59
X-111.504 Y-12.56
X-111.52 Y-12.435
X-111.602 Y-12.34
X-111.723 Y-12.306
X-111.761 Y-12.308
X-111.798 Y-12.321
X-111.829 Y-12.344
X-111.853 Y-12.375
X-111.867 Y-12.412
G3 X-111.527 Y-12.59 I0.194 J-0.044
G1 X-111.476 Y-12.531
X-111.469 Y-12.522
X-111.448 Y-12.499
X-111.419 Y-12.464
X-111.45 Y-12.371
X-111.528 Y-12.31
X-111.626 Y-12.3
X-111.651 Y-12.311
X-111.672 Y-12.329
X-111.685 Y-12.353
G3 X-111.448 Y-12.499 I0.135 J-0.046
G1 X-111.4 Y-12.447
X-111.39 Y-12.43
X-111.384 Y-12.413
X-111.382 Y-12.401
X-111.381 Y-12.389
X-111.382 Y-12.377
X-111.385 Y-12.362
X-111.388 Y-12.352
X-111.393 Y-12.341
X-111.408 Y-12.32
X-111.419 Y-12.306
X-111.434 Y-12.292
X-111.447 Y-12.283
X-111.461 Y-12.278
X-111.469 Y-12.275
X-111.483 Y-12.273
X-111.497 Y-12.272
X-111.512 Y-12.274
X-111.553 Y-12.286
X-112.278 Y-12.59
X-112.512 Y-12.688
X-113.13 Y-12.947
X-113.162 Y-12.968
X-113.183 Y-13
X-113.191 Y-13.038
X-113.189 Y-13.122
X-113.179 Y-13.338
X-113.164 Y-13.487
X-113.085 Y-13.614
X-112.973 Y-13.714
X-112.842 Y-13.788
X-112.701 Y-13.837
X-112.553 Y-13.863
X-112.403 Y-13.865
X-112.351 Y-13.857
X-112.241 Y-13.815
X-112.156 Y-13.735
X-112.108 Y-13.628
X-112.061 Y-13.426
X-112.051 Y-13.393
X-112.048 Y-13.358
X-112.058 Y-13.324
X-112.08 Y-13.295
X-112.11 Y-13.276
X-112.145 Y-13.268
X-112.452 Y-13.258
X-113.076 Y-13.236
X-113.108 Y-13.241
X-113.137 Y-13.255
X-113.16 Y-13.277
X-113.174 Y-13.306
X-113.179 Y-13.338
X-113.177 Y-13.376
X-113.171 Y-13.46
X-113.158 Y-13.606
X-113.138 Y-13.755
X-113.053 Y-13.879
X-112.936 Y-13.973
X-112.802 Y-14.041
X-112.659 Y-14.084
X-112.51 Y-14.104
X-112.36 Y-14.094
X-112.357 Y-14.093
X-112.261 Y-14.042
X-112.189 Y-13.96
X-112.152 Y-13.858
X-112.127 Y-13.714
X-112.108 Y-13.628
X-112.107 Y-13.593
X-112.118 Y-13.56
X-112.14 Y-13.533
X-112.17 Y-13.515
X-112.205 Y-13.509
X-112.435 Y-13.507
X-113.057 Y-13.501
X-113.09 Y-13.506
X-113.118 Y-13.521
X-113.141 Y-13.545
X-113.155 Y-13.574
X-113.158 Y-13.606
X-113.134 Y-13.883
X-113.123 Y-13.957
X-113.054 Y-14.09
X-112.944 Y-14.192
X-112.813 Y-14.265
X-112.671 Y-14.313
X-112.523 Y-14.336
X-112.451 Y-14.33
X-112.318 Y-14.285
X-112.22 Y-14.186
X-112.178 Y-14.052
X-112.171 Y-13.967
X-112.152 Y-13.858
X-112.153 Y-13.823
X-112.166 Y-13.791
X-112.19 Y-13.765
X-112.221 Y-13.749
X-112.255 Y-13.744
X-112.411 Y-13.751
X-113.038 Y-13.777
X-113.076 Y-13.787
X-113.108 Y-13.81
X-113.128 Y-13.844
X-113.134 Y-13.883
X-113.114 Y-14.098
X-113.093 Y-14.246
X-113.005 Y-14.368
X-112.885 Y-14.459
X-112.75 Y-14.523
X-112.603 Y-14.556
X-112.453 Y-14.555
X-112.416 Y-14.545
X-112.302 Y-14.488
X-112.222 Y-14.388
X-112.191 Y-14.264
X-112.19 Y-14.22
X-112.178 Y-14.052
X-112.182 Y-14.019
X-112.197 Y-13.99
X-112.221 Y-13.966
X-112.251 Y-13.952
X-112.284 Y-13.949
X-112.393 Y-13.955
X-113.02 Y-13.992
X-113.058 Y-14.002
X-113.089 Y-14.026
X-113.109 Y-14.059
X-113.114 Y-14.098
X-113.103 Y-14.22
X-113.093 Y-14.305
X-113.087 Y-14.351
X-113.06 Y-14.499
X-112.969 Y-14.618
X-112.846 Y-14.704
X-112.706 Y-14.758
X-112.558 Y-14.782
X-112.466 Y-14.773
X-112.328 Y-14.724
X-112.229 Y-14.616
X-112.193 Y-14.474
Y-14.305
X-112.191 Y-14.264
X-112.197 Y-14.231
X-112.213 Y-14.202
X-112.238 Y-14.18
X-112.269 Y-14.167
X-112.302 Y-14.165
X-112.373 Y-14.173
X-112.998 Y-14.242
X-113.035 Y-14.254
X-113.065 Y-14.279
X-113.083 Y-14.313
X-113.087 Y-14.351
X-113.071 Y-14.474
X-113.059 Y-14.558
X-113.036 Y-14.643
X-112.99 Y-14.786
X-112.883 Y-14.89
X-112.75 Y-14.96
X-112.604 Y-14.994
X-112.454 Y-14.993
X-112.401 Y-14.978
X-112.282 Y-14.912
X-112.204 Y-14.8
X-112.183 Y-14.666
X-112.191 Y-14.558
X-112.193 Y-14.474
X-112.201 Y-14.44
X-112.22 Y-14.412
X-112.247 Y-14.391
X-112.28 Y-14.381
X-112.314 Y-14.382
X-112.347 Y-14.389
X-112.96 Y-14.523
X-112.996 Y-14.538
X-113.023 Y-14.567
X-113.037 Y-14.603
X-113.036 Y-14.643
X-112.991 Y-14.812
X-112.967 Y-14.896
X-112.942 Y-14.967
X-112.853 Y-15.088
X-112.724 Y-15.164
X-112.579 Y-15.204
X-112.429 Y-15.2
X-112.381 Y-15.187
X-112.253 Y-15.115
X-112.175 Y-14.991
X-112.165 Y-14.844
X-112.171 Y-14.812
X-112.183 Y-14.666
X-112.193 Y-14.632
X-112.214 Y-14.604
X-112.244 Y-14.585
X-112.279 Y-14.577
X-112.314 Y-14.582
X-112.901 Y-14.777
X-112.934 Y-14.795
X-112.957 Y-14.824
X-112.969 Y-14.859
X-112.967 Y-14.896
X-112.898 Y-15.125
X-112.873 Y-15.196
X-112.779 Y-15.313
X-112.646 Y-15.382
X-112.498 Y-15.41
X-112.349 Y-15.393
X-112.313 Y-15.379
X-112.201 Y-15.301
X-112.135 Y-15.183
X-112.129 Y-15.047
X-112.165 Y-14.844
X-112.178 Y-14.812
X-112.202 Y-14.786
X-112.233 Y-14.77
X-112.268 Y-14.766
X-112.303 Y-14.774
X-112.841 Y-15.008
X-112.871 Y-15.028
X-112.891 Y-15.056
X-112.901 Y-15.09
X-112.898 Y-15.125
X-112.865 Y-15.234
X-112.822 Y-15.365
X-112.799 Y-15.427
X-112.694 Y-15.535
X-112.556 Y-15.593
X-112.406 Y-15.609
X-112.259 Y-15.579
X-112.237 Y-15.566
X-112.138 Y-15.481
X-112.085 Y-15.362
X-112.087 Y-15.231
X-112.107 Y-15.15
X-112.125 Y-15.065
X-112.129 Y-15.047
X-112.143 Y-15.013
X-112.168 Y-14.987
X-112.202 Y-14.971
X-112.239 Y-14.969
X-112.274 Y-14.98
X-112.774 Y-15.249
X-112.8 Y-15.27
X-112.818 Y-15.299
X-112.826 Y-15.331
X-112.822 Y-15.365
X-112.81 Y-15.403
X-112.741 Y-15.572
X-112.708 Y-15.64
X-112.599 Y-15.743
X-112.458 Y-15.793
X-112.308 Y-15.799
X-112.164 Y-15.756
X-112.151 Y-15.747
X-112.057 Y-15.645
X-112.02 Y-15.512
X-112.046 Y-15.375
X-112.065 Y-15.348
X-112.093 Y-15.329
X-112.125 Y-15.32
X-112.158 Y-15.322
X-112.669 Y-15.439
X-112.701 Y-15.452
X-112.726 Y-15.475
X-112.742 Y-15.505
X-112.747 Y-15.538
X-112.741 Y-15.572
X-112.653 Y-15.782
X-112.621 Y-15.849
X-112.505 Y-15.945
X-112.361 Y-15.987
X-112.211 Y-15.985
X-112.071 Y-15.931
X-112.055 Y-15.919
X-111.97 Y-15.816
X-111.937 Y-15.687
X-111.964 Y-15.557
X-112.046 Y-15.375
X-112.067 Y-15.347
X-112.096 Y-15.328
X-112.131 Y-15.32
X-112.165 Y-15.324
X-112.197 Y-15.34
X-112.621 Y-15.667
X-112.642 Y-15.69
X-112.656 Y-15.719
X-112.659 Y-15.751
X-112.653 Y-15.782
X-112.583 Y-15.951
X-112.55 Y-16.019
X-112.446 Y-16.126
X-112.304 Y-16.176
X-112.154 Y-16.177
X-112.012 Y-16.129
X-111.98 Y-16.108
X-111.885 Y-16.001
X-111.849 Y-15.863
X-111.882 Y-15.724
X-111.917 Y-15.656
X-111.964 Y-15.557
X-111.984 Y-15.529
X-112.013 Y-15.51
X-112.047 Y-15.501
X-112.081 Y-15.505
X-112.112 Y-15.52
X-112.548 Y-15.835
X-112.57 Y-15.858
X-112.585 Y-15.887
X-112.589 Y-15.919
X-112.583 Y-15.951
X-112.529 Y-16.079
X-112.463 Y-16.163
X-112.419 Y-16.218
X-112.37 Y-16.274
X-112.238 Y-16.346
X-112.088 Y-16.357
X-111.944 Y-16.316
X-111.816 Y-16.238
X-111.812 Y-16.232
X-111.754 Y-16.121
X-111.747 Y-15.996
X-111.792 Y-15.878
X-111.827 Y-15.825
X-111.873 Y-15.741
X-111.882 Y-15.724
X-111.906 Y-15.695
X-111.939 Y-15.677
X-111.975 Y-15.672
X-112.012 Y-15.681
X-112.042 Y-15.703
X-112.411 Y-16.089
X-112.431 Y-16.118
X-112.439 Y-16.152
X-112.435 Y-16.187
X-112.419 Y-16.218
X-112.315 Y-16.349
X-112.284 Y-16.386
X-112.234 Y-16.442
X-112.1 Y-16.51
X-111.95 Y-16.513
X-111.806 Y-16.473
X-111.763 Y-16.442
X-111.685 Y-16.359
X-111.644 Y-16.252
X-111.646 Y-16.138
X-111.69 Y-16.033
X-111.792 Y-15.878
X-111.818 Y-15.853
X-111.852 Y-15.839
X-111.888 Y-15.837
X-111.922 Y-15.848
X-111.95 Y-15.871
X-112.281 Y-16.261
X-112.298 Y-16.29
X-112.305 Y-16.323
X-112.3 Y-16.356
X-112.284 Y-16.386
X-112.146 Y-16.552
X-112.094 Y-16.607
X-111.958 Y-16.67
X-111.808 Y-16.669
X-111.669 Y-16.614
X-111.555 Y-16.516
X-111.515 Y-16.399
X-111.529 Y-16.275
X-111.596 Y-16.17
X-111.603 Y-16.163
X-111.69 Y-16.033
X-111.717 Y-16.007
X-111.752 Y-15.993
X-111.789
X-111.824 Y-16.007
X-111.851 Y-16.032
X-112.147 Y-16.431
X-112.162 Y-16.46
X-112.167 Y-16.492
X-112.161 Y-16.524
X-112.146 Y-16.552
X-112.029 Y-16.691
X-112.014 Y-16.708
X-111.997 Y-16.728
X-111.94 Y-16.775
X-111.798 Y-16.824
X-111.649 Y-16.808
X-111.511 Y-16.748
X-111.474 Y-16.712
X-111.407 Y-16.612
X-111.385 Y-16.493
X-111.412 Y-16.375
X-111.482 Y-16.277
X-111.553 Y-16.212
X-111.596 Y-16.17
X-111.626 Y-16.151
X-111.66 Y-16.143
X-111.695 Y-16.148
X-111.726 Y-16.165
X-111.75 Y-16.191
X-112.005 Y-16.612
X-112.017 Y-16.641
X-112.02 Y-16.671
X-112.013 Y-16.701
X-111.997 Y-16.728
X-111.967 Y-16.754
X-111.833 Y-16.866
X-111.774 Y-16.911
X-111.631 Y-16.959
X-111.483 Y-16.938
X-111.353 Y-16.863
X-111.317 Y-16.82
X-111.261 Y-16.721
X-111.246 Y-16.607
X-111.275 Y-16.497
X-111.343 Y-16.405
X-111.482 Y-16.277
X-111.513 Y-16.259
X-111.549 Y-16.253
X-111.584 Y-16.261
X-111.615 Y-16.28
X-111.637 Y-16.309
X-111.856 Y-16.746
X-111.866 Y-16.777
X-111.865 Y-16.81
X-111.854 Y-16.84
X-111.833 Y-16.866
X-111.663 Y-17.008
X-111.603 Y-17.053
X-111.457 Y-17.088
X-111.311 Y-17.054
X-111.188 Y-16.968
X-111.099 Y-16.847
Y-16.845
X-111.085 Y-16.717
X-111.126 Y-16.594
X-111.215 Y-16.501
X-111.3 Y-16.443
X-111.343 Y-16.405
X-111.376 Y-16.387
X-111.413 Y-16.381
X-111.449 Y-16.39
X-111.48 Y-16.412
X-111.5 Y-16.443
X-111.689 Y-16.895
X-111.696 Y-16.925
X-111.694 Y-16.955
X-111.682 Y-16.984
X-111.663 Y-17.008
X-111.53 Y-17.118
X-111.511 Y-17.133
X-111.49 Y-17.147
X-111.469 Y-17.155
X-111.435 Y-17.167
X-111.363 Y-17.188
X-111.213 Y-17.185
X-111.078 Y-17.12
X-110.97 Y-17.016
X-110.957 Y-16.991
X-110.925 Y-16.852
X-110.961 Y-16.714
X-111.057 Y-16.608
X-111.215 Y-16.501
X-111.249 Y-16.487
X-111.286
X-111.321 Y-16.501
X-111.348 Y-16.526
X-111.364 Y-16.56
X-111.496 Y-17.048
X-111.498 Y-17.084
X-111.488 Y-17.119
X-111.466 Y-17.148
X-111.435 Y-17.167
X-111.215 Y-17.244
X-111.143 Y-17.265
X-110.994 Y-17.25
X-110.865 Y-17.173
X-110.775 Y-17.053
X-110.771 Y-17.038
X-110.764 Y-16.904
X-110.817 Y-16.779
X-110.919 Y-16.691
X-110.961 Y-16.668
X-111.057 Y-16.608
X-111.094 Y-16.594
X-111.133 Y-16.595
X-111.169 Y-16.612
X-111.196 Y-16.641
X-111.209 Y-16.678
X-111.278 Y-17.136
X-111.277 Y-17.169
X-111.265 Y-17.201
X-111.244 Y-17.226
X-111.215 Y-17.244
X-110.999 Y-17.318
X-110.927 Y-17.338
X-110.781 Y-17.306
X-110.661 Y-17.216
X-110.635 Y-17.169
X-110.598 Y-17.044
X-110.617 Y-16.916
X-110.689 Y-16.808
X-110.799 Y-16.74
X-110.877 Y-16.713
X-110.919 Y-16.691
X-110.951 Y-16.681
X-110.985 Y-16.683
X-111.016 Y-16.696
X-111.041 Y-16.718
X-111.057 Y-16.747
X-111.063 Y-16.78
X-111.064 Y-17.224
X-111.059 Y-17.254
X-111.046 Y-17.281
X-111.025 Y-17.303
X-110.999 Y-17.318
X-110.834 Y-17.373
X-110.76 Y-17.382
X-110.685 Y-17.377
X-110.546 Y-17.32
X-110.451 Y-17.204
X-110.438 Y-17.163
X-110.427 Y-17.046
X-110.461 Y-16.934
X-110.536 Y-16.843
X-110.64 Y-16.788
X-110.799 Y-16.74
X-110.837 Y-16.736
X-110.874 Y-16.747
X-110.904 Y-16.771
X-110.923 Y-16.804
X-110.928 Y-16.842
X-110.899 Y-17.286
X-110.889 Y-17.323
X-110.867 Y-17.354
X-110.834 Y-17.373
X-110.792 Y-17.381
X-110.576 Y-17.413
X-110.502 Y-17.42
X-110.433 Y-17.39
X-110.315 Y-17.298
X-110.248 Y-17.163
X-110.247 Y-17.151
X-110.268 Y-17.009
X-110.354 Y-16.893
X-110.484 Y-16.83
X-110.538 Y-16.818
X-110.64 Y-16.788
X-110.674 Y-16.785
X-110.707 Y-16.794
X-110.735 Y-16.814
X-110.755 Y-16.842
X-110.764 Y-16.875
X-110.762 Y-16.909
X-110.655 Y-17.339
X-110.639 Y-17.373
X-110.611 Y-17.399
X-110.576 Y-17.413
X-110.407 Y-17.436
X-110.332 Y-17.443
X-110.194 Y-17.385
X-110.098 Y-17.27
X-110.059 Y-17.125
X-110.06 Y-17.118
X-110.102 Y-16.996
X-110.192 Y-16.903
X-110.313 Y-16.857
X-110.454 Y-16.836
X-110.484 Y-16.83
X-110.517
X-110.548 Y-16.84
X-110.575 Y-16.861
X-110.593 Y-16.889
X-110.601 Y-16.921
X-110.597 Y-16.955
X-110.486 Y-17.364
X-110.47 Y-17.398
X-110.442 Y-17.423
X-110.407 Y-17.436
X-110.238 Y-17.46
X-110.163 Y-17.466
X-110.091 Y-17.444
X-109.968 Y-17.359
X-109.892 Y-17.23
X-109.889 Y-17.209
X-109.9 Y-17.094
X-109.953 Y-16.991
X-110.04 Y-16.916
X-110.15 Y-16.88
X-110.284 Y-16.861
X-110.313 Y-16.857
X-110.352 Y-16.86
X-110.386 Y-16.877
X-110.411 Y-16.906
X-110.424 Y-16.943
X-110.421 Y-16.981
X-110.318 Y-17.386
X-110.301 Y-17.42
X-110.273 Y-17.446
X-110.238 Y-17.46
X-110.069 Y-17.482
X-110.031 Y-17.487
X-109.956 Y-17.478
X-109.887 Y-17.448
X-109.768 Y-17.357
X-109.71 Y-17.219
Y-17.192
X-109.733 Y-17.075
X-109.801 Y-16.976
X-109.901 Y-16.911
X-110.019 Y-16.891
X-110.056 Y-16.901
X-110.087 Y-16.924
X-110.107 Y-16.957
X-110.113 Y-16.994
X-110.099 Y-17.388
X-110.09 Y-17.426
X-110.067 Y-17.458
X-110.034 Y-17.478
X-109.996 Y-17.485
X-109.815 Y-17.471
X-109.74 Y-17.461
X-109.676 Y-17.423
X-109.57 Y-17.317
X-109.53 Y-17.172
X-109.534 Y-17.138
X-109.571 Y-17.027
X-109.647 Y-16.939
X-109.751 Y-16.887
X-109.867 Y-16.878
X-109.946 Y-16.887
X-109.988 Y-16.89
X-110.019 Y-16.891
X-110.057 Y-16.901
X-110.088 Y-16.925
X-110.108 Y-16.96
X-110.112 Y-16.998
X-110.102 Y-17.036
X-109.908 Y-17.416
X-109.885 Y-17.446
X-109.852 Y-17.465
X-109.815 Y-17.471
X-109.607 Y-17.454
X-109.57 Y-17.449
X-109.505 Y-17.412
X-109.451 Y-17.36
X-109.371 Y-17.233
X-109.366 Y-17.184
X-109.383 Y-17.052
X-109.455 Y-16.94
X-109.569 Y-16.871
X-109.702 Y-16.858
X-109.867 Y-16.878
X-109.904 Y-16.891
X-109.933 Y-16.918
X-109.949 Y-16.954
X-109.951 Y-16.993
X-109.936 Y-17.03
X-109.696 Y-17.408
X-109.673 Y-17.433
X-109.642 Y-17.45
X-109.607 Y-17.454
X-109.476 Y-17.444
X-109.404 Y-17.434
X-109.337 Y-17.401
X-109.229 Y-17.297
X-109.184 Y-17.154
X-109.199 Y-17.004
X-109.206 Y-16.989
X-109.288 Y-16.883
X-109.41 Y-16.823
X-109.544
X-109.692 Y-16.856
X-109.702 Y-16.858
X-109.737 Y-16.87
X-109.765 Y-16.896
X-109.782 Y-16.929
X-109.785 Y-16.967
X-109.774 Y-17.003
X-109.569 Y-17.39
X-109.546 Y-17.42
X-109.513 Y-17.438
X-109.476 Y-17.444
X-109.438 Y-17.44
X-109.354 Y-17.43
X-109.223 Y-17.4
X-109.15 Y-17.38
X-109.045 Y-17.274
X-108.997 Y-17.132
X-109.007 Y-16.982
X-109.016 Y-16.959
X-109.101 Y-16.841
X-109.231 Y-16.776
X-109.377 Y-16.781
X-109.438 Y-16.799
X-109.544 Y-16.823
X-109.579 Y-16.84
X-109.605 Y-16.868
X-109.618 Y-16.905
X-109.616 Y-16.943
X-109.6 Y-16.978
X-109.322 Y-17.361
X-109.295 Y-17.386
X-109.26 Y-17.4
X-109.223
X-109.1 Y-17.373
X-109.053 Y-17.362
X-108.981 Y-17.341
X-108.866 Y-17.244
X-108.813 Y-17.104
X-108.818 Y-16.954
X-108.833 Y-16.913
X-108.893 Y-16.812
X-108.988 Y-16.741
X-109.102 Y-16.713
X-109.219 Y-16.731
X-109.269 Y-16.749
X-109.377 Y-16.781
X-109.41 Y-16.799
X-109.433 Y-16.828
X-109.445 Y-16.863
X-109.443 Y-16.9
X-109.428 Y-16.934
X-109.155 Y-17.321
X-109.127 Y-17.348
X-109.092 Y-17.362
X-109.053
X-108.884 Y-17.321
X-108.812 Y-17.3
X-108.751 Y-17.257
X-108.661 Y-17.137
X-108.628 Y-16.99
X-108.65 Y-16.842
X-108.719 Y-16.709
X-108.724 Y-16.704
X-108.839 Y-16.634
X-108.974 Y-16.622
X-109.1 Y-16.669
X-109.121 Y-16.691
X-109.136 Y-16.718
X-109.141 Y-16.748
X-109.137 Y-16.779
X-109 Y-17.251
X-108.984 Y-17.284
X-108.956 Y-17.309
X-108.921 Y-17.321
X-108.884
X-108.761 Y-17.291
X-108.729 Y-17.279
X-108.651 Y-17.235
X-108.589 Y-17.194
X-108.486 Y-17.085
X-108.446 Y-16.94
X-108.457 Y-16.79
X-108.514 Y-16.651
X-108.54 Y-16.62
X-108.657 Y-16.534
X-108.8 Y-16.512
X-108.937 Y-16.561
X-109.1 Y-16.669
X-109.123 Y-16.693
X-109.137 Y-16.723
X-109.141 Y-16.755
X-109.134 Y-16.788
X-109.117 Y-16.816
X-108.775 Y-17.212
X-108.749 Y-17.234
X-108.717 Y-17.245
X-108.683 Y-17.246
X-108.651 Y-17.235
X-108.423 Y-17.1
X-108.36 Y-17.059
X-108.285 Y-16.929
X-108.269 Y-16.78
X-108.299 Y-16.633
X-108.373 Y-16.503
X-108.402 Y-16.476
X-108.527 Y-16.404
X-108.67 Y-16.399
X-108.8 Y-16.462
X-108.848 Y-16.501
X-108.937 Y-16.561
X-108.962 Y-16.587
X-108.976 Y-16.619
X-108.978 Y-16.654
X-108.967 Y-16.688
X-108.946 Y-16.716
X-108.538 Y-17.086
X-108.512 Y-17.103
X-108.483 Y-17.112
X-108.452 Y-17.111
X-108.423 Y-17.1
X-108.266 Y-17.008
X-108.254 Y-17.001
X-108.212 Y-16.975
X-108.156 Y-16.925
X-108.101 Y-16.785
X-108.099 Y-16.635
X-108.139 Y-16.491
X-108.223 Y-16.366
X-108.263 Y-16.331
X-108.395 Y-16.263
X-108.543 Y-16.267
X-108.671 Y-16.341
X-108.761 Y-16.43
X-108.8 Y-16.462
X-108.822 Y-16.489
X-108.833 Y-16.523
X-108.831 Y-16.558
X-108.818 Y-16.591
X-108.793 Y-16.617
X-108.32 Y-16.968
X-108.286 Y-16.984
X-108.248 Y-16.987
X-108.212 Y-16.975
X-108.169 Y-16.94
X-108.053 Y-16.839
X-107.999 Y-16.787
X-107.939 Y-16.649
Y-16.499
X-107.982 Y-16.356
X-108.067 Y-16.232
X-108.179 Y-16.132
X-108.191 Y-16.127
X-108.309 Y-16.102
X-108.427 Y-16.125
X-108.526 Y-16.194
X-108.592 Y-16.262
X-108.671 Y-16.341
X-108.69 Y-16.369
X-108.699 Y-16.402
X-108.696 Y-16.436
X-108.681 Y-16.467
X-108.658 Y-16.491
X-108.175 Y-16.842
X-108.146 Y-16.857
X-108.113 Y-16.861
X-108.081 Y-16.855
X-108.053 Y-16.839
X-107.915 Y-16.719
X-107.862 Y-16.667
X-107.784 Y-16.538
X-107.775 Y-16.388
X-107.813 Y-16.243
X-107.886 Y-16.112
X-107.991 Y-16.004
X-108.04 Y-15.976
X-108.149 Y-15.939
X-108.265 Y-15.945
X-108.369 Y-15.995
X-108.447 Y-16.081
X-108.497 Y-16.163
X-108.526 Y-16.194
X-108.544 Y-16.221
X-108.551 Y-16.252
X-108.549 Y-16.284
X-108.536 Y-16.314
X-108.514 Y-16.338
X-108.041 Y-16.719
X-108.012 Y-16.735
X-107.978 Y-16.741
X-107.945 Y-16.735
X-107.915 Y-16.719
X-107.746 Y-16.571
X-107.727 Y-16.553
X-107.712 Y-16.536
X-107.637 Y-16.406
X-107.623 Y-16.256
X-107.655 Y-16.11
X-107.722 Y-15.976
X-107.823 Y-15.865
X-107.947 Y-15.781
X-107.987 Y-15.767
X-108.122 Y-15.756
X-108.249 Y-15.805
X-108.341 Y-15.904
X-108.447 Y-16.081
X-108.458 Y-16.117
X-108.456 Y-16.156
X-108.439 Y-16.19
X-108.41 Y-16.216
X-108.396 Y-16.224
X-107.835 Y-16.553
X-107.804 Y-16.565
X-107.77 Y-16.566
X-107.738 Y-16.556
X-107.712 Y-16.536
X-107.636 Y-16.416
X-107.577 Y-16.317
X-107.555 Y-16.279
X-107.521 Y-16.212
X-107.5 Y-16.064
X-107.535 Y-15.918
X-107.609 Y-15.787
X-107.71 Y-15.676
X-107.837 Y-15.597
X-107.891 Y-15.579
X-108.033 Y-15.568
X-108.163 Y-15.622
X-108.255 Y-15.731
X-108.341 Y-15.904
X-108.351 Y-15.935
Y-15.967
X-108.34 Y-15.998
X-108.32 Y-16.024
X-108.293 Y-16.042
X-108.266 Y-16.054
X-107.681 Y-16.317
X-107.646 Y-16.326
X-107.611 Y-16.322
X-107.579 Y-16.305
X-107.555 Y-16.279
X-107.537 Y-16.248
X-107.446 Y-16.079
X-107.413 Y-16.011
X-107.391 Y-15.863
X-107.429 Y-15.718
X-107.507 Y-15.589
X-107.611 Y-15.482
X-107.741 Y-15.405
X-107.883 Y-15.36
X-107.888
X-108.006 Y-15.382
X-108.105 Y-15.448
X-108.17 Y-15.548
X-108.18 Y-15.572
X-108.218 Y-15.656
X-108.255 Y-15.731
X-108.263 Y-15.762
X-108.261 Y-15.794
X-108.249 Y-15.824
X-108.228 Y-15.848
X-108.201 Y-15.865
X-108.165 Y-15.879
X-107.569 Y-16.121
X-107.535 Y-16.128
X-107.5 Y-16.123
X-107.469 Y-16.106
X-107.446 Y-16.079
X-107.337 Y-15.878
X-107.305 Y-15.81
X-107.286 Y-15.661
X-107.328 Y-15.517
X-107.408 Y-15.39
X-107.515 Y-15.285
X-107.641 Y-15.204
X-107.723 Y-15.178
X-107.871 Y-15.17
X-108.005 Y-15.233
X-108.092 Y-15.352
X-108.17 Y-15.548
X-108.176 Y-15.586
X-108.167 Y-15.624
X-108.145 Y-15.655
X-108.112 Y-15.675
X-108.062 Y-15.694
X-107.459 Y-15.921
X-107.425 Y-15.928
X-107.39 Y-15.922
X-107.36 Y-15.904
X-107.337 Y-15.878
X-107.265 Y-15.741
X-107.239 Y-15.688
X-107.224 Y-15.656
X-107.196 Y-15.587
X-107.19 Y-15.437
X-107.24 Y-15.296
X-107.326 Y-15.172
X-107.436 Y-15.071
X-107.568 Y-14.999
X-107.712 Y-14.956
X-107.766
X-107.898 Y-14.988
X-108.003 Y-15.074
X-108.059 Y-15.198
X-108.085 Y-15.327
X-108.089 Y-15.346
X-108.092 Y-15.352
X-108.098 Y-15.392
X-108.088 Y-15.43
X-108.064 Y-15.462
X-108.029 Y-15.481
X-107.956 Y-15.505
X-107.345 Y-15.706
X-107.31 Y-15.711
X-107.275 Y-15.704
X-107.245 Y-15.685
X-107.224 Y-15.656
X-107.154 Y-15.505
X-107.148 Y-15.487
X-107.129 Y-15.403
X-107.107 Y-15.254
X-107.147 Y-15.11
X-107.228 Y-14.984
X-107.336 Y-14.88
X-107.463 Y-14.799
X-107.605 Y-14.75
X-107.754 Y-14.736
X-107.78 Y-14.741
X-107.895 Y-14.788
X-107.98 Y-14.877
X-108.023 Y-14.993
X-108.034 Y-15.065
X-108.059 Y-15.198
X-108.058 Y-15.236
X-108.043 Y-15.27
X-108.017 Y-15.297
X-107.982 Y-15.312
X-107.865 Y-15.338
X-107.247 Y-15.475
X-107.209 Y-15.476
X-107.174 Y-15.463
X-107.146 Y-15.437
X-107.129 Y-15.403
X-107.074 Y-15.12
X-107.064 Y-15.046
X-107.09 Y-14.898
X-107.167 Y-14.77
X-107.275 Y-14.665
X-107.402 Y-14.586
X-107.542 Y-14.533
X-107.691 Y-14.515
X-107.732 Y-14.52
X-107.86 Y-14.566
X-107.955 Y-14.665
X-107.996 Y-14.796
X-107.997 Y-14.812
X-108.023 Y-14.993
X-108.02 Y-15.032
X-108.002 Y-15.066
X-107.973 Y-15.091
X-107.936 Y-15.103
X-107.816 Y-15.118
X-107.184 Y-15.198
X-107.147 Y-15.196
X-107.114 Y-15.181
X-107.088 Y-15.154
X-107.074 Y-15.12
X-107.064 Y-15.065
X-107.031 Y-14.85
X-107.023 Y-14.775
X-107.064 Y-14.631
X-107.152 Y-14.509
X-107.267 Y-14.413
X-107.4 Y-14.344
X-107.544 Y-14.301
X-107.694 Y-14.295
X-107.737 Y-14.303
X-107.857 Y-14.355
X-107.944 Y-14.453
X-107.981 Y-14.578
X-107.996 Y-14.796
X-107.989 Y-14.834
X-107.969 Y-14.867
X-107.938 Y-14.89
X-107.9 Y-14.9
X-107.776 Y-14.905
X-107.133 Y-14.931
X-107.098 Y-14.926
X-107.067 Y-14.909
X-107.043 Y-14.883
X-107.031 Y-14.85
X-106.999 Y-14.643
X-106.992 Y-14.568
X-107.022 Y-14.421
X-107.106 Y-14.297
X-107.219 Y-14.199
X-107.35 Y-14.126
X-107.493 Y-14.081
X-107.643 Y-14.068
X-107.791 Y-14.089
X-107.803 Y-14.094
X-107.899 Y-14.162
X-107.962 Y-14.261
X-107.982 Y-14.377
X-107.979 Y-14.474
Y-14.558
X-107.981 Y-14.578
X-107.975 Y-14.616
X-107.954 Y-14.649
X-107.924 Y-14.672
X-107.886 Y-14.681
X-107.743 Y-14.689
X-107.103 Y-14.724
X-107.068 Y-14.72
X-107.036 Y-14.703
X-107.012 Y-14.676
X-106.999 Y-14.643
X-106.985 Y-14.546
X-106.97 Y-14.389
X-106.967 Y-14.317
X-107.005 Y-14.172
X-107.094 Y-14.051
X-107.211 Y-13.957
X-107.346 Y-13.891
X-107.49 Y-13.851
X-107.639 Y-13.836
X-107.788 Y-13.859
X-107.806 Y-13.866
X-107.909 Y-13.936
X-107.975 Y-14.042
X-107.992 Y-14.165
X-107.988 Y-14.22
X-107.983 Y-14.344
X-107.982 Y-14.377
X-107.973 Y-14.413
X-107.951 Y-14.443
X-107.919 Y-14.463
X-107.883 Y-14.47
X-107.71 Y-14.472
X-107.07 Y-14.476
X-107.034 Y-14.47
X-107.003 Y-14.452
X-106.981 Y-14.424
X-106.97 Y-14.389
X-106.962 Y-14.305
Y-14.263
X-106.979 Y-14.089
X-107.003 Y-13.941
X-107.09 Y-13.819
X-107.207 Y-13.726
X-107.342 Y-13.66
X-107.486 Y-13.62
X-107.636 Y-13.606
X-107.784 Y-13.627
X-107.827 Y-13.644
X-107.937 Y-13.719
X-108.001 Y-13.834
X-108.008 Y-13.967
X-108 Y-14.051
X-107.992 Y-14.165
X-107.981 Y-14.202
X-107.956 Y-14.231
X-107.923 Y-14.25
X-107.885 Y-14.254
X-107.699 Y-14.241
X-107.072 Y-14.196
X-107.035 Y-14.186
X-107.004 Y-14.162
X-106.984 Y-14.128
X-106.979 Y-14.089
X-106.992 Y-13.967
X-107.019 Y-13.798
X-107.034 Y-13.725
X-107.109 Y-13.594
X-107.223 Y-13.497
X-107.357 Y-13.43
X-107.502 Y-13.39
X-107.651 Y-13.378
X-107.8 Y-13.4
X-107.857 Y-13.422
X-107.972 Y-13.499
X-108.04 Y-13.619
X-108.047 Y-13.758
X-108.008 Y-13.967
X-107.993 Y-14.002
X-107.966 Y-14.028
X-107.931 Y-14.043
X-107.893 Y-14.044
X-107.725 Y-14.015
X-107.101 Y-13.909
X-107.066 Y-13.896
X-107.038 Y-13.87
X-107.021 Y-13.836
X-107.019 Y-13.798
X-107.06 Y-13.545
X-107.075 Y-13.471
X-107.154 Y-13.344
X-107.272 Y-13.251
X-107.409 Y-13.189
X-107.555 Y-13.157
X-107.705 Y-13.153
X-107.852 Y-13.182
X-107.991 Y-13.24
X-108.066 Y-13.329
X-108.1 Y-13.441
X-108.088 Y-13.557
X-108.067 Y-13.591
X-108.036 Y-13.614
X-107.997 Y-13.624
X-107.774 Y-13.633
X-107.163 Y-13.657
X-107.129 Y-13.653
X-107.098 Y-13.637
X-107.075 Y-13.611
X-107.061 Y-13.579
X-107.06 Y-13.545
X-107.088 Y-13.376
X-107.108 Y-13.291
X-107.128 Y-13.219
X-107.212 Y-13.095
X-107.334 Y-13.007
X-107.473 Y-12.952
X-107.621 Y-12.928
X-107.771 Y-12.931
X-107.919 Y-12.958
X-108.055 Y-13.022
X-108.071 Y-13.035
X-108.15 Y-13.136
X-108.18 Y-13.261
X-108.156 Y-13.387
X-108.133 Y-13.418
X-108.1 Y-13.438
X-108.061 Y-13.444
X-107.814 Y-13.434
X-107.202 Y-13.41
X-107.168 Y-13.403
X-107.139 Y-13.385
X-107.118 Y-13.358
X-107.107 Y-13.326
X-107.108 Y-13.291
X-107.137 Y-13.167
X-107.144 Y-13.147
X-107.221 Y-12.997
X-107.296 Y-12.867
X-107.417 Y-12.778
X-107.558 Y-12.725
X-107.706 Y-12.704
X-107.856 Y-12.711
X-108.002 Y-12.744
X-108.136 Y-12.812
X-108.164 Y-12.835
X-108.242 Y-12.937
X-108.271 Y-13.062
X-108.244 Y-13.188
X-108.16 Y-13.376
X-108.124 Y-13.46
X-108.091 Y-13.545
X-108.085 Y-13.566
X-108.047 Y-13.758
X-108.033 Y-13.791
X-108.008 Y-13.817
X-107.975 Y-13.833
X-107.939 Y-13.835
X-107.904 Y-13.825
X-107.875 Y-13.803
X-107.688 Y-13.599
X-107.238 Y-13.107
X-107.218 Y-13.073
X-107.212 Y-13.034
X-107.221 Y-12.997
X-107.33 Y-12.784
X-107.382 Y-12.7
X-107.426 Y-12.639
X-107.546 Y-12.549
X-107.688 Y-12.502
X-107.838 Y-12.488
X-107.987 Y-12.505
X-108.13 Y-12.55
X-108.258 Y-12.627
X-108.289 Y-12.657
X-108.359 Y-12.766
X-108.377 Y-12.895
X-108.338 Y-13.019
X-108.254 Y-13.167
X-108.244 Y-13.188
X-108.225 Y-13.215
X-108.199 Y-13.234
X-108.168 Y-13.243
X-108.135 Y-13.242
X-108.105 Y-13.231
X-107.964 Y-13.15
X-107.419 Y-12.836
X-107.39 Y-12.81
X-107.373 Y-12.776
X-107.37 Y-12.737
X-107.382 Y-12.7
X-107.492 Y-12.529
X-107.532 Y-12.472
X-107.578 Y-12.413
X-107.701 Y-12.328
X-107.846 Y-12.289
X-107.996 Y-12.286
X-108.143 Y-12.315
X-108.282 Y-12.372
X-108.403 Y-12.461
X-108.426 Y-12.488
X-108.485 Y-12.599
X-108.494 Y-12.726
X-108.449 Y-12.844
X-108.378 Y-12.953
X-108.338 Y-13.019
X-108.317 Y-13.044
X-108.289 Y-13.06
X-108.258 Y-13.067
X-108.226 Y-13.063
X-108.197 Y-13.049
X-108.079 Y-12.968
X-107.559 Y-12.609
X-107.532 Y-12.582
X-107.518 Y-12.546
X-107.517 Y-12.508
X-107.532 Y-12.472
X-107.671 Y-12.278
X-107.688 Y-12.254
X-107.702 Y-12.235
X-107.727 Y-12.207
X-107.752 Y-12.184
X-107.786 Y-12.167
X-107.823 Y-12.164
X-107.859 Y-12.175
X-107.889 Y-12.198
X-107.907 Y-12.23
X-107.913 Y-12.267
X-107.904 Y-12.304
X-107.883 Y-12.335
X-107.855 Y-12.362
X-107.825 Y-12.383
X-107.789 Y-12.391
X-107.753 Y-12.386
X-107.721 Y-12.368
X-107.698 Y-12.34
X-107.686 Y-12.305
X-107.687 Y-12.269
X-107.702 Y-12.235
X-107.718 Y-12.214
X-107.729 Y-12.203
X-107.772 Y-12.168
X-107.832 Y-12.123
X-107.978 Y-12.089
X-108.128 Y-12.091
X-108.274 Y-12.125
X-108.412 Y-12.185
X-108.508 Y-12.26
X-108.588 Y-12.354
X-108.623 Y-12.471
X-108.609 Y-12.593
X-108.546 Y-12.699
X-108.519 Y-12.719
X-108.487 Y-12.729
X-108.454 Y-12.727
X-108.423 Y-12.715
X-108.297 Y-12.638
X-107.786 Y-12.329
X-107.758 Y-12.304
X-107.741 Y-12.27
X-107.738 Y-12.233
X-107.749 Y-12.197
X-107.772 Y-12.168
X-107.948 Y-12.024
X-108.069 Y-11.935
X-108.218 Y-11.916
X-108.366 Y-11.935
X-108.507 Y-11.988
X-108.632 Y-12.07
X-108.732 Y-12.181
X-108.745 Y-12.206
X-108.78 Y-12.334
X-108.755 Y-12.465
X-108.677 Y-12.572
X-108.627 Y-12.616
X-108.592 Y-12.649
X-108.546 Y-12.7
X-108.508 Y-12.754
X-108.449 Y-12.844
X-108.425 Y-12.869
X-108.394 Y-12.883
X-108.36 Y-12.887
X-108.327 Y-12.879
X-108.298 Y-12.86
X-108.278 Y-12.833
X-108.223 Y-12.726
X-107.925 Y-12.145
X-107.915 Y-12.114
X-107.916 Y-12.081
X-107.927 Y-12.05
X-107.948 Y-12.024
X-108.085 Y-11.913
X-108.169 Y-11.856
X-108.298 Y-11.779
X-108.447 Y-11.768
X-108.594 Y-11.801
X-108.727 Y-11.87
X-108.842 Y-11.967
X-108.928 Y-12.09
X-108.933 Y-12.104
X-108.948 Y-12.222
X-108.916 Y-12.337
X-108.843 Y-12.43
X-108.814 Y-12.446
X-108.782 Y-12.451
X-108.75 Y-12.446
X-108.721 Y-12.431
X-108.647 Y-12.376
X-108.168 Y-12.017
X-108.143 Y-11.99
X-108.13 Y-11.955
Y-11.918
X-108.144 Y-11.883
X-108.169 Y-11.856
X-108.254 Y-11.803
X-108.423 Y-11.705
X-108.49 Y-11.67
X-108.638 Y-11.648
X-108.784 Y-11.681
X-108.916 Y-11.753
X-109.029 Y-11.852
X-109.108 Y-11.979
X-109.112 Y-11.991
X-109.12 Y-12.119
X-109.074 Y-12.239
X-108.982 Y-12.329
X-108.929 Y-12.362
X-108.846 Y-12.427
X-108.724 Y-12.531
X-108.677 Y-12.572
X-108.647 Y-12.589
X-108.613 Y-12.594
X-108.579 Y-12.588
X-108.55 Y-12.571
X-108.528 Y-12.545
X-108.515 Y-12.514
X-108.505 Y-12.461
X-108.378 Y-11.809
X-108.377 Y-11.779
X-108.384 Y-11.75
X-108.4 Y-11.724
X-108.423 Y-11.705
X-108.55 Y-11.631
X-108.582 Y-11.614
X-108.592 Y-11.611
X-108.723 Y-11.576
X-108.87 Y-11.545
X-109.014 Y-11.588
X-109.139 Y-11.67
X-109.241 Y-11.781
X-109.268 Y-11.836
X-109.297 Y-11.979
X-109.256 Y-12.118
X-109.155 Y-12.222
X-109.121 Y-12.234
X-109.085 Y-12.233
X-109.052 Y-12.22
X-109.026 Y-12.196
X-108.673 Y-11.732
X-108.656 Y-11.698
X-108.653 Y-11.66
X-108.665 Y-11.623
X-108.689 Y-11.594
X-108.723 Y-11.576
X-108.987 Y-11.509
X-109.06 Y-11.494
X-109.208 Y-11.519
X-109.336 Y-11.597
X-109.429 Y-11.715
X-109.449 Y-11.762
X-109.472 Y-11.881
X-109.446 Y-12
X-109.374 Y-12.098
X-109.269 Y-12.16
X-109.231 Y-12.169
X-109.193 Y-12.163
X-109.16 Y-12.142
X-109.137 Y-12.111
X-108.924 Y-11.646
X-108.915 Y-11.613
X-108.918 Y-11.579
X-108.932 Y-11.548
X-108.956 Y-11.524
X-108.987 Y-11.509
X-109.1 Y-11.48
X-109.231 Y-11.466
X-109.306 Y-11.462
X-109.452 Y-11.497
X-109.567 Y-11.593
X-109.643 Y-11.722
X-109.651 Y-11.76
X-109.643 Y-11.906
X-109.567 Y-12.031
X-109.44 Y-12.105
X-109.404 Y-12.108
X-109.37 Y-12.097
X-109.341 Y-12.075
X-109.322 Y-12.044
X-109.152 Y-11.601
X-109.145 Y-11.566
X-109.151 Y-11.531
X-109.169 Y-11.5
X-109.197 Y-11.477
X-109.231 Y-11.466
X-109.438 Y-11.445
X-109.485 Y-11.441
X-109.56 Y-11.438
X-109.696 Y-11.499
X-109.795 Y-11.612
X-109.846 Y-11.754
Y-11.766
X-109.815 Y-11.895
X-109.733 Y-11.997
X-109.614 Y-12.055
X-109.576
X-109.54 Y-12.041
X-109.513 Y-12.015
X-109.497 Y-11.98
X-109.4 Y-11.563
X-109.398 Y-11.529
X-109.407 Y-11.497
X-109.426 Y-11.47
X-109.453 Y-11.45
X-109.485 Y-11.441
X-109.607 Y-11.43
X-109.654 Y-11.427
X-109.692 Y-11.424
X-109.767 Y-11.433
X-109.903 Y-11.497
X-109.996 Y-11.614
X-110.033 Y-11.759
X-109.99 Y-11.887
X-109.897 Y-11.981
X-109.773 Y-12.026
X-109.735 Y-12.023
X-109.702 Y-12.006
X-109.677 Y-11.977
X-109.664 Y-11.942
X-109.603 Y-11.539
Y-11.506
X-109.614 Y-11.476
X-109.634 Y-11.45
X-109.661 Y-11.433
X-109.692 Y-11.424
X-109.908 Y-11.44
X-109.982 Y-11.449
X-110.114 Y-11.52
X-110.196 Y-11.646
X-110.199 Y-11.67
X-110.191 Y-11.787
X-110.139 Y-11.891
X-110.05 Y-11.968
X-109.939 Y-12.005
X-109.9 Y-12.001
X-109.865 Y-11.982
X-109.841 Y-11.951
X-109.83 Y-11.913
X-109.804 Y-11.547
X-109.807 Y-11.514
X-109.822 Y-11.483
X-109.845 Y-11.459
X-109.875 Y-11.444
X-109.908 Y-11.44
X-109.946 Y-11.443
X-110.115 Y-11.46
X-110.187 Y-11.481
X-110.252 Y-11.518
X-110.346 Y-11.635
X-110.348 Y-11.648
X-110.341 Y-11.773
X-110.285 Y-11.884
X-110.188 Y-11.962
X-110.068 Y-11.995
X-110.034 Y-11.989
X-110.004 Y-11.973
X-109.981 Y-11.948
X-109.968 Y-11.916
X-109.967 Y-11.882
X-110.009 Y-11.547
X-110.021 Y-11.511
X-110.045 Y-11.482
X-110.078 Y-11.464
X-110.115 Y-11.46
X-110.2 Y-11.48
X-110.284 Y-11.501
X-110.315 Y-11.51
X-110.385 Y-11.535
X-110.436 Y-11.59
X-110.471 Y-11.657
X-110.464 Y-11.787
X-110.401 Y-11.902
X-110.294 Y-11.977
X-110.164 Y-11.996
X-110.129 Y-11.985
X-110.101 Y-11.963
X-110.082 Y-11.932
X-110.076 Y-11.896
X-110.083 Y-11.86
X-110.197 Y-11.57
X-110.216 Y-11.54
X-110.244 Y-11.518
X-110.279 Y-11.508
X-110.315 Y-11.51
X-110.454 Y-11.551
X-110.489 Y-11.563
X-110.546 Y-11.611
X-110.584 Y-11.676
X-110.579 Y-11.806
X-110.517 Y-11.919
X-110.409 Y-11.992
X-110.28 Y-12.008
X-110.245 Y-11.995
X-110.216 Y-11.971
X-110.199 Y-11.937
X-110.195 Y-11.9
X-110.206 Y-11.863
X-110.34 Y-11.602
X-110.36 Y-11.575
X-110.388 Y-11.557
X-110.42 Y-11.548
X-110.454 Y-11.551
X-110.538 Y-11.576
X-110.603 Y-11.602
X-110.623 Y-11.611
X-110.752 Y-11.688
X-110.822 Y-11.748
X-110.784 Y-11.893
X-110.703 Y-11.982
X-110.595 Y-12.031
X-110.477 Y-12.034
X-110.445 Y-12.022
X-110.42 Y-11.999
X-110.403 Y-11.969
X-110.397 Y-11.935
X-110.404 Y-11.901
X-110.491 Y-11.668
X-110.507 Y-11.641
X-110.531 Y-11.619
X-110.56 Y-11.607
X-110.592 Y-11.604
X-110.623 Y-11.611
X-110.707 Y-11.656
X-110.877 Y-11.753
X-110.907 Y-11.771
X-110.961 Y-11.808
X-111.017 Y-11.855
X-111.13 Y-11.962
X-111.215 Y-12.043
X-111.278 Y-12.109
X-111.286 Y-12.12
X-111.292 Y-12.131
X-111.297 Y-12.141
X-111.3 Y-12.152
X-111.301 Y-12.163
X-111.302 Y-12.173
X-111.301 Y-12.183
X-111.3 Y-12.194
X-111.297 Y-12.205
X-111.293 Y-12.215
X-111.28 Y-12.236
X-111.265 Y-12.257
X-111.253 Y-12.269
X-111.24 Y-12.278
X-111.227 Y-12.284
X-111.215 Y-12.288
X-111.196 Y-12.291
X-111.177 Y-12.29
X-111.158 Y-12.286
X-111.14 Y-12.278
X-111.046 Y-12.225
X-110.79 Y-12.109
X-110.749 Y-12.093
X-110.538 Y-12.044
X-110.454 Y-12.03
X-110.284 Y-12.008
X-110.2 Y-11.999
X-110.115 Y-11.992
X-110.031 Y-11.997
X-109.946 Y-12.005
X-109.692 Y-12.037
X-109.607 Y-12.057
X-109.428 Y-12.109
X-109.354 Y-12.131
X-109.269 Y-12.16
X-109.202 Y-12.193
X-109.1 Y-12.256
X-108.982 Y-12.329
X-108.945 Y-12.342
X-108.906 Y-12.339
X-108.871 Y-12.322
X-108.846 Y-12.292
X-108.827 Y-12.259 Z-0.982
X-108.81 Y-12.231 Z-0.961
X-108.8 Y-12.212 Z-0.928
X-108.796 Y-12.206 Z-0.89
G0 Z2
X-111.778 Y-12.886
Z-0.79
G1 Z-0.89 F1000
X-111.78 Y-12.879 Z-0.928
X-111.787 Y-12.858 Z-0.961
X-111.798 Y-12.827 Z-0.982
X-111.811 Y-12.791 Z-0.99
G3 X-112.146 Y-12.081 I-3.446 J-1.191
G1 X-112.183 Y-12.024
X-112.221 Y-11.94
X-112.23 Y-11.911
X-112.254 Y-11.84
X-112.362 Y-11.736
X-112.5 Y-11.678
X-112.649 Y-11.659
X-112.799 Y-11.671
X-112.944 Y-11.71
X-112.982 Y-11.727
X-113.072 Y-11.789
X-113.135 Y-11.879
X-113.16 Y-11.985
X-113.174 Y-12.259
X-113.169 Y-12.292
X-113.154 Y-12.322
X-113.129 Y-12.344
X-113.099 Y-12.358
X-113.066 Y-12.361
X-113.034 Y-12.353
X-112.882 Y-12.285
X-112.288 Y-12.022
X-112.26 Y-12.003
X-112.239 Y-11.976
X-112.229 Y-11.944
X-112.23 Y-11.911
X-112.243 Y-11.855
X-112.249 Y-11.813
X-112.252 Y-11.771
X-112.258 Y-11.696
X-112.34 Y-11.571
X-112.468 Y-11.492
X-112.612 Y-11.451
X-112.762 Y-11.441
X-112.911 Y-11.46
X-112.945 Y-11.471
X-113.047 Y-11.531
X-113.118 Y-11.625
X-113.147 Y-11.739
X-113.16 Y-11.985
X-113.154 Y-12.022
X-113.134 Y-12.055
X-113.104 Y-12.077
X-113.067 Y-12.087
X-113.03 Y-12.082
X-112.957 Y-12.059
X-112.322 Y-11.859
X-112.287 Y-11.84
X-112.263 Y-11.809
X-112.252 Y-11.771
X-112.249 Y-11.686
X-112.242 Y-11.602
X-112.24 Y-11.564
X-112.291 Y-11.423
X-112.401 Y-11.322
X-112.536 Y-11.256
X-112.683 Y-11.223
X-112.833 Y-11.218
X-112.894 Y-11.231
X-113.013 Y-11.284
X-113.098 Y-11.382
X-113.134 Y-11.507
X-113.147 Y-11.739
X-113.141 Y-11.775
X-113.124 Y-11.806
X-113.096 Y-11.828
X-113.062 Y-11.84
X-113.026 Y-11.839
X-112.967 Y-11.826
X-112.32 Y-11.688
X-112.291 Y-11.677
X-112.267 Y-11.658
X-112.25 Y-11.632
X-112.242 Y-11.602
X-112.228 Y-11.433
X-112.224 Y-11.358
X-112.281 Y-11.219
X-112.389 Y-11.115
X-112.521 Y-11.044
X-112.665 Y-11.002
X-112.815 Y-10.995
X-112.867 Y-11.004
X-112.988 Y-11.053
X-113.077 Y-11.15
X-113.116 Y-11.274
X-113.129 Y-11.433
X-113.134 Y-11.507
X-113.129 Y-11.541
X-113.113 Y-11.571
X-113.087 Y-11.594
X-113.056 Y-11.607
X-113.021 Y-11.609
X-112.963 Y-11.601
X-112.314 Y-11.519
X-112.283 Y-11.51
X-112.256 Y-11.491
X-112.237 Y-11.464
X-112.228 Y-11.433
X-112.207 Y-11.218
X-112.204 Y-11.143
X-112.266 Y-11.006
X-112.374 Y-10.901
X-112.504 Y-10.827
X-112.647 Y-10.783
X-112.797 Y-10.774
X-112.838 Y-10.78
X-112.954 Y-10.825
X-113.043 Y-10.913
X-113.087 Y-11.03
X-113.098 Y-11.095
X-113.108 Y-11.18
X-113.116 Y-11.274
X-113.112 Y-11.308
X-113.096 Y-11.339
X-113.071 Y-11.363
X-113.04 Y-11.377
X-113.006 Y-11.379
X-112.944 Y-11.372
X-112.296 Y-11.304
X-112.264 Y-11.295
X-112.237 Y-11.276
X-112.217 Y-11.249
X-112.207 Y-11.218
X-112.204 Y-11.18
X-112.188 Y-11.049
X-112.182 Y-10.974
X-112.22 Y-10.829
X-112.316 Y-10.714
X-112.439 Y-10.628
X-112.578 Y-10.573
X-112.727 Y-10.551
X-112.778 Y-10.555
X-112.9 Y-10.593
X-112.996 Y-10.677
X-113.047 Y-10.794
X-113.057 Y-10.842
X-113.087 Y-11.03
X-113.086 Y-11.064
X-113.073 Y-11.095
X-113.05 Y-11.12
X-113.02 Y-11.137
X-112.987 Y-11.142
X-112.931 Y-11.141
X-112.285 Y-11.133
X-112.251 Y-11.126
X-112.221 Y-11.108
X-112.199 Y-11.081
X-112.188 Y-11.049
X-112.172 Y-10.926
X-112.16 Y-10.842
X-112.151 Y-10.767
X-112.189 Y-10.622
X-112.282 Y-10.504
X-112.404 Y-10.416
X-112.541 Y-10.357
X-112.69 Y-10.334
X-112.729 Y-10.337
X-112.853 Y-10.373
X-112.95 Y-10.457
X-113.002 Y-10.575
X-113.047 Y-10.794
Y-10.828
X-113.035 Y-10.86
X-113.014 Y-10.887
X-112.984 Y-10.904
X-112.95 Y-10.911
X-112.906
X-112.259 Y-10.922
X-112.225 Y-10.917
X-112.195 Y-10.9
X-112.172 Y-10.874
X-112.16 Y-10.842
X-112.124 Y-10.626
X-112.115 Y-10.552
X-112.156 Y-10.408
X-112.249 Y-10.29
X-112.37 Y-10.201
X-112.508 Y-10.141
X-112.656 Y-10.119
X-112.687 Y-10.121
X-112.809 Y-10.158
X-112.905 Y-10.242
X-112.957 Y-10.358
X-113.002 Y-10.575
Y-10.609
X-112.991 Y-10.641
X-112.969 Y-10.668
X-112.939 Y-10.685
X-112.906 Y-10.692
X-112.871
X-112.224 Y-10.706
X-112.19 Y-10.701
X-112.16 Y-10.684
X-112.137 Y-10.658
X-112.124 Y-10.626
X-112.118 Y-10.588
X-112.09 Y-10.457
X-112.078 Y-10.383
X-112.094 Y-10.234
X-112.176 Y-10.108
X-112.288 Y-10.009
X-112.422 Y-9.941
X-112.567 Y-9.906
X-112.615
X-112.743 Y-9.935
X-112.847 Y-10.017
X-112.905 Y-10.135
X-112.933 Y-10.25
X-112.957 Y-10.358
Y-10.391
X-112.947 Y-10.423
X-112.926 Y-10.449
X-112.899 Y-10.467
X-112.867 Y-10.475
X-112.837 Y-10.478
X-112.195 Y-10.533
X-112.161 Y-10.53
X-112.129 Y-10.515
X-112.104 Y-10.489
X-112.09 Y-10.457
X-112.061 Y-10.322
X-112.043 Y-10.25
X-112.028 Y-10.177
X-112.047 Y-10.028
X-112.126 Y-9.901
X-112.238 Y-9.801
X-112.37 Y-9.729
X-112.516 Y-9.694
X-112.546
X-112.663 Y-9.717
X-112.763 Y-9.784
X-112.828 Y-9.885
X-112.871 Y-9.997
X-112.905 Y-10.135
X-112.906 Y-10.168
X-112.897 Y-10.2
X-112.877 Y-10.227
X-112.849 Y-10.246
X-112.817 Y-10.255
X-112.792 Y-10.257
X-112.149 Y-10.322
X-112.115 Y-10.32
X-112.083 Y-10.306
X-112.058 Y-10.282
X-112.043 Y-10.25
X-111.988 Y-10.035
X-111.973 Y-9.962
X-111.997 Y-9.814
X-112.078 Y-9.687
X-112.191 Y-9.588
X-112.323 Y-9.517
X-112.469 Y-9.484
X-112.473
X-112.585 Y-9.509
X-112.679 Y-9.574
X-112.742 Y-9.67
X-112.772 Y-9.744
X-112.828 Y-9.885
X-112.833 Y-9.92
X-112.826 Y-9.955
X-112.808 Y-9.985
X-112.78 Y-10.006
X-112.747 Y-10.017
X-112.736 Y-10.019
X-112.097 Y-10.105
X-112.062 Y-10.104
X-112.03 Y-10.09
X-112.004 Y-10.066
X-111.988 Y-10.035
X-111.932 Y-9.828
X-111.915 Y-9.755
X-111.94 Y-9.607
X-112.021 Y-9.481
X-112.133 Y-9.381
X-112.264 Y-9.308
X-112.318 Y-9.297
X-112.455 Y-9.299
X-112.577 Y-9.361
X-112.658 Y-9.472
X-112.742 Y-9.67
X-112.748 Y-9.705
X-112.742 Y-9.74
X-112.724 Y-9.77
X-112.697 Y-9.792
X-112.663 Y-9.803
X-112.042 Y-9.896
X-112.007 Y-9.895
X-111.975 Y-9.882
X-111.949 Y-9.859
X-111.932 Y-9.828
X-111.907 Y-9.744
X-111.892 Y-9.697
X-111.876 Y-9.659
X-111.846 Y-9.59
X-111.855 Y-9.441
X-111.925 Y-9.308
X-112.028 Y-9.199
X-112.158 Y-9.124
X-112.217 Y-9.108
X-112.358 Y-9.102
X-112.486 Y-9.162
X-112.572 Y-9.273
X-112.594 Y-9.321
X-112.658 Y-9.472
X-112.664 Y-9.506
X-112.659 Y-9.541
X-112.641 Y-9.572
X-112.615 Y-9.594
X-112.582 Y-9.606
X-111.981 Y-9.71
X-111.95 Y-9.711
X-111.92 Y-9.702
X-111.894 Y-9.684
X-111.876 Y-9.659
X-111.807 Y-9.523
X-111.79 Y-9.49
X-111.76 Y-9.422
X-111.761 Y-9.272
X-111.823 Y-9.135
X-111.922 Y-9.022
X-112.049 Y-8.942
X-112.191 Y-8.894
X-112.194
X-112.303 Y-8.912
X-112.397 Y-8.967
X-112.466 Y-9.053
X-112.517 Y-9.152
X-112.572 Y-9.273
X-112.579 Y-9.307
X-112.575 Y-9.342
X-112.558 Y-9.372
X-112.533 Y-9.396
X-112.501 Y-9.409
X-111.899 Y-9.539
X-111.867 Y-9.541
X-111.837 Y-9.533
X-111.81 Y-9.515
X-111.79 Y-9.49
X-111.704 Y-9.321
X-111.673 Y-9.253
X-111.664 Y-9.103
X-111.72 Y-8.964
X-111.814 Y-8.847
X-111.934 Y-8.757
X-111.975 Y-8.741
X-112.105 Y-8.72
X-112.231 Y-8.757
X-112.33 Y-8.844
X-112.429 Y-8.984
X-112.466 Y-9.053
X-112.475 Y-9.086
X-112.473 Y-9.121
X-112.459 Y-9.152
X-112.435 Y-9.177
X-112.404 Y-9.193
X-111.82 Y-9.368
X-111.787 Y-9.373
X-111.754 Y-9.365
X-111.725 Y-9.348
X-111.704 Y-9.321
X-111.661 Y-9.237
X-111.611 Y-9.152
X-111.575 Y-9.087
X-111.56 Y-8.938
X-111.61 Y-8.796
X-111.698 Y-8.674
X-111.818 Y-8.584
X-111.843 Y-8.574
X-111.972 Y-8.551
X-112.098 Y-8.585
X-112.198 Y-8.669
X-112.315 Y-8.824
X-112.33 Y-8.844
X-112.344 Y-8.878
X-112.346 Y-8.914
X-112.334 Y-8.948
X-112.311 Y-8.976
X-112.28 Y-8.994
X-111.728 Y-9.191
X-111.696 Y-9.197
X-111.663 Y-9.192
X-111.634 Y-9.176
X-111.611 Y-9.152
X-111.559 Y-9.068
X-111.51 Y-9.008
X-111.466 Y-8.947
X-111.439 Y-8.8
X-111.476 Y-8.655
X-111.556 Y-8.528
X-111.67 Y-8.43
X-111.7 Y-8.416
X-111.827 Y-8.387
X-111.955 Y-8.414
X-112.059 Y-8.492
X-112.116 Y-8.561
X-112.198 Y-8.669
X-112.213 Y-8.702
X-112.216 Y-8.738
X-112.206 Y-8.772
X-112.184 Y-8.8
X-112.154 Y-8.82
X-111.624 Y-9.035
X-111.594 Y-9.042
X-111.563 Y-9.04
X-111.534 Y-9.028
X-111.51 Y-9.008
X-111.469 Y-8.956
X-111.4 Y-8.876
X-111.355 Y-8.816
X-111.309 Y-8.673
X-111.334 Y-8.526
X-111.405 Y-8.393
X-111.512 Y-8.288
X-111.526 Y-8.279
X-111.642 Y-8.242
X-111.764 Y-8.254
X-111.871 Y-8.313
X-111.976 Y-8.404
X-112.045 Y-8.477
X-112.059 Y-8.492
X-112.075 Y-8.524
X-112.08 Y-8.558
X-112.072 Y-8.593
X-112.053 Y-8.623
X-112.025 Y-8.644
X-111.519 Y-8.898
X-111.488 Y-8.907
X-111.456
X-111.426 Y-8.896
X-111.4 Y-8.876
X-111.3 Y-8.757
X-111.276 Y-8.73
X-111.226 Y-8.674
X-111.175 Y-8.533
X-111.196 Y-8.384
X-111.262 Y-8.249
X-111.308 Y-8.202
X-111.433 Y-8.125
X-111.579 Y-8.117
X-111.712 Y-8.18
X-111.807 Y-8.258
X-111.871 Y-8.313
X-111.893 Y-8.343
X-111.903 Y-8.378
X-111.899 Y-8.415
X-111.882 Y-8.448
X-111.854 Y-8.472
X-111.395 Y-8.743
X-111.365 Y-8.755
X-111.333 Y-8.757
X-111.302 Y-8.748
X-111.276 Y-8.73
X-111.215 Y-8.669
X-111.155 Y-8.621
X-111.099 Y-8.572
X-111.031 Y-8.438
X-111.035 Y-8.288
X-111.093 Y-8.15
X-111.188 Y-8.034
X-111.201 Y-8.026
X-111.313 Y-7.984
X-111.432 Y-7.99
X-111.539 Y-8.041
X-111.558 Y-8.054
X-111.712 Y-8.18
X-111.735 Y-8.208
X-111.745 Y-8.243
X-111.743 Y-8.28
X-111.728 Y-8.313
X-111.701 Y-8.338
X-111.27 Y-8.624
X-111.242 Y-8.637
X-111.212 Y-8.641
X-111.182 Y-8.635
X-111.155 Y-8.621
X-111.13 Y-8.602
X-111.046 Y-8.549
X-111.02 Y-8.536
X-110.955 Y-8.499
