%
(n-056-060)
(T1  D=1 CR=0 - ZMIN=-2 - flat end mill)
G90 G94
G17
G21
G28 G91 Z0
G90

(Clear 16)
M9
T1 M6
S5000 M3
G54
M8
G0 X-116.282 Y-13.585
Z12
Z2
Z0.5
G3 X-115.798 Y-13.71 Z0.29 I0.242 J-0.062 F333.3
X-116.282 Y-13.585 Z0.079 I-0.242 J0.062
X-115.798 Y-13.71 Z-0.131 I0.242 J-0.062
X-116.282 Y-13.585 Z-0.342 I-0.242 J0.062
X-115.798 Y-13.71 Z-0.552 I0.242 J-0.062
X-116.282 Y-13.585 Z-0.763 I-0.242 J0.062
X-116.071 Y-13.895 Z-0.876 I0.242 J-0.062
X-115.79 Y-13.647 Z-0.99 I0.031 J0.248
X-116.29 I-0.25
X-115.79 I0.25
G1 X-115.753 Y-13.502 F1000
X-115.766 Y-13.428
X-115.803 Y-13.363
X-115.91 Y-13.258
X-116.054 Y-13.218
X-116.203 Y-13.239
X-116.333 Y-13.313
X-116.43 Y-13.428
X-116.482 Y-13.569
X-116.484 Y-13.719
X-116.436 Y-13.861
X-116.345 Y-13.979
X-116.219 Y-14.061
X-116.073 Y-14.097
X-115.924 Y-14.083
X-115.787 Y-14.021
X-115.679 Y-13.917
X-115.601 Y-13.789
X-115.55 Y-13.648
X-115.54 Y-13.498
X-115.575 Y-13.352
X-115.646 Y-13.22
X-115.754 Y-13.116
X-115.885 Y-13.043
X-116.031 Y-13.01
X-116.181 Y-13.017
X-116.325 Y-13.058
X-116.455 Y-13.134
X-116.561 Y-13.239
X-116.589 Y-13.283
X-116.627 Y-13.365
X-116.638 Y-13.455
X-116.621 Y-13.545
X-116.601 Y-13.629
X-116.585 Y-13.714
X-116.555 Y-13.883
X-116.522 Y-14.029
X-116.436 Y-14.151
X-116.315 Y-14.24
X-116.175 Y-14.293
X-116.026 Y-14.312
X-115.877 Y-14.295
X-115.736 Y-14.242
X-115.61 Y-14.161
X-115.556 Y-14.109
X-115.502 Y-14.039
X-115.471 Y-13.957
X-115.465 Y-13.869
X-115.477 Y-13.714
X-115.486 Y-13.629
X-115.501 Y-13.545
X-115.588 Y-13.16
X-115.597 Y-13.122
X-115.606 Y-13.083
X-115.617 Y-13.049
X-115.625 Y-13.031
X-115.633 Y-13.013
X-115.657 Y-12.985
X-115.69 Y-12.967
X-115.727 Y-12.963
X-115.763 Y-12.972
X-115.793 Y-12.994
X-115.813 Y-13.026
X-115.82 Y-13.062
X-115.813 Y-13.099
X-115.797 Y-13.139
X-115.778 Y-13.171
X-115.748 Y-13.193
X-115.713 Y-13.203
X-115.676 Y-13.199
X-115.643 Y-13.182
X-115.618 Y-13.155
X-115.606 Y-13.12
Y-13.083
X-115.614 Y-13.051
X-115.62 Y-13.038
X-115.633 Y-13.012
X-115.672 Y-12.948
X-115.794 Y-12.861
X-115.935 Y-12.809
X-116.084 Y-12.789
X-116.233 Y-12.796
X-116.379 Y-12.833
X-116.514 Y-12.898
X-116.636 Y-12.985
X-116.648 Y-12.998
X-116.707 Y-13.092
X-116.728 Y-13.2
X-116.708 Y-13.309
X-116.651 Y-13.46
X-116.621 Y-13.545
X-116.603 Y-13.574
X-116.577 Y-13.595
X-116.545 Y-13.607
X-116.511
X-116.479 Y-13.595
X-116.227 Y-13.454
X-115.674 Y-13.143
X-115.646 Y-13.119
X-115.628 Y-13.086
X-115.624 Y-13.049
X-115.633 Y-13.012
X-115.735 Y-12.822
X-115.813 Y-12.694
X-115.942 Y-12.618
X-116.087 Y-12.579
X-116.237 Y-12.572
X-116.385 Y-12.594
X-116.528 Y-12.641
X-116.661 Y-12.709
X-116.71 Y-12.749
X-116.791 Y-12.854
X-116.819 Y-12.984
X-116.788 Y-13.114
X-116.747 Y-13.207
X-116.708 Y-13.309
X-116.69 Y-13.336
X-116.665 Y-13.357
X-116.634 Y-13.368
X-116.602 Y-13.369
X-116.57 Y-13.359
X-116.34 Y-13.242
X-115.779 Y-12.956
X-115.749 Y-12.932
X-115.73 Y-12.898
X-115.725 Y-12.86
X-115.735 Y-12.822
X-115.783 Y-12.733
X-115.868 Y-12.587
X-115.95 Y-12.461
X-116.083 Y-12.392
X-116.23 Y-12.363
X-116.38 Y-12.365
X-116.528 Y-12.392
X-116.668 Y-12.444
X-116.796 Y-12.524
X-116.832 Y-12.559
X-116.904 Y-12.665
X-116.925 Y-12.792
X-116.89 Y-12.916
X-116.799 Y-13.092
X-116.788 Y-13.114
X-116.762 Y-13.145
X-116.727 Y-13.163
X-116.687 Y-13.166
X-116.65 Y-13.153
X-116.452 Y-13.038
X-115.906 Y-12.721
X-115.877 Y-12.696
X-115.86 Y-12.662
X-115.857 Y-12.623
X-115.868 Y-12.587
X-115.901 Y-12.531
X-115.953 Y-12.457
X-116.037 Y-12.349
X-116.135 Y-12.236
X-116.274 Y-12.178
X-116.423 Y-12.16
X-116.572 Y-12.173
X-116.717 Y-12.213
X-116.851 Y-12.28
X-116.968 Y-12.373
X-116.981 Y-12.391
X-117.033 Y-12.501
X-117.037 Y-12.623
X-116.991 Y-12.736
X-116.968 Y-12.772
X-116.89 Y-12.916
X-116.87 Y-12.941
X-116.842 Y-12.959
X-116.81 Y-12.966
X-116.778 Y-12.963
X-116.748 Y-12.949
X-116.582 Y-12.838
X-116.062 Y-12.491
X-116.039 Y-12.469
X-116.024 Y-12.441
X-116.018 Y-12.409
X-116.023 Y-12.378
X-116.037 Y-12.349
X-116.206 Y-12.132
X-116.225 Y-12.109
X-116.258 Y-12.072
X-116.381 Y-11.987
X-116.529 Y-11.963
X-116.679 Y-11.974
X-116.824 Y-12.012
X-116.96 Y-12.075
X-117.078 Y-12.167
X-117.117 Y-12.216
X-117.179 Y-12.346
X-117.172 Y-12.49
X-117.099 Y-12.614
X-117.018 Y-12.7
X-116.991 Y-12.736
X-116.967 Y-12.761
X-116.936 Y-12.775
X-116.901 Y-12.778
X-116.868 Y-12.769
X-116.84 Y-12.749
X-116.721 Y-12.632
X-116.282 Y-12.197
X-116.262 Y-12.17
X-116.253 Y-12.138
X-116.254 Y-12.105
X-116.267 Y-12.074
X-116.288 Y-12.049
X-116.486 Y-11.906
X-116.612 Y-11.824
X-116.76 Y-11.802
X-116.909 Y-11.821
X-117.049 Y-11.872
X-117.175 Y-11.954
X-117.279 Y-12.062
X-117.301 Y-12.101
X-117.339 Y-12.226
X-117.32 Y-12.355
X-117.248 Y-12.464
X-117.222 Y-12.489
X-117.099 Y-12.614
X-117.073 Y-12.633
X-117.042 Y-12.641
X-117.009 Y-12.64
X-116.979 Y-12.628
X-116.955 Y-12.608
X-116.88 Y-12.521
X-116.472 Y-12.05
X-116.455 Y-12.023
X-116.447 Y-11.991
X-116.451 Y-11.959
X-116.464 Y-11.93
X-116.486 Y-11.906
X-116.629 Y-11.802
X-116.675 Y-11.771
X-116.772 Y-11.719
X-116.908 Y-11.655
X-117.057 Y-11.666
X-117.199 Y-11.716
X-117.327 Y-11.794
X-117.431 Y-11.902
X-117.459 Y-11.949
X-117.502 Y-12.092
X-117.47 Y-12.237
X-117.373 Y-12.349
X-117.355 Y-12.362
X-117.306 Y-12.408
X-117.248 Y-12.464
X-117.218 Y-12.482
X-117.184 Y-12.49
X-117.149 Y-12.485
X-117.119 Y-12.468
X-117.096 Y-12.442
X-117.064 Y-12.391
X-116.737 Y-11.858
X-116.723 Y-11.82
X-116.725 Y-11.781
X-116.742 Y-11.745
X-116.772 Y-11.719
X-116.991 Y-11.602
X-117.127 Y-11.538
X-117.276 Y-11.55
X-117.415 Y-11.607
X-117.536 Y-11.696
X-117.628 Y-11.814
X-117.649 Y-11.861
X-117.675 Y-11.996
X-117.638 Y-12.129
X-117.546 Y-12.231
X-117.373 Y-12.349
X-117.342 Y-12.363
X-117.309 Y-12.365
X-117.276 Y-12.356
X-117.249 Y-12.336
X-117.229 Y-12.309
X-117.227 Y-12.305
X-116.951 Y-11.732
X-116.941 Y-11.696
X-116.945 Y-11.659
X-116.963 Y-11.626
X-116.991 Y-11.602
X-117.052 Y-11.569
X-117.137 Y-11.528
X-117.174 Y-11.517
X-117.306 Y-11.484
X-117.38 Y-11.469
X-117.529 Y-11.482
X-117.663 Y-11.551
X-117.77 Y-11.655
X-117.846 Y-11.785
X-117.85 Y-11.804
X-117.851 Y-11.931
X-117.799 Y-12.047
X-117.704 Y-12.131
X-117.645 Y-12.165
X-117.6 Y-12.193
X-117.546 Y-12.231
X-117.511 Y-12.245
X-117.474
X-117.439 Y-12.232
X-117.412 Y-12.207
X-117.395 Y-12.173
X-117.238 Y-11.607
X-117.235 Y-11.568
X-117.247 Y-11.531
X-117.272 Y-11.502
X-117.306 Y-11.484
X-117.507 Y-11.433
X-117.536 Y-11.427
X-117.56 Y-11.421
X-117.635 Y-11.414
X-117.782 Y-11.441
X-117.907 Y-11.524
X-118 Y-11.641
X-118.052 Y-11.783
X-118.026 Y-11.912
X-117.949 Y-12.017
X-117.834 Y-12.079
X-117.797 Y-12.081
X-117.762 Y-12.07
X-117.734 Y-12.047
X-117.715 Y-12.015
X-117.55 Y-11.542
X-117.545 Y-11.509
X-117.551 Y-11.475
X-117.568 Y-11.445
X-117.594 Y-11.423
X-117.626 Y-11.411
X-117.814 Y-11.383
X-117.889 Y-11.377
X-118.032 Y-11.422
X-118.144 Y-11.521
X-118.221 Y-11.65
X-118.228 Y-11.684
X-118.219 Y-11.83
X-118.141 Y-11.955
X-118.014 Y-12.028
X-117.834 Y-12.079
X-117.797 Y-12.081
X-117.762 Y-12.07
X-117.733 Y-12.046
X-117.715 Y-12.014
X-117.71 Y-11.977
X-117.732 Y-11.476
X-117.739 Y-11.444
X-117.757 Y-11.415
X-117.782 Y-11.394
X-117.814 Y-11.383
X-118.03 Y-11.358
X-118.104 Y-11.354
X-118.246 Y-11.403
X-118.355 Y-11.506
X-118.413 Y-11.644
X-118.415 Y-11.669
X-118.403 Y-11.782
X-118.349 Y-11.882
X-118.261 Y-11.955
X-118.153 Y-11.99
X-118.014 Y-12.028
X-117.976 Y-12.03
X-117.94 Y-12.017
X-117.911 Y-11.992
X-117.894 Y-11.958
X-117.891 Y-11.92
X-117.945 Y-11.446
X-117.953 Y-11.414
X-117.972 Y-11.388
X-117.998 Y-11.368
X-118.03 Y-11.358
X-118.117 Y-11.349
X-118.237 Y-11.345
X-118.312 Y-11.349
X-118.455 Y-11.395
X-118.556 Y-11.505
X-118.605 Y-11.647
X-118.604 Y-11.676
X-118.567 Y-11.813
X-118.473 Y-11.917
X-118.34 Y-11.967
X-118.153 Y-11.99
X-118.116 Y-11.986
X-118.082 Y-11.969
X-118.058 Y-11.941
X-118.045 Y-11.906
X-118.046 Y-11.869
X-118.146 Y-11.423
X-118.158 Y-11.393
X-118.178 Y-11.369
X-118.206 Y-11.352
X-118.237 Y-11.345
X-118.321 Y-11.346
X-118.406 Y-11.349
X-118.491 Y-11.358
X-118.565 Y-11.37
X-118.693 Y-11.448
X-118.77 Y-11.576
X-118.775 Y-11.613
X-118.766 Y-11.736
X-118.71 Y-11.844
X-118.614 Y-11.921
X-118.496 Y-11.953
X-118.406 Y-11.959
X-118.34 Y-11.967
X-118.307 Y-11.964
X-118.277 Y-11.951
X-118.252 Y-11.928
X-118.237 Y-11.899
X-118.232 Y-11.866
X-118.238 Y-11.833
X-118.389 Y-11.423
X-118.405 Y-11.395
X-118.429 Y-11.373
X-118.459 Y-11.361
X-118.491 Y-11.358
X-118.66 Y-11.378
X-118.706 Y-11.386
X-118.78 Y-11.402
X-118.84 Y-11.447
X-118.928 Y-11.568
X-118.932 Y-11.596
X-118.926 Y-11.72
X-118.87 Y-11.831
X-118.774 Y-11.91
X-118.654 Y-11.943
X-118.496 Y-11.953
X-118.462 Y-11.948
X-118.431 Y-11.931
X-118.408 Y-11.905
X-118.395 Y-11.873
Y-11.838
X-118.406 Y-11.805
X-118.605 Y-11.437
X-118.623 Y-11.413
X-118.648 Y-11.396
X-118.676 Y-11.386
X-118.706
X-118.744 Y-11.392
X-118.914 Y-11.433
X-118.95 Y-11.443
X-119.008 Y-11.491
X-119.089 Y-11.617
X-119.09 Y-11.631
X-119.07 Y-11.755
X-119.001 Y-11.86
X-118.896 Y-11.928
X-118.772 Y-11.946
X-118.744 Y-11.945
X-118.654 Y-11.943
X-118.617 Y-11.937
X-118.585 Y-11.918
X-118.562 Y-11.889
X-118.552 Y-11.853
X-118.555 Y-11.815
X-118.572 Y-11.782
X-118.815 Y-11.47
X-118.842 Y-11.445
X-118.877 Y-11.432
X-118.914 Y-11.433
X-118.998 Y-11.453
X-119.083 Y-11.484
X-119.117 Y-11.5
X-119.172 Y-11.551
X-119.205 Y-11.618
X-119.2 Y-11.746
X-119.139 Y-11.859
X-119.035 Y-11.933
X-118.908 Y-11.955
X-118.772 Y-11.946
X-118.736 Y-11.936
X-118.706 Y-11.913
X-118.687 Y-11.88
X-118.681 Y-11.843
X-118.69 Y-11.807
X-118.711 Y-11.776
X-118.981 Y-11.508
X-119.011 Y-11.488
X-119.047 Y-11.479
X-119.083 Y-11.484
X-119.168 Y-11.517
X-119.226 Y-11.546
X-119.258 Y-11.564
X-119.304 Y-11.624
X-119.31 Y-11.758
X-119.25 Y-11.878
X-119.139 Y-11.953
X-119.005 Y-11.965
X-118.908 Y-11.955
X-118.871 Y-11.943
X-118.84 Y-11.919
X-118.822 Y-11.884
X-118.818 Y-11.845
X-118.83 Y-11.808
X-118.854 Y-11.778
X-119.121 Y-11.56
X-119.153 Y-11.542
X-119.19 Y-11.537
X-119.226 Y-11.546
X-119.337 Y-11.602
X-119.369 Y-11.621
X-119.411 Y-11.682
X-119.408 Y-11.804
X-119.347 Y-11.91
X-119.245 Y-11.975
X-119.123 Y-11.985
X-119.005 Y-11.965
X-118.969 Y-11.95
X-118.941 Y-11.922
X-118.927 Y-11.886
Y-11.847
X-118.942 Y-11.811
X-118.971 Y-11.783
X-119.24 Y-11.609
X-119.271 Y-11.595
X-119.304 Y-11.593
X-119.337 Y-11.602
X-119.421 Y-11.648
X-119.452 Y-11.669
X-119.501 Y-11.727
X-119.498 Y-11.839
X-119.442 Y-11.938
X-119.347 Y-11.997
X-119.234 Y-12.005
X-119.167 Y-11.992
X-119.123 Y-11.985
X-119.087 Y-11.97
X-119.059 Y-11.942
X-119.045 Y-11.905
Y-11.866
X-119.061 Y-11.83
X-119.089 Y-11.803
X-119.322 Y-11.653
X-119.354 Y-11.64
X-119.388 Y-11.638
X-119.421 Y-11.648
X-119.506 Y-11.699
X-119.537 Y-11.72
X-119.586 Y-11.776
X-119.582 Y-11.883
X-119.526 Y-11.974
X-119.433 Y-12.026
X-119.326 Y-12.027
X-119.252 Y-12.008
X-119.234 Y-12.005
X-119.198 Y-11.989
X-119.171 Y-11.96
X-119.157 Y-11.923
X-119.159 Y-11.883
X-119.175 Y-11.848
X-119.205 Y-11.821
X-119.406 Y-11.7
X-119.438 Y-11.688
X-119.473 Y-11.687
X-119.506 Y-11.699
X-119.59 Y-11.751
X-119.621 Y-11.773
X-119.645 Y-11.801
X-119.674 Y-11.87
X-119.654 Y-11.958
X-119.596 Y-12.027
X-119.513 Y-12.061
X-119.424 Y-12.053
X-119.401 Y-12.04
G3 X-119.59 Y-11.751 I-0.104 J0.139
G1 X-119.7 Y-11.82
X-119.731 Y-11.841
X-119.763 Y-11.909
Y-11.92
X-119.74 Y-12.007
X-119.679 Y-12.071
X-119.593 Y-12.098
X-119.506 Y-12.081
X-119.424 Y-12.053
X-119.396 Y-12.036
X-119.377 Y-12.01
X-119.369 Y-11.979
X-119.373 Y-11.947
G3 X-119.7 Y-11.82 I-0.215 J-0.071
G1 X-119.76 Y-11.857
X-119.785 Y-11.868
X-119.819 Y-11.885
X-119.851 Y-11.953
X-119.826 Y-12.043
X-119.761 Y-12.109
X-119.672 Y-12.136
X-119.581 Y-12.117
X-119.506 Y-12.081
X-119.483 Y-12.062
X-119.469 Y-12.035
X-119.466 Y-12.005
X-119.475 Y-11.977
G3 X-119.785 Y-11.868 I-0.216 J-0.119
G1 X-119.844 Y-11.895
X-119.887 Y-11.908
X-119.922 Y-11.919
X-119.947 Y-11.99
X-119.918 Y-12.082
X-119.848 Y-12.15
X-119.754 Y-12.177
X-119.66 Y-12.156
X-119.581 Y-12.117
X-119.558 Y-12.097
X-119.547 Y-12.069
X-119.549 Y-12.039
X-119.565 Y-12.013
G3 X-119.887 Y-11.908 I-0.26 J-0.253
G1 X-119.929 Y-11.917
X-119.966 Y-11.924
X-119.993 Y-11.95
X-120.028 Y-12.016
X-120.004 Y-12.114
X-119.935 Y-12.187
X-119.84 Y-12.217
X-119.741 Y-12.197
X-119.66 Y-12.156
X-119.638 Y-12.138
X-119.626 Y-12.113
X-119.625 Y-12.085
X-119.636 Y-12.059
G3 X-119.929 Y-11.917 I-0.271 J-0.185
G1 X-120.013 Y-11.926
X-120.051 Y-11.93
X-120.105 Y-11.981
X-120.13 Y-12.052
X-120.097 Y-12.159
X-120.015 Y-12.235
X-119.905 Y-12.261
X-119.798 Y-12.229
X-119.775 Y-12.207
X-119.763 Y-12.178
Y-12.146
G3 X-120.013 Y-11.926 I-0.272 J-0.057
G1 X-120.056 Y-11.924
X-120.098 Y-11.921
X-120.135 Y-11.918
X-120.198 Y-11.959
X-120.232 Y-12.026
X-120.245 Y-12.1
X-120.196 Y-12.214
X-120.099 Y-12.291
X-119.976 Y-12.31
X-119.86 Y-12.268
X-119.835 Y-12.242
X-119.821 Y-12.208
X-119.82 Y-12.172
X-119.832 Y-12.138
X-119.855 Y-12.111
X-120.058 Y-11.941
X-120.077 Y-11.928
X-120.098 Y-11.921
X-120.183 Y-11.902
X-120.219 Y-11.894
X-120.287 Y-11.927
X-120.338 Y-11.982
X-120.364 Y-12.052
X-120.373 Y-12.127
X-120.317 Y-12.257
X-120.206 Y-12.344
X-120.066 Y-12.366
X-119.933 Y-12.318
X-119.86 Y-12.268
X-119.834 Y-12.239
X-119.82 Y-12.203
X-119.822 Y-12.165
X-119.837 Y-12.13
X-119.865 Y-12.103
X-120.183 Y-11.902
X-120.225 Y-11.887
X-120.267 Y-11.869
X-120.302 Y-11.854
X-120.374 Y-11.874
X-120.434 Y-11.919
X-120.48 Y-11.979
X-120.532 Y-12.12
X-120.517 Y-12.269
X-120.496 Y-12.307
X-120.413 Y-12.403
X-120.297 Y-12.456
X-120.169
X-120.053 Y-12.403
X-120.013 Y-12.373
X-119.933 Y-12.318
X-119.908 Y-12.292
X-119.894 Y-12.259
X-119.893 Y-12.224
X-119.904 Y-12.19
X-119.927 Y-12.162
X-120.267 Y-11.869
X-120.291 Y-11.855
X-120.325 Y-11.834
X-120.357 Y-11.816
X-120.432 Y-11.809
X-120.503 Y-11.832
X-120.627 Y-11.917
X-120.699 Y-12.048
X-120.726 Y-12.196
X-120.696 Y-12.343
X-120.625 Y-12.475
X-120.517 Y-12.579
X-120.514 Y-12.58
X-120.391 Y-12.609
X-120.267 Y-12.585
X-120.164 Y-12.513
X-120.098 Y-12.441
X-120.053 Y-12.403
X-120.029 Y-12.376
X-120.017 Y-12.341
X-120.018 Y-12.305
X-120.032 Y-12.271
X-120.297 Y-11.862
X-120.325 Y-11.834
X-120.352 Y-11.817
X-120.406 Y-11.771
X-120.434 Y-11.747
X-120.508 Y-11.732
X-120.583 Y-11.736
X-120.723 Y-11.788
X-120.831 Y-11.892
X-120.903 Y-12.024
X-120.932 Y-12.171
X-120.922 Y-12.321
X-120.881 Y-12.465
X-120.861 Y-12.503
X-120.798 Y-12.582
X-120.711 Y-12.636
X-120.612 Y-12.658
X-120.436 Y-12.666
X-120.352 Y-12.67
X-120.341 Y-12.668
X-120.331 Y-12.666
X-120.32 Y-12.662
X-120.288 Y-12.645
X-120.278 Y-12.637
X-120.267 Y-12.628
X-120.164 Y-12.513
X-120.146 Y-12.482
X-120.14 Y-12.446
X-120.147 Y-12.411
X-120.386 Y-11.802
X-120.406 Y-11.771
X-120.436 Y-11.74
X-120.459 Y-11.71
X-120.508 Y-11.654
X-120.579 Y-11.628
X-120.728 Y-11.612
X-120.868 Y-11.665
X-120.984 Y-11.76
X-121.071 Y-11.883
X-121.127 Y-12.022
X-121.155 Y-12.169
Y-12.319
X-121.124 Y-12.466
X-121.122 Y-12.47
X-121.06 Y-12.56
X-120.969 Y-12.621
X-120.863 Y-12.646
X-120.612 Y-12.658
X-120.575 Y-12.652
X-120.544 Y-12.632
X-120.521 Y-12.603
X-120.511 Y-12.567
X-120.504 Y-12.489
X-120.441 Y-11.778
X-120.444 Y-11.743
X-120.459 Y-11.71
X-120.478 Y-11.686
X-120.501 Y-11.649
X-120.521 Y-11.613
X-120.556 Y-11.546
X-120.618 Y-11.504
X-120.761 Y-11.46
X-120.91 Y-11.481
X-121.046 Y-11.545
X-121.059 Y-11.556
X-121.112 Y-11.611
X-121.148 Y-11.677
X-121.167 Y-11.751
X-121.251 Y-12.409
X-121.256 Y-12.447
X-121.261 Y-12.489
X-121.264 Y-12.525
X-121.254 Y-12.559
X-121.233 Y-12.587
X-121.204 Y-12.607
X-121.169 Y-12.614
X-121.134 Y-12.61
X-121.103 Y-12.593
X-121.079 Y-12.567
X-121.067 Y-12.534
X-121.065 Y-12.524
Y-12.485
X-121.08 Y-12.449
X-121.108 Y-12.421
X-121.145 Y-12.407
X-121.184
X-121.22 Y-12.423
X-121.248 Y-12.452
X-121.261 Y-12.489
X-121.264 Y-12.51
Y-12.521
Y-12.531
X-121.262 Y-12.542
X-121.259 Y-12.552
X-121.243 Y-12.578
X-121.2 Y-12.618
X-121.171 Y-12.63
X-121.139 Y-12.631
X-121.109 Y-12.624
X-120.476 Y-12.346
X-120.424 Y-12.324
X-120.388 Y-12.316
X-120.351 Y-12.321
X-120.319 Y-12.34
X-120.296 Y-12.369
X-120.285 Y-12.405
X-120.288 Y-12.442
X-120.304 Y-12.475
X-120.332 Y-12.501
X-120.366 Y-12.514
X-120.404
X-120.438 Y-12.5
X-120.465 Y-12.474
X-120.481 Y-12.44
G3 X-121.259 Y-12.552 I-0.383 J-0.098
G1 X-121.254 Y-12.563
X-121.248 Y-12.573
X-121.239 Y-12.585
X-121.226 Y-12.598
X-121.204 Y-12.616
X-121.187 Y-12.625
X-121.177 Y-12.629
X-121.166 Y-12.631
X-121.156 Y-12.633
X-120.863 Y-12.646
X-120.831 Y-12.642
X-120.802 Y-12.626
X-120.779 Y-12.603
X-120.765 Y-12.573
X-120.709 Y-12.371
X-120.518 Y-11.676
X-120.514 Y-11.644
X-120.521 Y-11.613
X-120.526 Y-11.602
X-120.554 Y-11.517
X-120.564 Y-11.471
X-120.573 Y-11.435
X-120.623 Y-11.379
X-120.753 Y-11.305
X-120.816 Y-11.298
X-120.93 Y-11.309
X-121.032 Y-11.362
X-121.107 Y-11.45
X-121.143 Y-11.559
X-121.167 Y-11.751
X-121.164 Y-11.788
X-121.147 Y-11.821
X-121.119 Y-11.846
X-121.084 Y-11.859
X-121.046 Y-11.858
X-121.012 Y-11.843
X-120.606 Y-11.57
X-120.58 Y-11.544
X-120.565 Y-11.509
X-120.564 Y-11.471
X-120.571 Y-11.433
X-120.572 Y-11.387
X-120.578 Y-11.312
X-120.617 Y-11.248
X-120.732 Y-11.151
X-120.757 Y-11.145
X-120.882 Y-11.142
X-120.996 Y-11.191
X-121.082 Y-11.282
X-121.123 Y-11.399
X-121.143 Y-11.559
X-121.14 Y-11.594
X-121.125 Y-11.626
X-121.1 Y-11.651
X-121.068 Y-11.665
X-121.033 Y-11.668
X-120.999 Y-11.658
X-120.628 Y-11.475
X-120.599 Y-11.454
X-120.579 Y-11.423
X-120.572 Y-11.387
X-120.573 Y-11.349
X-120.563 Y-11.264
X-120.555 Y-11.19
X-120.583 Y-11.12
X-120.683 Y-11.008
X-120.71 Y-10.999
X-120.841 Y-10.986
X-120.965 Y-11.03
X-121.058 Y-11.122
X-121.103 Y-11.246
X-121.123 Y-11.399
X-121.12 Y-11.434
X-121.105 Y-11.465
X-121.081 Y-11.49
X-121.05 Y-11.505
X-121.015 Y-11.508
X-120.982 Y-11.499
X-120.62 Y-11.336
X-120.594 Y-11.319
X-120.574 Y-11.294
X-120.563 Y-11.264
X-120.542 Y-11.133
X-120.534 Y-11.059
X-120.552 Y-10.986
X-120.598 Y-10.926
X-120.716 Y-10.834
X-120.735 Y-10.83
X-120.855 Y-10.834
X-120.964 Y-10.885
X-121.044 Y-10.974
X-121.083 Y-11.088
X-121.103 Y-11.246
X-121.1 Y-11.279
X-121.087 Y-11.31
X-121.064 Y-11.335
X-121.034 Y-11.35
X-121 Y-11.355
X-120.967 Y-11.348
X-120.604 Y-11.207
X-120.576 Y-11.19
X-120.554 Y-11.164
X-120.542 Y-11.133
X-120.514 Y-10.961
X-120.506 Y-10.886
X-120.534 Y-10.817
X-120.581 Y-10.758
X-120.704 Y-10.673
X-120.723 Y-10.671
X-120.841 Y-10.677
X-120.947 Y-10.729
X-121.025 Y-10.818
X-121.063 Y-10.93
X-121.083 Y-11.088
X-121.08 Y-11.122
X-121.066 Y-11.153
X-121.043 Y-11.178
X-121.012 Y-11.193
X-120.978 Y-11.197
X-120.945 Y-11.189
X-120.573 Y-11.033
X-120.546 Y-11.016
X-120.525 Y-10.991
X-120.514 Y-10.961
X-120.487 Y-10.795
X-120.483 Y-10.758
X-120.504 Y-10.686
X-120.543 Y-10.622
X-120.657 Y-10.524
X-120.679 Y-10.519
X-120.803 Y-10.517
X-120.917 Y-10.566
X-121.002 Y-10.657
X-121.043 Y-10.774
X-121.063 Y-10.93
X-121.06 Y-10.964
X-121.046 Y-10.995
X-121.022 Y-11.02
X-120.991 Y-11.035
X-120.957 Y-11.039
X-120.924 Y-11.031
X-120.545 Y-10.867
X-120.518 Y-10.85
X-120.498 Y-10.825
X-120.487 Y-10.795
X-120.467 Y-10.673
X-120.458 Y-10.598
X-120.478 Y-10.526
X-120.519 Y-10.463
X-120.636 Y-10.368
X-120.662 Y-10.363
X-120.785 Y-10.362
X-120.899 Y-10.411
X-120.983 Y-10.501
X-121.023 Y-10.618
X-121.043 Y-10.774
X-121.039 Y-10.813
X-121.02 Y-10.848
X-120.988 Y-10.873
X-120.95 Y-10.883
X-120.911 Y-10.878
X-120.532 Y-10.748
X-120.502 Y-10.731
X-120.479 Y-10.705
X-120.467 Y-10.673
X-120.439 Y-10.504
X-120.431 Y-10.429
X-120.456 Y-10.359
X-120.545 Y-10.238
X-120.682 Y-10.178
X-120.699
X-120.839 Y-10.211
X-120.948 Y-10.305
X-121.001 Y-10.44
X-121.023 Y-10.618
X-121.021 Y-10.651
X-121.007 Y-10.682
X-120.984 Y-10.706
X-120.955 Y-10.722
X-120.922 Y-10.727
X-120.889 Y-10.721
X-120.503 Y-10.578
X-120.473 Y-10.561
X-120.451 Y-10.535
X-120.439 Y-10.504
X-120.411 Y-10.335
X-120.403 Y-10.26
X-120.459 Y-10.121
X-120.576 Y-10.027
X-120.722 Y-9.994
X-120.725
X-120.845 Y-10.041
X-120.934 Y-10.132
X-120.977 Y-10.253
X-121.001 Y-10.44
X-120.996 Y-10.479
X-120.977 Y-10.514
X-120.946 Y-10.539
X-120.908 Y-10.549
X-120.869 Y-10.544
X-120.477 Y-10.41
X-120.447 Y-10.393
X-120.424 Y-10.367
X-120.411 Y-10.335
X-120.384 Y-10.166
X-120.375 Y-10.092
X-120.398 Y-10.02
X-120.486 Y-9.898
X-120.616 Y-9.824
X-120.633 Y-9.823
X-120.746 Y-9.835
X-120.847 Y-9.889
X-120.92 Y-9.976
X-120.955 Y-10.084
X-120.977 Y-10.253
X-120.973 Y-10.291
X-120.954 Y-10.326
X-120.925 Y-10.35
X-120.888 Y-10.362
X-120.849 Y-10.358
X-120.454 Y-10.242
X-120.421 Y-10.226
X-120.397 Y-10.2
X-120.384 Y-10.166
X-120.356 Y-9.997
X-120.348 Y-9.923
X-120.397 Y-9.781
X-120.507 Y-9.68
X-120.651 Y-9.636
X-120.657 Y-9.637
X-120.786 Y-9.677
X-120.884 Y-9.771
X-120.931 Y-9.898
X-120.955 Y-10.084
X-120.951 Y-10.122
X-120.933 Y-10.156
X-120.903 Y-10.181
X-120.866 Y-10.192
X-120.828 Y-10.189
X-120.426 Y-10.074
X-120.394 Y-10.057
X-120.369 Y-10.031
X-120.356 Y-9.997
X-120.328 Y-9.828
X-120.32 Y-9.754
X-120.338 Y-9.681
X-120.417 Y-9.554
X-120.543 Y-9.473
X-120.572 Y-9.469
X-120.689 Y-9.476
X-120.795 Y-9.528
X-120.872 Y-9.617
X-120.91 Y-9.728
X-120.931 Y-9.898
X-120.928 Y-9.936
X-120.91 Y-9.969
X-120.882 Y-9.994
X-120.846 Y-10.006
X-120.808 Y-10.004
X-120.403 Y-9.906
X-120.369 Y-9.89
X-120.342 Y-9.863
X-120.328 Y-9.828
X-120.293 Y-9.613
X-120.289 Y-9.576
X-120.333 Y-9.432
X-120.441 Y-9.329
X-120.583 Y-9.28
X-120.6 Y-9.281
X-120.734 Y-9.318
X-120.837 Y-9.412
X-120.886 Y-9.543
X-120.91 Y-9.728
X-120.906 Y-9.768
X-120.886 Y-9.802
X-120.855 Y-9.827
X-120.817 Y-9.837
X-120.778 Y-9.832
X-120.358 Y-9.688
X-120.328 Y-9.671
X-120.305 Y-9.645
X-120.293 Y-9.613
X-120.267 Y-9.456
X-120.259 Y-9.381
X-120.306 Y-9.239
X-120.418 Y-9.139
X-120.562 Y-9.097
X-120.576
X-120.71 Y-9.134
X-120.813 Y-9.228
X-120.863 Y-9.359
X-120.886 Y-9.543
X-120.882 Y-9.581
X-120.864 Y-9.615
X-120.835 Y-9.639
X-120.798 Y-9.651
X-120.76 Y-9.648
X-120.339 Y-9.533
X-120.306 Y-9.517
X-120.281 Y-9.49
X-120.267 Y-9.456
X-120.238 Y-9.275
X-120.229 Y-9.2
X-120.251 Y-9.129
X-120.337 Y-9.006
X-120.466 Y-8.929
X-120.502 Y-8.924
X-120.62 Y-8.931
X-120.725 Y-8.983
X-120.803 Y-9.072
X-120.84 Y-9.183
X-120.863 Y-9.359
X-120.859 Y-9.397
X-120.841 Y-9.431
X-120.812 Y-9.455
X-120.776 Y-9.467
X-120.738 Y-9.465
X-120.31 Y-9.352
X-120.277 Y-9.336
X-120.251 Y-9.309
X-120.238 Y-9.275
X-120.209 Y-9.106
X-120.2 Y-9.032
X-120.247 Y-8.889
X-120.355 Y-8.785
X-120.496 Y-8.734
X-120.523 Y-8.735
X-120.66 Y-8.77
X-120.766 Y-8.864
X-120.817 Y-8.997
X-120.84 Y-9.183
X-120.837 Y-9.221
X-120.819 Y-9.255
X-120.791 Y-9.279
X-120.755 Y-9.292
X-120.717 Y-9.29
X-120.283 Y-9.183
X-120.249 Y-9.167
X-120.223 Y-9.14
X-120.209 Y-9.106
X-120.183 Y-8.953
X-120.176 Y-8.923
X-120.163 Y-8.849
X-120.207 Y-8.706
X-120.315 Y-8.602
X-120.456 Y-8.551
X-120.485 Y-8.55
X-120.628 Y-8.581
X-120.74 Y-8.675
X-120.793 Y-8.812
X-120.817 Y-8.997
X-120.813 Y-9.034
X-120.796 Y-9.068
X-120.767 Y-9.093
X-120.731 Y-9.105
X-120.694 Y-9.103
X-120.249 Y-8.995
X-120.217 Y-8.981
X-120.191 Y-8.956
X-120.176 Y-8.923
X-120.171 Y-8.899
X-120.138 Y-8.815
X-120.116 Y-8.776
X-120.099 Y-8.743
X-120.106 Y-8.668
X-120.154 Y-8.526
X-120.262 Y-8.422
X-120.401 Y-8.366
X-120.446 Y-8.362
X-120.559 Y-8.374
X-120.66 Y-8.428
X-120.734 Y-8.515
X-120.769 Y-8.623
X-120.793 Y-8.812
X-120.79 Y-8.849
X-120.773 Y-8.882
X-120.746 Y-8.906
X-120.711 Y-8.919
X-120.674
X-120.182 Y-8.822
X-120.156 Y-8.813
X-120.133 Y-8.797
X-120.116 Y-8.776
X-120.098 Y-8.745
X-120.057 Y-8.693
X-120.035 Y-8.663
X-120.016 Y-8.59
X-120.03 Y-8.441
X-120.109 Y-8.314
X-120.226 Y-8.219
X-120.367 Y-8.168
X-120.43 Y-8.164
X-120.575 Y-8.193
X-120.689 Y-8.288
X-120.744 Y-8.426
X-120.769 Y-8.623
X-120.767 Y-8.656
X-120.753 Y-8.687
X-120.731 Y-8.711
X-120.702 Y-8.727
X-120.669 Y-8.732
X-120.132 Y-8.728
X-120.104 Y-8.723
X-120.079 Y-8.712
X-120.057 Y-8.693
X-120.047 Y-8.681
X-120.035 Y-8.668
X-119.996 Y-8.646
X-119.964 Y-8.625
X-119.92 Y-8.564
X-119.88 Y-8.42
X-119.915 Y-8.274
X-119.994 Y-8.147
X-120.107 Y-8.048
X-120.241 Y-7.981
X-120.389 Y-7.953
X-120.438 Y-7.956
X-120.569 Y-7.995
X-120.669 Y-8.089
X-120.717 Y-8.217
X-120.714 Y-8.255
X-120.696 Y-8.289
X-120.668 Y-8.313
X-120.092 Y-8.644
X-120.061 Y-8.656
X-120.027
X-119.996 Y-8.646
X-119.885 Y-8.582
X-119.822 Y-8.541
X-119.78 Y-8.479
X-119.732 Y-8.337
X-119.749 Y-8.188
X-119.812 Y-8.052
X-119.906 Y-7.935
X-119.952 Y-7.898
X-120.009 Y-7.862
X-120.073 Y-7.839
X-120.14 Y-7.832
X-120.483
X-120.521
X-120.563
X-120.595 Y-7.835
X-120.623 Y-7.85
X-120.644 Y-7.873
X-120.657 Y-7.902
X-120.659 Y-7.933
X-120.65 Y-7.967
X-120.628 Y-7.995
X-120.597 Y-8.013
X-120.562 Y-8.018
X-120.528 Y-8.01
X-120.499 Y-7.989
X-120.48 Y-7.959
X-120.473 Y-7.924
X-120.48 Y-7.89
X-120.5 Y-7.86
X-120.529 Y-7.84
X-120.563 Y-7.832
X-120.584 Y-7.833
X-120.595 Y-7.835
X-120.606 Y-7.838
X-120.62 Y-7.844
X-120.634 Y-7.853
X-120.65 Y-7.869
X-120.669 Y-7.896
X-120.674 Y-7.907
X-120.678 Y-7.917
X-120.68 Y-7.928
X-120.744 Y-8.426
X-120.74 Y-8.465
X-120.721 Y-8.5
X-120.69 Y-8.524
X-120.653 Y-8.535
X-119.939 Y-8.593
X-119.911 Y-8.591
X-119.885 Y-8.582
X-119.781 Y-8.522
X-119.77 Y-8.519
X-119.699 Y-8.496
X-119.645 Y-8.443
X-119.574 Y-8.311
X-119.565 Y-8.162
X-119.6 Y-8.016
X-119.61 Y-7.996
X-119.677 Y-7.909
X-119.77 Y-7.852
X-119.878 Y-7.832
X-120.14
X-120.175 Y-7.839
X-120.205 Y-7.859
X-120.227 Y-7.887
X-120.236 Y-7.922
X-120.234 Y-7.957
X-120.218 Y-7.99
X-119.87 Y-8.479
X-119.843 Y-8.505
X-119.808 Y-8.519
X-119.77
X-119.76 Y-8.517
X-119.675 Y-8.505
X-119.628
X-119.591 Y-8.503
X-119.526 Y-8.466
X-119.425 Y-8.354
X-119.379 Y-8.212
X-119.377 Y-8.062
X-119.381 Y-8.048
X-119.442 Y-7.935
X-119.544 Y-7.859
X-119.669 Y-7.832
X-119.878
X-119.911 Y-7.839
X-119.939 Y-7.856
X-119.961 Y-7.881
X-119.972 Y-7.913
X-119.973 Y-7.946
X-119.963 Y-7.978
X-119.715 Y-8.451
X-119.693 Y-8.479
X-119.663 Y-8.498
X-119.628 Y-8.505
X-119.506 Y-8.504
X-119.431 Y-8.5
X-119.299 Y-8.429
X-119.216 Y-8.304
X-119.175 Y-8.16
X-119.178 Y-8.111
X-119.225 Y-7.97
X-119.333 Y-7.869
X-119.477 Y-7.832
X-119.669
X-119.705 Y-7.84
X-119.736 Y-7.861
X-119.757 Y-7.891
X-119.765 Y-7.928
X-119.76 Y-7.964
X-119.597 Y-8.437
X-119.583 Y-8.463
X-119.562 Y-8.485
X-119.535 Y-8.499
X-119.506 Y-8.504
X-119.337
X-119.262 Y-8.5
X-119.123 Y-8.444
X-119.028 Y-8.328
X-118.985 Y-8.184
X-118.987 Y-8.034
X-118.989 Y-8.028
X-119.053 Y-7.925
X-119.152 Y-7.856
X-119.27 Y-7.832
X-119.477
X-119.513 Y-7.84
X-119.543 Y-7.86
X-119.564 Y-7.889
X-119.574 Y-7.924
X-119.57 Y-7.96
X-119.429 Y-8.433
X-119.416 Y-8.461
X-119.394 Y-8.483
X-119.367 Y-8.498
X-119.337 Y-8.504
X-119.121
X-119.046 Y-8.5
X-118.913 Y-8.431
X-118.827 Y-8.309
X-118.781 Y-8.166
X-118.784 Y-8.116
X-118.811 Y-8.006
X-118.877 Y-7.914
X-118.972 Y-7.853
X-119.083 Y-7.832
X-119.27
X-119.306 Y-7.84
X-119.337 Y-7.86
X-119.358 Y-7.89
X-119.367 Y-7.925
X-119.362 Y-7.962
X-119.213 Y-8.434
X-119.199 Y-8.462
X-119.178 Y-8.484
X-119.151 Y-8.498
X-119.121 Y-8.504
X-118.952
X-118.877 Y-8.5
X-118.736 Y-8.448
X-118.638 Y-8.335
X-118.592 Y-8.192
Y-8.041
X-118.654 Y-7.932
X-118.756 Y-7.858
X-118.878 Y-7.832
X-119.083
X-119.118 Y-7.839
X-119.149 Y-7.859
X-119.17 Y-7.888
X-119.179 Y-7.923
X-119.176 Y-7.959
X-119.045 Y-8.431
X-119.031 Y-8.46
X-119.01 Y-8.483
X-118.983 Y-8.498
X-118.952 Y-8.504
X-118.744
X-118.669 Y-8.5
X-118.531 Y-8.443
X-118.439 Y-8.324
X-118.39 Y-8.183
X-118.391 Y-8.125
X-118.416 Y-8.012
X-118.481 Y-7.917
X-118.577 Y-7.854
X-118.691 Y-7.832
X-118.878
X-118.913 Y-7.839
X-118.944 Y-7.859
X-118.965 Y-7.888
X-118.974 Y-7.923
X-118.971 Y-7.959
X-118.837 Y-8.432
X-118.824 Y-8.46
X-118.803 Y-8.483
X-118.775 Y-8.498
X-118.744 Y-8.504
X-118.529
X-118.454 Y-8.5
X-118.322 Y-8.429
X-118.233 Y-8.308
X-118.196 Y-8.162
X-118.2 Y-8.11
X-118.247 Y-7.969
X-118.355 Y-7.868
X-118.499 Y-7.832
X-118.691
X-118.727 Y-7.84
X-118.758 Y-7.861
X-118.779 Y-7.891
X-118.787 Y-7.927
X-118.782 Y-7.964
X-118.62 Y-8.437
X-118.606 Y-8.463
X-118.585 Y-8.485
X-118.558 Y-8.499
X-118.529 Y-8.504
X-118.359
X-118.285 Y-8.5
X-118.214 Y-8.475
X-118.095 Y-8.383
X-118.024 Y-8.251
X-118.005 Y-8.102
X-118.01 Y-8.076
X-118.066 Y-7.951
X-118.172 Y-7.863
X-118.305 Y-7.832
X-118.499
X-118.534 Y-7.84
X-118.565 Y-7.859
X-118.586 Y-7.889
X-118.595 Y-7.924
X-118.591 Y-7.96
X-118.452 Y-8.433
X-118.439 Y-8.461
X-118.417 Y-8.483
X-118.39 Y-8.498
X-118.359 Y-8.504
X-118.152
X-118.077 Y-8.5
X-117.943 Y-8.434
X-117.854 Y-8.313
X-117.812 Y-8.169
X-117.814 Y-8.119
X-117.84 Y-8.008
X-117.906 Y-7.915
X-118.002 Y-7.853
X-118.113 Y-7.832
X-118.305
X-118.341 Y-7.84
X-118.372 Y-7.86
X-118.393 Y-7.89
X-118.401 Y-7.926
X-118.397 Y-7.962
X-118.244 Y-8.435
X-118.23 Y-8.462
X-118.209 Y-8.484
X-118.182 Y-8.499
X-118.152 Y-8.504
X-117.936
X-117.862 Y-8.5
X-117.734 Y-8.421
X-117.65 Y-8.297
X-117.617 Y-8.151
X-117.622 Y-8.102
X-117.671 Y-7.965
X-117.779 Y-7.867
X-117.92 Y-7.832
X-118.113
X-118.15 Y-7.84
X-118.181 Y-7.861
X-118.202 Y-7.893
X-118.21 Y-7.93
X-118.204 Y-7.967
X-118.027 Y-8.439
X-118.006 Y-8.473
X-117.974 Y-8.495
X-117.936 Y-8.504
X-117.767
X-117.692 Y-8.5
X-117.555 Y-8.44
X-117.465 Y-8.32
X-117.426 Y-8.175
X-117.43 Y-8.025
X-117.431 Y-8.023
X-117.496 Y-7.922
X-117.594 Y-7.855
X-117.711 Y-7.832
X-117.92
X-117.956 Y-7.84
X-117.987 Y-7.86
X-118.008 Y-7.89
X-118.017 Y-7.926
X-118.012 Y-7.962
X-117.859 Y-8.435
X-117.845 Y-8.462
X-117.824 Y-8.484
X-117.797 Y-8.499
X-117.767 Y-8.504
X-117.56
X-117.485 Y-8.5
X-117.352 Y-8.431
X-117.266 Y-8.308
X-117.222 Y-8.165
X-117.224 Y-8.116
X-117.252 Y-8.006
X-117.318 Y-7.914
X-117.413 Y-7.853
X-117.524 Y-7.832
X-117.711
X-117.747 Y-7.84
X-117.777 Y-7.86
X-117.798 Y-7.89
X-117.807 Y-7.926
X-117.803 Y-7.962
X-117.652 Y-8.435
X-117.638 Y-8.462
X-117.617 Y-8.484
X-117.59 Y-8.499
X-117.56 Y-8.504
X-117.391
X-117.316 Y-8.5
X-117.175 Y-8.448
X-117.078 Y-8.334
X-117.033 Y-8.191
Y-8.04
X-117.095 Y-7.932
X-117.196 Y-7.858
X-117.319 Y-7.832
X-117.524
X-117.559 Y-7.839
X-117.589 Y-7.859
X-117.611 Y-7.888
X-117.62 Y-7.923
X-117.617 Y-7.959
X-117.484 Y-8.431
X-117.47 Y-8.46
X-117.449 Y-8.483
X-117.422 Y-8.498
X-117.391 Y-8.504
X-117.175
X-117.1 Y-8.5
X-116.965 Y-8.435
X-116.876 Y-8.315
X-116.829 Y-8.172
X-116.831 Y-8.119
X-116.858 Y-8.008
X-116.923 Y-7.915
X-117.019 Y-7.853
X-117.131 Y-7.832
X-117.319
X-117.354 Y-7.84
X-117.385 Y-7.86
X-117.406 Y-7.889
X-117.415 Y-7.925
X-117.411 Y-7.961
X-117.267 Y-8.433
X-117.254 Y-8.461
X-117.233 Y-8.484
X-117.205 Y-8.498
X-117.175 Y-8.504
X-116.968
X-116.893 Y-8.5
X-116.762 Y-8.428
X-116.673 Y-8.307
X-116.636 Y-8.161
X-116.64 Y-8.109
X-116.687 Y-7.969
X-116.796 Y-7.868
X-116.939 Y-7.832
X-117.131
X-117.167 Y-7.84
X-117.198 Y-7.861
X-117.219 Y-7.891
X-117.227 Y-7.928
X-117.222 Y-7.964
X-117.059 Y-8.437
X-117.045 Y-8.463
X-117.024 Y-8.485
X-116.997 Y-8.499
X-116.968 Y-8.504
X-116.799
X-116.724 Y-8.5
X-116.653 Y-8.474
X-116.535 Y-8.382
X-116.464 Y-8.25
X-116.446 Y-8.101
X-116.451 Y-8.075
X-116.506 Y-7.95
X-116.612 Y-7.863
X-116.745 Y-7.832
X-116.939
X-116.975 Y-7.84
X-117.005 Y-7.86
X-117.026 Y-7.889
X-117.035 Y-7.924
X-117.032 Y-7.96
X-116.891 Y-8.433
X-116.878 Y-8.461
X-116.856 Y-8.483
X-116.829 Y-8.498
X-116.799 Y-8.504
X-116.583
X-116.508 Y-8.5
X-116.376 Y-8.429
X-116.29 Y-8.306
X-116.251 Y-8.162
X-116.253 Y-8.114
X-116.281 Y-8.005
X-116.347 Y-7.913
X-116.442 Y-7.853
X-116.553 Y-7.832
X-116.745
X-116.781 Y-7.84
X-116.812 Y-7.861
X-116.833 Y-7.891
X-116.842 Y-7.927
X-116.836 Y-7.964
X-116.674 Y-8.437
X-116.66 Y-8.463
X-116.639 Y-8.485
X-116.612 Y-8.499
X-116.583 Y-8.504
X-116.414
X-116.339 Y-8.5
X-116.199 Y-8.447
X-116.104 Y-8.33
X-116.06 Y-8.187
X-116.061 Y-8.128
X-116.085 Y-8.014
X-116.15 Y-7.918
X-116.247 Y-7.854
X-116.361 Y-7.832
X-116.553
X-116.588 Y-7.84
X-116.619 Y-7.859
X-116.64 Y-7.889
X-116.649 Y-7.924
X-116.645 Y-7.96
X-116.506 Y-8.433
X-116.493 Y-8.461
X-116.471 Y-8.483
X-116.444 Y-8.498
X-116.414 Y-8.504
X-116.206
X-116.131 Y-8.5
X-115.995 Y-8.439
X-115.905 Y-8.319
X-115.866 Y-8.174
X-115.869 Y-8.116
X-115.896 Y-8.006
X-115.962 Y-7.914
X-116.057 Y-7.853
X-116.168 Y-7.832
X-116.361
X-116.397 Y-7.84
X-116.427 Y-7.86
X-116.448 Y-7.89
X-116.457 Y-7.926
X-116.452 Y-7.963
X-116.298 Y-8.435
X-116.284 Y-8.462
X-116.263 Y-8.484
X-116.236 Y-8.499
X-116.206 Y-8.504
X-115.991
X-115.953
X-115.938 Y-8.501
X-115.915 Y-8.491
X-115.909 Y-8.488
X-115.894 Y-8.468
X-115.888 Y-8.444
X-115.893 Y-8.42
X-115.911 Y-8.397
X-115.937 Y-8.386
X-115.965 Y-8.388
X-115.989 Y-8.404
X-116.003 Y-8.428
Y-8.457
X-115.99 Y-8.482
X-115.966 Y-8.498
X-115.938 Y-8.501
X-115.924 Y-8.496
X-115.909 Y-8.488
X-115.895 Y-8.477
X-115.88 Y-8.459
X-115.868 Y-8.442
X-115.861 Y-8.43
X-115.856 Y-8.417
X-115.853 Y-8.405
X-115.851 Y-8.392
Y-7.97
X-115.852 Y-7.93
X-115.858 Y-7.91
X-115.868 Y-7.89
X-115.892 Y-7.862
X-115.902 Y-7.853
X-115.912 Y-7.846
X-115.922 Y-7.841
X-115.932 Y-7.837
X-115.942 Y-7.834
X-115.953 Y-7.832
X-116.168
X-116.206 Y-7.841
X-116.238 Y-7.863
X-116.258 Y-7.897
X-116.265 Y-7.935
X-116.263 Y-7.973 Z-0.982
X-116.262 Y-8.006 Z-0.961
X-116.261 Y-8.028 Z-0.928
Y-8.035 Z-0.89
G0 Z2
X-116.431 Y-13.009
Z-0.79
G1 Z-0.89 F1000
X-116.433 Y-13.016 Z-0.928
X-116.441 Y-13.036 Z-0.961
X-116.453 Y-13.066 Z-0.982
X-116.466 Y-13.102 Z-0.99
G3 X-116.555 Y-13.883 I1.479 J-0.564
G1 X-116.541 Y-13.967
X-116.533 Y-14.051
X-116.527 Y-14.136
X-116.518 Y-14.21
X-116.45 Y-14.344
X-116.334 Y-14.44
X-116.198 Y-14.502
X-116.051 Y-14.531
X-115.901 Y-14.528
X-115.754 Y-14.496
X-115.615 Y-14.441
X-115.581 Y-14.42
X-115.503 Y-14.347
X-115.455 Y-14.25
X-115.444 Y-14.143
X-115.465 Y-13.869
X-115.475 Y-13.836
X-115.495 Y-13.808
X-115.524 Y-13.789
X-115.558 Y-13.781
X-115.592 Y-13.785
X-115.828 Y-13.853
X-116.455 Y-14.036
X-116.485 Y-14.051
X-116.508 Y-14.074
X-116.523 Y-14.103
X-116.527 Y-14.136
X-116.521 Y-14.22
X-116.518 Y-14.305
X-116.517 Y-14.351
X-116.512 Y-14.426
X-116.442 Y-14.559
X-116.328 Y-14.655
X-116.192 Y-14.719
X-116.045 Y-14.752
X-115.895 Y-14.758
X-115.747 Y-14.739
X-115.667 Y-14.715
X-115.565 Y-14.659
X-115.492 Y-14.57
X-115.458 Y-14.459
X-115.437 Y-14.263
Y-14.242
X-115.441 Y-14.178
X-115.444 Y-14.143
X-115.453 Y-14.111
X-115.472 Y-14.084
X-115.499 Y-14.065
X-115.532 Y-14.055
X-115.565 Y-14.057
X-115.803 Y-14.111
X-116.439 Y-14.256
X-116.47 Y-14.268
X-116.495 Y-14.29
X-116.511 Y-14.319
X-116.517 Y-14.351
X-116.515 Y-14.474
X-116.517 Y-14.558
X-116.518 Y-14.633
X-116.45 Y-14.767
X-116.337 Y-14.866
X-116.204 Y-14.935
X-116.06 Y-14.976
X-115.911 Y-14.992
X-115.761 Y-14.982
X-115.707 Y-14.968
X-115.599 Y-14.915
X-115.52 Y-14.824
X-115.484 Y-14.709
X-115.458 Y-14.459
X-115.462 Y-14.424
X-115.477 Y-14.393
X-115.503 Y-14.369
X-115.536 Y-14.355
X-115.571 Y-14.353
X-115.784 Y-14.382
X-116.431 Y-14.47
X-116.462 Y-14.479
X-116.489 Y-14.499
X-116.508 Y-14.526
X-116.517 Y-14.558
X-116.529 Y-14.727
X-116.53 Y-14.802
X-116.487 Y-14.946
X-116.386 Y-15.057
X-116.26 Y-15.138
X-116.12 Y-15.193
X-115.973 Y-15.223
X-115.823 Y-15.225
X-115.77 Y-15.216
X-115.661 Y-15.173
X-115.577 Y-15.091
X-115.53 Y-14.984
X-115.511 Y-14.896
X-115.495 Y-14.812
X-115.484 Y-14.709
X-115.487 Y-14.675
X-115.501 Y-14.645
X-115.525 Y-14.621
X-115.555 Y-14.606
X-115.588 Y-14.602
X-115.791 Y-14.61
X-116.433 Y-14.638
X-116.468 Y-14.646
X-116.498 Y-14.665
X-116.519 Y-14.693
X-116.529 Y-14.727
X-116.534 Y-14.812
X-116.546 Y-14.896
X-116.555 Y-14.943
X-116.564 Y-15.017
X-116.513 Y-15.158
X-116.414 Y-15.271
X-116.291 Y-15.357
X-116.154 Y-15.417
X-116.008 Y-15.453
X-115.858 Y-15.458
X-115.829 Y-15.453
X-115.719 Y-15.413
X-115.634 Y-15.333
X-115.585 Y-15.227
X-115.567 Y-15.15
X-115.53 Y-14.984
Y-14.949
X-115.542 Y-14.917
X-115.564 Y-14.89
X-115.594 Y-14.872
X-115.628 Y-14.866
X-115.807
X-116.456 Y-14.863
X-116.49 Y-14.869
X-116.52 Y-14.886
X-116.542 Y-14.911
X-116.555 Y-14.943
X-116.585 Y-15.112
X-116.595 Y-15.186
X-116.569 Y-15.334
X-116.483 Y-15.457
X-116.369 Y-15.553
X-116.237 Y-15.626
X-116.095 Y-15.672
X-115.946 Y-15.69
X-115.91 Y-15.687
X-115.812 Y-15.66
X-115.728 Y-15.602
X-115.669 Y-15.52
X-115.643 Y-15.466
X-115.637 Y-15.445
X-115.585 Y-15.227
X-115.584 Y-15.194
X-115.594 Y-15.162
X-115.614 Y-15.135
X-115.642 Y-15.116
X-115.674 Y-15.108
X-115.84 Y-15.092
X-116.478 Y-15.034
X-116.514 Y-15.037
X-116.546 Y-15.052
X-116.571 Y-15.078
X-116.585 Y-15.112
X-116.608 Y-15.234
X-116.629 Y-15.318
X-116.648 Y-15.391
X-116.62 Y-15.538
X-116.538 Y-15.664
X-116.427 Y-15.765
X-116.298 Y-15.842
X-116.157 Y-15.894
X-116.087 Y-15.904
X-115.963 Y-15.896
X-115.853 Y-15.837
X-115.776 Y-15.739
X-115.669 Y-15.52
X-115.66 Y-15.485
X-115.665 Y-15.449
X-115.682 Y-15.417
X-115.71 Y-15.393
X-115.744 Y-15.381
X-115.881 Y-15.358
X-116.519 Y-15.253
X-116.554 Y-15.254
X-116.586 Y-15.266
X-116.612 Y-15.288
X-116.629 Y-15.318
X-116.662 Y-15.403
X-116.696 Y-15.487
X-116.721 Y-15.558
X-116.706 Y-15.707
X-116.635 Y-15.839
X-116.533 Y-15.949
X-116.411 Y-16.037
X-116.273 Y-16.097
X-116.209 Y-16.11
X-116.079 Y-16.109
X-115.962 Y-16.052
X-115.88 Y-15.951
X-115.776 Y-15.739
X-115.768 Y-15.705
X-115.772 Y-15.67
X-115.787 Y-15.639
X-115.813 Y-15.615
X-115.845 Y-15.601
X-115.951 Y-15.577
X-116.582 Y-15.431
X-116.617 Y-15.429
X-116.649 Y-15.439
X-116.677 Y-15.459
X-116.696 Y-15.487
X-116.75 Y-15.618
X-116.766 Y-15.656
X-116.794 Y-15.726
X-116.795 Y-15.876
X-116.735 Y-16.014
X-116.642 Y-16.131
X-116.526 Y-16.226
X-116.392 Y-16.294
X-116.348 Y-16.305
X-116.224 Y-16.311
X-116.109 Y-16.266
X-116.021 Y-16.178
X-115.902 Y-15.994
X-115.88 Y-15.951
X-115.871 Y-15.918
X-115.874 Y-15.884
X-115.888 Y-15.853
X-115.912 Y-15.828
X-115.943 Y-15.813
X-116.03 Y-15.787
X-116.648 Y-15.604
X-116.683 Y-15.6
X-116.717 Y-15.609
X-116.746 Y-15.628
X-116.766 Y-15.656
X-116.804 Y-15.741
X-116.851 Y-15.825
X-116.885 Y-15.892
X-116.896 Y-16.042
X-116.846 Y-16.183
X-116.761 Y-16.306
X-116.651 Y-16.408
X-116.519 Y-16.481
X-116.483 Y-16.492
X-116.357 Y-16.502
X-116.238 Y-16.458
X-116.147 Y-16.37
X-116.021 Y-16.178
X-116.009 Y-16.146
X-116.008 Y-16.111
X-116.02 Y-16.078
X-116.042 Y-16.051
X-116.072 Y-16.033
X-116.125 Y-16.013
X-116.73 Y-15.784
X-116.764 Y-15.778
X-116.798 Y-15.783
X-116.828 Y-15.799
X-116.851 Y-15.825
X-116.947 Y-15.994
X-116.98 Y-16.061
X-117.002 Y-16.21
X-116.96 Y-16.354
X-116.881 Y-16.481
X-116.775 Y-16.587
X-116.646 Y-16.664
X-116.639 Y-16.666
X-116.539 Y-16.681
X-116.44 Y-16.661
X-116.353 Y-16.609
X-116.263 Y-16.532
X-116.248 Y-16.517
X-116.235 Y-16.501
X-116.178 Y-16.416
X-116.147 Y-16.37
X-116.135 Y-16.338
X-116.134 Y-16.304
X-116.144 Y-16.272
X-116.165 Y-16.245
X-116.193 Y-16.226
X-116.232 Y-16.209
X-116.822 Y-15.955
X-116.856 Y-15.947
X-116.892 Y-15.951
X-116.923 Y-15.968
X-116.947 Y-15.994
X-116.995 Y-16.079
X-117.052 Y-16.159
X-117.096 Y-16.22
X-117.122 Y-16.368
X-117.087 Y-16.514
X-117.014 Y-16.645
X-116.914 Y-16.756
X-116.879 Y-16.778
X-116.76 Y-16.822
X-116.634 Y-16.814
X-116.522 Y-16.754
X-116.353 Y-16.609
X-116.33 Y-16.578
X-116.321 Y-16.542
X-116.325 Y-16.505
X-116.343 Y-16.471
X-116.372 Y-16.447
X-116.932 Y-16.14
X-116.963 Y-16.129
X-116.995
X-117.026 Y-16.139
X-117.052 Y-16.159
X-117.166 Y-16.271
X-117.217 Y-16.326
X-117.265 Y-16.468
X-117.248 Y-16.617
X-117.192 Y-16.756
X-117.1 Y-16.874
X-117.063 Y-16.902
X-116.94 Y-16.959
X-116.805 Y-16.955
X-116.685 Y-16.893
X-116.522 Y-16.754
X-116.501 Y-16.725
X-116.49 Y-16.69
X-116.493 Y-16.654
X-116.509 Y-16.621
X-116.535 Y-16.596
X-117.044 Y-16.262
X-117.074 Y-16.249
X-117.106 Y-16.246
X-117.138 Y-16.253
X-117.166 Y-16.271
X-117.306 Y-16.407
X-117.357 Y-16.462
X-117.41 Y-16.602
X-117.4 Y-16.752
X-117.348 Y-16.892
X-117.256 Y-17.011
X-117.247 Y-17.019
X-117.141 Y-17.073
X-117.022 Y-17.081
X-116.91 Y-17.043
X-116.799 Y-16.978
X-116.76 Y-16.954
X-116.714 Y-16.917
X-116.685 Y-16.893
X-116.664 Y-16.864
X-116.654 Y-16.83
X-116.656 Y-16.795
X-116.671 Y-16.762
X-116.696 Y-16.737
X-117.182 Y-16.399
X-117.212 Y-16.385
X-117.246 Y-16.381
X-117.278 Y-16.389
X-117.306 Y-16.407
X-117.316 Y-16.416
X-117.391 Y-16.475
X-117.428 Y-16.501
X-117.487 Y-16.547
X-117.563 Y-16.676
X-117.573 Y-16.826
X-117.535 Y-16.971
X-117.458 Y-17.099
X-117.448 Y-17.109
X-117.338 Y-17.174
X-117.212 Y-17.188
X-117.091 Y-17.149
X-116.91 Y-17.043
X-116.883 Y-17.018
X-116.867 Y-16.985
X-116.863 Y-16.948
X-116.874 Y-16.913
X-116.896 Y-16.884
X-117.307 Y-16.511
X-117.334 Y-16.494
X-117.366 Y-16.486
X-117.398 Y-16.488
X-117.428 Y-16.501
X-117.586 Y-16.609
X-117.646 Y-16.654
X-117.727 Y-16.78
X-117.741 Y-16.929
X-117.71 Y-17.076
X-117.633 Y-17.205
X-117.625 Y-17.213
X-117.543 Y-17.267
X-117.447 Y-17.293
X-117.349 Y-17.285
X-117.327 Y-17.28
X-117.317 Y-17.277
X-117.284 Y-17.261
X-117.091 Y-17.149
X-117.065 Y-17.124
X-117.049 Y-17.092
X-117.045 Y-17.056
X-117.055 Y-17.021
X-117.076 Y-16.992
X-117.464 Y-16.622
X-117.491 Y-16.603
X-117.522 Y-16.594
X-117.555 Y-16.596
X-117.586 Y-16.609
X-117.645 Y-16.649
X-117.729 Y-16.702
X-117.755 Y-16.713
X-117.788 Y-16.729
X-117.888 Y-16.842
X-117.919 Y-16.988
X-117.9 Y-17.137
X-117.886 Y-17.166
X-117.802 Y-17.274
X-117.679 Y-17.334
X-117.543 Y-17.332
X-117.349 Y-17.285
X-117.319 Y-17.271
X-117.295 Y-17.247
X-117.28 Y-17.217
X-117.276 Y-17.184
X-117.283 Y-17.151
X-117.301 Y-17.122
X-117.644 Y-16.739
X-117.667 Y-16.72
X-117.695 Y-16.709
X-117.725 Y-16.706
X-117.755 Y-16.713
X-117.814 Y-16.738
X-117.898 Y-16.763
X-117.934 Y-16.775
X-117.992 Y-16.823
X-118.073 Y-16.949
X-118.097 Y-17.097
X-118.064 Y-17.243
X-118.062 Y-17.247
X-117.976 Y-17.336
X-117.861 Y-17.383
X-117.737 Y-17.38
X-117.543 Y-17.332
X-117.508 Y-17.315
X-117.482 Y-17.285
X-117.471 Y-17.247
X-117.474 Y-17.208
X-117.492 Y-17.173
X-117.797 Y-16.797
X-117.826 Y-16.773
X-117.861 Y-16.761
X-117.898 Y-16.763
X-118.03 Y-16.8
X-118.101 Y-16.824
X-118.216 Y-16.919
X-118.271 Y-17.059
X-118.277 Y-17.209
X-118.271 Y-17.223
X-118.198 Y-17.337
X-118.081 Y-17.408
X-117.945 Y-17.419
X-117.814 Y-17.398
X-117.737 Y-17.38
X-117.703 Y-17.363
X-117.679 Y-17.336
X-117.665 Y-17.301
Y-17.264
X-117.679 Y-17.23
X-117.921 Y-16.844
X-117.942 Y-16.821
X-117.968 Y-16.805
X-117.999 Y-16.797
X-118.03 Y-16.8
X-118.152 Y-16.834
X-118.19 Y-16.839
X-118.263 Y-16.853
X-118.389 Y-16.935
X-118.457 Y-17.069
X-118.463 Y-17.219
X-118.459 Y-17.232
X-118.39 Y-17.353
X-118.274 Y-17.429
X-118.136 Y-17.445
X-118.068 Y-17.437
X-117.945 Y-17.419
X-117.91 Y-17.405
X-117.882 Y-17.379
X-117.866 Y-17.345
X-117.864 Y-17.307
X-117.876 Y-17.271
X-118.092 Y-16.889
X-118.117 Y-16.86
X-118.152 Y-16.842
X-118.19 Y-16.839
X-118.368 Y-16.864
X-118.442 Y-16.878
X-118.506 Y-16.915
X-118.606 Y-17.028
X-118.648 Y-17.172
X-118.644 Y-17.198
X-118.609 Y-17.307
X-118.536 Y-17.395
X-118.435 Y-17.449
X-118.322 Y-17.461
X-118.286 Y-17.45
X-118.257 Y-17.426
X-118.239 Y-17.393
X-118.234 Y-17.356
X-118.258 Y-16.957
X-118.265 Y-16.926
X-118.281 Y-16.898
X-118.306 Y-16.878
X-118.336 Y-16.866
X-118.368 Y-16.864
X-118.406 Y-16.869
X-118.537 Y-16.879
X-118.612 Y-16.888
X-118.739 Y-16.967
X-118.813 Y-17.098
X-118.827 Y-17.247
X-118.824 Y-17.257
X-118.759 Y-17.375
X-118.649 Y-17.454
X-118.516 Y-17.475
X-118.406 Y-17.468
X-118.152 Y-17.447
X-118.136 Y-17.445
X-118.101 Y-17.433
X-118.073 Y-17.409
X-118.056 Y-17.376
X-118.051 Y-17.34
X-118.06 Y-17.304
X-118.082 Y-17.274
X-118.464 Y-16.907
X-118.498 Y-16.886
X-118.537 Y-16.879
X-118.66 Y-16.888
X-118.706 Y-16.887
X-118.781 Y-16.889
X-118.848 Y-16.923
X-118.955 Y-17.028
X-119.01 Y-17.168
X-119.008 Y-17.199
X-118.964 Y-17.34
X-118.858 Y-17.443
X-118.716 Y-17.483
X-118.66 Y-17.485
X-118.516 Y-17.475
X-118.479 Y-17.464
X-118.449 Y-17.441
X-118.431 Y-17.407
X-118.426 Y-17.37
X-118.435 Y-17.333
X-118.622 Y-16.944
X-118.642 Y-16.915
X-118.672 Y-16.895
X-118.706 Y-16.887
X-118.744 Y-16.886
X-118.876 Y-16.877
X-118.951 Y-16.876
X-119.083 Y-16.947
X-119.168 Y-17.07
X-119.193 Y-17.218
X-119.192 Y-17.225
X-119.141 Y-17.344
X-119.044 Y-17.431
X-118.92 Y-17.469
X-118.744 Y-17.483
X-118.716
X-118.678 Y-17.475
X-118.646 Y-17.454
X-118.625 Y-17.421
X-118.617 Y-17.383
X-118.625 Y-17.345
X-118.794 Y-16.938
X-118.813 Y-16.908
X-118.841 Y-16.887
X-118.876 Y-16.877
X-118.914 Y-16.875
X-118.998 Y-16.864
X-119.045 Y-16.855
X-119.082 Y-16.85
X-119.154 Y-16.871
X-119.283 Y-16.948
X-119.361 Y-17.076
X-119.367 Y-17.12
X-119.357 Y-17.24
X-119.301 Y-17.347
X-119.208 Y-17.423
X-119.092 Y-17.456
X-119.054 Y-17.45
X-119.021 Y-17.43
X-118.997 Y-17.399
X-118.988 Y-17.361
X-118.967 Y-16.958
X-118.971 Y-16.924
X-118.987 Y-16.893
X-119.012 Y-16.869
X-119.045 Y-16.855
X-119.214 Y-16.823
X-119.251 Y-16.818
X-119.396 Y-16.858
X-119.501 Y-16.964
X-119.554 Y-17.105
Y-17.139
X-119.522 Y-17.273
X-119.433 Y-17.378
X-119.307 Y-17.432
X-119.252 Y-17.442
X-119.167 Y-17.45
X-118.92 Y-17.469
X-118.883 Y-17.464
X-118.851 Y-17.446
X-118.828 Y-17.417
X-118.817 Y-17.382
X-118.819 Y-17.345
X-118.834 Y-17.311
X-119.155 Y-16.863
X-119.181 Y-16.838
X-119.214 Y-16.823
X-119.252 Y-16.816
X-119.358 Y-16.791
X-119.431 Y-16.775
X-119.576 Y-16.813
X-119.682 Y-16.919
X-119.737 Y-17.058
X-119.739 Y-17.081
X-119.714 Y-17.221
X-119.627 Y-17.333
X-119.499 Y-17.393
X-119.307 Y-17.432
X-119.268 Y-17.43
X-119.233 Y-17.414
X-119.207 Y-17.386
X-119.194 Y-17.35
X-119.195 Y-17.311
X-119.296 Y-16.863
X-119.308 Y-16.833
X-119.329 Y-16.808
X-119.358 Y-16.791
X-119.379 Y-16.783
X-119.479 Y-16.739
X-119.549 Y-16.712
X-119.623 Y-16.718
X-119.765 Y-16.768
X-119.869 Y-16.876
X-119.923 Y-17.016
X-119.924 Y-17.042
X-119.9 Y-17.182
X-119.814 Y-17.295
X-119.685 Y-17.356
X-119.65 Y-17.355
X-119.617 Y-17.343
X-119.591 Y-17.32
X-119.574 Y-17.289
X-119.428 Y-16.861
X-119.423 Y-16.826
X-119.43 Y-16.791
X-119.45 Y-16.761
X-119.479 Y-16.739
X-119.506 Y-16.727
X-119.616 Y-16.67
X-119.684 Y-16.638
X-119.834
X-119.965 Y-16.711
X-120.063 Y-16.825
X-120.114 Y-16.966
Y-16.976
X-120.098 Y-17.096
X-120.036 Y-17.2
X-119.939 Y-17.271
X-119.903 Y-17.278
X-119.867 Y-17.273
X-119.836 Y-17.255
X-119.813 Y-17.227
X-119.579 Y-16.805
X-119.567 Y-16.768
X-119.57 Y-16.73
X-119.587 Y-16.695
X-119.616 Y-16.67
X-119.76 Y-16.593
X-119.77 Y-16.585
X-119.802 Y-16.565
X-119.875 Y-16.549
X-120.025 Y-16.563
X-120.154 Y-16.639
X-120.25 Y-16.754
X-120.272 Y-16.811
X-120.292 Y-16.922
X-120.269 Y-17.032
X-120.208 Y-17.126
X-120.115 Y-17.191
X-120.08 Y-17.199
X-120.045 Y-17.193
X-120.013 Y-17.175
X-119.99 Y-17.148
X-119.745 Y-16.713
X-119.733 Y-16.68
X-119.734 Y-16.645
X-119.747 Y-16.612
X-119.77 Y-16.585
X-119.886 Y-16.501
X-119.949 Y-16.46
X-120.097 Y-16.434
X-120.239 Y-16.481
X-120.359 Y-16.571
X-120.444 Y-16.694
X-120.458 Y-16.738
X-120.468 Y-16.874
X-120.416 Y-17.001
X-120.313 Y-17.091
X-120.28 Y-17.101
X-120.246 Y-17.099
X-120.215 Y-17.085
X-120.189 Y-17.062
X-119.868 Y-16.64
X-119.851 Y-16.606
X-119.849 Y-16.567
X-119.861 Y-16.53
X-119.886 Y-16.501
X-120.013 Y-16.407
X-120.035 Y-16.388
X-120.093 Y-16.341
X-120.24 Y-16.312
X-120.385 Y-16.352
X-120.509 Y-16.436
X-120.604 Y-16.553
X-120.626 Y-16.607
X-120.65 Y-16.744
X-120.608 Y-16.878
X-120.51 Y-16.978
X-120.477 Y-16.99
X-120.442
X-120.41 Y-16.978
X-120.383 Y-16.955
X-120.027 Y-16.524
X-120.009 Y-16.491
X-120.004 Y-16.454
X-120.013 Y-16.418
X-120.035 Y-16.388
X-120.052 Y-16.372
X-120.091 Y-16.332
X-120.137 Y-16.271
X-120.161 Y-16.243
X-120.296 Y-16.176
X-120.446 Y-16.186
X-120.584 Y-16.245
X-120.702 Y-16.337
X-120.789 Y-16.459
X-120.806 Y-16.501
X-120.827 Y-16.637
X-120.784 Y-16.768
X-120.688 Y-16.866
X-120.656 Y-16.878
X-120.623 Y-16.879
X-120.591 Y-16.868
X-120.564 Y-16.848
X-120.146 Y-16.397
X-120.127 Y-16.368
X-120.119 Y-16.336
X-120.123 Y-16.302
X-120.137 Y-16.271
X-120.216 Y-16.163
X-120.263 Y-16.105
X-120.392 Y-16.028
X-120.542 Y-16.025
X-120.685 Y-16.068
X-120.812 Y-16.149
X-120.918 Y-16.255
X-120.95 Y-16.311
X-120.988 Y-16.429
X-120.976 Y-16.552
X-120.914 Y-16.66
X-120.886 Y-16.68
X-120.852 Y-16.69
X-120.817 Y-16.688
X-120.785 Y-16.673
X-120.762 Y-16.657
X-120.243 Y-16.301
X-120.216 Y-16.274
X-120.201 Y-16.238
Y-16.199
X-120.216 Y-16.163
X-120.277 Y-16.079
X-120.332 Y-15.994
X-120.352 Y-15.963
X-120.472 Y-15.873
X-120.621 Y-15.854
X-120.768 Y-15.883
X-120.904 Y-15.947
X-121.022 Y-16.04
X-121.116 Y-16.159
X-121.141 Y-16.262
X-121.129 Y-16.368
X-121.08 Y-16.463
X-121.052 Y-16.486
X-121.019 Y-16.498
X-120.983
X-120.95 Y-16.485
X-120.909 Y-16.459
X-120.368 Y-16.125
X-120.341 Y-16.1
X-120.324 Y-16.067
X-120.321 Y-16.03
X-120.332 Y-15.994
X-120.405 Y-15.863
X-120.445 Y-15.8
X-120.562 Y-15.706
X-120.71 Y-15.68
X-120.859 Y-15.698
X-121 Y-15.75
X-121.126 Y-15.831
X-121.233 Y-15.936
X-121.238 Y-15.943
X-121.277 Y-16.051
X-121.273 Y-16.165
X-121.226 Y-16.269
X-121.202 Y-16.293
X-121.171 Y-16.306
X-121.137 Y-16.309
X-121.104 Y-16.3
X-121.019 Y-16.261
X-120.452 Y-16
X-120.426 Y-15.982
X-120.406 Y-15.956
X-120.395 Y-15.926
Y-15.894
X-120.405 Y-15.863
X-120.472 Y-15.741
X-120.497 Y-15.683
X-120.531 Y-15.616
X-120.652 Y-15.528
X-120.799 Y-15.498
X-120.949 Y-15.508
X-121.093 Y-15.551
X-121.226 Y-15.62
X-121.34 Y-15.717
X-121.348 Y-15.728
X-121.397 Y-15.836
X-121.4 Y-15.954
X-121.358 Y-16.065
X-121.334 Y-16.089
X-121.303 Y-16.104
X-121.269 Y-16.108
X-121.236 Y-16.1
X-121.133 Y-16.057
X-120.552 Y-15.811
X-120.52 Y-15.79
X-120.498 Y-15.758
X-120.491 Y-15.721
X-120.497 Y-15.683
X-120.509 Y-15.656
X-120.55 Y-15.54
X-120.555 Y-15.53
X-120.571 Y-15.508
X-120.582 Y-15.496
X-120.594 Y-15.487
X-120.606 Y-15.481
X-120.616 Y-15.476
X-120.627 Y-15.473
X-120.637 Y-15.472
X-120.648 Y-15.471
X-121.16
X-121.198
X-121.244
X-121.319 Y-15.475
X-121.338 Y-15.486
X-121.431 Y-15.578
X-121.477 Y-15.701
X-121.466 Y-15.831
X-121.446 Y-15.864
X-121.416 Y-15.887
X-121.379 Y-15.898
X-121.342 Y-15.893
X-121.308 Y-15.875
X-121.284 Y-15.846
X-121.16 Y-15.619
X-121.149 Y-15.587
Y-15.553
X-121.161 Y-15.521
X-121.182 Y-15.495
X-121.211 Y-15.478
X-121.244 Y-15.471
X-121.409
X-121.43
X-121.441 Y-15.472
X-121.467 Y-15.479
X-121.486 Y-15.496
X-121.495 Y-15.519
X-121.494 Y-15.544
X-121.48 Y-15.569
X-121.456 Y-15.584
X-121.428 Y-15.586
X-121.402 Y-15.574
X-121.385 Y-15.551
X-121.382 Y-15.523
X-121.392 Y-15.496
X-121.413 Y-15.478
X-121.441 Y-15.472
X-121.452 Y-15.474
X-121.467 Y-15.479
X-121.483 Y-15.487
X-121.501 Y-15.503
X-121.519 Y-15.522
X-121.53 Y-15.539
X-121.536 Y-15.557
X-121.539 Y-15.572
Y-15.59
X-121.536 Y-15.607
X-121.441 Y-15.91
X-121.426 Y-15.952
X-121.403 Y-15.994
X-121.241 Y-16.248
X-121.198 Y-16.31
X-121.029 Y-16.529
X-120.944 Y-16.626
X-120.805 Y-16.783
X-120.775 Y-16.811
X-120.436 Y-17.024
X-120.183 Y-17.161
X-119.844 Y-17.314
X-119.802 Y-17.331
X-119.734 Y-17.346
X-119.499 Y-17.393
X-119.471 Y-17.394
X-119.443 Y-17.387
X-119.421 Y-17.362 Z-0.983
X-119.401 Y-17.34 Z-0.966
X-119.387 Y-17.324 Z-0.939
X-119.385 Y-17.315 Z-0.915
X-119.384 Y-17.311 Z-0.89
G0 Z2
X-112.802 Y-12.663
Z0.5
G3 X-112.318 Y-12.788 Z0.29 I0.242 J-0.062 F333.3
X-112.802 Y-12.663 Z0.079 I-0.242 J0.062
X-112.318 Y-12.788 Z-0.131 I0.242 J-0.062
X-112.802 Y-12.663 Z-0.342 I-0.242 J0.062
X-112.318 Y-12.788 Z-0.552 I0.242 J-0.062
X-112.802 Y-12.663 Z-0.763 I-0.242 J0.062
X-112.591 Y-12.974 Z-0.876 I0.242 J-0.062
X-112.31 Y-12.726 Z-0.99 I0.031 J0.248
X-112.81 I-0.25
X-112.31 I0.25
G1 X-112.273 Y-12.58 F1000
X-112.286 Y-12.506
X-112.323 Y-12.441
X-112.43 Y-12.336
X-112.574 Y-12.296
X-112.723 Y-12.317
X-112.853 Y-12.391
X-112.95 Y-12.506
X-113.002 Y-12.647
X-113.004 Y-12.797
X-112.957 Y-12.939
X-112.865 Y-13.058
X-112.739 Y-13.139
X-112.593 Y-13.175
X-112.444 Y-13.161
X-112.307 Y-13.099
X-112.199 Y-12.996
X-112.121 Y-12.867
X-112.071 Y-12.726
X-112.06 Y-12.577
X-112.095 Y-12.431
X-112.166 Y-12.298
X-112.274 Y-12.195
X-112.405 Y-12.121
X-112.551 Y-12.088
X-112.701 Y-12.095
X-112.845 Y-12.136
X-112.975 Y-12.212
X-113.081 Y-12.318
X-113.163 Y-12.443
X-113.213 Y-12.585
X-113.227 Y-12.734
X-113.211 Y-12.883
X-113.16 Y-13.024
X-113.078 Y-13.15
X-112.972 Y-13.255
X-112.844 Y-13.334
X-112.701 Y-13.381
X-112.552 Y-13.397
X-112.403 Y-13.379
X-112.263 Y-13.326
X-112.136 Y-13.246
X-112.027 Y-13.143
X-111.94 Y-13.021
X-111.877 Y-12.885
X-111.839 Y-12.74
X-111.831 Y-12.59
X-111.853 Y-12.442
X-111.86 Y-12.421
X-111.896 Y-12.349
X-111.951 Y-12.29
X-112.019 Y-12.247
X-112.061 Y-12.223
X-112.105 Y-12.193
X-112.146 Y-12.159
X-112.193 Y-12.109
X-112.212 Y-12.084
X-112.307 Y-11.968
X-112.442 Y-11.904
X-112.59 Y-11.875
X-112.74 Y-11.876
X-112.886 Y-11.91
X-113.023 Y-11.971
X-113.146 Y-12.056
X-113.161 Y-12.07
X-113.209 Y-12.13
X-113.24 Y-12.2
X-113.253 Y-12.276
X-113.259 Y-12.531
X-113.262 Y-12.784
Y-12.869
X-113.259 Y-13.038
X-113.248 Y-13.187
X-113.182 Y-13.322
X-113.083 Y-13.435
X-112.961 Y-13.522
X-112.824 Y-13.583
X-112.678 Y-13.619
X-112.529 Y-13.629
X-112.379 Y-13.613
X-112.323 Y-13.597
X-112.231 Y-13.552
X-112.16 Y-13.48
X-112.117 Y-13.388
X-112.113 Y-13.376
X-112.077 Y-13.291
X-111.883 Y-12.953
X-111.827 Y-12.869
X-111.757 Y-12.784
X-111.667 Y-12.664
X-111.664 Y-12.651
X-111.666 Y-12.535
X-111.709 Y-12.428
X-111.788 Y-12.343
X-111.892 Y-12.292
X-111.926 Y-12.29
X-111.958 Y-12.3
X-111.986 Y-12.32
X-112.005 Y-12.348
X-112.014 Y-12.38
X-112.012 Y-12.414
X-111.928 Y-12.743
X-111.913 Y-12.775
X-111.888 Y-12.8
X-111.855 Y-12.815
X-111.819 Y-12.817
X-111.785 Y-12.807
X-111.757 Y-12.784
X-111.616 Y-12.616
X-111.597 Y-12.593
X-111.573 Y-12.565
X-111.55 Y-12.535
X-111.581 Y-12.422
X-111.662 Y-12.339
X-111.774 Y-12.306
X-111.814 Y-12.313
X-111.849 Y-12.332
X-111.876 Y-12.362
X-111.891 Y-12.399
G3 X-111.573 Y-12.565 I0.181 J-0.04
G1 X-111.544 Y-12.531
X-111.521 Y-12.506
X-111.492 Y-12.474
X-111.469 Y-12.448
X-111.466 Y-12.443
X-111.477 Y-12.454
X-111.469 Y-12.448
X-111.462 Y-12.436
X-111.457 Y-12.425
X-111.454 Y-12.415
X-111.451 Y-12.391
Y-12.383
X-111.462 Y-12.356
X-111.484 Y-12.337
X-111.512 Y-12.329
X-111.541 Y-12.335
X-111.564 Y-12.352
X-111.577 Y-12.378
X-111.578 Y-12.407
X-111.566 Y-12.433
X-111.544 Y-12.452
X-111.516 Y-12.458
X-111.487 Y-12.452
X-111.467 Y-12.437
X-111.454 Y-12.415
X-111.452 Y-12.404
X-111.451 Y-12.394
Y-12.383
X-111.453 Y-12.373
X-111.455 Y-12.362
X-111.461 Y-12.348
X-111.469 Y-12.334
X-111.485 Y-12.315
X-111.504 Y-12.296
X-111.521 Y-12.284
X-111.539 Y-12.278
X-111.553 Y-12.275
X-111.573 Y-12.274
X-111.593 Y-12.278
X-111.638 Y-12.291
X-112.362 Y-12.595
X-112.58 Y-12.687
X-113.197 Y-12.947
X-113.229 Y-12.969
X-113.251 Y-13
X-113.259 Y-13.038
X-113.257 Y-13.122
X-113.247 Y-13.338
X-113.233 Y-13.487
X-113.153 Y-13.614
X-113.042 Y-13.714
X-112.911 Y-13.788
X-112.77 Y-13.838
X-112.622 Y-13.863
X-112.472 Y-13.866
X-112.419 Y-13.857
X-112.309 Y-13.816
X-112.223 Y-13.736
X-112.175 Y-13.629
X-112.137 Y-13.46
X-112.117 Y-13.388
X-112.115 Y-13.353
X-112.125 Y-13.319
X-112.147 Y-13.291
X-112.177 Y-13.272
X-112.211 Y-13.265
X-112.52 Y-13.256
X-113.144 Y-13.237
X-113.176 Y-13.241
X-113.205 Y-13.255
X-113.228 Y-13.277
X-113.243 Y-13.306
X-113.247 Y-13.338
X-113.236 Y-13.591
X-113.222 Y-13.74
X-113.14 Y-13.866
X-113.026 Y-13.963
X-112.893 Y-14.033
X-112.751 Y-14.08
X-112.602 Y-14.103
X-112.452 Y-14.098
X-112.437 Y-14.093
X-112.335 Y-14.044
X-112.259 Y-13.961
X-112.219 Y-13.855
X-112.194 Y-13.714
X-112.175 Y-13.629
Y-13.594
X-112.186 Y-13.561
X-112.208 Y-13.534
X-112.237 Y-13.516
X-112.271 Y-13.51
X-112.509 Y-13.504
X-113.134 Y-13.49
X-113.166 Y-13.495
X-113.194 Y-13.509
X-113.217 Y-13.531
X-113.231 Y-13.56
X-113.236 Y-13.591
X-113.23 Y-13.714
X-113.213 Y-13.883
X-113.203 Y-13.957
X-113.132 Y-14.089
X-113.022 Y-14.191
X-112.891 Y-14.265
X-112.749 Y-14.313
X-112.601 Y-14.336
X-112.45 Y-14.324
X-112.349 Y-14.266
X-112.277 Y-14.173
X-112.246 Y-14.061
X-112.238 Y-13.967
X-112.219 Y-13.855
X-112.22 Y-13.82
X-112.233 Y-13.788
X-112.257 Y-13.762
X-112.288 Y-13.746
X-112.322 Y-13.741
X-112.492 Y-13.749
X-113.118 Y-13.777
X-113.156 Y-13.786
X-113.188 Y-13.81
X-113.208 Y-13.843
X-113.213 Y-13.883
X-113.205 Y-13.967
X-113.183 Y-14.136
X-113.17 Y-14.21
X-113.097 Y-14.341
X-112.985 Y-14.44
X-112.852 Y-14.51
X-112.708 Y-14.551
X-112.558 Y-14.564
X-112.508 Y-14.555
X-112.383 Y-14.502
X-112.294 Y-14.4
X-112.259 Y-14.269
X-112.258 Y-14.22
X-112.246 Y-14.061
X-112.251 Y-14.027
X-112.266 Y-13.997
X-112.291 Y-13.974
X-112.322 Y-13.96
X-112.356 Y-13.958
X-112.468 Y-13.968
X-113.093 Y-14.027
X-113.131 Y-14.038
X-113.161 Y-14.063
X-113.179 Y-14.097
X-113.183 Y-14.136
X-113.15 Y-14.389
X-113.136 Y-14.463
X-113.059 Y-14.592
X-112.943 Y-14.686
X-112.807 Y-14.75
X-112.66 Y-14.782
X-112.548 Y-14.778
X-112.435 Y-14.752
X-112.342 Y-14.685
X-112.28 Y-14.587
X-112.261 Y-14.474
X-112.26 Y-14.305
X-112.259 Y-14.269
X-112.265 Y-14.235
X-112.282 Y-14.205
X-112.308 Y-14.183
X-112.341 Y-14.171
X-112.375 Y-14.17
X-112.44 Y-14.181
X-113.066 Y-14.281
X-113.101 Y-14.294
X-113.129 Y-14.319
X-113.146 Y-14.352
X-113.15 Y-14.389
X-113.127 Y-14.558
X-113.104 Y-14.643
X-113.058 Y-14.785
X-112.95 Y-14.89
X-112.818 Y-14.96
X-112.672 Y-14.995
X-112.522 Y-14.997
X-112.473 Y-14.984
X-112.351 Y-14.92
X-112.271 Y-14.807
X-112.25 Y-14.671
X-112.259 Y-14.558
X-112.261 Y-14.474
X-112.269 Y-14.44
X-112.287 Y-14.412
X-112.315 Y-14.391
X-112.348 Y-14.381
X-112.382 Y-14.382
X-112.415 Y-14.389
X-113.028 Y-14.522
X-113.064 Y-14.538
X-113.091 Y-14.567
X-113.105 Y-14.603
X-113.104 Y-14.643
X-113.059 Y-14.812
X-113.034 Y-14.896
X-113.009 Y-14.967
X-112.921 Y-15.088
X-112.792 Y-15.165
X-112.648 Y-15.207
X-112.498 Y-15.204
X-112.45 Y-15.191
X-112.321 Y-15.119
X-112.242 Y-14.995
X-112.232 Y-14.848
X-112.238 Y-14.812
X-112.25 Y-14.671
X-112.26 Y-14.638
X-112.281 Y-14.609
X-112.311 Y-14.59
X-112.345 Y-14.583
X-112.38 Y-14.587
X-112.968 Y-14.777
X-113.001 Y-14.795
X-113.025 Y-14.823
X-113.036 Y-14.859
X-113.034 Y-14.896
X-112.97 Y-15.112
X-112.919 Y-15.253
X-112.805 Y-15.351
X-112.665 Y-15.404
X-112.516 Y-15.415
X-112.368 Y-15.386
X-112.346 Y-15.374
X-112.251 Y-15.293
X-112.198 Y-15.182
X-112.194 Y-15.058
X-112.232 Y-14.848
X-112.245 Y-14.816
X-112.268 Y-14.791
X-112.298 Y-14.774
X-112.333 Y-14.769
X-112.367 Y-14.776
X-112.91 Y-14.993
X-112.94 Y-15.012
X-112.962 Y-15.041
X-112.972 Y-15.076
X-112.97 Y-15.112
X-112.89 Y-15.365
X-112.87 Y-15.417
X-112.776 Y-15.534
X-112.64 Y-15.598
X-112.492 Y-15.62
X-112.344 Y-15.595
X-112.317 Y-15.583
X-112.21 Y-15.499
X-112.151 Y-15.377
X-112.152 Y-15.242
X-112.193 Y-15.065
X-112.194 Y-15.058
X-112.208 Y-15.024
X-112.233 Y-14.998
X-112.267 Y-14.982
X-112.303 Y-14.98
X-112.338 Y-14.99
X-112.839 Y-15.249
X-112.866 Y-15.27
X-112.885 Y-15.298
X-112.893 Y-15.331
X-112.89 Y-15.365
X-112.878 Y-15.403
X-112.808 Y-15.572
X-112.776 Y-15.64
X-112.672 Y-15.748
X-112.532 Y-15.801
X-112.382 Y-15.809
X-112.237 Y-15.77
X-112.219 Y-15.758
X-112.123 Y-15.655
X-112.084 Y-15.52
X-112.111 Y-15.382
X-112.13 Y-15.356
X-112.157 Y-15.337
X-112.189 Y-15.328
X-112.221 Y-15.329
X-112.735 Y-15.439
X-112.767 Y-15.452
X-112.793 Y-15.474
X-112.809 Y-15.504
X-112.814 Y-15.538
X-112.808 Y-15.572
X-112.727 Y-15.766
X-112.695 Y-15.834
X-112.59 Y-15.942
X-112.449 Y-15.993
X-112.299 Y-15.998
X-112.157 Y-15.951
X-112.133 Y-15.934
X-112.04 Y-15.832
X-112.002 Y-15.698
X-112.029 Y-15.562
X-112.111 Y-15.382
X-112.131 Y-15.355
X-112.16 Y-15.336
X-112.193 Y-15.327
X-112.227 Y-15.331
X-112.258 Y-15.345
X-112.691 Y-15.649
X-112.714 Y-15.672
X-112.729 Y-15.702
X-112.733 Y-15.734
X-112.727 Y-15.766
X-112.642 Y-15.972
X-112.611 Y-16.037
X-112.5 Y-16.138
X-112.357 Y-16.183
X-112.207 Y-16.181
X-112.067 Y-16.129
X-112.035 Y-16.106
X-111.942 Y-15.997
X-111.911 Y-15.857
X-111.948 Y-15.718
X-111.982 Y-15.656
X-112.029 Y-15.562
X-112.05 Y-15.534
X-112.079 Y-15.515
X-112.114 Y-15.507
X-112.148 Y-15.511
X-112.18 Y-15.527
X-112.609 Y-15.857
X-112.631 Y-15.88
X-112.644 Y-15.909
X-112.648 Y-15.941
X-112.642 Y-15.972
X-112.595 Y-16.079
X-112.583 Y-16.097
X-112.484 Y-16.222
X-112.434 Y-16.278
X-112.303 Y-16.351
X-112.154 Y-16.362
X-112.009 Y-16.323
X-111.881 Y-16.245
X-111.876 Y-16.239
X-111.819 Y-16.132
X-111.809 Y-16.012
X-111.847 Y-15.897
X-111.892 Y-15.82
X-111.948 Y-15.718
X-111.972 Y-15.69
X-112.005 Y-15.674
X-112.041 Y-15.67
X-112.077 Y-15.679
X-112.107 Y-15.701
X-112.476 Y-16.094
X-112.495 Y-16.123
X-112.503 Y-16.157
X-112.499 Y-16.191
X-112.484 Y-16.222
X-112.359 Y-16.378
X-112.31 Y-16.435
X-112.182 Y-16.513
X-112.032 Y-16.524
X-111.886 Y-16.488
X-111.762 Y-16.405
X-111.705 Y-16.291
X-111.7 Y-16.166
X-111.746 Y-16.05
X-111.84 Y-15.91
X-111.847 Y-15.897
X-111.871 Y-15.871
X-111.904 Y-15.854
X-111.94 Y-15.851
X-111.975 Y-15.86
X-112.005 Y-15.882
X-112.352 Y-16.25
X-112.371 Y-16.279
X-112.379 Y-16.313
X-112.375 Y-16.347
X-112.359 Y-16.378
X-112.23 Y-16.54
X-112.181 Y-16.597
X-112.052 Y-16.674
X-111.902 Y-16.684
X-111.757 Y-16.645
X-111.636 Y-16.557
X-111.581 Y-16.425
X-111.593 Y-16.284
X-111.668 Y-16.165
X-111.684 Y-16.144
X-111.746 Y-16.05
X-111.772 Y-16.025
X-111.805 Y-16.011
X-111.841 Y-16.01
X-111.875 Y-16.021
X-111.903 Y-16.043
X-112.225 Y-16.415
X-112.243 Y-16.444
X-112.25 Y-16.477
X-112.245 Y-16.51
X-112.23 Y-16.54
X-112.113 Y-16.687
X-112.094 Y-16.705
X-112.061 Y-16.733
X-111.941 Y-16.823
X-111.792 Y-16.842
X-111.647 Y-16.806
X-111.524 Y-16.72
X-111.504 Y-16.694
X-111.445 Y-16.559
X-111.457 Y-16.412
X-111.538 Y-16.289
X-111.583 Y-16.248
X-111.668 Y-16.165
X-111.698 Y-16.146
X-111.732 Y-16.138
X-111.766 Y-16.143
X-111.797 Y-16.16
X-111.82 Y-16.186
X-112.079 Y-16.606
X-112.092 Y-16.638
X-112.093 Y-16.672
X-112.082 Y-16.705
X-112.061 Y-16.733
X-111.859 Y-16.901
X-111.799 Y-16.946
X-111.652 Y-16.977
X-111.506 Y-16.941
X-111.385 Y-16.853
X-111.362 Y-16.822
X-111.303 Y-16.687
X-111.316 Y-16.54
X-111.398 Y-16.417
X-111.538 Y-16.289
X-111.571 Y-16.27
X-111.608 Y-16.265
X-111.644 Y-16.274
X-111.675 Y-16.295
X-111.696 Y-16.327
X-111.885 Y-16.788
X-111.892 Y-16.818
X-111.89 Y-16.849
X-111.878 Y-16.877
X-111.859 Y-16.901
X-111.723 Y-17.014
X-111.663 Y-17.059
X-111.591 Y-17.083
X-111.441 Y-17.085
X-111.303 Y-17.027
X-111.194 Y-16.924
X-111.178 Y-16.893
X-111.146 Y-16.752
X-111.184 Y-16.612
X-111.282 Y-16.506
X-111.3 Y-16.495
X-111.384 Y-16.429
X-111.398 Y-16.417
X-111.43 Y-16.399
X-111.466 Y-16.394
X-111.503 Y-16.402
X-111.533 Y-16.423
X-111.554 Y-16.454
X-111.748 Y-16.9
X-111.755 Y-16.93
X-111.754 Y-16.961
X-111.742 Y-16.99
X-111.723 Y-17.014
X-111.591 Y-17.124
X-111.572 Y-17.138
X-111.553 Y-17.149
X-111.41 Y-17.192
X-111.26 Y-17.187
X-111.124 Y-17.123
X-111.024 Y-17.011
X-111.013 Y-16.986
X-110.986 Y-16.848
X-111.025 Y-16.712
X-111.122 Y-16.61
X-111.282 Y-16.506
X-111.316 Y-16.493
X-111.352
X-111.385 Y-16.505
X-111.412 Y-16.529
X-111.429 Y-16.56
X-111.584 Y-17.035
X-111.589 Y-17.072
X-111.58 Y-17.108
X-111.558 Y-17.139
X-111.526 Y-17.159
X-111.262 Y-17.251
X-111.19 Y-17.272
X-111.042 Y-17.252
X-110.916 Y-17.17
X-110.83 Y-17.047
X-110.828 Y-17.038
X-110.824 Y-16.906
X-110.877 Y-16.785
X-110.977 Y-16.698
X-111.029 Y-16.67
X-111.122 Y-16.61
X-111.16 Y-16.597
X-111.199 Y-16.599
X-111.235 Y-16.616
X-111.261 Y-16.647
X-111.273 Y-16.684
X-111.326 Y-17.146
X-111.324 Y-17.179
X-111.312 Y-17.209
X-111.291 Y-17.234
X-111.262 Y-17.251
X-111.084 Y-17.313
X-111.012 Y-17.334
X-110.862 Y-17.323
X-110.736 Y-17.241
X-110.657 Y-17.114
X-110.653 Y-17.094
X-110.658 Y-16.946
X-110.733 Y-16.819
X-110.86 Y-16.743
X-110.877 Y-16.738
X-110.961 Y-16.707
X-110.977 Y-16.698
X-111.014 Y-16.688
X-111.053 Y-16.693
X-111.087 Y-16.713
X-111.11 Y-16.744
X-111.12 Y-16.782
X-111.147 Y-17.213
X-111.144 Y-17.245
X-111.132 Y-17.273
X-111.111 Y-17.297
X-111.084 Y-17.313
X-110.961 Y-17.355
X-110.877 Y-17.381
X-110.802 Y-17.388
X-110.728 Y-17.376
X-110.591 Y-17.314
X-110.5 Y-17.195
X-110.491 Y-17.165
X-110.48 Y-17.047
X-110.515 Y-16.934
X-110.592 Y-16.843
X-110.698 Y-16.789
X-110.821 Y-16.754
X-110.86 Y-16.743
X-110.898 Y-16.74
X-110.935 Y-16.752
X-110.964 Y-16.777
X-110.981 Y-16.811
X-110.985 Y-16.849
X-110.944 Y-17.296
X-110.933 Y-17.332
X-110.91 Y-17.362
X-110.877 Y-17.381
X-110.661 Y-17.411
X-110.586 Y-17.417
X-110.514 Y-17.396
X-110.386 Y-17.319
X-110.309 Y-17.19
X-110.306 Y-17.171
X-110.32 Y-17.028
X-110.398 Y-16.908
X-110.523 Y-16.838
X-110.698 Y-16.789
X-110.737 Y-16.788
X-110.774 Y-16.802
X-110.803 Y-16.829
X-110.819 Y-16.865
Y-16.904
X-110.742 Y-17.33
X-110.732 Y-17.359
X-110.714 Y-17.383
X-110.69 Y-17.401
X-110.661 Y-17.411
X-110.484 Y-17.435
X-110.409 Y-17.442
X-110.337 Y-17.42
X-110.272 Y-17.382
X-110.166 Y-17.276
X-110.121 Y-17.133
Y-17.129
X-110.163 Y-17.001
X-110.256 Y-16.905
X-110.382 Y-16.859
X-110.454 Y-16.849
X-110.523 Y-16.838
X-110.563 Y-16.836
X-110.6 Y-16.851
X-110.629 Y-16.878
X-110.644 Y-16.915
Y-16.955
X-110.565 Y-17.356
X-110.555 Y-17.384
X-110.536 Y-17.408
X-110.512 Y-17.426
X-110.484 Y-17.435
X-110.322 Y-17.457
X-110.248 Y-17.464
X-110.174 Y-17.448
X-110.045 Y-17.373
X-109.96 Y-17.249
X-109.956 Y-17.221
X-109.963 Y-17.102
X-110.015 Y-16.995
X-110.104 Y-16.916
X-110.218 Y-16.879
X-110.382 Y-16.859
X-110.419 Y-16.862
X-110.452 Y-16.879
X-110.477 Y-16.907
X-110.49 Y-16.942
X-110.489 Y-16.979
X-110.403 Y-17.38
X-110.387 Y-17.416
X-110.359 Y-17.443
X-110.322 Y-17.457
X-110.115 Y-17.486
X-110.094 Y-17.487
X-110.019 Y-17.48
X-109.95 Y-17.451
X-109.832 Y-17.358
X-109.774 Y-17.22
Y-17.19
X-109.798 Y-17.072
X-109.866 Y-16.972
X-109.967 Y-16.908
X-110.086 Y-16.889
X-110.123 Y-16.899
X-110.154 Y-16.922
X-110.173 Y-16.955
X-110.179 Y-16.993
X-110.158 Y-17.39
X-110.149 Y-17.427
X-110.126 Y-17.459
X-110.092 Y-17.479
X-110.054 Y-17.484
X-109.861 Y-17.469
X-109.787 Y-17.459
X-109.725 Y-17.417
X-109.627 Y-17.303
X-109.592 Y-17.157
X-109.597 Y-17.129
X-109.635 Y-17.021
X-109.712 Y-16.936
X-109.815 Y-16.885
X-109.929 Y-16.877
X-110.031 Y-16.886
X-110.086 Y-16.889
X-110.119 Y-16.897
X-110.146 Y-16.915
X-110.167 Y-16.941
X-110.177 Y-16.972
Y-17.006
X-110.166 Y-17.037
X-109.953 Y-17.418
X-109.93 Y-17.446
X-109.898 Y-17.464
X-109.861 Y-17.469
X-109.692 Y-17.455
X-109.618 Y-17.445
X-109.493 Y-17.362
X-109.423 Y-17.229
X-109.414 Y-17.079
X-109.419 Y-17.064
X-109.49 Y-16.944
X-109.606 Y-16.869
X-109.745 Y-16.855
X-109.929 Y-16.877
X-109.965 Y-16.89
X-109.994 Y-16.916
X-110.01 Y-16.951
X-110.013 Y-16.989
X-110 Y-17.025
X-109.783 Y-17.405
X-109.76 Y-17.433
X-109.728 Y-17.45
X-109.692 Y-17.455
X-109.607 Y-17.448
X-109.523 Y-17.439
X-109.449 Y-17.428
X-109.382 Y-17.393
X-109.279 Y-17.285
X-109.23 Y-17.143
X-109.244 Y-16.993
X-109.25 Y-16.98
X-109.337 Y-16.874
X-109.461 Y-16.818
X-109.598 Y-16.822
X-109.692 Y-16.848
X-109.745 Y-16.855
X-109.78 Y-16.868
X-109.808 Y-16.892
X-109.824 Y-16.926
X-109.828 Y-16.963
X-109.817 Y-16.999
X-109.619 Y-17.385
X-109.595 Y-17.416
X-109.561 Y-17.434
X-109.523 Y-17.439
X-109.434 Y-17.43
X-109.354 Y-17.418
X-109.307 Y-17.407
X-109.235 Y-17.386
X-109.115 Y-17.296
X-109.053 Y-17.16
X-109.045 Y-17.01
X-109.056 Y-16.974
X-109.111 Y-16.872
X-109.201 Y-16.799
X-109.312 Y-16.765
X-109.427 Y-16.776
X-109.598 Y-16.822
X-109.63 Y-16.839
X-109.654 Y-16.866
X-109.667 Y-16.9
Y-16.937
X-109.654 Y-16.97
X-109.412 Y-17.361
X-109.393 Y-17.384
X-109.367 Y-17.401
X-109.337 Y-17.408
X-109.307 Y-17.407
X-109.1 Y-17.357
X-109.028 Y-17.336
X-108.916 Y-17.235
X-108.861 Y-17.096
X-108.863 Y-17.011
X-108.899 Y-16.873
X-108.994 Y-16.766
X-109.127 Y-16.713
X-109.269 Y-16.726
X-109.354 Y-16.754
X-109.427 Y-16.776
X-109.459 Y-16.794
X-109.483 Y-16.822
X-109.494 Y-16.858
X-109.492 Y-16.895
X-109.477 Y-16.929
X-109.201 Y-17.317
X-109.174 Y-17.343
X-109.138 Y-17.357
X-109.1
X-108.931 Y-17.316
X-108.859 Y-17.295
X-108.798 Y-17.251
X-108.708 Y-17.131
X-108.679 Y-16.984
X-108.706 Y-16.836
X-108.774 Y-16.703
X-108.78 Y-16.698
X-108.896 Y-16.628
X-109.031 Y-16.616
X-109.157 Y-16.665
X-109.179 Y-16.687
X-109.193 Y-16.715
X-109.198 Y-16.745
X-109.194 Y-16.776
X-109.046 Y-17.248
X-109.029 Y-17.28
X-109.002 Y-17.304
X-108.967 Y-17.317
X-108.931 Y-17.316
X-108.846 Y-17.296
X-108.805 Y-17.283
X-108.761 Y-17.26
X-108.677 Y-17.21
X-108.614 Y-17.169
X-108.526 Y-17.047
X-108.501 Y-16.899
X-108.52 Y-16.751
X-108.589 Y-16.617
X-108.608 Y-16.596
X-108.726 Y-16.52
X-108.865 Y-16.505
X-108.995 Y-16.555
X-109.157 Y-16.665
X-109.181 Y-16.69
X-109.195 Y-16.721
X-109.198 Y-16.755
X-109.189 Y-16.788
X-109.169 Y-16.817
X-108.796 Y-17.193
X-108.77 Y-17.212
X-108.739 Y-17.221
X-108.707
X-108.677 Y-17.21
X-108.508 Y-17.11
X-108.445 Y-17.069
X-108.353 Y-16.951
X-108.323 Y-16.804
X-108.343 Y-16.655
X-108.41 Y-16.521
X-108.443 Y-16.484
X-108.533 Y-16.416
X-108.642 Y-16.386
X-108.755 Y-16.398
X-108.855 Y-16.451
X-108.916 Y-16.501
X-108.995 Y-16.555
X-109.019 Y-16.58
X-109.033 Y-16.611
X-109.036 Y-16.645
X-109.027 Y-16.678
X-109.007 Y-16.706
X-108.627 Y-17.093
X-108.601 Y-17.112
X-108.57 Y-17.121
X-108.538
X-108.508 Y-17.11
X-108.338 Y-17.011
X-108.334 Y-17.008
X-108.294 Y-16.984
X-108.244 Y-16.947
X-108.238 Y-16.942
X-108.216 Y-16.911
X-108.207 Y-16.874
X-108.212 Y-16.836
X-108.231 Y-16.803
X-108.261 Y-16.78
X-108.297 Y-16.769
X-108.335 Y-16.773
X-108.369 Y-16.79
X-108.404 Y-16.818
X-108.428 Y-16.846
X-108.44 Y-16.881
X-108.439 Y-16.918
X-108.425 Y-16.952
X-108.399 Y-16.978
X-108.366 Y-16.993
X-108.329 Y-16.996
X-108.294 Y-16.984
X-108.274 Y-16.971
X-108.254 Y-16.955
X-108.217 Y-16.923
X-108.19 Y-16.897
X-108.145 Y-16.754
X-108.152 Y-16.604
X-108.202 Y-16.463
X-108.288 Y-16.34
X-108.33 Y-16.307
X-108.46 Y-16.248
X-108.603 Y-16.256
X-108.726 Y-16.328
X-108.816 Y-16.416
X-108.846 Y-16.444
X-108.855 Y-16.451
X-108.878 Y-16.481
X-108.889 Y-16.516
X-108.886 Y-16.553
X-108.869 Y-16.586
X-108.842 Y-16.612
X-108.334 Y-16.93
X-108.305 Y-16.943
X-108.274 Y-16.946
X-108.244 Y-16.939
X-108.217 Y-16.923
X-108.121 Y-16.839
X-108.067 Y-16.787
X-107.993 Y-16.656
X-107.986 Y-16.506
X-108.025 Y-16.362
X-108.103 Y-16.234
X-108.212 Y-16.131
X-108.234 Y-16.12
X-108.358 Y-16.09
X-108.483 Y-16.114
X-108.586 Y-16.187
X-108.643 Y-16.248
X-108.726 Y-16.328
X-108.744 Y-16.356
X-108.753 Y-16.388
X-108.75 Y-16.421
X-108.737 Y-16.452
X-108.715 Y-16.476
X-108.245 Y-16.84
X-108.216 Y-16.856
X-108.183 Y-16.861
X-108.15 Y-16.855
X-108.121 Y-16.839
X-107.96 Y-16.699
X-107.906 Y-16.646
X-107.835 Y-16.514
X-107.831 Y-16.364
X-107.871 Y-16.22
X-107.945 Y-16.089
X-108.054 Y-15.986
X-108.105 Y-15.958
X-108.214 Y-15.923
X-108.328 Y-15.932
X-108.43 Y-15.982
X-108.506 Y-16.067
X-108.564 Y-16.163
X-108.586 Y-16.187
X-108.603 Y-16.215
X-108.61 Y-16.247
X-108.607 Y-16.279
X-108.593 Y-16.309
X-108.571 Y-16.332
X-108.083 Y-16.701
X-108.054 Y-16.716
X-108.021 Y-16.721
X-107.989 Y-16.715
X-107.96 Y-16.699
X-107.831 Y-16.585
X-107.786 Y-16.543
X-107.777 Y-16.533
X-107.757 Y-16.501
X-107.684 Y-16.37
X-107.678 Y-16.22
X-107.716 Y-16.075
X-107.79 Y-15.944
X-107.895 Y-15.837
X-108.022 Y-15.758
X-108.055 Y-15.748
X-108.187 Y-15.74
X-108.309 Y-15.789
X-108.399 Y-15.886
X-108.506 Y-16.067
X-108.518 Y-16.104
X-108.515 Y-16.143
X-108.498 Y-16.177
X-108.468 Y-16.202
X-108.442 Y-16.217
X-107.889 Y-16.532
X-107.854 Y-16.544
X-107.817 Y-16.542
X-107.783 Y-16.527
X-107.757 Y-16.501
X-107.623 Y-16.286
X-107.55 Y-16.154
X-107.553 Y-16.004
X-107.604 Y-15.863
X-107.688 Y-15.739
X-107.797 Y-15.635
X-107.929 Y-15.565
X-107.968 Y-15.555
X-108.105 Y-15.553
X-108.229 Y-15.612
X-108.313 Y-15.719
X-108.364 Y-15.825
X-108.399 Y-15.886
X-108.41 Y-15.925
X-108.406 Y-15.964
X-108.386 Y-15.999
X-108.355 Y-16.023
X-108.326 Y-16.037
X-107.75 Y-16.32
X-107.715 Y-16.33
X-107.68 Y-16.327
X-107.647 Y-16.311
X-107.623 Y-16.286
X-107.549 Y-16.163
X-107.499 Y-16.079
X-107.464 Y-16.012
X-107.434 Y-15.865
X-107.469 Y-15.72
X-107.542 Y-15.588
X-107.644 Y-15.479
X-107.769 Y-15.395
X-107.91 Y-15.345
X-107.935 Y-15.344
X-108.058 Y-15.362
X-108.163 Y-15.428
X-108.232 Y-15.531
X-108.254 Y-15.587
X-108.284 Y-15.656
X-108.313 Y-15.719
X-108.321 Y-15.758
X-108.314 Y-15.796
X-108.292 Y-15.829
X-108.26 Y-15.851
X-108.217 Y-15.868
X-107.621 Y-16.117
X-107.587 Y-16.124
X-107.553 Y-16.12
X-107.522 Y-16.104
X-107.499 Y-16.079
X-107.448 Y-15.994
X-107.37 Y-15.825
X-107.342 Y-15.756
X-107.338 Y-15.606
X-107.39 Y-15.465
X-107.478 Y-15.343
X-107.591 Y-15.245
X-107.722 Y-15.171
X-107.788 Y-15.155
X-107.938 Y-15.154
X-108.072 Y-15.224
X-108.158 Y-15.347
X-108.232 Y-15.531
X-108.237 Y-15.563
X-108.233 Y-15.595
X-108.219 Y-15.623
X-108.196 Y-15.646
X-108.168 Y-15.661
X-108.103 Y-15.681
X-107.489 Y-15.876
X-107.454 Y-15.88
X-107.42 Y-15.872
X-107.391 Y-15.853
X-107.37 Y-15.825
X-107.28 Y-15.631
X-107.252 Y-15.561
X-107.243 Y-15.411
X-107.295 Y-15.27
X-107.381 Y-15.148
X-107.492 Y-15.047
X-107.624 Y-14.976
X-107.769 Y-14.935
X-107.833 Y-14.936
X-107.964 Y-14.968
X-108.067 Y-15.054
X-108.123 Y-15.176
X-108.158 Y-15.347
X-108.157 Y-15.383
X-108.145 Y-15.416
X-108.121 Y-15.443
X-108.09 Y-15.459
X-108.013 Y-15.484
X-107.4 Y-15.681
X-107.365 Y-15.686
X-107.33 Y-15.678
X-107.301 Y-15.659
X-107.28 Y-15.631
X-107.239 Y-15.542
X-107.216 Y-15.487
X-107.186 Y-15.356
X-107.161 Y-15.209
X-107.209 Y-15.066
X-107.296 Y-14.944
X-107.408 Y-14.844
X-107.537 Y-14.768
X-107.681 Y-14.725
X-107.83 Y-14.715
X-107.85 Y-14.719
X-107.962 Y-14.768
X-108.045 Y-14.858
X-108.085 Y-14.974
X-108.101 Y-15.065
X-108.123 Y-15.176
X-108.122 Y-15.215
X-108.106 Y-15.25
X-108.079 Y-15.277
X-108.043 Y-15.291
X-107.926 Y-15.313
X-107.301 Y-15.43
X-107.264
X-107.229 Y-15.416
X-107.202 Y-15.39
X-107.186 Y-15.356
X-107.14 Y-15.15
X-107.131 Y-15.103
X-107.12 Y-15.029
X-107.142 Y-14.881
X-107.219 Y-14.752
X-107.325 Y-14.646
X-107.452 Y-14.565
X-107.592 Y-14.512
X-107.74 Y-14.49
X-107.793 Y-14.495
X-107.924 Y-14.541
X-108.02 Y-14.64
X-108.061 Y-14.772
X-108.064 Y-14.812
X-108.085 Y-14.974
X-108.082 Y-15.012
X-108.064 Y-15.046
X-108.035 Y-15.07
X-107.998 Y-15.082
X-107.875 Y-15.098
X-107.241 Y-15.179
X-107.205 Y-15.177
X-107.171 Y-15.162
X-107.146 Y-15.136
X-107.131 Y-15.103
X-107.092 Y-14.896
X-107.084 Y-14.85
X-107.077 Y-14.812
X-107.074 Y-14.737
X-107.123 Y-14.595
X-107.215 Y-14.476
X-107.332 Y-14.382
X-107.466 Y-14.315
X-107.61 Y-14.275
X-107.76 Y-14.27
X-107.799 Y-14.277
X-107.922 Y-14.33
X-108.01 Y-14.43
X-108.047 Y-14.558
X-108.061 Y-14.772
X-108.055 Y-14.811
X-108.034 Y-14.845
X-108.002 Y-14.868
X-107.963 Y-14.876
X-107.824 Y-14.879
X-107.177 Y-14.891
X-107.143 Y-14.886
X-107.113 Y-14.87
X-107.09 Y-14.844
X-107.077 Y-14.812
X-107.057 Y-14.596
X-107.054 Y-14.521
X-107.091 Y-14.376
X-107.18 Y-14.255
X-107.297 Y-14.161
X-107.43 Y-14.093
X-107.574 Y-14.051
X-107.724 Y-14.043
X-107.872 Y-14.068
X-107.88 Y-14.072
X-107.972 Y-14.14
X-108.031 Y-14.238
X-108.05 Y-14.351
X-108.047 Y-14.474
Y-14.558
X-108.039 Y-14.595
X-108.018 Y-14.626
X-107.987 Y-14.647
X-107.951 Y-14.655
X-107.797 Y-14.66
X-107.16 Y-14.683
X-107.123 Y-14.678
X-107.092 Y-14.66
X-107.068 Y-14.631
X-107.057 Y-14.596
X-107.033 Y-14.343
X-107.029 Y-14.305
X-107.028 Y-14.284
X-107.035 Y-14.209
X-107.107 Y-14.077
X-107.213 Y-13.971
X-107.34 Y-13.891
X-107.48 Y-13.839
X-107.628 Y-13.814
X-107.778 Y-13.815
X-107.84 Y-13.831
X-107.96 Y-13.896
X-108.039 Y-14.008
X-108.061 Y-14.143
X-108.055 Y-14.22
X-108.052 Y-14.305
X-108.05 Y-14.351
X-108.04 Y-14.389
X-108.016 Y-14.42
X-107.981 Y-14.44
X-107.942 Y-14.444
X-107.763 Y-14.429
X-107.12 Y-14.375
X-107.086 Y-14.366
X-107.057 Y-14.346
X-107.037 Y-14.317
X-107.028 Y-14.284
X-107.029 Y-14.263
X-107.048 Y-14.051
X-107.07 Y-13.903
X-107.159 Y-13.783
X-107.278 Y-13.691
X-107.414 Y-13.627
X-107.559 Y-13.589
X-107.708 Y-13.579
X-107.857 Y-13.602
X-107.897 Y-13.619
X-108.007 Y-13.697
X-108.072 Y-13.816
X-108.078 Y-13.951
X-108.075 Y-13.967
X-108.068 Y-14.051
X-108.061 Y-14.143
X-108.05 Y-14.18
X-108.025 Y-14.209
X-107.991 Y-14.228
X-107.952 Y-14.232
X-107.768 Y-14.215
X-107.139 Y-14.157
X-107.103 Y-14.146
X-107.073 Y-14.122
X-107.054 Y-14.089
X-107.048 Y-14.051
X-107.065 Y-13.883
X-107.074 Y-13.798
X-107.097 Y-13.65
X-107.189 Y-13.532
X-107.311 Y-13.444
X-107.449 Y-13.386
X-107.596 Y-13.355
X-107.746 Y-13.35
X-107.893 Y-13.38
X-107.943 Y-13.402
X-108.051 Y-13.481
X-108.114 Y-13.599
X-108.119 Y-13.732
X-108.078 Y-13.951
X-108.063 Y-13.986
X-108.037 Y-14.012
X-108.003 Y-14.027
X-107.965 Y-14.028
X-107.787 Y-14.001
X-107.158 Y-13.904
X-107.123 Y-13.891
X-107.095 Y-13.867
X-107.078 Y-13.835
X-107.074 Y-13.798
X-107.082 Y-13.714
X-107.096 Y-13.629
X-107.127 Y-13.498
X-107.148 Y-13.426
X-107.23 Y-13.301
X-107.351 Y-13.212
X-107.49 Y-13.154
X-107.637 Y-13.126
X-107.787 Y-13.125
X-107.934 Y-13.157
X-107.994 Y-13.184
X-108.108 Y-13.271
X-108.167 Y-13.402
X-108.159 Y-13.545
X-108.139 Y-13.629
X-108.119 Y-13.732
X-108.103 Y-13.769
X-108.074 Y-13.796
X-108.037 Y-13.809
X-107.998 Y-13.808
X-107.816 Y-13.764
X-107.201 Y-13.615
X-107.167 Y-13.599
X-107.141 Y-13.571
X-107.127 Y-13.536
Y-13.498
X-107.186 Y-13.245
X-107.195 Y-13.207
X-107.205 Y-13.165
X-107.236 Y-13.1
X-107.261 Y-13.07
X-107.296 Y-13.052
X-107.335 Y-13.049
X-107.372 Y-13.061
X-107.402 Y-13.087
X-107.419 Y-13.122
X-107.422 Y-13.16
X-107.41 Y-13.198
X-107.39 Y-13.233
X-107.368 Y-13.26
X-107.337 Y-13.278
X-107.303 Y-13.284
X-107.268 Y-13.278
X-107.238 Y-13.26
X-107.216 Y-13.233
X-107.204 Y-13.2
X-107.205 Y-13.165
X-107.214 Y-13.143
X-107.239 Y-13.094
X-107.257 Y-13.062
X-107.382 Y-12.977
X-107.521 Y-12.923
X-107.669 Y-12.897
X-107.819 Y-12.896
X-107.966 Y-12.927
X-108.104 Y-12.986
X-108.143 Y-13.017
X-108.225 Y-13.119
X-108.255 Y-13.246
X-108.229 Y-13.374
X-108.209 Y-13.401
X-108.182 Y-13.42
X-108.15 Y-13.429
X-108.116 Y-13.427
X-107.897 Y-13.375
X-107.306 Y-13.234
X-107.274 Y-13.22
X-107.248 Y-13.195
X-107.233 Y-13.163
X-107.229 Y-13.128
X-107.239 Y-13.094
X-107.311 Y-12.953
X-107.386 Y-12.824
X-107.509 Y-12.738
X-107.651 Y-12.689
X-107.8 Y-12.673
X-107.95 Y-12.687
X-108.094 Y-12.727
X-108.225 Y-12.801
X-108.249 Y-12.823
X-108.323 Y-12.925
X-108.348 Y-13.049
X-108.32 Y-13.172
X-108.228 Y-13.376
X-108.169 Y-13.51
X-108.159 Y-13.545
X-108.14 Y-13.577
X-108.11 Y-13.6
X-108.074 Y-13.611
X-108.036 Y-13.608
X-108.003 Y-13.591
X-107.853 Y-13.474
X-107.34 Y-13.075
X-107.317 Y-13.05
X-107.304 Y-13.019
X-107.302 Y-12.986
X-107.311 Y-12.953
X-107.399 Y-12.784
X-107.474 Y-12.665
X-107.517 Y-12.604
X-107.639 Y-12.516
X-107.783 Y-12.472
X-107.933 Y-12.464
X-108.081 Y-12.486
X-108.223 Y-12.535
X-108.349 Y-12.617
X-108.374 Y-12.643
X-108.442 Y-12.756
X-108.454 Y-12.887
X-108.409 Y-13.011
X-108.392 Y-13.038
X-108.343 Y-13.122
X-108.32 Y-13.172
X-108.301 Y-13.198
X-108.274 Y-13.217
X-108.242 Y-13.226
X-108.209 Y-13.224
X-108.179 Y-13.212
X-108.046 Y-13.13
X-107.508 Y-12.801
X-107.48 Y-12.774
X-107.464 Y-12.74
X-107.462 Y-12.701
X-107.474 Y-12.665
X-107.577 Y-12.502
X-107.617 Y-12.447
X-107.664 Y-12.388
X-107.788 Y-12.303
X-107.933 Y-12.266
X-108.083 Y-12.265
X-108.23 Y-12.297
X-108.368 Y-12.355
X-108.488 Y-12.446
X-108.509 Y-12.472
X-108.568 Y-12.585
X-108.574 Y-12.713
X-108.527 Y-12.832
X-108.501 Y-12.869
X-108.409 Y-13.011
X-108.381 Y-13.039
X-108.344 Y-13.053
X-108.304 Y-13.052
X-108.268 Y-13.036
X-108.154 Y-12.953
X-107.642 Y-12.583
X-107.616 Y-12.555
X-107.602 Y-12.52
Y-12.482
X-107.617 Y-12.447
X-107.773 Y-12.23
X-107.788 Y-12.212
X-107.904 Y-12.116
X-108.048 Y-12.075
X-108.198 Y-12.074
X-108.345 Y-12.104
X-108.483 Y-12.162
X-108.604 Y-12.251
X-108.633 Y-12.286
X-108.697 Y-12.407
X-108.7 Y-12.543
X-108.642 Y-12.667
X-108.616 Y-12.7
X-108.527 Y-12.832
X-108.503 Y-12.855
X-108.473 Y-12.869
X-108.44 Y-12.873
X-108.407 Y-12.865
X-108.379 Y-12.847
X-108.274 Y-12.754
X-107.811 Y-12.34
X-107.791 Y-12.314
X-107.779 Y-12.284
Y-12.251
X-107.789 Y-12.22
X-107.808 Y-12.194
X-108.054 Y-11.993
X-108.114 Y-11.949
X-108.258 Y-11.907
X-108.408 Y-11.912
X-108.552 Y-11.955
X-108.682 Y-12.029
X-108.791 Y-12.132
X-108.819 Y-12.18
X-108.861 Y-12.312
X-108.839 Y-12.448
X-108.758 Y-12.56
X-108.677 Y-12.631
X-108.642 Y-12.667
X-108.615 Y-12.689
X-108.583 Y-12.701
X-108.548
X-108.515 Y-12.689
X-108.489 Y-12.666
X-108.447 Y-12.617
X-108.043 Y-12.133
X-108.024 Y-12.099
X-108.02 Y-12.061
X-108.03 Y-12.024
X-108.054 Y-11.993
X-108.169 Y-11.9
X-108.231 Y-11.855
X-108.279 Y-11.827
X-108.413 Y-11.759
X-108.563 Y-11.76
X-108.707 Y-11.802
X-108.838 Y-11.875
X-108.944 Y-11.981
X-108.978 Y-12.034
X-109.023 Y-12.172
X-108.999 Y-12.315
X-108.91 Y-12.43
X-108.88 Y-12.445
X-108.848 Y-12.449
X-108.815 Y-12.443
X-108.786 Y-12.426
X-108.725 Y-12.374
X-108.268 Y-11.988
X-108.245 Y-11.959
X-108.233 Y-11.924
X-108.236 Y-11.886
X-108.252 Y-11.853
X-108.279 Y-11.827
X-108.508 Y-11.695
X-108.574 Y-11.66
X-108.722 Y-11.637
X-108.869 Y-11.67
X-109 Y-11.742
X-109.107 Y-11.847
X-109.187 Y-11.974
X-109.192 Y-11.992
X-109.198 Y-12.117
X-109.151 Y-12.235
X-109.061 Y-12.322
X-108.998 Y-12.362
X-108.889 Y-12.447
X-108.758 Y-12.56
X-108.728 Y-12.577
X-108.695 Y-12.582
X-108.661 Y-12.576
X-108.631 Y-12.559
X-108.609 Y-12.533
X-108.597 Y-12.501
X-108.588 Y-12.452
X-108.463 Y-11.798
Y-11.759
X-108.479 Y-11.722
X-108.508 Y-11.695
X-108.635 Y-11.622
X-108.677 Y-11.606
X-108.808 Y-11.571
X-108.955 Y-11.541
X-109.098 Y-11.585
X-109.223 Y-11.669
X-109.323 Y-11.78
X-109.348 Y-11.834
X-109.376 Y-11.976
X-109.333 Y-12.115
X-109.231 Y-12.218
X-109.197 Y-12.229
X-109.161 Y-12.228
X-109.128 Y-12.214
X-109.102 Y-12.19
X-108.757 Y-11.727
X-108.74 Y-11.693
X-108.738 Y-11.655
X-108.75 Y-11.618
X-108.774 Y-11.589
X-108.808 Y-11.571
X-109.062 Y-11.505
X-109.1 Y-11.495
X-109.175 Y-11.489
X-109.319 Y-11.529
X-109.441 Y-11.617
X-109.504 Y-11.709
X-109.554 Y-11.834
X-109.541 Y-11.969
X-109.469 Y-12.083
X-109.354 Y-12.153
X-109.323 Y-12.161
X-109.29 Y-12.159
X-109.26 Y-12.147
X-109.236 Y-12.126
X-109.219 Y-12.098
X-109.035 Y-11.628
X-109.028 Y-11.595
X-109.032 Y-11.563
X-109.047 Y-11.533
X-109.07 Y-11.51
X-109.1 Y-11.495
X-109.316 Y-11.466
X-109.39 Y-11.46
X-109.536 Y-11.497
X-109.65 Y-11.594
X-109.724 Y-11.724
X-109.73 Y-11.752
X-109.724 Y-11.9
X-109.648 Y-12.027
X-109.52 Y-12.102
X-109.484 Y-12.104
X-109.449 Y-12.093
X-109.421 Y-12.071
X-109.402 Y-12.04
X-109.239 Y-11.6
X-109.232 Y-11.565
X-109.238 Y-11.531
X-109.256 Y-11.5
X-109.283 Y-11.478
X-109.316 Y-11.466
X-109.438 Y-11.451
X-109.523 Y-11.442
X-109.598 Y-11.438
X-109.743 Y-11.475
X-109.854 Y-11.576
X-109.883 Y-11.641
X-109.909 Y-11.765
X-109.881 Y-11.89
X-109.804 Y-11.991
X-109.692 Y-12.052
X-109.655 Y-12.054
X-109.619 Y-12.042
X-109.59 Y-12.018
X-109.572 Y-11.985
X-109.442 Y-11.571
X-109.437 Y-11.537
X-109.444 Y-11.503
X-109.463 Y-11.474
X-109.49 Y-11.453
X-109.523 Y-11.442
X-109.61 Y-11.433
X-109.692 Y-11.426
X-109.777 Y-11.427
X-109.851 Y-11.432
X-109.985 Y-11.501
X-110.07 Y-11.625
X-110.101 Y-11.771
X-110.1 Y-11.775
X-110.056 Y-11.894
X-109.966 Y-11.984
X-109.847 Y-12.028
X-109.809 Y-12.025
X-109.774 Y-12.008
X-109.749 Y-11.979
X-109.737 Y-11.942
X-109.681 Y-11.54
X-109.682 Y-11.507
X-109.694 Y-11.476
X-109.715 Y-11.45
X-109.744 Y-11.433
X-109.777 Y-11.427
X-109.861 Y-11.429
X-109.946 Y-11.434
X-109.992 Y-11.439
X-110.066 Y-11.452
X-110.193 Y-11.532
X-110.269 Y-11.661
X-110.271 Y-11.679
X-110.26 Y-11.793
X-110.207 Y-11.895
X-110.12 Y-11.969
X-110.011 Y-12.005
X-109.979 Y-12.003
X-109.949 Y-11.991
X-109.925 Y-11.97
X-109.908 Y-11.942
X-109.902 Y-11.91
X-109.884 Y-11.543
X-109.888 Y-11.51
X-109.904 Y-11.48
X-109.928 Y-11.456
X-109.959 Y-11.442
X-109.992 Y-11.439
X-110.031 Y-11.444
X-110.2 Y-11.468
X-110.273 Y-11.485
X-110.334 Y-11.528
X-110.421 Y-11.65
X-110.422 Y-11.658
X-110.41 Y-11.783
X-110.348 Y-11.892
X-110.247 Y-11.967
X-110.124 Y-11.993
X-110.09 Y-11.986
X-110.061 Y-11.968
X-110.04 Y-11.941
X-110.028 Y-11.908
X-110.029 Y-11.874
X-110.091 Y-11.549
X-110.104 Y-11.514
X-110.129 Y-11.487
X-110.163 Y-11.471
X-110.2 Y-11.468
X-110.284 Y-11.483
X-110.407 Y-11.517
X-110.443 Y-11.529
X-110.5 Y-11.578
X-110.537 Y-11.643
Y-11.778
X-110.475 Y-11.897
X-110.365 Y-11.976
X-110.232 Y-11.996
X-110.196 Y-11.984
X-110.167 Y-11.96
X-110.149 Y-11.926
X-110.145 Y-11.889
X-110.155 Y-11.852
X-110.294 Y-11.57
X-110.314 Y-11.543
X-110.341 Y-11.524
X-110.374 Y-11.515
X-110.407 Y-11.517
X-110.538 Y-11.554
X-110.573 Y-11.569
X-110.625 Y-11.622
X-110.659 Y-11.689
X-110.65 Y-11.814
X-110.586 Y-11.923
X-110.482 Y-11.992
X-110.357 Y-12.008
X-110.32 Y-11.995
X-110.291 Y-11.97
X-110.274 Y-11.935
X-110.271 Y-11.897
X-110.283 Y-11.86
X-110.427 Y-11.602
X-110.447 Y-11.577
X-110.475 Y-11.56
X-110.506 Y-11.552
X-110.538 Y-11.554
X-110.623 Y-11.585
X-110.664 Y-11.602
X-110.71 Y-11.623
X-110.801 Y-11.742
X-110.877 Y-11.795
X-110.867 Y-11.827
X-110.789 Y-11.95
X-110.662 Y-12.021
X-110.517 Y-12.025
X-110.487 Y-12.012
X-110.462 Y-11.989
X-110.447 Y-11.959
X-110.442 Y-11.926
X-110.449 Y-11.893
X-110.537 Y-11.661
X-110.557 Y-11.628
X-110.589 Y-11.605
X-110.626 Y-11.596
X-110.664 Y-11.602
X-110.707 Y-11.619
X-110.839 Y-11.686
X-110.877 Y-11.71
X-111.13 Y-11.897
X-111.181 Y-11.94
X-111.215 Y-11.972
X-111.3 Y-12.06
X-111.344 Y-12.109
X-111.351 Y-12.119
X-111.356 Y-12.13
X-111.359 Y-12.14
X-111.361 Y-12.151
X-111.362 Y-12.162
Y-12.172
X-111.361 Y-12.183
X-111.359 Y-12.193
X-111.351 Y-12.213
X-111.338 Y-12.233
X-111.324 Y-12.252
X-111.312 Y-12.264
X-111.3 Y-12.272
X-111.289 Y-12.278
X-111.27 Y-12.284
X-111.252 Y-12.286
X-111.233 Y-12.285
X-111.215 Y-12.28
X-111.209 Y-12.278
X-111.13 Y-12.233
X-111.046 Y-12.193
X-110.85 Y-12.109
X-110.792 Y-12.086
X-110.513 Y-12.024
X-110.284 Y-12
X-110.2 Y-11.993
X-110.115
X-110.031 Y-12.003
X-109.946 Y-12.014
X-109.777 Y-12.038
X-109.692 Y-12.052
X-109.438 Y-12.126
X-109.354 Y-12.153
X-109.269 Y-12.195
X-109.132 Y-12.278
X-109.061 Y-12.322
X-109.024 Y-12.335
X-108.985 Y-12.332
X-108.95 Y-12.315
X-108.924 Y-12.286
X-108.905 Y-12.252 Z-0.982
X-108.889 Y-12.224 Z-0.961
X-108.878 Y-12.206 Z-0.928
X-108.874 Y-12.199 Z-0.89
G0 Z2
X-111.838 Y-12.775
Z1.11
G1 Z1.01 F1000
Z-0.99
G3 X-112.212 Y-12.084 I-3.376 J-1.376
G1 X-112.23 Y-12.059
X-112.25 Y-12.024
X-112.271 Y-11.982
X-112.288 Y-11.94
X-112.301 Y-11.893
X-112.312 Y-11.858
X-112.415 Y-11.748
X-112.551 Y-11.686
X-112.699 Y-11.663
X-112.849 Y-11.671
X-112.995 Y-11.706
X-113.058 Y-11.732
X-113.151 Y-11.793
X-113.216 Y-11.884
X-113.242 Y-11.993
X-113.247 Y-12.109
X-113.253 Y-12.276
X-113.247 Y-12.309
X-113.231 Y-12.338
X-113.206 Y-12.361
X-113.175 Y-12.373
X-113.142 Y-12.375
X-113.11 Y-12.366
X-112.942 Y-12.286
X-112.355 Y-12.006
X-112.327 Y-11.987
X-112.308 Y-11.959
X-112.299 Y-11.927
X-112.301 Y-11.893
X-112.311 Y-11.855
X-112.315 Y-11.833
X-112.32 Y-11.771
X-112.326 Y-11.696
X-112.41 Y-11.572
X-112.538 Y-11.494
X-112.682 Y-11.453
X-112.832 Y-11.443
X-112.981 Y-11.462
X-113.02 Y-11.475
X-113.122 Y-11.532
X-113.194 Y-11.625
X-113.225 Y-11.738
X-113.241 Y-11.969
X-113.242 Y-11.993
X-113.236 Y-12.03
X-113.216 Y-12.062
X-113.186 Y-12.085
X-113.149 Y-12.094
X-113.112 Y-12.09
X-113.024 Y-12.062
X-112.389 Y-11.859
X-112.355 Y-11.84
X-112.33 Y-11.809
X-112.32 Y-11.771
X-112.316 Y-11.686
X-112.312 Y-11.631
X-112.309 Y-11.556
X-112.366 Y-11.417
X-112.478 Y-11.318
X-112.614 Y-11.255
X-112.761 Y-11.223
X-112.911 Y-11.22
X-112.968 Y-11.232
X-113.084 Y-11.284
X-113.169 Y-11.379
X-113.206 Y-11.501
X-113.225 Y-11.738
X-113.22 Y-11.773
X-113.203 Y-11.804
X-113.177 Y-11.827
X-113.144 Y-11.84
X-113.108
X-113.042 Y-11.829
X-112.394 Y-11.718
X-112.364 Y-11.707
X-112.339 Y-11.688
X-112.321 Y-11.662
X-112.312 Y-11.631
X-112.295 Y-11.433
X-112.292 Y-11.358
X-112.349 Y-11.219
X-112.458 Y-11.116
X-112.59 Y-11.045
X-112.734 Y-11.003
X-112.883 Y-10.995
X-112.935 Y-11.004
X-113.056 Y-11.052
X-113.145 Y-11.147
X-113.185 Y-11.27
X-113.204 Y-11.471
X-113.206 Y-11.501
X-113.202 Y-11.536
X-113.186 Y-11.566
X-113.161 Y-11.59
X-113.129 Y-11.603
X-113.094 Y-11.605
X-113.031 Y-11.598
X-112.382 Y-11.519
X-112.351 Y-11.51
X-112.324 Y-11.491
X-112.305 Y-11.464
X-112.295 Y-11.433
X-112.275 Y-11.218
X-112.271 Y-11.143
X-112.334 Y-11.007
X-112.442 Y-10.902
X-112.572 Y-10.828
X-112.715 Y-10.783
X-112.865 Y-10.774
X-112.907 Y-10.78
X-113.025 Y-10.825
X-113.114 Y-10.915
X-113.158 Y-11.033
X-113.166 Y-11.095
X-113.176 Y-11.18
X-113.185 Y-11.27
X-113.181 Y-11.305
X-113.166 Y-11.336
X-113.141 Y-11.36
X-113.109 Y-11.374
X-113.075 Y-11.376
X-113.012 Y-11.37
X-112.364 Y-11.304
X-112.332 Y-11.295
X-112.304 Y-11.276
X-112.285 Y-11.25
X-112.275 Y-11.218
X-112.271 Y-11.18
X-112.255 Y-11.049
X-112.249 Y-10.974
X-112.288 Y-10.829
X-112.384 Y-10.714
X-112.507 Y-10.628
X-112.647 Y-10.573
X-112.795 Y-10.551
X-112.847 Y-10.555
X-112.972 Y-10.594
X-113.068 Y-10.682
X-113.118 Y-10.803
X-113.154 Y-11.011
X-113.158 Y-11.033
X-113.156 Y-11.066
X-113.143 Y-11.098
X-113.12 Y-11.123
X-113.09 Y-11.139
X-113.057 Y-11.144
X-112.998 Y-11.143
X-112.352 Y-11.133
X-112.318 Y-11.126
X-112.288 Y-11.108
X-112.267 Y-11.081
X-112.255 Y-11.049
X-112.239 Y-10.926
X-112.227 Y-10.842
X-112.219 Y-10.767
X-112.257 Y-10.622
X-112.35 Y-10.505
X-112.472 Y-10.417
X-112.609 Y-10.357
X-112.757 Y-10.334
X-112.804 Y-10.337
X-112.93 Y-10.374
X-113.028 Y-10.462
X-113.08 Y-10.583
X-113.118 Y-10.803
X-113.117 Y-10.836
X-113.105 Y-10.868
X-113.083 Y-10.893
X-113.053 Y-10.91
X-113.02 Y-10.916
X-112.973 Y-10.917
X-112.326 Y-10.922
X-112.292 Y-10.917
X-112.262 Y-10.9
X-112.24 Y-10.874
X-112.227 Y-10.842
X-112.191 Y-10.626
X-112.182 Y-10.552
X-112.224 Y-10.408
X-112.317 Y-10.29
X-112.438 Y-10.201
X-112.575 Y-10.141
X-112.723 Y-10.118
X-112.754 Y-10.12
X-112.875 Y-10.155
X-112.972 Y-10.236
X-113.026 Y-10.35
X-113.076 Y-10.563
X-113.08 Y-10.583
X-113.079 Y-10.617
X-113.067 Y-10.648
X-113.045 Y-10.674
X-113.015 Y-10.691
X-112.982 Y-10.697
X-112.938 Y-10.698
X-112.291 Y-10.706
X-112.257 Y-10.7
X-112.227 Y-10.684
X-112.204 Y-10.658
X-112.191 Y-10.626
X-112.185 Y-10.588
X-112.157 Y-10.457
X-112.145 Y-10.383
X-112.162 Y-10.234
X-112.243 Y-10.108
X-112.356 Y-10.009
X-112.489 Y-9.94
X-112.635 Y-9.905
X-112.681
X-112.809 Y-9.934
X-112.913 Y-10.014
X-112.972 Y-10.132
X-113.022 Y-10.335
X-113.026 Y-10.35
X-113.027 Y-10.384
X-113.017 Y-10.415
X-112.997 Y-10.442
X-112.969 Y-10.461
X-112.937 Y-10.469
X-112.904 Y-10.473
X-112.264 Y-10.533
X-112.228 Y-10.53
X-112.196 Y-10.515
X-112.172 Y-10.49
X-112.157 Y-10.457
X-112.113 Y-10.25
X-112.101 Y-10.204
X-112.085 Y-10.131
X-112.128 Y-9.987
X-112.22 Y-9.868
X-112.339 Y-9.777
X-112.476 Y-9.715
X-112.623 Y-9.689
X-112.637 Y-9.69
X-112.746 Y-9.72
X-112.836 Y-9.787
X-112.895 Y-9.883
X-112.938 Y-9.997
X-112.972 Y-10.132
X-112.973 Y-10.167
X-112.962 Y-10.2
X-112.941 Y-10.227
X-112.912 Y-10.246
X-112.878 Y-10.253
X-112.853
X-112.2 Y-10.275
X-112.167 Y-10.271
X-112.138 Y-10.257
X-112.115 Y-10.233
X-112.101 Y-10.204
X-112.053 Y-10.022
X-112.037 Y-9.949
X-112.066 Y-9.802
X-112.15 Y-9.678
X-112.264 Y-9.58
X-112.397 Y-9.511
X-112.544 Y-9.479
X-112.655 Y-9.504
X-112.749 Y-9.569
X-112.811 Y-9.665
X-112.842 Y-9.744
X-112.895 Y-9.883
X-112.901 Y-9.918
X-112.893 Y-9.953
X-112.874 Y-9.983
X-112.846 Y-10.004
X-112.812 Y-10.015
X-112.802 Y-10.016
X-112.16 Y-10.092
X-112.125 Y-10.09
X-112.094 Y-10.076
X-112.068 Y-10.053
X-112.053 Y-10.022
X-112 Y-9.828
X-111.983 Y-9.755
X-112.006 Y-9.607
X-112.085 Y-9.48
X-112.196 Y-9.378
X-112.327 Y-9.305
X-112.387 Y-9.292
X-112.526 Y-9.293
X-112.649 Y-9.356
X-112.731 Y-9.468
X-112.811 Y-9.665
X-112.817 Y-9.7
X-112.811 Y-9.734
X-112.793 Y-9.765
X-112.766 Y-9.787
X-112.733 Y-9.798
X-112.11 Y-9.896
X-112.075
X-112.042 Y-9.883
X-112.016 Y-9.859
X-112 Y-9.828
X-111.976 Y-9.744
X-111.943 Y-9.659
X-111.917 Y-9.589
X-111.922 Y-9.439
X-111.991 Y-9.306
X-112.094 Y-9.196
X-112.223 Y-9.12
X-112.281 Y-9.103
X-112.421 Y-9.096
X-112.549 Y-9.153
X-112.637 Y-9.263
X-112.705 Y-9.406
X-112.731 Y-9.468
X-112.737 Y-9.503
X-112.732 Y-9.537
X-112.714 Y-9.567
X-112.688 Y-9.59
X-112.655 Y-9.602
X-112.049 Y-9.71
X-112.018 Y-9.711
X-111.988 Y-9.702
X-111.962 Y-9.684
X-111.943 Y-9.659
X-111.873 Y-9.52
X-111.858 Y-9.49
X-111.827 Y-9.422
Y-9.272
X-111.888 Y-9.135
X-111.986 Y-9.021
X-112.111 Y-8.939
X-112.168 Y-8.919
X-112.302 Y-8.905
X-112.429 Y-8.95
X-112.524 Y-9.047
X-112.569 Y-9.121
X-112.585 Y-9.152
X-112.637 Y-9.263
X-112.645 Y-9.296
X-112.641 Y-9.331
X-112.625 Y-9.362
X-112.6 Y-9.386
X-112.568 Y-9.4
X-111.968 Y-9.539
X-111.936 Y-9.541
X-111.905 Y-9.533
X-111.878 Y-9.515
X-111.858 Y-9.49
X-111.772 Y-9.321
X-111.741 Y-9.253
X-111.729 Y-9.103
X-111.784 Y-8.964
X-111.877 Y-8.846
X-112 Y-8.76
X-112.048 Y-8.742
X-112.185 Y-8.723
X-112.316 Y-8.767
X-112.413 Y-8.865
X-112.524 Y-9.047
X-112.535 Y-9.08
X-112.534 Y-9.116
X-112.521 Y-9.149
X-112.497 Y-9.175
X-112.466 Y-9.191
X-111.888 Y-9.368
X-111.855 Y-9.373
X-111.822 Y-9.365
X-111.793 Y-9.348
X-111.772 Y-9.321
X-111.723 Y-9.226
X-111.68 Y-9.152
X-111.642 Y-9.088
X-111.625 Y-8.939
X-111.674 Y-8.797
X-111.763 Y-8.676
X-111.883 Y-8.587
X-111.916 Y-8.573
X-112.043 Y-8.549
X-112.169 Y-8.582
X-112.269 Y-8.665
X-112.319 Y-8.73
X-112.399 Y-8.843
X-112.413 Y-8.865
X-112.425 Y-8.899
X-112.424 Y-8.934
X-112.411 Y-8.967
X-112.387 Y-8.993
X-112.356 Y-9.01
X-111.791 Y-9.189
X-111.76 Y-9.193
X-111.73 Y-9.188
X-111.702 Y-9.174
X-111.68 Y-9.152
X-111.638 Y-9.091
X-111.574 Y-9.012
X-111.53 Y-8.951
X-111.501 Y-8.804
X-111.538 Y-8.659
X-111.618 Y-8.532
X-111.731 Y-8.433
X-111.759 Y-8.42
X-111.882 Y-8.388
X-112.007 Y-8.41
X-112.112 Y-8.482
X-112.146 Y-8.518
X-112.184 Y-8.561
X-112.254 Y-8.646
X-112.269 Y-8.665
X-112.284 Y-8.697
X-112.287 Y-8.733
X-112.278 Y-8.767
X-112.256 Y-8.796
X-112.226 Y-8.816
X-111.688 Y-9.039
X-111.658 Y-9.046
X-111.627 Y-9.044
X-111.598 Y-9.032
X-111.574 Y-9.012
X-111.438 Y-8.845
X-111.393 Y-8.785
X-111.375 Y-8.636
X-111.416 Y-8.492
X-111.495 Y-8.364
X-111.609 Y-8.267
X-111.615 Y-8.264
X-111.728 Y-8.236
X-111.843 Y-8.253
X-111.943 Y-8.313
X-111.976 Y-8.342
X-112.027 Y-8.392
X-112.112 Y-8.482
X-112.131 Y-8.514
X-112.137 Y-8.551
X-112.129 Y-8.588
X-112.108 Y-8.619
X-112.077 Y-8.64
X-111.553 Y-8.871
X-111.523 Y-8.879
X-111.491 Y-8.877
X-111.462 Y-8.865
X-111.438 Y-8.845
X-111.341 Y-8.73
X-111.318 Y-8.704
X-111.272 Y-8.644
X-111.243 Y-8.497
X-111.275 Y-8.35
X-111.349 Y-8.22
X-111.388 Y-8.185
X-111.512 Y-8.117
X-111.652 Y-8.113
X-111.779 Y-8.174
X-111.892 Y-8.266
X-111.943 Y-8.313
X-111.965 Y-8.343
X-111.974 Y-8.38
X-111.968 Y-8.417
X-111.95 Y-8.45
X-111.92 Y-8.473
X-111.438 Y-8.725
X-111.407 Y-8.735
X-111.374
X-111.344 Y-8.724
X-111.318 Y-8.704
X-111.3 Y-8.682
X-111.257 Y-8.646
X-111.215 Y-8.615
X-111.185 Y-8.593
X-111.145 Y-8.529
X-111.1 Y-8.386
X-111.119 Y-8.237
X-111.19 Y-8.105
X-111.219 Y-8.076
X-111.341 Y-8.001
X-111.483 Y-7.99
X-111.614 Y-8.046
X-111.723 Y-8.128
X-111.779 Y-8.174
X-111.802 Y-8.203
X-111.813 Y-8.239
X-111.81 Y-8.276
X-111.793 Y-8.309
X-111.765 Y-8.335
X-111.313 Y-8.611
X-111.281 Y-8.624
X-111.247 Y-8.625
X-111.215 Y-8.615
X-111.13 Y-8.567
X-111.118 Y-8.561
X-111.053 Y-8.524
X-111.005 Y-8.466
X-110.941 Y-8.331
X-110.944 Y-8.181
X-110.995 Y-8.039
X-111.024 Y-8.002
X-111.129 Y-7.916
X-111.26 Y-7.885
X-111.393 Y-7.915
X-111.506 Y-7.97
X-111.53 Y-7.984
X-111.614 Y-8.046
X-111.636 Y-8.072
X-111.649 Y-8.104
X-111.65 Y-8.139
X-111.639 Y-8.171
X-111.617 Y-8.199
X-111.227 Y-8.545
X-111.194 Y-8.565
X-111.156 Y-8.57
X-111.118 Y-8.561
X-110.95 Y-8.477
X-110.885 Y-8.44
X-110.792 Y-8.322
X-110.764 Y-8.175
X-110.785 Y-8.026
X-110.853 Y-7.892
X-110.859 Y-7.887
X-110.961 Y-7.818
X-111.081 Y-7.797
X-111.2 Y-7.825
X-111.393 Y-7.915
X-111.421 Y-7.937
X-111.44 Y-7.969
X-111.446 Y-8.005
X-111.439 Y-8.04
X-111.419 Y-8.071
X-111.065 Y-8.454
X-111.041 Y-8.473
X-111.011 Y-8.484
X-110.98 Y-8.485
X-110.95 Y-8.477
X-110.781 Y-8.392
X-110.715 Y-8.357
X-110.618 Y-8.243
X-110.585 Y-8.096
X-110.601 Y-7.947
X-110.624 Y-7.897
X-110.717 Y-7.784
X-110.852 Y-7.729
X-110.997 Y-7.743
X-111.13 Y-7.792
X-111.2 Y-7.825
X-111.229 Y-7.847
X-111.248 Y-7.877
X-111.255 Y-7.913
X-111.249 Y-7.948
X-111.231 Y-7.979
X-110.897 Y-8.366
X-110.873 Y-8.386
X-110.843 Y-8.398
X-110.812 Y-8.4
X-110.781 Y-8.392
X-110.707 Y-8.357
X-110.665 Y-8.342
X-110.623 Y-8.329
X-110.551 Y-8.308
X-110.445 Y-8.202
X-110.399 Y-8.059
X-110.41 Y-7.909
X-110.429 Y-7.859
X-110.505 Y-7.746
X-110.623 Y-7.678
X-110.759 Y-7.67
X-110.792 Y-7.676
X-110.834 Y-7.685
X-110.997 Y-7.743
X-111.029 Y-7.763
X-111.051 Y-7.794
X-111.06 Y-7.829
X-111.056 Y-7.866
X-111.038 Y-7.899
X-110.719 Y-8.294
X-110.692 Y-8.317
X-110.658 Y-8.33
X-110.623 Y-8.329
X-110.454 Y-8.291
X-110.381 Y-8.271
X-110.268 Y-8.173
X-110.215 Y-8.033
X-110.216 Y-7.883
X-110.227 Y-7.846
X-110.3 Y-7.723
X-110.422 Y-7.648
X-110.564 Y-7.637
X-110.759 Y-7.67
X-110.795 Y-7.685
X-110.822 Y-7.712
X-110.837 Y-7.747
X-110.838 Y-7.786
X-110.824 Y-7.821
X-110.556 Y-8.246
X-110.529 Y-8.275
X-110.493 Y-8.291
X-110.454
X-110.284 Y-8.254
X-110.212 Y-8.234
X-110.151 Y-8.19
X-110.061 Y-8.071
X-110.025 Y-7.925
X-110.032 Y-7.876
