%
(n-051-055)
(T1  D=1 CR=0 - ZMIN=-2 - flat end mill)
G90 G94
G17
G21
G28 G91 Z0
G90

(Clear 15)
M9
T1 M6
S5000 M3
G54
M8
G0 X-115.173 Y-13.204
Z12
Z2
Z0.5
G3 X-114.688 Y-13.328 Z0.29 I0.242 J-0.062 F333.3
X-115.173 Y-13.204 Z0.079 I-0.242 J0.062
X-114.688 Y-13.328 Z-0.131 I0.242 J-0.062
X-115.173 Y-13.204 Z-0.342 I-0.242 J0.062
X-114.688 Y-13.328 Z-0.552 I0.242 J-0.062
X-115.173 Y-13.204 Z-0.763 I-0.242 J0.062
X-114.962 Y-13.514 Z-0.876 I0.242 J-0.062
X-114.681 Y-13.266 Z-0.99 I0.031 J0.248
X-115.181 I-0.25
X-114.681 I0.25
G1 X-114.643 Y-13.121 F1000
X-114.656 Y-13.047
X-114.693 Y-12.982
X-114.8 Y-12.876
X-114.945 Y-12.837
X-115.093 Y-12.858
X-115.224 Y-12.932
X-115.321 Y-13.047
X-115.373 Y-13.187
X-115.375 Y-13.337
X-115.327 Y-13.479
X-115.235 Y-13.598
X-115.109 Y-13.68
X-114.964 Y-13.716
X-114.814 Y-13.702
X-114.678 Y-13.639
X-114.569 Y-13.536
X-114.491 Y-13.408
X-114.441 Y-13.266
X-114.43 Y-13.117
X-114.465 Y-12.971
X-114.536 Y-12.839
X-114.645 Y-12.735
X-114.775 Y-12.662
X-114.922 Y-12.628
X-115.072 Y-12.636
X-115.216 Y-12.677
X-115.345 Y-12.752
X-115.452 Y-12.858
X-115.534 Y-12.984
X-115.545 Y-13.015
X-115.56 Y-13.084
X-115.559 Y-13.155
X-115.542 Y-13.223
X-115.451 Y-13.46
X-115.42 Y-13.545
X-115.408 Y-13.591
X-115.385 Y-13.663
X-115.297 Y-13.784
X-115.174 Y-13.87
X-115.031 Y-13.916
X-114.882 Y-13.927
X-114.733 Y-13.904
X-114.596 Y-13.844
X-114.474 Y-13.757
X-114.37 Y-13.645
X-114.336 Y-13.575
X-114.321 Y-13.497
X-114.327 Y-13.419
X-114.356 Y-13.291
X-114.404 Y-13.08
X-114.407 Y-13.07
X-114.423 Y-13.038
X-114.636 Y-12.642
X-114.65 Y-12.616
X-114.693 Y-12.554
X-114.817 Y-12.469
X-114.961 Y-12.429
X-115.111 Y-12.425
X-115.258 Y-12.456
X-115.395 Y-12.516
X-115.519 Y-12.601
X-115.628 Y-12.705
X-115.67 Y-12.803
X-115.676 Y-12.909
X-115.644 Y-13.01
X-115.586 Y-13.122
X-115.548 Y-13.207
X-115.542 Y-13.223
X-115.522 Y-13.253
X-115.493 Y-13.274
X-115.458 Y-13.284
X-115.423 Y-13.28
X-115.39 Y-13.264
X-115.2 Y-13.124
X-114.68 Y-12.74
X-114.656 Y-12.715
X-114.642 Y-12.683
X-114.64 Y-12.649
X-114.65 Y-12.616
X-114.684 Y-12.562
X-114.706 Y-12.531
X-114.789 Y-12.421
X-114.815 Y-12.389
X-114.864 Y-12.332
X-114.993 Y-12.256
X-115.141 Y-12.23
X-115.29 Y-12.241
X-115.434 Y-12.283
X-115.569 Y-12.35
X-115.691 Y-12.436
X-115.716 Y-12.464
X-115.777 Y-12.571
X-115.79 Y-12.693
X-115.752 Y-12.811
X-115.699 Y-12.906
X-115.644 Y-13.01
X-115.623 Y-13.037
X-115.594 Y-13.055
X-115.56 Y-13.061
X-115.526 Y-13.056
X-115.496 Y-13.04
X-115.333 Y-12.914
X-114.834 Y-12.526
X-114.809 Y-12.498
X-114.796 Y-12.461
X-114.798 Y-12.423
X-114.815 Y-12.389
X-114.967 Y-12.193
X-115.016 Y-12.137
X-115.148 Y-12.065
X-115.296 Y-12.044
X-115.445 Y-12.06
X-115.589 Y-12.103
X-115.723 Y-12.171
X-115.838 Y-12.266
X-115.866 Y-12.303
X-115.92 Y-12.427
X-115.915 Y-12.563
X-115.85 Y-12.683
X-115.783 Y-12.757
X-115.752 Y-12.811
X-115.73 Y-12.836
X-115.7 Y-12.853
X-115.667 Y-12.858
X-115.633 Y-12.853
X-115.604 Y-12.836
X-115.475 Y-12.731
X-114.985 Y-12.329
X-114.961 Y-12.3
X-114.949 Y-12.265
X-114.951 Y-12.227
X-114.967 Y-12.193
X-115.022 Y-12.123
X-115.034 Y-12.109
X-115.052 Y-12.09
X-115.229 Y-11.962
X-115.354 Y-11.88
X-115.504 Y-11.87
X-115.652 Y-11.894
X-115.791 Y-11.949
X-115.917 Y-12.031
X-116.021 Y-12.14
X-116.04 Y-12.173
X-116.077 Y-12.295
X-116.061 Y-12.422
X-115.993 Y-12.53
X-115.91 Y-12.616
X-115.85 Y-12.683
X-115.823 Y-12.702
X-115.791 Y-12.712
X-115.758 Y-12.711
X-115.727 Y-12.7
X-115.701 Y-12.678
X-115.618 Y-12.581
X-115.214 Y-12.106
X-115.197 Y-12.078
X-115.19 Y-12.047
X-115.193 Y-12.015
X-115.207 Y-11.986
X-115.229 Y-11.962
X-115.276 Y-11.928
X-115.383 Y-11.855
X-115.445 Y-11.814
X-115.574 Y-11.738
X-115.723 Y-11.726
X-115.87 Y-11.758
X-116.005 Y-11.824
X-116.122 Y-11.917
X-116.213 Y-12.037
X-116.22 Y-12.053
X-116.241 Y-12.18
X-116.206 Y-12.305
X-116.122 Y-12.403
X-116.076 Y-12.447
X-115.993 Y-12.53
X-115.965 Y-12.549
X-115.933 Y-12.558
X-115.899 Y-12.555
X-115.869 Y-12.541
X-115.844 Y-12.518
X-115.798 Y-12.457
X-115.423 Y-11.956
X-115.406 Y-11.92
X-115.404 Y-11.88
X-115.418 Y-11.843
X-115.445 Y-11.814
X-115.53 Y-11.758
X-115.614 Y-11.712
X-115.699 Y-11.667
X-115.835 Y-11.603
X-115.985 Y-11.609
X-116.126 Y-11.658
X-116.251 Y-11.741
X-116.352 Y-11.852
X-116.38 Y-11.905
X-116.413 Y-12.045
X-116.377 Y-12.184
X-116.281 Y-12.291
X-116.177 Y-12.362
X-116.122 Y-12.403
X-116.092 Y-12.417
X-116.059 Y-12.421
X-116.026 Y-12.414
X-115.998 Y-12.396
X-115.977 Y-12.37
X-115.968 Y-12.352
X-115.661 Y-11.802
X-115.649 Y-11.765
X-115.652 Y-11.727
X-115.67 Y-11.692
X-115.699 Y-11.667
X-115.868 Y-11.577
X-115.91 Y-11.555
X-115.931 Y-11.547
X-115.999 Y-11.529
X-116.146 Y-11.5
X-116.291 Y-11.539
X-116.419 Y-11.616
X-116.52 Y-11.728
X-116.55 Y-11.784
X-116.586 Y-11.925
X-116.551 Y-12.067
X-116.453 Y-12.175
X-116.281 Y-12.291
X-116.248 Y-12.304
X-116.212 Y-12.305
X-116.178 Y-12.293
X-116.151 Y-12.27
X-116.133 Y-12.239
X-115.933 Y-11.658
X-115.927 Y-11.626
X-115.932 Y-11.594
X-115.947 Y-11.566
X-115.97 Y-11.543
X-115.999 Y-11.529
X-116.253 Y-11.465
X-116.326 Y-11.45
X-116.476 Y-11.464
X-116.606 Y-11.538
X-116.705 Y-11.651
X-116.769 Y-11.786
X-116.77 Y-11.794
X-116.758 Y-11.928
X-116.688 Y-12.043
X-116.575 Y-12.116
X-116.542 Y-12.121
X-116.509 Y-12.114
X-116.479 Y-12.097
X-116.458 Y-12.07
X-116.194 Y-11.611
X-116.182 Y-11.577
X-116.183 Y-11.541
X-116.196 Y-11.507
X-116.221 Y-11.481
X-116.253 Y-11.465
X-116.378 Y-11.433
X-116.46 Y-11.418
X-116.507 Y-11.413
X-116.582 Y-11.408
X-116.728 Y-11.441
X-116.848 Y-11.531
X-116.932 Y-11.655
X-116.944 Y-11.702
X-116.952 Y-11.819
X-116.914 Y-11.93
X-116.836 Y-12.018
X-116.731 Y-12.07
X-116.595 Y-12.109
X-116.575 Y-12.116
X-116.539 Y-12.121
X-116.504 Y-12.112
X-116.474 Y-12.091
X-116.453 Y-12.061
X-116.445 Y-12.025
X-116.421 Y-11.516
X-116.426 Y-11.48
X-116.444 Y-11.448
X-116.472 Y-11.425
X-116.507 Y-11.413
X-116.76 Y-11.385
X-116.835 Y-11.382
X-116.976 Y-11.435
X-117.08 Y-11.543
X-117.141 Y-11.68
X-117.143 Y-11.708
X-117.121 Y-11.845
X-117.04 Y-11.958
X-116.916 Y-12.023
X-116.761 Y-12.062
X-116.731 Y-12.07
X-116.692 Y-12.071
X-116.657 Y-12.057
X-116.628 Y-12.032
X-116.612 Y-11.997
X-116.61 Y-11.959
X-116.675 Y-11.471
X-116.684 Y-11.44
X-116.703 Y-11.414
X-116.729 Y-11.395
X-116.76 Y-11.385
X-116.968 Y-11.365
X-117.043 Y-11.368
X-117.182 Y-11.424
X-117.283 Y-11.535
X-117.33 Y-11.677
Y-11.696
X-117.295 Y-11.837
X-117.197 Y-11.944
X-117.061 Y-11.993
X-117.052 Y-11.994
X-116.968 Y-12.01
X-116.916 Y-12.023
X-116.877
X-116.841 Y-12.009
X-116.813 Y-11.981
X-116.798 Y-11.946
X-116.797 Y-11.906
X-116.883 Y-11.445
X-116.893 Y-11.416
X-116.912 Y-11.391
X-116.938 Y-11.374
X-116.968 Y-11.365
X-117.052 Y-11.364
X-117.184 Y-11.371
X-117.258 Y-11.379
X-117.395 Y-11.439
X-117.485 Y-11.559
X-117.517 Y-11.706
X-117.516 Y-11.717
X-117.468 Y-11.842
X-117.371 Y-11.934
X-117.244 Y-11.975
X-117.061 Y-11.993
X-117.023 Y-11.988
X-116.989 Y-11.969
X-116.965 Y-11.939
X-116.955 Y-11.902
X-116.958 Y-11.864
X-117.086 Y-11.442
X-117.1 Y-11.413
X-117.123 Y-11.39
X-117.152 Y-11.376
X-117.184 Y-11.371
X-117.306 Y-11.379
X-117.437 Y-11.399
X-117.511 Y-11.413
X-117.628 Y-11.507
X-117.69 Y-11.644
Y-11.663
X-117.67 Y-11.778
X-117.607 Y-11.876
X-117.511 Y-11.942
X-117.397 Y-11.967
X-117.306 Y-11.969
X-117.244 Y-11.975
X-117.21 Y-11.97
X-117.179 Y-11.955
X-117.155 Y-11.93
X-117.142 Y-11.898
X-117.14 Y-11.863
X-117.149 Y-11.83
X-117.336 Y-11.453
X-117.354 Y-11.429
X-117.378 Y-11.41
X-117.407 Y-11.4
X-117.437 Y-11.399
X-117.56 Y-11.417
X-117.635 Y-11.433
X-117.707 Y-11.454
X-117.764 Y-11.502
X-117.844 Y-11.629
X-117.845 Y-11.644
X-117.828 Y-11.763
X-117.767 Y-11.867
X-117.669 Y-11.937
X-117.552 Y-11.964
X-117.397 Y-11.967
X-117.362 Y-11.961
X-117.332 Y-11.942
X-117.31 Y-11.914
X-117.299 Y-11.881
X-117.301 Y-11.845
X-117.315 Y-11.813
X-117.533 Y-11.477
X-117.56 Y-11.449
X-117.596 Y-11.434
X-117.635 Y-11.433
X-117.729 Y-11.456
X-117.814 Y-11.481
X-117.88 Y-11.506
X-117.932 Y-11.56
X-117.965 Y-11.627
X-117.959 Y-11.76
X-117.894 Y-11.876
X-117.785 Y-11.952
X-117.654 Y-11.971
X-117.56 Y-11.964
X-117.552
X-117.515 Y-11.957
X-117.484 Y-11.936
X-117.462 Y-11.906
X-117.453 Y-11.87
X-117.458 Y-11.833
X-117.476 Y-11.8
X-117.712 Y-11.514
X-117.741 Y-11.49
X-117.776 Y-11.478
X-117.814 Y-11.481
X-117.898 Y-11.509
X-117.983 Y-11.55
X-118.016 Y-11.568
X-118.062 Y-11.627
X-118.073 Y-11.759
X-118.02 Y-11.879
X-117.916 Y-11.96
X-117.786 Y-11.982
X-117.654 Y-11.971
X-117.617 Y-11.96
X-117.588 Y-11.935
X-117.57 Y-11.901
X-117.566 Y-11.862
X-117.577 Y-11.825
X-117.601 Y-11.795
X-117.878 Y-11.565
X-117.91 Y-11.547
X-117.947 Y-11.542
X-117.983 Y-11.55
X-118.068 Y-11.592
X-118.133 Y-11.628
X-118.174 Y-11.691
X-118.172 Y-11.815
X-118.111 Y-11.922
X-118.006 Y-11.988
X-117.882 Y-11.997
X-117.814 Y-11.984
X-117.786 Y-11.982
X-117.749 Y-11.97
X-117.72 Y-11.946
X-117.702 Y-11.912
X-117.697 Y-11.874
X-117.708 Y-11.837
X-117.731 Y-11.807
X-117.961 Y-11.607
X-117.994 Y-11.588
X-118.031 Y-11.583
X-118.068 Y-11.592
X-118.152 Y-11.634
X-118.178 Y-11.649
X-118.24 Y-11.69
X-118.277 Y-11.755
X-118.266 Y-11.867
X-118.204 Y-11.961
X-118.106 Y-12.016
X-117.994 Y-12.02
X-117.882 Y-11.997
X-117.847 Y-11.982
X-117.82 Y-11.954
X-117.805 Y-11.919
Y-11.881
X-117.819 Y-11.845
X-117.845 Y-11.818
X-118.072 Y-11.655
X-118.106 Y-11.64
X-118.143 Y-11.637
X-118.178 Y-11.649
X-118.266 Y-11.701
X-118.296 Y-11.72
X-118.327 Y-11.741
X-118.368 Y-11.804
X-118.355 Y-11.908
X-118.296 Y-11.995
X-118.203 Y-12.043
X-118.098
X-118.068 Y-12.035
X-117.994 Y-12.02
X-117.962 Y-12.006
X-117.937 Y-11.982
X-117.922 Y-11.951
X-117.918 Y-11.917
X-117.926 Y-11.883
X-117.945 Y-11.854
X-117.973 Y-11.833
X-118.202 Y-11.718
X-118.233 Y-11.708
X-118.266 Y-11.709
X-118.296 Y-11.72
X-118.38 Y-11.771
X-118.411 Y-11.792
X-118.452 Y-11.855
X-118.439 Y-11.951
X-118.382 Y-12.029
X-118.295 Y-12.072
X-118.198 Y-12.069
X-118.152 Y-12.056
X-118.098 Y-12.043
X-118.067 Y-12.027
X-118.044 Y-12.002
X-118.031 Y-11.969
Y-11.935
G3 X-118.38 Y-11.771 I-0.232 J-0.042
G1 X-118.491 Y-11.837
X-118.522 Y-11.858
X-118.545 Y-11.929
X-118.519 Y-12.015
X-118.458 Y-12.08
X-118.374 Y-12.11
X-118.285 Y-12.098
X-118.237 Y-12.08
X-118.198 Y-12.069
X-118.166 Y-12.051
X-118.145 Y-12.021
X-118.138 Y-11.985
X-118.147 Y-11.949
G3 X-118.491 Y-11.837 I-0.226 J-0.112
G1 X-118.551 Y-11.872
X-118.583 Y-11.892
X-118.622 Y-11.956
X-118.601 Y-12.048
X-118.537 Y-12.118
X-118.448 Y-12.147
X-118.356 Y-12.13
X-118.312 Y-12.109
X-118.285 Y-12.098
X-118.26 Y-12.082
X-118.243 Y-12.057
X-118.236 Y-12.028
X-118.24 Y-11.998
G3 X-118.551 Y-11.872 I-0.209 J-0.069
G1 X-118.575 Y-11.886
X-118.617 Y-11.908
X-118.66 Y-11.923
X-118.695 Y-11.935
X-118.718 Y-12.006
X-118.688 Y-12.097
X-118.619 Y-12.163
X-118.527 Y-12.188
X-118.434 Y-12.168
X-118.356 Y-12.13
X-118.333 Y-12.11
X-118.322 Y-12.082
X-118.324 Y-12.052
X-118.34 Y-12.026
G3 X-118.66 Y-11.923 I-0.26 J-0.258
G1 X-118.706 Y-11.932
X-118.743 Y-11.941
X-118.768 Y-11.969
X-118.801 Y-12.037
X-118.774 Y-12.131
X-118.706 Y-12.201
X-118.612 Y-12.229
X-118.516 Y-12.209
X-118.434 Y-12.168
X-118.412 Y-12.149
X-118.4 Y-12.123
X-118.398 Y-12.095
X-118.408 Y-12.068
G3 X-118.706 Y-11.932 I-0.25 J-0.154
G1 X-118.745 Y-11.94
X-118.791 Y-11.942
X-118.828 Y-11.947
X-118.88 Y-12.001
X-118.903 Y-12.073
X-118.868 Y-12.176
X-118.786 Y-12.249
X-118.679 Y-12.271
X-118.575 Y-12.238
X-118.516 Y-12.209
X-118.494 Y-12.19
X-118.481 Y-12.164
X-118.479 Y-12.135
X-118.489 Y-12.108
G3 X-118.791 Y-11.942 I-0.294 J-0.179
G1 X-118.829 Y-11.945
X-118.868 Y-11.942
X-118.905 Y-11.941
X-118.937 Y-11.961
X-118.988 Y-12.016
X-119.011 Y-12.087
X-118.974 Y-12.208
X-118.881 Y-12.294
X-118.757 Y-12.319
X-118.638 Y-12.278
X-118.613 Y-12.252
X-118.599 Y-12.219
X-118.598 Y-12.183
X-118.609 Y-12.149
X-118.632 Y-12.122
X-118.813 Y-11.966
X-118.838 Y-11.95
X-118.868 Y-11.942
X-118.899 Y-11.94
X-118.914 Y-11.937
X-118.96 Y-11.924
X-118.997 Y-11.916
X-119.062 Y-11.952
X-119.108 Y-12.012
X-119.132 Y-12.083
X-119.141 Y-12.232
X-119.067 Y-12.326
X-118.96 Y-12.381
X-118.841 Y-12.386
X-118.73 Y-12.341
X-118.638 Y-12.278
X-118.611 Y-12.249
X-118.598 Y-12.212
X-118.6 Y-12.173
X-118.616 Y-12.138
X-118.645 Y-12.112
X-118.96 Y-11.924
X-118.998 Y-11.913
X-119.024 Y-11.902
X-119.059 Y-11.888
X-119.133 Y-11.901
X-119.195 Y-11.943
X-119.289 Y-12.06
X-119.322 Y-12.206
X-119.284 Y-12.351
X-119.27 Y-12.369
X-119.179 Y-12.449
X-119.064 Y-12.486
X-118.944 Y-12.474
X-118.838 Y-12.417
X-118.829 Y-12.409
X-118.73 Y-12.341
X-118.706 Y-12.316
X-118.693 Y-12.285
X-118.69 Y-12.25
X-118.7 Y-12.217
X-118.72 Y-12.189
X-118.998 Y-11.92
X-119.024 Y-11.902
X-119.083 Y-11.876
X-119.119 Y-11.855
X-119.152 Y-11.837
X-119.227 Y-11.845
X-119.367 Y-11.897
X-119.463 Y-12.012
X-119.508 Y-12.155
Y-12.305
X-119.455 Y-12.445
X-119.361 Y-12.562
X-119.343 Y-12.574
X-119.21 Y-12.624
X-119.069 Y-12.606
X-118.951 Y-12.526
X-118.914 Y-12.484
X-118.873 Y-12.447
X-118.838 Y-12.417
X-118.816 Y-12.388
X-118.806 Y-12.355
X-118.808 Y-12.319
X-118.822 Y-12.287
X-119.099 Y-11.877
X-119.119 Y-11.855
X-119.167 Y-11.82
X-119.195 Y-11.793
X-119.222 Y-11.768
X-119.295 Y-11.75
X-119.444 Y-11.767
X-119.57 Y-11.85
X-119.66 Y-11.97
X-119.712 Y-12.11
X-119.725 Y-12.26
X-119.703 Y-12.408
X-119.649 Y-12.548
X-119.642 Y-12.557
X-119.58 Y-12.619
X-119.502 Y-12.661
X-119.415 Y-12.678
X-119.146 Y-12.69
X-119.136 Y-12.689
X-119.125 Y-12.687
X-119.115 Y-12.684
X-119.104 Y-12.679
X-119.07 Y-12.657
X-119.057 Y-12.644
X-118.951 Y-12.526
X-118.934 Y-12.495
X-118.928 Y-12.46
X-118.935 Y-12.425
X-119.174 Y-11.824
X-119.195 Y-11.793
X-119.217 Y-11.771
X-119.252 Y-11.733
X-119.303 Y-11.678
X-119.371 Y-11.646
X-119.521 Y-11.635
X-119.66 Y-11.69
X-119.776 Y-11.786
X-119.864 Y-11.907
X-119.922 Y-12.045
X-119.949 Y-12.193
X-119.947 Y-12.343
X-119.933 Y-12.421
X-119.881 Y-12.543
X-119.78 Y-12.631
X-119.652 Y-12.667
X-119.415 Y-12.678
X-119.379 Y-12.671
X-119.347 Y-12.652
X-119.325 Y-12.623
X-119.314 Y-12.587
X-119.307 Y-12.512
X-119.238 Y-11.795
X-119.24 Y-11.762
X-119.252 Y-11.733
X-119.283 Y-11.686
X-119.307 Y-11.644
X-119.327 Y-11.602
X-119.343 Y-11.568
X-119.405 Y-11.525
X-119.548 Y-11.482
X-119.697 Y-11.503
X-119.833 Y-11.566
X-119.85 Y-11.579
X-119.903 Y-11.635
X-119.941 Y-11.702
X-119.961 Y-11.776
X-120.041 Y-12.409
X-120.046 Y-12.447
X-120.052 Y-12.493
X-120.053 Y-12.502
X-120.048 Y-12.553
X-120.027 Y-12.599
X-119.992 Y-12.637
X-119.955 Y-12.648
X-119.916 Y-12.644
X-119.882 Y-12.625
X-119.857 Y-12.595
X-119.623 Y-12.012
X-119.567 Y-11.871
X-119.56 Y-11.836
X-119.566 Y-11.801
X-119.583 Y-11.77
X-119.61 Y-11.747
X-119.644 Y-11.736
X-119.679
X-119.712 Y-11.749
X-119.739 Y-11.773
G3 X-120.052 Y-12.493 I1.249 J-0.971
G1 X-120.057 Y-12.531
Y-12.542
X-120.056 Y-12.552
X-120.054 Y-12.563
X-120.05 Y-12.573
X-120.046 Y-12.584
X-120.039 Y-12.594
X-120.031 Y-12.605
X-120.013 Y-12.62
X-119.992 Y-12.637
X-119.982 Y-12.643
X-119.971 Y-12.647
X-119.961 Y-12.65
X-119.95 Y-12.652
X-119.652 Y-12.667
X-119.619 Y-12.661
X-119.589 Y-12.646
X-119.567 Y-12.621
X-119.554 Y-12.59
X-119.499 Y-12.366
X-119.326 Y-11.655
X-119.323 Y-11.628
X-119.327 Y-11.602
X-119.337 Y-11.575
X-119.353 Y-11.517
X-119.374 Y-11.445
X-119.427 Y-11.393
X-119.56 Y-11.324
X-119.619 Y-11.32
X-119.731 Y-11.334
X-119.829 Y-11.388
X-119.901 Y-11.474
X-119.936 Y-11.581
X-119.961 Y-11.776
X-119.957 Y-11.813
X-119.941 Y-11.846
X-119.914 Y-11.871
X-119.879 Y-11.884
X-119.842
X-119.808 Y-11.87
X-119.399 Y-11.614
X-119.372 Y-11.588
X-119.356 Y-11.555
X-119.353 Y-11.517
X-119.366 Y-11.433
X-119.367 Y-11.391
Y-11.353
X-119.4 Y-11.286
X-119.507 Y-11.18
X-119.534 Y-11.172
X-119.663 Y-11.164
X-119.783 Y-11.209
X-119.873 Y-11.301
X-119.916 Y-11.422
X-119.936 Y-11.581
X-119.933 Y-11.617
X-119.917 Y-11.65
X-119.891 Y-11.674
X-119.858 Y-11.688
X-119.822 Y-11.689
X-119.788 Y-11.678
X-119.417 Y-11.47
X-119.392 Y-11.45
X-119.374 Y-11.422
X-119.367 Y-11.391
X-119.365 Y-11.349
X-119.358 Y-11.302
X-119.352 Y-11.227
X-119.373 Y-11.155
X-119.42 Y-11.097
X-119.54 Y-11.008
X-119.555 Y-11.006
X-119.673 Y-11.012
X-119.78 Y-11.064
X-119.858 Y-11.152
X-119.896 Y-11.265
X-119.916 Y-11.422
X-119.913 Y-11.456
X-119.899 Y-11.487
X-119.876 Y-11.512
X-119.845 Y-11.527
X-119.812 Y-11.531
X-119.779 Y-11.524
X-119.419 Y-11.378
X-119.391 Y-11.36
X-119.37 Y-11.334
X-119.358 Y-11.302
X-119.353 Y-11.264
X-119.337 Y-11.162
X-119.328 Y-11.088
X-119.349 Y-11.016
X-119.389 Y-10.952
X-119.505 Y-10.858
X-119.522 Y-10.855
X-119.644 Y-10.856
X-119.755 Y-10.906
X-119.837 Y-10.996
X-119.876 Y-11.111
X-119.896 Y-11.265
X-119.893 Y-11.298
X-119.88 Y-11.328
X-119.857 Y-11.353
X-119.828 Y-11.369
X-119.795 Y-11.374
X-119.762 Y-11.368
X-119.401 Y-11.237
X-119.371 Y-11.22
X-119.349 Y-11.194
X-119.337 Y-11.162
X-119.312 Y-11.011
X-119.303 Y-10.936
X-119.323 Y-10.864
X-119.363 Y-10.8
X-119.479 Y-10.705
X-119.499 Y-10.701
X-119.622 Y-10.702
X-119.734 Y-10.751
X-119.817 Y-10.842
X-119.857 Y-10.957
X-119.876 Y-11.111
X-119.872 Y-11.151
X-119.853 Y-11.186
X-119.821 Y-11.21
X-119.783 Y-11.22
X-119.743 Y-11.215
X-119.377 Y-11.085
X-119.347 Y-11.069
X-119.324 Y-11.043
X-119.312 Y-11.011
X-119.284 Y-10.842
X-119.276 Y-10.767
X-119.3 Y-10.696
X-119.345 Y-10.636
X-119.465 Y-10.546
X-119.487 Y-10.542
X-119.608 Y-10.546
X-119.717 Y-10.596
X-119.798 Y-10.686
X-119.837 Y-10.8
X-119.857 Y-10.957
X-119.854 Y-10.991
X-119.84 Y-11.022
X-119.817 Y-11.046
X-119.787 Y-11.062
X-119.754 Y-11.067
X-119.721 Y-11.06
X-119.346 Y-10.915
X-119.317 Y-10.898
X-119.296 Y-10.873
X-119.284 Y-10.842
X-119.256 Y-10.673
X-119.248 Y-10.598
X-119.277 Y-10.529
X-119.372 Y-10.413
X-119.512 Y-10.359
X-119.522
X-119.658 Y-10.395
X-119.763 Y-10.489
X-119.814 Y-10.621
X-119.837 Y-10.8
X-119.834 Y-10.834
X-119.82 Y-10.865
X-119.797 Y-10.89
X-119.766 Y-10.905
X-119.732 Y-10.909
X-119.699 Y-10.902
X-119.317 Y-10.746
X-119.289 Y-10.729
X-119.268 Y-10.703
X-119.256 Y-10.673
X-119.235 Y-10.542
X-119.226 Y-10.467
X-119.242 Y-10.394
X-119.321 Y-10.267
X-119.452 Y-10.194
X-119.466 Y-10.193
X-119.581 Y-10.204
X-119.682 Y-10.257
X-119.756 Y-10.344
X-119.792 Y-10.453
X-119.814 Y-10.621
X-119.81 Y-10.659
X-119.792 Y-10.693
X-119.762 Y-10.718
X-119.725 Y-10.729
X-119.687 Y-10.726
X-119.306 Y-10.619
X-119.273 Y-10.602
X-119.248 Y-10.576
X-119.235 Y-10.542
X-119.201 Y-10.335
X-119.197 Y-10.298
X-119.217 Y-10.225
X-119.254 Y-10.16
X-119.359 Y-10.054
X-119.388 Y-10.045
X-119.517 Y-10.035
X-119.638 Y-10.081
X-119.729 Y-10.173
X-119.772 Y-10.294
X-119.792 Y-10.453
X-119.79 Y-10.487
X-119.776 Y-10.517
X-119.754 Y-10.542
X-119.724 Y-10.558
X-119.691 Y-10.562
X-119.658 Y-10.556
X-119.264 Y-10.409
X-119.235 Y-10.392
X-119.213 Y-10.366
X-119.201 Y-10.335
X-119.179 Y-10.204
X-119.171 Y-10.13
X-119.188 Y-10.057
X-119.228 Y-9.993
X-119.34 Y-9.894
X-119.376 Y-9.884
X-119.503 Y-9.878
X-119.621 Y-9.924
X-119.71 Y-10.016
X-119.752 Y-10.136
X-119.772 Y-10.294
X-119.768 Y-10.333
X-119.75 Y-10.367
X-119.72 Y-10.392
X-119.682 Y-10.403
X-119.644 Y-10.399
X-119.249 Y-10.28
X-119.217 Y-10.264
X-119.193 Y-10.237
X-119.179 Y-10.204
X-119.152 Y-10.035
X-119.143 Y-9.961
X-119.165 Y-9.889
X-119.25 Y-9.765
X-119.384 Y-9.698
X-119.412 Y-9.697
X-119.524 Y-9.711
X-119.623 Y-9.765
X-119.694 Y-9.851
X-119.729 Y-9.958
X-119.752 Y-10.136
X-119.748 Y-10.175
X-119.729 Y-10.209
X-119.698 Y-10.234
X-119.661 Y-10.244
X-119.622 Y-10.24
X-119.219 Y-10.111
X-119.188 Y-10.094
X-119.165 Y-10.068
X-119.152 Y-10.035
X-119.124 Y-9.866
X-119.116 Y-9.792
X-119.164 Y-9.65
X-119.277 Y-9.551
X-119.421 Y-9.509
X-119.431
X-119.56 Y-9.55
X-119.658 Y-9.643
X-119.705 Y-9.771
X-119.729 Y-9.958
X-119.725 Y-9.997
X-119.707 Y-10.031
X-119.677 Y-10.055
X-119.64 Y-10.067
X-119.601 Y-10.063
X-119.194 Y-9.942
X-119.162 Y-9.926
X-119.137 Y-9.9
X-119.124 Y-9.866
X-119.096 Y-9.697
X-119.088 Y-9.623
X-119.107 Y-9.55
X-119.188 Y-9.424
X-119.315 Y-9.344
X-119.346 Y-9.34
X-119.463 Y-9.347
X-119.569 Y-9.399
X-119.646 Y-9.488
X-119.684 Y-9.599
X-119.705 Y-9.771
X-119.702 Y-9.808
X-119.684 Y-9.842
X-119.655 Y-9.867
X-119.62 Y-9.879
X-119.582 Y-9.877
X-119.17 Y-9.775
X-119.136 Y-9.759
X-119.11 Y-9.732
X-119.096 Y-9.697
X-119.069 Y-9.528
X-119.06 Y-9.454
X-119.1 Y-9.309
X-119.206 Y-9.203
X-119.347 Y-9.152
X-119.368
X-119.505 Y-9.188
X-119.61 Y-9.283
X-119.66 Y-9.414
X-119.684 Y-9.599
X-119.68 Y-9.637
X-119.663 Y-9.67
X-119.634 Y-9.695
X-119.599 Y-9.708
X-119.561 Y-9.706
X-119.143 Y-9.606
X-119.109 Y-9.59
X-119.083 Y-9.563
X-119.069 Y-9.528
X-119.035 Y-9.321
X-119.026 Y-9.247
X-119.079 Y-9.106
X-119.192 Y-9.008
X-119.336 Y-8.967
X-119.352 Y-8.968
X-119.485 Y-9.006
X-119.588 Y-9.1
X-119.637 Y-9.23
X-119.66 Y-9.414
X-119.656 Y-9.453
X-119.638 Y-9.487
X-119.608 Y-9.511
X-119.572 Y-9.523
X-119.533 Y-9.52
X-119.105 Y-9.398
X-119.073 Y-9.382
X-119.048 Y-9.355
X-119.035 Y-9.321
X-119.007 Y-9.152
X-118.998 Y-9.078
X-119.019 Y-9.006
X-119.101 Y-8.881
X-119.229 Y-8.801
X-119.271 Y-8.795
X-119.39 Y-8.8
X-119.497 Y-8.852
X-119.576 Y-8.941
X-119.614 Y-9.054
X-119.637 Y-9.23
X-119.633 Y-9.267
X-119.615 Y-9.301
X-119.587 Y-9.325
X-119.551 Y-9.338
X-119.513 Y-9.336
X-119.081 Y-9.23
X-119.047 Y-9.214
X-119.021 Y-9.187
X-119.007 Y-9.152
X-118.979 Y-8.984
X-118.968 Y-8.909
X-119.01 Y-8.766
X-119.117 Y-8.66
X-119.256 Y-8.605
X-119.29
X-119.43 Y-8.638
X-119.538 Y-8.733
X-119.59 Y-8.867
X-119.614 Y-9.054
X-119.61 Y-9.091
X-119.593 Y-9.124
X-119.565 Y-9.149
X-119.529 Y-9.162
X-119.492 Y-9.16
X-119.053 Y-9.057
X-119.02 Y-9.042
X-118.994 Y-9.017
X-118.979 Y-8.984
X-118.968 Y-8.931
X-118.926 Y-8.842
X-118.912 Y-8.807
X-118.914 Y-8.732
X-118.956 Y-8.589
X-119.061 Y-8.481
X-119.199 Y-8.423
X-119.243 Y-8.419
X-119.356 Y-8.431
X-119.457 Y-8.484
X-119.531 Y-8.572
X-119.567 Y-8.68
X-119.59 Y-8.867
X-119.587 Y-8.903
X-119.571 Y-8.936
X-119.544 Y-8.961
X-119.511 Y-8.974
X-119.474 Y-8.975
X-118.998 Y-8.895
X-118.969 Y-8.885
X-118.944 Y-8.867
X-118.926 Y-8.842
X-118.888 Y-8.762
X-118.88 Y-8.751
X-118.835 Y-8.691
X-118.825 Y-8.617
X-118.85 Y-8.469
X-118.938 Y-8.348
X-119.061 Y-8.262
X-119.205 Y-8.219
X-119.251 Y-8.22
X-119.387 Y-8.256
X-119.491 Y-8.35
X-119.541 Y-8.482
X-119.567 Y-8.68
X-119.564 Y-8.713
X-119.551 Y-8.744
X-119.528 Y-8.768
X-119.499 Y-8.784
X-119.466 Y-8.789
X-118.954 Y-8.784
X-118.926 Y-8.78
X-118.901 Y-8.769
X-118.88 Y-8.751
X-118.829 Y-8.69
X-118.813 Y-8.678
X-118.753 Y-8.633
X-118.721 Y-8.565
X-118.707 Y-8.416
X-118.761 Y-8.276
X-118.854 Y-8.158
X-118.975 Y-8.071
X-119.117 Y-8.02
X-119.266 Y-8.009
X-119.284 Y-8.013
X-119.394 Y-8.063
X-119.475 Y-8.153
X-119.514 Y-8.267
X-119.51 Y-8.305
X-119.493 Y-8.338
X-119.464 Y-8.363
X-118.916 Y-8.68
X-118.882 Y-8.692
X-118.846 Y-8.691
X-118.813 Y-8.678
X-118.698 Y-8.601
X-118.638 Y-8.556
X-118.599 Y-8.492
X-118.563 Y-8.347
X-118.591 Y-8.199
X-118.662 Y-8.067
X-118.763 Y-7.956
X-118.834 Y-7.907
X-118.888 Y-7.877
X-118.946 Y-7.858
X-119.007 Y-7.852
X-119.045 Y-7.861
X-119.077 Y-7.883
X-119.097 Y-7.916
X-119.104 Y-7.955
X-119.095 Y-7.993
X-119.093 Y-7.996
X-118.842 Y-8.557
X-118.823 Y-8.585
X-118.796 Y-8.606
X-118.763 Y-8.616
X-118.729 Y-8.614
X-118.698 Y-8.601
X-118.647 Y-8.567
X-118.635 Y-8.561
X-118.602 Y-8.551
X-118.532 Y-8.525
X-118.478 Y-8.473
X-118.409 Y-8.34
X-118.403 Y-8.19
X-118.44 Y-8.045
X-118.458 Y-8.012
X-118.525 Y-7.927
X-118.617 Y-7.871
X-118.723 Y-7.852
X-119.252
X-119.299
X-119.337
X-119.349 Y-7.853
X-119.389 Y-7.861
X-119.426 Y-7.88
X-119.457 Y-7.907
X-119.473 Y-7.95
X-119.475 Y-7.996
X-119.462 Y-8.04
G3 X-119.22 Y-7.929 I0.121 J0.055
X-119.337 Y-7.852 I-0.121 J-0.055
G1 X-119.379 Y-7.853
X-119.389 Y-7.855
X-119.4 Y-7.859
X-119.411 Y-7.864
X-119.421 Y-7.871
X-119.438 Y-7.885
X-119.457 Y-7.907
X-119.463 Y-7.917
X-119.468 Y-7.928
X-119.471 Y-7.938
X-119.473 Y-7.949
X-119.541 Y-8.482
X-119.539 Y-8.516
X-119.525 Y-8.547
X-119.501 Y-8.571
X-119.471 Y-8.587
X-119.437 Y-8.591
X-119.387 Y-8.588
X-118.602 Y-8.551
X-118.575 Y-8.543
X-118.491 Y-8.53
X-118.416 Y-8.519
X-118.352 Y-8.48
X-118.256 Y-8.365
X-118.216 Y-8.22
X-118.22 Y-8.07
X-118.224 Y-8.059
X-118.286 Y-7.951
X-118.387 Y-7.878
X-118.509 Y-7.852
X-118.723
X-118.761 Y-7.861
X-118.793 Y-7.884
X-118.814 Y-7.917
X-118.819 Y-7.956
X-118.81 Y-7.994
X-118.585 Y-8.473
X-118.562 Y-8.504
X-118.529 Y-8.524
X-118.491 Y-8.53
X-118.406 Y-8.524
X-118.359
X-118.285 Y-8.52
X-118.215 Y-8.492
X-118.1 Y-8.396
X-118.034 Y-8.261
X-118.015 Y-8.113
X-118.019 Y-8.094
X-118.075 Y-7.969
X-118.18 Y-7.883
X-118.313 Y-7.852
X-118.509
X-118.545 Y-7.86
X-118.575 Y-7.88
X-118.596 Y-7.91
X-118.605 Y-7.945
X-118.601 Y-7.982
X-118.451 Y-8.454
X-118.438 Y-8.482
X-118.417 Y-8.504
X-118.39 Y-8.519
X-118.359 Y-8.524
X-118.152
X-118.077 Y-8.52
X-117.947 Y-8.447
X-117.861 Y-8.324
X-117.82 Y-8.179
X-117.823 Y-8.134
X-117.85 Y-8.025
X-117.917 Y-7.933
X-118.012 Y-7.873
X-118.122 Y-7.852
X-118.313
X-118.349 Y-7.86
X-118.38 Y-7.881
X-118.401 Y-7.911
X-118.41 Y-7.947
X-118.404 Y-7.984
X-118.243 Y-8.457
X-118.229 Y-8.483
X-118.208 Y-8.505
X-118.182 Y-8.519
X-118.152 Y-8.524
X-117.983
X-117.908 Y-8.52
X-117.769 Y-8.465
X-117.674 Y-8.349
X-117.63 Y-8.205
X-117.631 Y-8.147
X-117.655 Y-8.034
X-117.72 Y-7.938
X-117.817 Y-7.874
X-117.931 Y-7.852
X-118.122
X-118.158 Y-7.86
X-118.188 Y-7.879
X-118.209 Y-7.909
X-118.219 Y-7.944
X-118.215 Y-7.98
X-118.075 Y-8.453
X-118.062 Y-8.481
X-118.041 Y-8.503
X-118.014 Y-8.518
X-117.983 Y-8.524
X-117.767
X-117.692 Y-8.52
X-117.559 Y-8.452
X-117.472 Y-8.33
X-117.435 Y-8.184
X-117.439 Y-8.13
X-117.486 Y-7.989
X-117.594 Y-7.888
X-117.738 Y-7.852
X-117.931
X-117.967 Y-7.86
X-117.998 Y-7.881
X-118.019 Y-7.911
X-118.027 Y-7.948
X-118.022 Y-7.984
X-117.858 Y-8.457
X-117.844 Y-8.483
X-117.823 Y-8.505
X-117.797 Y-8.519
X-117.767 Y-8.524
X-117.56
X-117.485 Y-8.52
X-117.356 Y-8.444
X-117.273 Y-8.319
X-117.243 Y-8.172
X-117.246 Y-8.129
X-117.293 Y-7.989
X-117.402 Y-7.888
X-117.545 Y-7.852
X-117.738
X-117.775 Y-7.86
X-117.806 Y-7.882
X-117.827 Y-7.913
X-117.834 Y-7.95
X-117.828 Y-7.987
X-117.65 Y-8.46
X-117.63 Y-8.493
X-117.598 Y-8.515
X-117.56 Y-8.524
X-117.391
X-117.316 Y-8.52
X-117.247 Y-8.491
X-117.132 Y-8.394
X-117.066 Y-8.26
X-117.051 Y-8.11
X-117.056 Y-8.086
X-117.114 Y-7.965
X-117.218 Y-7.882
X-117.349 Y-7.852
X-117.545
X-117.581 Y-7.86
X-117.611 Y-7.88
X-117.633 Y-7.91
X-117.641 Y-7.946
X-117.637 Y-7.983
X-117.482 Y-8.455
X-117.469 Y-8.482
X-117.447 Y-8.504
X-117.421 Y-8.519
X-117.391 Y-8.524
X-117.175
X-117.1 Y-8.52
X-116.972 Y-8.443
X-116.89 Y-8.317
X-116.853 Y-8.172
X-116.857 Y-8.128
X-116.905 Y-7.988
X-117.013 Y-7.888
X-117.156 Y-7.852
X-117.349
X-117.386 Y-7.86
X-117.416 Y-7.881
X-117.437 Y-7.912
X-117.445 Y-7.949
X-117.439 Y-7.986
X-117.265 Y-8.459
X-117.245 Y-8.492
X-117.213 Y-8.515
X-117.175 Y-8.524
X-117.006
X-116.931 Y-8.52
X-116.794 Y-8.459
X-116.702 Y-8.34
X-116.663 Y-8.196
X-116.667 Y-8.046
X-116.668 Y-8.043
X-116.732 Y-7.943
X-116.831 Y-7.875
X-116.947 Y-7.852
X-117.156
X-117.192 Y-7.86
X-117.222 Y-7.88
X-117.243 Y-7.91
X-117.252 Y-7.946
X-117.248 Y-7.982
X-117.098 Y-8.455
X-117.084 Y-8.482
X-117.063 Y-8.504
X-117.036 Y-8.518
X-117.006 Y-8.524
X-116.799
X-116.724 Y-8.52
X-116.59 Y-8.452
X-116.504 Y-8.329
X-116.459 Y-8.186
X-116.461 Y-8.137
X-116.488 Y-8.027
X-116.554 Y-7.934
X-116.65 Y-7.873
X-116.761 Y-7.852
X-116.947
X-116.983 Y-7.86
X-117.014 Y-7.88
X-117.035 Y-7.91
X-117.044 Y-7.945
X-117.039 Y-7.982
X-116.89 Y-8.454
X-116.877 Y-8.482
X-116.856 Y-8.504
X-116.829 Y-8.518
X-116.799 Y-8.524
X-116.583
X-116.545 Y-8.522
X-116.407 Y-8.464
X-116.312 Y-8.348
X-116.269 Y-8.205
X-116.27 Y-8.146
X-116.294 Y-8.033
X-116.359 Y-7.938
X-116.456 Y-7.874
X-116.57 Y-7.852
X-116.761
X-116.798 Y-7.86
X-116.829 Y-7.882
X-116.85 Y-7.913
X-116.858 Y-7.95
X-116.851 Y-7.987
X-116.673 Y-8.46
X-116.652 Y-8.493
X-116.621 Y-8.515
X-116.583 Y-8.524
X-116.414
X-116.339 Y-8.52
X-116.203 Y-8.458
X-116.113 Y-8.337
X-116.074 Y-8.192
X-116.077 Y-8.135
X-116.105 Y-8.026
X-116.171 Y-7.934
X-116.266 Y-7.873
X-116.377 Y-7.852
X-116.57
X-116.606 Y-7.86
X-116.636 Y-7.88
X-116.657 Y-7.911
X-116.666 Y-7.946
X-116.661 Y-7.983
X-116.505 Y-8.456
X-116.491 Y-8.483
X-116.47 Y-8.504
X-116.443 Y-8.519
X-116.414 Y-8.524
X-116.206
X-116.131 Y-8.52
X-116 Y-8.449
X-115.914 Y-8.326
X-115.88 Y-8.18
X-115.884 Y-8.127
X-115.932 Y-7.988
X-116.04 Y-7.888
X-116.183 Y-7.852
X-116.377
X-116.413 Y-7.86
X-116.444 Y-7.881
X-116.465 Y-7.912
X-116.473 Y-7.949
X-116.467 Y-7.986
X-116.297 Y-8.458
X-116.277 Y-8.492
X-116.245 Y-8.515
X-116.206 Y-8.524
X-116.037
X-115.962 Y-8.52
X-115.892 Y-8.493
X-115.775 Y-8.4
X-115.706 Y-8.267
X-115.689 Y-8.118
X-115.694 Y-8.092
X-115.751 Y-7.969
X-115.856 Y-7.883
X-115.988 Y-7.852
X-116.183
X-116.219 Y-7.86
X-116.249 Y-7.88
X-116.27 Y-7.91
X-116.279 Y-7.945
X-116.275 Y-7.981
X-116.129 Y-8.454
X-116.116 Y-8.481
X-116.094 Y-8.504
X-116.067 Y-8.518
X-116.037 Y-8.524
X-115.821
X-115.747 Y-8.52
X-115.616 Y-8.447
X-115.532 Y-8.323
X-115.493 Y-8.178
X-115.496 Y-8.132
X-115.525 Y-8.023
X-115.591 Y-7.933
X-115.686 Y-7.873
X-115.796 Y-7.852
X-115.988
X-116.025 Y-7.86
X-116.055 Y-7.881
X-116.076 Y-7.912
X-116.085 Y-7.948
X-116.079 Y-7.985
X-115.912 Y-8.458
X-115.892 Y-8.492
X-115.86 Y-8.515
X-115.821 Y-8.524
X-115.652
X-115.577 Y-8.52
X-115.438 Y-8.464
X-115.345 Y-8.347
X-115.302 Y-8.203
X-115.304 Y-8.145
X-115.328 Y-8.032
X-115.394 Y-7.937
X-115.49 Y-7.874
X-115.604 Y-7.852
X-115.796
X-115.831 Y-7.86
X-115.862 Y-7.88
X-115.883 Y-7.909
X-115.892 Y-7.945
X-115.888 Y-7.981
X-115.744 Y-8.453
X-115.731 Y-8.481
X-115.71 Y-8.504
X-115.683 Y-8.518
X-115.652 Y-8.524
X-115.445
X-115.37 Y-8.52
X-115.235 Y-8.456
X-115.146 Y-8.335
X-115.108 Y-8.19
X-115.111 Y-8.134
X-115.139 Y-8.024
X-115.205 Y-7.933
X-115.3 Y-7.873
X-115.411 Y-7.852
X-115.604
X-115.64 Y-7.86
X-115.67 Y-7.881
X-115.691 Y-7.911
X-115.7 Y-7.947
X-115.695 Y-7.983
X-115.536 Y-8.456
X-115.522 Y-8.483
X-115.501 Y-8.504
X-115.475 Y-8.519
X-115.445 Y-8.524
X-115.229
X-115.154 Y-8.52
X-115.027 Y-8.442
X-114.944 Y-8.316
X-114.913 Y-8.17
X-114.918 Y-8.12
X-114.968 Y-7.984
X-115.075 Y-7.887
X-115.216 Y-7.852
X-115.411
X-115.448 Y-7.86
X-115.479 Y-7.882
X-115.5 Y-7.913
X-115.507 Y-7.95
X-115.501 Y-7.988
X-115.319 Y-8.46
X-115.298 Y-8.493
X-115.267 Y-8.515
X-115.229 Y-8.524
X-115.06
X-114.985 Y-8.52
X-114.848 Y-8.459
X-114.759 Y-8.338
X-114.721 Y-8.193
X-114.727 Y-8.043
X-114.792 Y-7.942
X-114.89 Y-7.875
X-115.006 Y-7.852
X-115.216
X-115.252 Y-7.86
X-115.283 Y-7.88
X-115.304 Y-7.911
X-115.313 Y-7.947
X-115.308 Y-7.983
X-115.151 Y-8.456
X-115.138 Y-8.483
X-115.117 Y-8.504
X-115.09 Y-8.519
X-115.06 Y-8.524
X-114.853
X-114.806
X-114.768
X-114.729 Y-8.522
X-114.724 Y-8.515
X-114.71 Y-8.482
X-114.708 Y-8.446
X-114.72 Y-8.412
X-114.742 Y-8.384
X-114.773 Y-8.366
X-115.333 Y-8.161
X-115.436 Y-8.123
X-115.472 Y-8.117
X-115.508 Y-8.124
X-115.539 Y-8.144
X-115.561 Y-8.174
X-115.57 Y-8.21
X-115.566 Y-8.246
X-115.549 Y-8.279
X-115.522 Y-8.303
G3 X-114.768 Y-8.524 I0.809 J1.36
G1 X-114.736
X-114.726 Y-8.522
X-114.715 Y-8.519
X-114.705 Y-8.514
X-114.69 Y-8.505
X-114.672 Y-8.489
X-114.661 Y-8.462
X-114.662 Y-8.434
X-114.674 Y-8.408
X-114.697 Y-8.389
X-114.727 Y-8.381
X-114.756 Y-8.387
X-114.78 Y-8.405
X-114.795 Y-8.431
X-114.796 Y-8.461
X-114.785 Y-8.489
X-114.763 Y-8.509
X-114.734 Y-8.518
X-114.705 Y-8.514
X-114.694 Y-8.508
X-114.684 Y-8.501
X-114.672 Y-8.489
X-114.663 Y-8.477
X-114.657 Y-8.466
X-114.653 Y-8.456
X-114.646 Y-8.434
X-114.644 Y-8.424
X-114.643 Y-8.392
Y-8.008
Y-7.97
X-114.645 Y-7.949
X-114.653 Y-7.923
X-114.657 Y-7.911
X-114.675 Y-7.886
X-114.701 Y-7.871
X-114.731 Y-7.867
X-114.76 Y-7.876
X-114.783 Y-7.895
X-114.797 Y-7.922
X-114.798 Y-7.953
X-114.787 Y-7.981
X-114.781 Y-7.991
X-114.759 Y-8.013
X-114.729 Y-8.024
X-114.697 Y-8.021
X-114.669 Y-8.006
X-114.651 Y-7.98
X-114.645 Y-7.949
X-114.647 Y-7.938
X-114.65 Y-7.928
X-114.659 Y-7.907
X-114.665 Y-7.896
X-114.673 Y-7.885
X-114.684 Y-7.875
X-114.694 Y-7.867
X-114.705 Y-7.862
X-114.715 Y-7.857
X-114.726 Y-7.854
X-114.736 Y-7.852
X-114.768
X-115.006
X-115.044 Y-7.861
X-115.076 Y-7.883
X-115.096 Y-7.917
X-115.103 Y-7.955
X-115.101 Y-7.993 Z-0.982
X-115.1 Y-8.026 Z-0.961
X-115.099 Y-8.047 Z-0.928
Y-8.055 Z-0.89
G0 Z2
X-115.36 Y-12.71
Z-0.79
G1 Z-0.89 F1000
X-115.362 Y-12.717 Z-0.928
X-115.368 Y-12.738 Z-0.961
X-115.377 Y-12.769 Z-0.982
X-115.388 Y-12.806 Z-0.99
G3 X-115.408 Y-13.591 I1.522 J-0.432
G1 X-115.398 Y-13.629
X-115.381 Y-13.714
X-115.366 Y-13.798
X-115.35 Y-13.871
X-115.268 Y-13.997
X-115.144 Y-14.081
X-115.002 Y-14.129
X-114.853 Y-14.144
X-114.704 Y-14.128
X-114.561 Y-14.083
X-114.428 Y-14.013
X-114.391 Y-13.986
X-114.321 Y-13.914
X-114.28 Y-13.822
X-114.271 Y-13.722
Y-13.714
X-114.283 Y-13.629
X-114.327 Y-13.419
X-114.341 Y-13.388
X-114.364 Y-13.363
X-114.395 Y-13.347
X-114.429 Y-13.343
X-114.462 Y-13.35
X-114.7 Y-13.447
X-115.305 Y-13.692
X-115.333 Y-13.709
X-115.354 Y-13.734
X-115.365 Y-13.765
X-115.366 Y-13.798
X-115.337 Y-13.967
X-115.332 Y-14.013
X-115.322 Y-14.088
X-115.238 Y-14.212
X-115.113 Y-14.296
X-114.972 Y-14.345
X-114.823 Y-14.364
X-114.673 Y-14.356
X-114.527 Y-14.322
X-114.389 Y-14.264
X-114.383 Y-14.26
X-114.307 Y-14.187
X-114.26 Y-14.092
X-114.25 Y-13.987
X-114.271 Y-13.722
X-114.281 Y-13.688
X-114.302 Y-13.66
X-114.331 Y-13.641
X-114.365 Y-13.633
X-114.4 Y-13.638
X-114.64 Y-13.714
X-115.263 Y-13.912
X-115.292 Y-13.927
X-115.315 Y-13.951
X-115.329 Y-13.981
X-115.332 Y-14.013
X-115.318 Y-14.182
X-115.309 Y-14.257
X-115.249 Y-14.394
X-115.134 Y-14.491
X-114.998 Y-14.553
X-114.851 Y-14.587
X-114.701 Y-14.593
X-114.552 Y-14.575
X-114.408 Y-14.533
X-114.387 Y-14.522
X-114.308 Y-14.461
X-114.254 Y-14.377
X-114.23 Y-14.28
X-114.229 Y-14.263
X-114.25 Y-13.987
X-114.259 Y-13.956
X-114.278 Y-13.928
X-114.305 Y-13.909
X-114.336 Y-13.899
X-114.37 Y-13.901
X-114.608 Y-13.95
X-115.239 Y-14.08
X-115.271 Y-14.093
X-115.297 Y-14.117
X-115.314 Y-14.148
X-115.318 Y-14.182
X-115.315 Y-14.22
X-115.311 Y-14.305
X-115.309 Y-14.389
X-115.304 Y-14.464
X-115.243 Y-14.601
X-115.132 Y-14.702
X-114.998 Y-14.77
X-114.854 Y-14.81
X-114.705 Y-14.826
X-114.555 Y-14.819
X-114.483 Y-14.801
X-114.373 Y-14.748
X-114.294 Y-14.657
X-114.257 Y-14.541
X-114.232 Y-14.305
X-114.23 Y-14.28
X-114.235 Y-14.246
X-114.251 Y-14.215
X-114.277 Y-14.192
X-114.309 Y-14.179
X-114.343 Y-14.177
X-114.585 Y-14.208
X-115.222 Y-14.291
X-115.256 Y-14.302
X-115.284 Y-14.324
X-115.303 Y-14.354
X-115.309 Y-14.389
X-115.307 Y-14.474
X-115.308 Y-14.558
X-115.311 Y-14.605
X-115.313 Y-14.68
X-115.248 Y-14.815
X-115.139 Y-14.918
X-115.008 Y-14.991
X-114.865 Y-15.037
X-114.717 Y-15.061
X-114.567 Y-15.055
X-114.515 Y-15.044
X-114.402 Y-14.992
X-114.32 Y-14.9
X-114.282 Y-14.782
X-114.257 Y-14.541
X-114.26 Y-14.506
X-114.276 Y-14.475
X-114.3 Y-14.451
X-114.332 Y-14.437
X-114.366 Y-14.434
X-114.576 Y-14.454
X-115.221 Y-14.516
X-115.254 Y-14.525
X-115.282 Y-14.544
X-115.302 Y-14.572
X-115.311 Y-14.605
X-115.324 Y-14.774
X-115.326 Y-14.849
X-115.287 Y-14.994
X-115.19 Y-15.108
X-115.067 Y-15.193
X-114.93 Y-15.254
X-114.784 Y-15.288
X-114.634 Y-15.296
X-114.582 Y-15.288
X-114.469 Y-15.246
X-114.381 Y-15.163
X-114.333 Y-15.052
X-114.301 Y-14.896
X-114.285 Y-14.812
X-114.282 Y-14.782
X-114.285 Y-14.749
X-114.299 Y-14.719
X-114.322 Y-14.696
X-114.351 Y-14.68
X-114.383 Y-14.675
X-114.585 Y-14.678
X-115.225 Y-14.685
X-115.261 Y-14.692
X-115.291 Y-14.711
X-115.313 Y-14.739
X-115.324 Y-14.774
X-115.327 Y-14.812
X-115.352 Y-14.981
X-115.36 Y-15.055
X-115.32 Y-15.2
X-115.227 Y-15.318
X-115.108 Y-15.409
X-114.973 Y-15.474
X-114.829 Y-15.516
X-114.679 Y-15.527
X-114.643 Y-15.522
X-114.529 Y-15.483
X-114.44 Y-15.403
X-114.389 Y-15.294
X-114.345 Y-15.109
X-114.333 Y-15.052
Y-15.018
X-114.345 Y-14.986
X-114.366 Y-14.96
X-114.395 Y-14.942
X-114.428 Y-14.935
X-114.608 Y-14.927
X-115.25 Y-14.899
X-115.285 Y-14.904
X-115.316 Y-14.921
X-115.34 Y-14.947
X-115.352 Y-14.981
X-115.365 Y-15.065
X-115.39 Y-15.196
X-115.4 Y-15.27
X-115.358 Y-15.414
X-115.267 Y-15.534
X-115.15 Y-15.628
X-115.017 Y-15.697
X-114.874 Y-15.742
X-114.725 Y-15.754
X-114.716 Y-15.753
X-114.622 Y-15.725
X-114.542 Y-15.668
X-114.485 Y-15.588
X-114.437 Y-15.487
X-114.43 Y-15.465
X-114.389 Y-15.294
X-114.388 Y-15.26
X-114.398 Y-15.228
X-114.419 Y-15.201
X-114.447 Y-15.183
X-114.48 Y-15.175
X-114.643 Y-15.163
X-115.285 Y-15.118
X-115.32 Y-15.122
X-115.352 Y-15.138
X-115.376 Y-15.163
X-115.39 Y-15.196
X-115.397 Y-15.234
X-115.416 Y-15.318
X-115.432 Y-15.362
X-115.454 Y-15.434
X-115.434 Y-15.583
X-115.356 Y-15.711
X-115.249 Y-15.816
X-115.123 Y-15.897
X-114.983 Y-15.952
X-114.913 Y-15.965
X-114.785 Y-15.961
X-114.67 Y-15.903
X-114.59 Y-15.802
X-114.485 Y-15.588
X-114.476 Y-15.553
X-114.481 Y-15.517
X-114.497 Y-15.486
X-114.524 Y-15.462
X-114.557 Y-15.449
X-114.684 Y-15.424
X-115.32 Y-15.302
X-115.354 Y-15.301
X-115.387 Y-15.312
X-115.414 Y-15.333
X-115.432 Y-15.362
X-115.447 Y-15.403
X-115.505 Y-15.545
X-115.529 Y-15.616
X-115.514 Y-15.765
X-115.444 Y-15.898
X-115.343 Y-16.009
X-115.222 Y-16.097
X-115.084 Y-16.158
X-115.028 Y-16.17
X-114.908 Y-16.171
X-114.796 Y-16.124
X-114.713 Y-16.038
X-114.684 Y-15.992
X-114.59 Y-15.802
X-114.582 Y-15.768
X-114.585 Y-15.733
X-114.601 Y-15.702
X-114.626 Y-15.678
X-114.658 Y-15.664
X-114.761 Y-15.639
X-115.39 Y-15.489
X-115.424 Y-15.487
X-115.457 Y-15.496
X-115.485 Y-15.517
X-115.505 Y-15.545
X-115.53 Y-15.607
X-115.566 Y-15.682
X-115.582 Y-15.714
X-115.612 Y-15.783
X-115.609 Y-15.933
X-115.55 Y-16.07
X-115.457 Y-16.189
X-115.342 Y-16.284
X-115.208 Y-16.352
X-115.167 Y-16.363
X-115.042 Y-16.369
X-114.926 Y-16.323
X-114.838 Y-16.234
X-114.713 Y-16.038
X-114.7 Y-16.004
Y-15.969
X-114.713 Y-15.935
X-114.736 Y-15.908
X-114.768 Y-15.892
X-114.848 Y-15.866
X-115.463 Y-15.667
X-115.497 Y-15.662
X-115.531 Y-15.669
X-115.56 Y-15.687
X-115.582 Y-15.714
X-115.661 Y-15.872
X-115.692 Y-15.94
X-115.712 Y-16.089
X-115.666 Y-16.231
X-115.583 Y-16.356
X-115.474 Y-16.46
X-115.345 Y-16.535
X-115.304 Y-16.548
X-115.177 Y-16.559
X-115.057 Y-16.516
X-114.965 Y-16.427
X-114.838 Y-16.234
X-114.826 Y-16.202
X-114.825 Y-16.168
X-114.836 Y-16.135
X-114.857 Y-16.109
X-114.887 Y-16.091
X-114.942 Y-16.068
X-115.536 Y-15.828
X-115.571 Y-15.82
X-115.607 Y-15.826
X-115.638 Y-15.844
X-115.661 Y-15.872
X-115.68 Y-15.91
X-115.759 Y-16.041
X-115.794 Y-16.107
X-115.821 Y-16.254
X-115.782 Y-16.399
X-115.706 Y-16.528
X-115.602 Y-16.637
X-115.53 Y-16.682
X-115.412 Y-16.724
X-115.287 Y-16.715
X-115.176 Y-16.655
X-115.058 Y-16.554
X-115.037 Y-16.534
X-115.029 Y-16.524
X-114.965 Y-16.427
X-114.952 Y-16.396
X-114.951 Y-16.362
X-114.961 Y-16.33
X-114.981 Y-16.302
X-115.009 Y-16.284
X-115.046 Y-16.267
X-115.634 Y-16.004
X-115.668 Y-15.995
X-115.703 Y-15.999
X-115.735 Y-16.015
X-115.759 Y-16.041
X-115.833 Y-16.163
X-115.852 Y-16.183
X-115.902 Y-16.239
X-115.948 Y-16.382
X-115.925 Y-16.53
X-115.861 Y-16.666
X-115.765 Y-16.78
X-115.72 Y-16.814
X-115.598 Y-16.867
X-115.464 Y-16.862
X-115.346 Y-16.8
X-115.176 Y-16.655
X-115.154 Y-16.626
X-115.144 Y-16.59
X-115.148 Y-16.553
X-115.165 Y-16.521
X-115.192 Y-16.496
X-115.731 Y-16.17
X-115.761 Y-16.158
X-115.794 Y-16.156
X-115.825 Y-16.165
X-115.852 Y-16.183
X-115.953 Y-16.286
X-115.979 Y-16.311
X-116.03 Y-16.366
X-116.088 Y-16.504
X-116.077 Y-16.654
X-116.022 Y-16.794
X-115.931 Y-16.913
X-115.891 Y-16.945
X-115.78 Y-17.002
X-115.656 Y-17.008
X-115.539 Y-16.963
X-115.53 Y-16.957
X-115.346 Y-16.8
X-115.325 Y-16.772
X-115.315 Y-16.738
X-115.317 Y-16.702
X-115.332 Y-16.669
X-115.358 Y-16.644
X-115.856 Y-16.303
X-115.886 Y-16.289
X-115.919 Y-16.286
X-115.951 Y-16.294
X-115.979 Y-16.311
X-116.122 Y-16.448
X-116.176 Y-16.499
X-116.235 Y-16.638
X-116.228 Y-16.787
X-116.178 Y-16.929
X-116.089 Y-17.05
X-116.08 Y-17.057
X-115.974 Y-17.113
X-115.853 Y-17.123
X-115.739 Y-17.084
X-115.608 Y-17.008
X-115.539 Y-16.963
X-115.513 Y-16.937
X-115.499 Y-16.902
X-115.498 Y-16.865
X-115.511 Y-16.83
X-115.536 Y-16.802
X-115.999 Y-16.447
X-116.028 Y-16.432
X-116.061 Y-16.427
X-116.093 Y-16.432
X-116.122 Y-16.448
X-116.185 Y-16.501
X-116.206 Y-16.517
X-116.264 Y-16.555
X-116.325 Y-16.6
X-116.393 Y-16.733
X-116.398 Y-16.883
X-116.357 Y-17.028
X-116.275 Y-17.153
X-116.27 Y-17.157
X-116.162 Y-17.218
X-116.039 Y-17.23
X-115.922 Y-17.191
X-115.739 Y-17.084
X-115.712 Y-17.059
X-115.696 Y-17.025
X-115.693 Y-16.988
X-115.704 Y-16.953
X-115.727 Y-16.924
X-116.147 Y-16.565
X-116.174 Y-16.548
X-116.204 Y-16.541
X-116.235 Y-16.543
X-116.264 Y-16.555
X-116.41 Y-16.651
X-116.471 Y-16.696
X-116.554 Y-16.821
X-116.57 Y-16.97
X-116.539 Y-17.116
X-116.505 Y-17.174
X-116.419 Y-17.267
X-116.303 Y-17.317
X-116.176 Y-17.314
X-116.122 Y-17.3
X-116.102 Y-17.294
X-116.082 Y-17.284
X-115.922 Y-17.191
X-115.895 Y-17.166
X-115.879 Y-17.134
X-115.875 Y-17.098
X-115.885 Y-17.063
X-115.906 Y-17.034
X-116.289 Y-16.665
X-116.316 Y-16.646
X-116.347 Y-16.637
X-116.38 Y-16.639
X-116.41 Y-16.651
X-116.46 Y-16.684
X-116.545 Y-16.733
X-116.573 Y-16.745
X-116.607 Y-16.761
X-116.659 Y-16.815
X-116.728 Y-16.948
X-116.737 Y-17.098
X-116.721 Y-17.153
X-116.669 Y-17.254
X-116.583 Y-17.328
X-116.476 Y-17.364
X-116.363 Y-17.359
X-116.176 Y-17.314
X-116.145 Y-17.299
X-116.121 Y-17.276
X-116.107 Y-17.245
X-116.103 Y-17.212
X-116.11 Y-17.179
X-116.128 Y-17.151
X-116.463 Y-16.772
X-116.495 Y-16.748
X-116.534 Y-16.739
X-116.573 Y-16.745
X-116.596 Y-16.754
X-116.629 Y-16.765
X-116.676 Y-16.779
X-116.747 Y-16.803
X-116.805 Y-16.85
X-116.894 Y-16.971
X-116.916 Y-17.12
X-116.905 Y-17.17
X-116.859 Y-17.281
X-116.772 Y-17.364
X-116.66 Y-17.407
X-116.541 Y-17.402
X-116.363 Y-17.359
X-116.329 Y-17.342
X-116.304 Y-17.314
X-116.291 Y-17.279
X-116.292 Y-17.241
X-116.307 Y-17.207
X-116.569 Y-16.82
X-116.59 Y-16.797
X-116.616 Y-16.782
X-116.646 Y-16.776
X-116.676 Y-16.779
X-116.845 Y-16.825
X-116.883 Y-16.835
X-116.955 Y-16.857
X-117.056 Y-16.968
X-117.095 Y-17.112
X-117.082 Y-17.262
X-117.075 Y-17.277
X-117 Y-17.378
X-116.89 Y-17.44
X-116.764 Y-17.45
X-116.714 Y-17.444
X-116.541 Y-17.402
X-116.506 Y-17.385
X-116.48 Y-17.355
X-116.468 Y-17.318
X-116.471 Y-17.279
X-116.489 Y-17.244
X-116.783 Y-16.87
X-116.811 Y-16.846
X-116.846 Y-16.833
X-116.883 Y-16.835
X-116.968 Y-16.857
X-117.052 Y-16.874
X-117.089 Y-16.881
X-117.15 Y-16.925
X-117.244 Y-17.041
X-117.281 Y-17.187
X-117.276 Y-17.217
X-117.217 Y-17.352
X-117.101 Y-17.444
X-116.955 Y-17.468
X-116.924 Y-17.459
X-116.897 Y-17.44
X-116.877 Y-17.413
X-116.868 Y-17.382
X-116.869 Y-17.349
X-116.947 Y-16.954
X-116.96 Y-16.921
X-116.985 Y-16.894
X-117.017 Y-16.878
X-117.052 Y-16.874
X-117.184 Y-16.888
X-117.258 Y-16.899
X-117.381 Y-16.985
X-117.45 Y-17.118
X-117.456 Y-17.268
X-117.452 Y-17.28
X-117.384 Y-17.393
X-117.274 Y-17.465
X-117.143 Y-17.484
X-116.799 Y-17.455
X-116.764 Y-17.45
X-116.729 Y-17.438
X-116.701 Y-17.413
X-116.684 Y-17.38
X-116.681 Y-17.343
X-116.69 Y-17.308
X-116.713 Y-17.278
X-117.109 Y-16.914
X-117.131 Y-16.898
X-117.156 Y-16.889
X-117.184 Y-16.888
X-117.306 Y-16.899
X-117.353 Y-16.9
X-117.428 Y-16.906
X-117.493 Y-16.943
X-117.595 Y-17.053
X-117.643 Y-17.195
X-117.641 Y-17.224
X-117.591 Y-17.363
X-117.48 Y-17.462
X-117.336 Y-17.496
X-117.306 Y-17.495
X-117.222 Y-17.49
X-117.143 Y-17.484
X-117.106 Y-17.472
X-117.077 Y-17.447
X-117.059 Y-17.413
X-117.055 Y-17.375
X-117.066 Y-17.338
X-117.265 Y-16.954
X-117.287 Y-16.926
X-117.318 Y-16.907
X-117.353 Y-16.9
X-117.522 Y-16.904
X-117.597 Y-16.909
X-117.727 Y-16.984
X-117.806 Y-17.112
X-117.823 Y-17.261
X-117.82 Y-17.274
X-117.759 Y-17.392
X-117.654 Y-17.473
X-117.523 Y-17.5
X-117.336 Y-17.496
X-117.299 Y-17.486
X-117.267 Y-17.463
X-117.247 Y-17.43
X-117.242 Y-17.392
X-117.251 Y-17.354
X-117.433 Y-16.962
X-117.454 Y-16.932
X-117.485 Y-16.911
X-117.522 Y-16.904
X-117.56 Y-16.905
X-117.691 Y-16.893
X-117.766 Y-16.891
X-117.9 Y-16.957
X-117.984 Y-17.082
X-118.013 Y-17.229
Y-17.232
X-117.964 Y-17.357
X-117.866 Y-17.448
X-117.739 Y-17.487
X-117.56 Y-17.5
X-117.523
X-117.486 Y-17.49
X-117.455 Y-17.468
X-117.435 Y-17.435
X-117.429 Y-17.398
X-117.437 Y-17.36
X-117.611 Y-16.953
X-117.63 Y-16.924
X-117.658 Y-16.904
X-117.691 Y-16.893
X-117.814 Y-16.883
X-117.86 Y-16.874
X-117.897 Y-16.869
X-117.97 Y-16.888
X-118.099 Y-16.965
X-118.179 Y-17.092
X-118.185 Y-17.134
X-118.177 Y-17.252
X-118.123 Y-17.358
X-118.033 Y-17.435
X-117.92 Y-17.471
X-117.881 Y-17.466
X-117.847 Y-17.447
X-117.823 Y-17.417
X-117.813 Y-17.379
X-117.782 Y-16.98
X-117.786 Y-16.944
X-117.802 Y-16.912
X-117.828 Y-16.888
X-117.86 Y-16.874
X-117.898 Y-16.867
X-118.011 Y-16.844
X-118.085 Y-16.832
X-118.226 Y-16.882
X-118.327 Y-16.993
X-118.376 Y-17.134
X-118.375 Y-17.159
X-118.339 Y-17.292
X-118.248 Y-17.395
X-118.12 Y-17.447
X-118.083 Y-17.444
X-118.049 Y-17.428
X-118.024 Y-17.4
X-118.01 Y-17.365
X-117.936 Y-16.959
X-117.937 Y-16.921
X-117.951 Y-16.886
X-117.977 Y-16.859
X-118.011 Y-16.844
X-118.068 Y-16.832
X-118.152 Y-16.811
X-118.194 Y-16.796
X-118.23 Y-16.783
X-118.303 Y-16.799
X-118.436 Y-16.869
X-118.528 Y-16.987
X-118.564 Y-17.133
X-118.527 Y-17.258
X-118.442 Y-17.355
X-118.324 Y-17.407
X-118.286 Y-17.406
X-118.25 Y-17.39
X-118.223 Y-17.361
X-118.209 Y-17.325
X-118.138 Y-16.903
Y-16.871
X-118.148 Y-16.84
X-118.168 Y-16.814
X-118.194 Y-16.796
X-118.237 Y-16.778
X-118.263 Y-16.765
X-118.331 Y-16.735
X-118.406 Y-16.729
X-118.551 Y-16.767
X-118.663 Y-16.866
X-118.737 Y-16.997
X-118.742 Y-17.034
X-118.737 Y-17.147
X-118.69 Y-17.249
X-118.609 Y-17.327
X-118.505 Y-17.37
X-118.472
X-118.441 Y-17.359
X-118.415 Y-17.339
X-118.397 Y-17.311
X-118.219 Y-16.892
X-118.211 Y-16.856
X-118.216 Y-16.82
X-118.234 Y-16.788
X-118.263 Y-16.765
X-118.321 Y-16.736
X-118.406 Y-16.692
X-118.442 Y-16.67
X-118.475 Y-16.652
X-118.625 Y-16.644
X-118.76 Y-16.71
X-118.866 Y-16.816
X-118.928 Y-16.952
X-118.93 Y-16.973
X-118.918 Y-17.098
X-118.856 Y-17.206
X-118.756 Y-17.28
X-118.719 Y-17.287
X-118.683 Y-17.281
X-118.651 Y-17.262
X-118.629 Y-17.233
X-118.408 Y-16.799
X-118.398 Y-16.764
X-118.4 Y-16.728
X-118.416 Y-16.695
X-118.442 Y-16.67
X-118.575 Y-16.589
X-118.641 Y-16.554
X-118.791 Y-16.548
X-118.928 Y-16.609
X-119.037 Y-16.713
X-119.107 Y-16.845
X-119.111 Y-16.865
X-119.107 Y-16.998
X-119.046 Y-17.116
X-118.94 Y-17.197
X-118.906 Y-17.204
X-118.872 Y-17.2
X-118.841 Y-17.183
X-118.817 Y-17.158
X-118.545 Y-16.726
X-118.531 Y-16.69
X-118.532 Y-16.652
X-118.548 Y-16.616
X-118.575 Y-16.589
X-118.66 Y-16.535
X-118.706 Y-16.501
X-118.769 Y-16.46
X-118.916 Y-16.432
X-119.059 Y-16.479
X-119.177 Y-16.571
X-119.266 Y-16.692
X-119.279 Y-16.732
X-119.293 Y-16.868
X-119.245 Y-16.995
X-119.146 Y-17.089
X-119.113 Y-17.1
X-119.078 Y-17.098
X-119.046 Y-17.085
X-119.02 Y-17.062
X-118.689 Y-16.641
X-118.672 Y-16.607
X-118.669 Y-16.568
X-118.681 Y-16.531
X-118.706 Y-16.501
X-118.819 Y-16.417
X-118.85 Y-16.387
X-118.906 Y-16.337
X-119.053 Y-16.307
X-119.198 Y-16.347
X-119.324 Y-16.429
X-119.421 Y-16.543
X-119.483 Y-16.679
X-119.476 Y-16.794
X-119.427 Y-16.895
X-119.345 Y-16.971
X-119.313 Y-16.983
X-119.279 Y-16.984
X-119.246 Y-16.972
X-119.219 Y-16.951
X-118.847 Y-16.521
X-118.829 Y-16.49
X-118.823 Y-16.454
X-118.83 Y-16.418
X-118.85 Y-16.387
X-118.868 Y-16.37
X-118.9 Y-16.332
X-118.94 Y-16.277
X-118.964 Y-16.248
X-119.029 Y-16.211
X-119.173 Y-16.172
X-119.321 Y-16.199
X-119.453 Y-16.27
X-119.562 Y-16.373
X-119.645 Y-16.498
X-119.651 Y-16.519
X-119.661 Y-16.648
X-119.615 Y-16.769
X-119.523 Y-16.859
X-119.493 Y-16.871
X-119.461 Y-16.872
X-119.43 Y-16.863
X-119.403 Y-16.844
X-118.953 Y-16.405
X-118.933 Y-16.377
X-118.924 Y-16.344
X-118.926 Y-16.309
X-118.94 Y-16.277
X-119.023 Y-16.163
X-119.039 Y-16.138
X-119.061 Y-16.107
X-119.189 Y-16.028
X-119.338 Y-16.018
X-119.483 Y-16.056
X-119.615 Y-16.128
X-119.729 Y-16.226
X-119.763 Y-16.277
X-119.811 Y-16.399
X-119.802 Y-16.53
X-119.739 Y-16.644
X-119.71 Y-16.665
X-119.676 Y-16.675
X-119.64 Y-16.672
X-119.608 Y-16.657
X-119.585 Y-16.64
X-119.067 Y-16.27
X-119.042 Y-16.243
X-119.028 Y-16.209
X-119.027 Y-16.172
X-119.039 Y-16.138
X-119.131 Y-15.994
X-119.175 Y-15.933
X-119.307 Y-15.862
X-119.456 Y-15.852
X-119.603 Y-15.884
X-119.739 Y-15.947
X-119.856 Y-16.041
X-119.896 Y-16.092
X-119.952 Y-16.211
Y-16.342
X-119.897 Y-16.461
X-119.87 Y-16.483
X-119.837 Y-16.495
X-119.802
X-119.769 Y-16.483
X-119.709 Y-16.448
X-119.167 Y-16.131
X-119.138 Y-16.105
X-119.121 Y-16.07
X-119.118 Y-16.031
X-119.131 Y-15.994
X-119.167 Y-15.938
X-119.23 Y-15.825
X-119.27 Y-15.762
X-119.401 Y-15.69
X-119.55 Y-15.673
X-119.699 Y-15.695
X-119.838 Y-15.75
X-119.962 Y-15.835
X-120.011 Y-15.887
X-120.077 Y-16.001
X-120.088 Y-16.133
X-120.041 Y-16.256
X-120.016 Y-16.281
X-119.983 Y-16.295
X-119.948 Y-16.298
X-119.914 Y-16.287
X-119.833 Y-16.246
X-119.274 Y-15.96
X-119.243 Y-15.936
X-119.224 Y-15.902
X-119.219 Y-15.863
X-119.23 Y-15.825
X-119.252 Y-15.786
X-119.274 Y-15.741
X-119.292 Y-15.694
X-119.307 Y-15.656
X-119.323 Y-15.612
X-119.336 Y-15.582
X-119.466 Y-15.507
X-119.549 Y-15.493
X-119.567 Y-15.491
X-119.584
X-119.623 Y-15.5
X-119.655 Y-15.524
X-119.675 Y-15.558
X-119.681 Y-15.597
X-119.67 Y-15.635
X-119.646 Y-15.667
X-119.611 Y-15.686
X-119.449 Y-15.738
X-119.413 Y-15.743
X-119.378 Y-15.734
X-119.348 Y-15.713
X-119.327 Y-15.683
X-119.319 Y-15.648
X-119.323 Y-15.612
X-119.338 Y-15.572
X-119.344 Y-15.559
X-119.353 Y-15.546
X-119.38 Y-15.52
X-119.39 Y-15.511
X-119.4 Y-15.504
X-119.411 Y-15.499
X-119.421 Y-15.495
X-119.432 Y-15.493
X-119.442 Y-15.491
X-119.59
X-119.74 Y-15.498
X-119.886 Y-15.534
X-120.021 Y-15.6
X-120.136 Y-15.696
X-120.152 Y-15.716
X-120.205 Y-15.825
X-120.21 Y-15.946
X-120.167 Y-16.059
X-120.144 Y-16.083
X-120.114 Y-16.098
X-120.081 Y-16.102
X-120.049 Y-16.096
X-120.02 Y-16.079
X-119.947 Y-16.018
X-119.53 Y-15.667
X-119.508 Y-15.641
X-119.496 Y-15.609
X-119.495 Y-15.575
X-119.506 Y-15.543
X-119.528 Y-15.516
X-119.557 Y-15.498
X-119.59 Y-15.491
X-119.975
X-120.013
X-120.06
X-120.135 Y-15.495
X-120.229 Y-15.584
X-120.275 Y-15.705
X-120.264 Y-15.834
X-120.244 Y-15.867
X-120.214 Y-15.89
X-120.176 Y-15.9
X-120.138 Y-15.895
X-120.104 Y-15.876
X-120.081 Y-15.846
X-119.974 Y-15.636
X-119.964 Y-15.604
X-119.965 Y-15.571
X-119.977 Y-15.54
X-119.999 Y-15.515
X-120.027 Y-15.498
X-120.06 Y-15.491
X-120.183
X-120.225
X-120.235 Y-15.492
X-120.255 Y-15.498
X-120.279 Y-15.514
X-120.293 Y-15.538
X-120.295 Y-15.567
X-120.285 Y-15.594
X-120.264 Y-15.614
X-120.236 Y-15.622
X-120.208 Y-15.617
X-120.184 Y-15.601
X-120.183 Y-15.6
X-120.168 Y-15.573
Y-15.543
X-120.181 Y-15.515
X-120.205 Y-15.497
X-120.235 Y-15.492
X-120.246 Y-15.495
X-120.257 Y-15.498
X-120.267 Y-15.503
X-120.285 Y-15.516
X-120.296 Y-15.527
X-120.315 Y-15.555
X-120.324 Y-15.572
X-120.327 Y-15.582
X-120.329 Y-15.593
X-120.33 Y-15.604
Y-15.614
X-120.329 Y-15.625
X-120.327 Y-15.635
X-120.227 Y-15.952
X-120.218 Y-15.973
X-120.208 Y-15.994
X-120.047 Y-16.248
X-120.013 Y-16.298
X-119.929 Y-16.419
X-119.866 Y-16.501
X-119.59 Y-16.811
X-119.573 Y-16.827
X-119.337 Y-16.977
X-119.286 Y-17.008
X-119.083 Y-17.125
X-118.998 Y-17.17
X-118.61 Y-17.346
X-118.593 Y-17.352
X-118.152 Y-17.442
X-118.068 Y-17.455
X-117.898 Y-17.473
X-117.773 Y-17.485
X-117.739 Y-17.487
X-117.711 Y-17.484
X-117.684 Y-17.474
X-117.665 Y-17.446 Z-0.983
X-117.649 Y-17.422 Z-0.966
X-117.636 Y-17.404 Z-0.939
X-117.635 Y-17.395 Z-0.915
Y-17.391 Z-0.89
G0 Z2
X-108.989 Y-9.307
Z0.5
G3 X-108.504 Y-9.432 Z0.29 I0.242 J-0.062 F333.3
X-108.989 Y-9.307 Z0.079 I-0.242 J0.062
X-108.504 Y-9.432 Z-0.131 I0.242 J-0.062
X-108.989 Y-9.307 Z-0.342 I-0.242 J0.062
X-108.504 Y-9.432 Z-0.552 I0.242 J-0.062
X-108.989 Y-9.307 Z-0.763 I-0.242 J0.062
X-108.778 Y-9.618 Z-0.876 I0.242 J-0.062
X-108.496 Y-9.37 Z-0.99 I0.031 J0.248
X-108.996 I-0.25
X-108.496 I0.25
G1 X-108.459 Y-9.224 F1000
X-108.472 Y-9.151
X-108.509 Y-9.085
X-108.616 Y-8.98
X-108.761 Y-8.94
X-108.909 Y-8.962
X-109.04 Y-9.036
X-109.136 Y-9.15
X-109.188 Y-9.291
X-109.191 Y-9.441
X-109.143 Y-9.583
X-109.051 Y-9.702
X-108.925 Y-9.784
X-108.78 Y-9.819
X-108.63 Y-9.805
X-108.494 Y-9.743
X-108.385 Y-9.64
X-108.307 Y-9.512
X-108.257 Y-9.37
X-108.246 Y-9.221
X-108.281 Y-9.075
X-108.352 Y-8.943
X-108.46 Y-8.839
X-108.591 Y-8.766
X-108.738 Y-8.732
X-108.887 Y-8.739
X-109.032 Y-8.78
X-109.161 Y-8.856
X-109.268 Y-8.962
X-109.35 Y-9.087
X-109.399 Y-9.229
X-109.414 Y-9.378
X-109.397 Y-9.527
X-109.347 Y-9.669
X-109.264 Y-9.794
X-109.158 Y-9.9
X-109.03 Y-9.978
X-108.888 Y-10.025
X-108.739 Y-10.041
X-108.59 Y-10.023
X-108.449 Y-9.97
X-108.322 Y-9.89
X-108.214 Y-9.787
X-108.126 Y-9.665
X-108.063 Y-9.529
X-108.025 Y-9.384
X-108.017 Y-9.234
X-108.039 Y-9.086
X-108.088 Y-8.944
X-108.165 Y-8.815
X-108.266 Y-8.704
X-108.386 Y-8.615
X-108.521 Y-8.548
X-108.666 Y-8.511
X-108.816 Y-8.502
X-108.965 Y-8.519
X-108.997 Y-8.528
X-109.054 Y-8.552
X-109.106 Y-8.587
X-109.149 Y-8.632
X-109.184 Y-8.678
X-109.232 Y-8.73
X-109.269 Y-8.768
X-109.392 Y-8.872
X-109.501 Y-8.975
X-109.577 Y-9.105
X-109.622 Y-9.248
X-109.639 Y-9.397
X-109.628 Y-9.546
X-109.589 Y-9.691
X-109.547 Y-9.779
X-109.501 Y-9.849
X-109.438 Y-9.903
X-109.362 Y-9.938
X-109.326 Y-9.941
X-109.291 Y-9.931
X-109.262 Y-9.909
X-109.243 Y-9.878
X-109.237 Y-9.842
X-109.234 Y-9.512
X-109.23 Y-8.952
X-109.236 Y-8.915
X-109.256 Y-8.883
X-109.286 Y-8.861
X-109.322 Y-8.851
X-109.359 Y-8.855
X-109.392 Y-8.872
X-109.438 Y-8.912
X-109.534 Y-8.984
X-109.631 Y-9.054
X-109.749 Y-9.147
X-109.817 Y-9.281
X-109.848 Y-9.428
X-109.849 Y-9.578
X-109.831 Y-9.667
X-109.776 Y-9.79
X-109.672 Y-9.877
X-109.54 Y-9.909
X-109.502 Y-9.901
X-109.469 Y-9.877
X-109.449 Y-9.844
X-109.443 Y-9.804
X-109.448 Y-9.706
X-109.476 Y-9.132
X-109.484 Y-9.098
X-109.503 Y-9.069
X-109.531 Y-9.048
X-109.564 Y-9.038
X-109.599 Y-9.04
X-109.631 Y-9.054
X-109.692 Y-9.097
X-109.779 Y-9.152
X-109.861 Y-9.202
X-109.925 Y-9.241
X-110.01 Y-9.365
X-110.049 Y-9.51
X-110.047 Y-9.66
X-110.039 Y-9.688
X-109.979 Y-9.802
X-109.876 Y-9.881
X-109.75 Y-9.909
X-109.718 Y-9.902
X-109.689 Y-9.885
X-109.668 Y-9.859
X-109.656 Y-9.828
X-109.655 Y-9.795
X-109.725 Y-9.282
X-109.737 Y-9.247
X-109.759 Y-9.219
X-109.79 Y-9.201
X-109.826 Y-9.195
X-109.861 Y-9.202
X-109.946 Y-9.239
X-110.031 Y-9.274
X-110.099 Y-9.304
X-110.197 Y-9.418
X-110.244 Y-9.561
X-110.238 Y-9.711
X-110.174 Y-9.814
X-110.075 Y-9.884
X-109.956 Y-9.909
X-109.924 Y-9.902
X-109.896 Y-9.886
X-109.875 Y-9.862
X-109.862 Y-9.832
X-109.86 Y-9.8
X-109.898 Y-9.36
X-109.908 Y-9.325
X-109.929 Y-9.296
X-109.96 Y-9.276
X-109.995 Y-9.269
X-110.031 Y-9.274
X-110.2 Y-9.339
X-110.269 Y-9.368
X-110.38 Y-9.469
X-110.43 Y-9.61
X-110.429 Y-9.63
X-110.382 Y-9.771
X-110.273 Y-9.872
X-110.13 Y-9.909
X-110.098 Y-9.902
X-110.07 Y-9.886
X-110.048 Y-9.861
X-110.036 Y-9.831
X-110.034 Y-9.799
X-110.069 Y-9.425
X-110.079 Y-9.39
X-110.1 Y-9.362
X-110.13 Y-9.342
X-110.164 Y-9.334
X-110.2 Y-9.339
X-110.284 Y-9.37
X-110.369 Y-9.394
X-110.44 Y-9.419
X-110.499 Y-9.464
X-110.581 Y-9.59
Y-9.592
X-110.563 Y-9.712
X-110.5 Y-9.815
X-110.4 Y-9.884
X-110.282 Y-9.909
X-110.248 Y-9.901
X-110.219 Y-9.884
X-110.198 Y-9.857
X-110.187 Y-9.824
Y-9.79
X-110.246 Y-9.473
X-110.257 Y-9.442
X-110.278 Y-9.417
X-110.305 Y-9.399
X-110.336 Y-9.391
X-110.369 Y-9.394
X-110.538 Y-9.443
X-110.585 Y-9.451
X-110.621 Y-9.459
X-110.671 Y-9.515
X-110.703 Y-9.583
X-110.695 Y-9.703
X-110.638 Y-9.81
X-110.541 Y-9.883
X-110.423 Y-9.909
X-110.39 Y-9.902
X-110.361 Y-9.884
X-110.339 Y-9.858
X-110.328 Y-9.826
Y-9.792
X-110.339 Y-9.76
X-110.485 Y-9.501
X-110.51 Y-9.471
X-110.545 Y-9.454
X-110.585 Y-9.451
X-110.669 Y-9.464
X-110.706 Y-9.472
X-110.77 Y-9.511
X-110.811 Y-9.574
X-110.815 Y-9.695
X-110.765 Y-9.805
X-110.671 Y-9.881
X-110.554 Y-9.909
X-110.516 Y-9.9
X-110.485 Y-9.878
X-110.464 Y-9.846
X-110.457 Y-9.808
X-110.464 Y-9.771
X-110.565 Y-9.526
X-110.582 Y-9.498
X-110.607 Y-9.477
X-110.637 Y-9.466
X-110.669 Y-9.464
X-110.792 Y-9.483
X-110.829 Y-9.49
X-110.888 Y-9.537
X-110.927 Y-9.6
Y-9.713
X-110.878 Y-9.814
X-110.79 Y-9.884
X-110.681 Y-9.909
X-110.644 Y-9.9
X-110.612 Y-9.877
X-110.591 Y-9.845
X-110.585 Y-9.807
X-110.593 Y-9.769
X-110.689 Y-9.543
X-110.706 Y-9.516
X-110.731 Y-9.496
X-110.76 Y-9.485
X-110.792 Y-9.483
X-110.923 Y-9.501
X-110.96 Y-9.507
X-111.013 Y-9.56
X-111.047 Y-9.627
X-111.042 Y-9.731
X-110.994 Y-9.823
X-110.911 Y-9.886
X-110.81 Y-9.909
X-110.771 Y-9.899
X-110.739 Y-9.876
X-110.719 Y-9.842
X-110.713 Y-9.803
X-110.723 Y-9.765
X-110.824 Y-9.557
X-110.841 Y-9.532
X-110.865 Y-9.513
X-110.893 Y-9.502
X-110.923 Y-9.501
X-111.008 Y-9.511
X-111.045 Y-9.518
X-111.111 Y-9.554
X-111.153 Y-9.616
X-111.155 Y-9.721
X-111.111 Y-9.818
X-111.029 Y-9.885
X-110.926 Y-9.909
X-110.889 Y-9.9
X-110.858 Y-9.879
X-110.837 Y-9.849
X-110.829 Y-9.812
X-110.835 Y-9.775
X-110.904 Y-9.578
X-110.92 Y-9.549
X-110.944 Y-9.527
X-110.975 Y-9.514
X-111.008 Y-9.511
X-111.13 Y-9.526
X-111.167 Y-9.532
X-111.227 Y-9.577
X-111.266 Y-9.641
X-111.264 Y-9.739
X-111.22 Y-9.827
X-111.143 Y-9.887
X-111.048 Y-9.909
X-111.018 Y-9.903
X-110.991 Y-9.888
G3 X-111.13 Y-9.526 I-0.126 J0.159
G1 X-111.261 Y-9.539
X-111.299 Y-9.545
X-111.352 Y-9.598
X-111.371 Y-9.705
X-111.338 Y-9.808
X-111.259 Y-9.882
X-111.154 Y-9.909
X-111.126 Y-9.903
X-111.102 Y-9.891
X-111.082 Y-9.871
G3 X-111.261 Y-9.539 I-0.166 J0.124
G1 X-111.346 Y-9.548
X-111.384 Y-9.552
X-111.397 Y-9.555
X-111.416 Y-9.563
X-111.439 Y-9.584
X-111.45 Y-9.613
X-111.447 Y-9.644
X-111.431 Y-9.67
X-111.405 Y-9.687
X-111.374 Y-9.69
X-111.345 Y-9.679
X-111.323 Y-9.657
X-111.314 Y-9.628
X-111.318 Y-9.597
X-111.336 Y-9.572
X-111.363 Y-9.557
X-111.38 Y-9.554
X-111.397 Y-9.555
X-111.41 Y-9.559
X-111.422 Y-9.566
X-111.435 Y-9.575
X-111.452 Y-9.587
X-111.473 Y-9.614
X-111.481 Y-9.647
X-111.474 Y-9.68
X-111.453 Y-9.707
X-111.422 Y-9.722
X-111.388 Y-9.721
X-111.358 Y-9.706
X-111.337 Y-9.679
X-111.331 Y-9.645
X-111.34 Y-9.612
X-111.363 Y-9.587
X-111.394 Y-9.574
X-111.424 Y-9.575
X-111.452 Y-9.587
X-111.469 Y-9.607
X-111.476 Y-9.62
X-111.481 Y-9.633
X-111.484 Y-9.646
X-111.485 Y-9.659
Y-9.744
Y-9.786
X-111.482 Y-9.817
X-111.47 Y-9.84
X-111.448 Y-9.854
X-111.422 Y-9.856
X-111.398 Y-9.845
X-111.382 Y-9.824
X-111.379 Y-9.799
X-111.381 Y-9.782
X-111.39 Y-9.758
X-111.409 Y-9.741
X-111.435 Y-9.735
X-111.46 Y-9.743
X-111.478 Y-9.761
X-111.485 Y-9.786
X-111.484 Y-9.807
X-111.482 Y-9.818
X-111.478 Y-9.828
X-111.469 Y-9.847
X-111.46 Y-9.858
X-111.438 Y-9.881
X-111.426 Y-9.89
X-111.416 Y-9.897
X-111.405 Y-9.902
X-111.395 Y-9.905
X-111.384 Y-9.907
X-111.3 Y-9.909
X-109.607
X-109.523
X-109.474 Y-9.913
X-109.438 Y-9.918
X-109.396 Y-9.928
X-109.354 Y-9.941
X-109.269 Y-9.98
X-109.239 Y-9.997
X-109.184 Y-10.038
X-109.159 Y-10.062
X-109.046 Y-10.16
X-108.911 Y-10.226
X-108.764 Y-10.257
X-108.614 Y-10.254
X-108.467 Y-10.224
X-108.327 Y-10.169
X-108.198 Y-10.093
X-108.083 Y-9.997
X-108.023 Y-9.929
X-107.983 Y-9.87
X-107.958 Y-9.803
X-107.949 Y-9.732
Y-8.984
X-107.957 Y-8.834
X-108.009 Y-8.693
X-108.094 Y-8.569
X-108.202 Y-8.465
X-108.327 Y-8.382
X-108.463 Y-8.32
X-108.607 Y-8.279
X-108.698 Y-8.268
X-108.808 Y-8.274
X-108.908 Y-8.32
X-108.985 Y-8.399
X-108.998 Y-8.435
X-108.997 Y-8.474
X-108.981 Y-8.51
X-108.952 Y-8.536
X-108.591 Y-8.761
X-108.102 Y-9.065
X-108.07 Y-9.078
X-108.035 Y-9.079
X-108.002 Y-9.068
X-107.975 Y-9.047
X-107.956 Y-9.017
X-107.949 Y-8.984
Y-8.646
X-107.957 Y-8.496
X-108.029 Y-8.364
X-108.131 Y-8.255
X-108.252 Y-8.166
X-108.386 Y-8.098
X-108.529 Y-8.053
X-108.569 Y-8.048
X-108.694 Y-8.059
X-108.803 Y-8.12
X-108.879 Y-8.22
X-108.887 Y-8.256
X-108.881 Y-8.293
X-108.862 Y-8.325
X-108.833 Y-8.347
X-108.613 Y-8.462
X-108.095 Y-8.731
X-108.063 Y-8.741
X-108.03 Y-8.74
X-107.999 Y-8.729
X-107.973 Y-8.707
X-107.956 Y-8.678
X-107.949 Y-8.646
Y-8.346
X-107.953 Y-8.271
X-108.011 Y-8.133
X-108.108 Y-8.018
X-108.228 Y-7.929
X-108.363 Y-7.863
X-108.509 Y-7.829
X-108.517
X-108.628 Y-7.854
X-108.722 Y-7.919
X-108.785 Y-8.014
X-108.792 Y-8.051
X-108.784 Y-8.088
X-108.764 Y-8.119
X-108.733 Y-8.14
X-108.627 Y-8.189
X-108.091 Y-8.433
X-108.053 Y-8.442
X-108.014 Y-8.436
X-107.981 Y-8.415
X-107.958 Y-8.384
X-107.949 Y-8.346
Y-8.092
Y-8.054
Y-8.008
X-107.951 Y-7.97
X-108.029 Y-7.842
X-108.08 Y-7.794
X-108.141 Y-7.75
X-108.211 Y-7.722
X-108.286 Y-7.713
X-108.319 Y-7.72
X-108.348 Y-7.738
X-108.37 Y-7.765
X-108.381 Y-7.797
X-108.38 Y-7.832
X-108.368 Y-7.864
X-108.346 Y-7.89
X-108.113 Y-8.082
X-108.08 Y-8.099
X-108.044 Y-8.104
X-108.008 Y-8.096
X-107.978 Y-8.075
X-107.957 Y-8.044
X-107.949 Y-8.008
Y-7.843
Y-7.822
X-107.95 Y-7.812
X-107.959 Y-7.784
X-107.977 Y-7.767
X-108 Y-7.758
X-108.025 Y-7.76
X-108.05 Y-7.775
X-108.064 Y-7.8
Y-7.829
X-108.051 Y-7.854
X-108.028 Y-7.87
X-108 Y-7.873
X-107.973 Y-7.862
X-107.955 Y-7.84
X-107.95 Y-7.812
X-107.953 Y-7.801
X-107.959 Y-7.784
X-107.969 Y-7.768
X-107.983 Y-7.751
X-108 Y-7.735
X-108.018 Y-7.723
X-108.035 Y-7.717
X-108.048 Y-7.714
X-108.06 Y-7.713
X-108.592
X-108.61
X-108.628 Y-7.717
X-108.64 Y-7.721
X-108.652 Y-7.727
X-108.665 Y-7.736
X-108.677 Y-7.748
X-108.696 Y-7.775
X-108.703 Y-7.788
X-108.767 Y-7.97
X-108.802 Y-8.054
X-108.88 Y-8.223
X-108.924 Y-8.308
X-109.094 Y-8.561
X-109.149 Y-8.632
X-109.163 Y-8.659
X-109.168 Y-8.689
X-109.177 Y-9.284
X-109.188 Y-9.99
X-109.181 Y-10.029
X-109.159 Y-10.062
X-109.138 Y-10.082
X-109.1 Y-10.128
X-109.073 Y-10.166
X-109.03 Y-10.25
X-108.995 Y-10.317
X-108.877 Y-10.409
X-108.734 Y-10.456
X-108.585 Y-10.468
X-108.436 Y-10.452
X-108.291 Y-10.412
X-108.155 Y-10.35
X-108.089 Y-10.308
X-108.014 Y-10.241
X-107.966 Y-10.153
X-107.949 Y-10.055
Y-9.732
X-107.956 Y-9.699
X-107.973 Y-9.67
X-108 Y-9.648
X-108.031 Y-9.637
X-108.065 Y-9.636
X-108.097 Y-9.647
X-108.415 Y-9.821
X-108.983 Y-10.132
X-109.01 Y-10.153
X-109.028 Y-10.183
X-109.035 Y-10.216
X-109.03 Y-10.25
X-109.015 Y-10.29
X-109.002 Y-10.335
X-108.996 Y-10.381
X-108.981 Y-10.455
X-108.89 Y-10.574
X-108.758 Y-10.645
X-108.612 Y-10.68
X-108.462 Y-10.685
X-108.313 Y-10.664
X-108.169 Y-10.622
X-108.119 Y-10.598
X-108.029 Y-10.532
X-107.97 Y-10.437
X-107.949 Y-10.328
Y-10.055
X-107.957 Y-10.018
X-107.979 Y-9.987
X-108.01 Y-9.966
X-108.047 Y-9.958
X-108.084 Y-9.964
X-108.318 Y-10.051
X-108.931 Y-10.277
X-108.959 Y-10.293
X-108.981 Y-10.318
X-108.994 Y-10.348
X-108.996 Y-10.381
X-108.99 Y-10.419
X-108.988 Y-10.504
Y-10.55
X-108.984 Y-10.625
X-108.905 Y-10.753
X-108.782 Y-10.839
X-108.641 Y-10.89
X-108.493 Y-10.912
X-108.343 Y-10.909
X-108.195 Y-10.882
X-108.142 Y-10.861
X-108.041 Y-10.797
X-107.973 Y-10.699
X-107.949 Y-10.581
Y-10.328
X-107.957 Y-10.293
X-107.976 Y-10.263
X-108.005 Y-10.242
X-108.039 Y-10.232
X-108.075 Y-10.235
X-108.278 Y-10.288
X-108.914 Y-10.457
X-108.943 Y-10.47
X-108.966 Y-10.491
X-108.982 Y-10.519
X-108.988 Y-10.55
Y-10.719
X-108.984 Y-10.794
X-108.925 Y-10.932
X-108.813 Y-11.031
X-108.678 Y-11.097
X-108.533 Y-11.135
X-108.383 Y-11.147
X-108.234 Y-11.133
X-108.164 Y-11.112
X-108.052 Y-11.051
X-107.976 Y-10.949
X-107.949 Y-10.825
Y-10.581
X-107.956 Y-10.548
X-107.974 Y-10.519
X-108 Y-10.498
X-108.031 Y-10.486
X-108.065
X-108.265 Y-10.519
X-108.904 Y-10.624
X-108.936 Y-10.635
X-108.963 Y-10.657
X-108.981 Y-10.686
X-108.988 Y-10.719
Y-10.926
X-108.984 Y-11.001
X-108.926 Y-11.139
X-108.817 Y-11.243
X-108.685 Y-11.315
X-108.542 Y-11.359
X-108.393 Y-11.379
X-108.244 Y-11.37
X-108.174 Y-11.352
X-108.058 Y-11.293
X-107.978 Y-11.189
X-107.949 Y-11.062
Y-10.825
X-107.956 Y-10.792
X-107.972 Y-10.764
X-107.997 Y-10.742
X-108.028 Y-10.73
X-108.061 Y-10.729
X-108.261 Y-10.753
X-108.9 Y-10.83
X-108.934 Y-10.841
X-108.962 Y-10.862
X-108.98 Y-10.892
X-108.988 Y-10.926
Y-11.142
X-108.984 Y-11.217
X-108.926 Y-11.355
X-108.82 Y-11.461
X-108.691 Y-11.537
X-108.549 Y-11.586
X-108.401 Y-11.61
X-108.251 Y-11.604
X-108.18 Y-11.587
X-108.061 Y-11.529
X-107.979 Y-11.425
X-107.949 Y-11.295
Y-11.062
X-107.956 Y-11.03
X-107.972 Y-11.002
X-107.996 Y-10.98
X-108.026 Y-10.968
X-108.059 Y-10.966
X-108.259 Y-10.985
X-108.897 Y-11.046
X-108.932 Y-11.055
X-108.961 Y-11.077
X-108.98 Y-11.107
X-108.988 Y-11.142
Y-11.349
X-108.984 Y-11.423
X-108.935 Y-11.565
X-108.833 Y-11.676
X-108.707 Y-11.757
X-108.567 Y-11.811
X-108.42 Y-11.839
X-108.27 Y-11.838
X-108.123 Y-11.809
X-108.115 Y-11.804
X-108.027 Y-11.738
X-107.969 Y-11.644
X-107.949 Y-11.536
Y-11.295
X-107.958 Y-11.257
X-107.982 Y-11.225
X-108.016 Y-11.204
X-108.055 Y-11.199
X-108.257 Y-11.212
X-108.894 Y-11.252
X-108.93 Y-11.261
X-108.96 Y-11.282
X-108.98 Y-11.313
X-108.988 Y-11.349
Y-11.602
X-108.984 Y-11.677
X-108.922 Y-11.814
X-108.817 Y-11.92
X-108.688 Y-11.997
X-108.547 Y-12.047
X-108.399 Y-12.072
X-108.249 Y-12.073
X-108.179 Y-12.056
X-108.06 Y-11.998
X-107.978 Y-11.894
X-107.949 Y-11.764
Y-11.536
X-107.955 Y-11.505
X-107.971 Y-11.477
X-107.995 Y-11.455
X-108.025 Y-11.443
X-108.057 Y-11.44
X-108.258 Y-11.456
X-108.896 Y-11.506
X-108.931 Y-11.515
X-108.96 Y-11.536
X-108.98 Y-11.567
X-108.988 Y-11.602
Y-11.817
X-108.984 Y-11.892
X-108.929 Y-12.032
X-108.826 Y-12.141
X-108.699 Y-12.221
X-108.559 Y-12.275
X-108.412 Y-12.305
X-108.262 Y-12.304
X-108.116 Y-12.274
X-108.112 Y-12.272
X-108.026 Y-12.205
X-107.969 Y-12.112
X-107.949 Y-12.005
Y-11.764
X-107.958 Y-11.726
X-107.982 Y-11.694
X-108.016 Y-11.673
X-108.055 Y-11.668
X-108.257 Y-11.681
X-108.894 Y-11.721
X-108.93 Y-11.73
X-108.96 Y-11.751
X-108.98 Y-11.782
X-108.988 Y-11.817
Y-12.071
X-108.984 Y-12.146
X-108.919 Y-12.281
X-108.811 Y-12.386
X-108.683 Y-12.463
X-108.541 Y-12.513
X-108.394 Y-12.538
X-108.244 Y-12.539
X-108.178 Y-12.523
X-108.06 Y-12.464
X-107.978 Y-12.36
X-107.949 Y-12.231
Y-12.005
X-107.955 Y-11.973
X-107.971 Y-11.946
X-107.995 Y-11.924
X-108.025 Y-11.911
X-108.057 Y-11.909
X-108.258 Y-11.925
X-108.896 Y-11.975
X-108.931 Y-11.984
X-108.96 Y-12.005
X-108.98 Y-12.035
X-108.988 Y-12.071
Y-12.278
X-108.984 Y-12.353
X-108.93 Y-12.493
X-108.828 Y-12.602
X-108.702 Y-12.684
X-108.562 Y-12.739
X-108.416 Y-12.77
X-108.266 Y-12.771
X-108.119 Y-12.741
X-108.114 Y-12.739
X-108.027 Y-12.672
X-107.969 Y-12.579
X-107.949 Y-12.471
Y-12.231
X-107.958 Y-12.193
X-107.982 Y-12.161
X-108.015 Y-12.141
X-108.055 Y-12.135
X-108.257 Y-12.146
X-108.893 Y-12.181
X-108.929 Y-12.19
X-108.959 Y-12.211
X-108.98 Y-12.242
X-108.988 Y-12.278
Y-12.493
X-108.98 Y-12.643
X-108.902 Y-12.771
X-108.789 Y-12.869
X-108.657 Y-12.942
X-108.514 Y-12.987
X-108.366 Y-13.006
X-108.216 Y-13.001
X-108.166 Y-12.987
X-108.054 Y-12.926
X-107.976 Y-12.824
X-107.949 Y-12.699
Y-12.471
X-107.958 Y-12.433
X-107.981 Y-12.402
X-108.013 Y-12.381
X-108.052 Y-12.374
X-108.256 Y-12.38
X-108.89 Y-12.397
X-108.927 Y-12.405
X-108.958 Y-12.426
X-108.979 Y-12.456
X-108.988 Y-12.493
Y-12.746
X-108.984 Y-12.821
X-108.93 Y-12.961
X-108.827 Y-13.071
X-108.701 Y-13.152
X-108.562 Y-13.207
X-108.415 Y-13.238
X-108.265 Y-13.239
X-108.118 Y-13.209
X-108.114 Y-13.207
X-108.027 Y-13.14
X-107.969 Y-13.047
X-107.949 Y-12.939
Y-12.699
X-107.958 Y-12.66
X-107.982 Y-12.629
X-108.016 Y-12.608
X-108.055 Y-12.603
X-108.257 Y-12.614
X-108.894 Y-12.65
X-108.929 Y-12.659
X-108.959 Y-12.68
X-108.98 Y-12.711
X-108.988 Y-12.746
Y-13
X-108.984 Y-13.075
X-108.92 Y-13.21
X-108.813 Y-13.316
X-108.685 Y-13.394
X-108.544 Y-13.446
X-108.397 Y-13.471
X-108.247 Y-13.473
X-108.18 Y-13.457
X-108.061 Y-13.399
X-107.978 Y-13.295
X-107.949 Y-13.165
Y-12.939
X-107.955 Y-12.908
X-107.971 Y-12.88
X-107.995 Y-12.858
X-108.024 Y-12.846
X-108.056 Y-12.843
X-108.258 Y-12.857
X-108.895 Y-12.904
X-108.93 Y-12.913
X-108.96 Y-12.934
X-108.98 Y-12.964
X-108.988 Y-13
Y-13.207
X-108.984 Y-13.282
X-108.932 Y-13.422
X-108.831 Y-13.533
X-108.705 Y-13.615
X-108.566 Y-13.671
X-108.419 Y-13.704
X-108.269 Y-13.705
X-108.122 Y-13.676
X-108.115 Y-13.673
X-108.027 Y-13.606
X-107.969 Y-13.513
X-107.949 Y-13.404
Y-13.165
X-107.958 Y-13.127
X-107.981 Y-13.095
X-108.015 Y-13.075
X-108.054 Y-13.069
X-108.257 Y-13.079
X-108.893 Y-13.11
X-108.929 Y-13.119
X-108.959 Y-13.14
X-108.98 Y-13.171
X-108.988 Y-13.207
Y-13.46
X-108.984 Y-13.535
X-108.922 Y-13.672
X-108.817 Y-13.779
X-108.689 Y-13.858
X-108.549 Y-13.91
X-108.401 Y-13.936
X-108.251 Y-13.939
X-108.182 Y-13.923
X-108.062 Y-13.865
X-107.979 Y-13.761
X-107.949 Y-13.631
Y-13.404
X-107.958 Y-13.366
X-107.982 Y-13.334
X-108.016 Y-13.313
X-108.056 Y-13.308
X-108.257 Y-13.321
X-108.895 Y-13.364
X-108.93 Y-13.373
X-108.96 Y-13.394
X-108.98 Y-13.425
X-108.988 Y-13.46
Y-13.676
X-108.984 Y-13.75
X-108.93 Y-13.89
X-108.828 Y-14.001
X-108.702 Y-14.082
X-108.563 Y-14.137
X-108.416 Y-14.169
X-108.266 Y-14.17
X-108.119 Y-14.14
X-108.114 Y-14.138
X-108.027 Y-14.071
X-107.969 Y-13.978
X-107.949 Y-13.87
Y-13.631
X-107.958 Y-13.592
X-107.982 Y-13.56
X-108.015 Y-13.54
X-108.054 Y-13.534
X-108.257 Y-13.545
X-108.893 Y-13.579
X-108.929 Y-13.588
X-108.959 Y-13.609
X-108.98 Y-13.64
X-108.988 Y-13.676
Y-13.929
X-108.984 Y-14.004
X-108.92 Y-14.14
X-108.815 Y-14.246
X-108.687 Y-14.325
X-108.546 Y-14.376
X-108.398 Y-14.402
X-108.248 Y-14.404
X-108.18 Y-14.388
X-108.061 Y-14.33
X-107.979 Y-14.226
X-107.949 Y-14.096
Y-13.87
X-107.955 Y-13.839
X-107.971 Y-13.811
X-107.995 Y-13.789
X-108.024 Y-13.777
X-108.056 Y-13.774
X-108.258 Y-13.788
X-108.895 Y-13.833
X-108.93 Y-13.842
X-108.96 Y-13.863
X-108.98 Y-13.893
X-108.988 Y-13.929
Y-14.136
X-108.984 Y-14.211
X-108.933 Y-14.352
X-108.832 Y-14.463
X-108.706 Y-14.545
X-108.567 Y-14.601
X-108.421 Y-14.634
X-108.271 Y-14.636
X-108.124 Y-14.607
X-108.116 Y-14.604
X-108.028 Y-14.537
X-107.969 Y-14.443
X-107.949 Y-14.335
Y-14.096
X-107.958 Y-14.058
X-107.981 Y-14.026
X-108.015 Y-14.006
X-108.054 Y-14
X-108.257 Y-14.009
X-108.893 Y-14.04
X-108.929 Y-14.048
X-108.959 Y-14.069
X-108.98 Y-14.1
X-108.988 Y-14.136
Y-14.389
X-108.984 Y-14.464
X-108.923 Y-14.601
X-108.818 Y-14.708
X-108.691 Y-14.788
X-108.55 Y-14.84
X-108.403 Y-14.867
X-108.253 Y-14.87
X-108.182 Y-14.854
X-108.062 Y-14.796
X-107.979 Y-14.691
X-107.949 Y-14.561
Y-14.335
X-107.958 Y-14.296
X-107.982 Y-14.264
X-108.016 Y-14.244
X-108.056 Y-14.239
X-108.257 Y-14.252
X-108.894 Y-14.293
X-108.93 Y-14.302
X-108.96 Y-14.323
X-108.98 Y-14.354
X-108.988 Y-14.389
Y-14.605
X-108.984 Y-14.68
X-108.931 Y-14.82
X-108.829 Y-14.93
X-108.704 Y-15.012
X-108.564 Y-15.068
X-108.418 Y-15.1
X-108.268 Y-15.101
X-108.121 Y-15.072
X-108.115 Y-15.069
X-108.027 Y-15.002
X-107.969 Y-14.909
X-107.949 Y-14.8
Y-14.561
X-107.958 Y-14.523
X-107.981 Y-14.491
X-108.015 Y-14.471
X-108.054 Y-14.465
X-108.257 Y-14.475
X-108.893 Y-14.508
X-108.929 Y-14.517
X-108.959 Y-14.538
X-108.98 Y-14.569
X-108.988 Y-14.605
Y-14.858
X-108.984 Y-14.933
X-108.921 Y-15.069
X-108.816 Y-15.176
X-108.688 Y-15.255
X-108.547 Y-15.306
X-108.4 Y-15.332
X-108.25 Y-15.335
X-108.181 Y-15.319
X-108.061 Y-15.261
X-107.979 Y-15.156
X-107.949 Y-15.027
Y-14.8
X-107.955 Y-14.769
X-107.971 Y-14.741
X-107.995 Y-14.72
X-108.024 Y-14.707
X-108.056 Y-14.704
X-108.258 Y-14.718
X-108.895 Y-14.762
X-108.93 Y-14.771
X-108.96 Y-14.792
X-108.98 Y-14.822
X-108.988 Y-14.858
Y-15.065
X-108.984 Y-15.14
X-108.933 Y-15.281
X-108.833 Y-15.393
X-108.708 Y-15.475
X-108.569 Y-15.532
X-108.422 Y-15.565
X-108.272 Y-15.567
X-108.125 Y-15.539
X-108.117 Y-15.534
X-108.028 Y-15.468
X-107.97 Y-15.374
X-107.949 Y-15.265
Y-15.027
X-107.958 Y-14.988
X-107.981 Y-14.957
X-108.015 Y-14.936
X-108.054 Y-14.93
X-108.257 Y-14.94
X-108.892 Y-14.969
X-108.928 Y-14.977
X-108.959 Y-14.998
X-108.98 Y-15.029
X-108.988 Y-15.065
Y-15.318
X-108.984 Y-15.393
X-108.923 Y-15.531
X-108.819 Y-15.638
X-108.692 Y-15.718
X-108.551 Y-15.771
X-108.404 Y-15.798
X-108.254 Y-15.801
X-108.183 Y-15.784
X-108.062 Y-15.726
X-107.979 Y-15.622
X-107.949 Y-15.492
Y-15.265
X-107.958 Y-15.227
X-107.982 Y-15.195
X-108.016 Y-15.174
X-108.055 Y-15.169
X-108.257 Y-15.182
X-108.894 Y-15.222
X-108.93 Y-15.231
X-108.96 Y-15.252
X-108.98 Y-15.283
X-108.988 Y-15.318
Y-15.534
X-108.984 Y-15.609
X-108.932 Y-15.749
X-108.83 Y-15.86
X-108.705 Y-15.942
X-108.566 Y-15.998
X-108.419 Y-16.03
X-108.269 Y-16.031
X-108.122 Y-16.003
X-108.115 Y-15.999
X-108.027 Y-15.933
X-107.969 Y-15.839
X-107.949 Y-15.731
Y-15.492
X-107.958 Y-15.454
X-107.981 Y-15.422
X-108.015 Y-15.401
X-108.054 Y-15.395
X-108.257 Y-15.406
X-108.893 Y-15.437
X-108.929 Y-15.446
X-108.959 Y-15.467
X-108.98 Y-15.498
X-108.988 Y-15.534
Y-15.787
X-108.984 Y-15.862
X-108.922 Y-15.999
X-108.817 Y-16.106
X-108.689 Y-16.185
X-108.548 Y-16.237
X-108.401 Y-16.263
X-108.251 Y-16.265
X-108.181 Y-16.249
X-108.062 Y-16.191
X-107.979 Y-16.087
X-107.949 Y-15.957
Y-15.731
X-107.955 Y-15.699
X-107.971 Y-15.672
X-107.995 Y-15.65
X-108.024 Y-15.637
X-108.056 Y-15.635
X-108.257 Y-15.648
X-108.895 Y-15.691
X-108.93 Y-15.7
X-108.96 Y-15.721
X-108.98 Y-15.752
X-108.988 Y-15.787
Y-15.994
X-108.98 Y-16.144
X-108.899 Y-16.27
X-108.785 Y-16.367
X-108.652 Y-16.437
X-108.509 Y-16.482
X-108.36 Y-16.501
X-108.211 Y-16.489
X-108.165 Y-16.475
X-108.053 Y-16.414
X-107.976 Y-16.312
X-107.949 Y-16.187
Y-15.957
X-107.958 Y-15.919
X-107.981 Y-15.887
X-108.015 Y-15.867
X-108.053 Y-15.861
X-108.257 Y-15.87
X-108.892 Y-15.898
X-108.928 Y-15.906
X-108.959 Y-15.927
X-108.98 Y-15.958
X-108.988 Y-15.994
Y-16.248
X-108.984 Y-16.322
X-108.927 Y-16.461
X-108.823 Y-16.569
X-108.696 Y-16.649
X-108.556 Y-16.703
X-108.408 Y-16.731
X-108.258 Y-16.729
X-108.112 Y-16.696
X-108.025 Y-16.629
X-107.969 Y-16.536
X-107.949 Y-16.43
Y-16.187
X-107.955 Y-16.156
X-107.971 Y-16.128
X-107.995 Y-16.107
X-108.024 Y-16.094
X-108.056 Y-16.091
X-108.258 Y-16.106
X-108.895 Y-16.151
X-108.93 Y-16.16
X-108.96 Y-16.182
X-108.98 Y-16.212
X-108.988 Y-16.248
Y-16.463
X-108.984 Y-16.538
X-108.934 Y-16.679
X-108.833 Y-16.791
X-108.708 Y-16.874
X-108.569 Y-16.93
X-108.422 Y-16.96
X-108.272 Y-16.966
X-108.125 Y-16.937
X-108.032 Y-16.871
X-107.971 Y-16.776
X-107.949 Y-16.664
Y-16.43
X-107.958 Y-16.392
X-107.981 Y-16.36
X-108.014 Y-16.339
X-108.053 Y-16.333
X-108.257 Y-16.341
X-108.892 Y-16.367
X-108.928 Y-16.375
X-108.959 Y-16.396
X-108.98 Y-16.427
X-108.988 Y-16.463
Y-16.716
X-108.984 Y-16.791
X-108.924 Y-16.929
X-108.819 Y-17.036
X-108.692 Y-17.115
X-108.551 Y-17.168
X-108.404 Y-17.196
X-108.254 Y-17.199
X-108.183 Y-17.183
X-108.063 Y-17.125
X-107.979 Y-17.021
X-107.949 Y-16.89
Y-16.664
X-107.958 Y-16.626
X-107.982 Y-16.594
X-108.016 Y-16.573
X-108.055 Y-16.568
X-108.257 Y-16.581
X-108.894 Y-16.62
X-108.93 Y-16.629
X-108.96 Y-16.65
X-108.98 Y-16.681
X-108.988 Y-16.716
Y-16.923
Y-16.97
Y-17.008
X-108.986 Y-17.044
X-108.971 Y-17.072
X-108.905 Y-17.157
X-108.812 Y-17.213
X-108.706 Y-17.233
X-108.671 Y-17.225
X-108.641 Y-17.206
X-108.62 Y-17.177
X-108.61 Y-17.143
X-108.613 Y-17.107
X-108.628 Y-17.075
X-108.653 Y-17.05
X-108.832 Y-16.929
X-108.864 Y-16.914
X-108.899 Y-16.912
X-108.933 Y-16.922
X-108.961 Y-16.943
X-108.98 Y-16.973
X-108.988 Y-17.008
Y-17.113
Y-17.124
X-108.986 Y-17.134
X-108.984 Y-17.145
X-108.98 Y-17.156
X-108.975 Y-17.166
X-108.968 Y-17.177
X-108.952 Y-17.196
X-108.941 Y-17.207
X-108.931 Y-17.215
X-108.92 Y-17.222
X-108.91 Y-17.226
X-108.899 Y-17.23
X-108.888 Y-17.232
X-108.846 Y-17.233
X-108.123
X-108.085
X-108.04 Y-17.225
X-108.001 Y-17.206
X-107.969 Y-17.177
X-107.952 Y-17.135
X-107.95 Y-17.089
X-107.963 Y-17.046
G3 X-108.197 Y-17.159 I-0.117 J-0.057
X-108.085 Y-17.233 I0.117 J0.057
G1 X-108.053 Y-17.232
X-108.042 Y-17.231
X-108.032 Y-17.228
X-108.021 Y-17.224
X-108.011 Y-17.218
X-108 Y-17.21
X-107.983 Y-17.194
X-107.969 Y-17.177
X-107.962 Y-17.166
X-107.957 Y-17.156
X-107.953 Y-17.145
X-107.951 Y-17.134
X-107.949 Y-17.124
Y-16.89
X-107.954 Y-16.862
X-107.967 Y-16.837
X-107.996 Y-16.82 Z-0.983
X-108.021 Y-16.805 Z-0.966
X-108.04 Y-16.794 Z-0.939
X-108.049 Z-0.916
X-108.053 Z-0.89
G0 Z2
X-90.78 Y-13.2
Z0.5
G3 X-90.296 Y-13.325 Z0.29 I0.242 J-0.062 F333.3
X-90.78 Y-13.2 Z0.079 I-0.242 J0.062
X-90.296 Y-13.325 Z-0.131 I0.242 J-0.062
X-90.78 Y-13.2 Z-0.342 I-0.242 J0.062
X-90.296 Y-13.325 Z-0.552 I0.242 J-0.062
X-90.78 Y-13.2 Z-0.763 I-0.242 J0.062
X-90.569 Y-13.511 Z-0.876 I0.242 J-0.062
X-90.288 Y-13.263 Z-0.99 I0.031 J0.248
X-90.788 I-0.25
X-90.288 I0.25
G1 X-90.251 Y-13.117 F1000
X-90.264 Y-13.043
X-90.301 Y-12.978
X-90.408 Y-12.873
X-90.552 Y-12.833
X-90.701 Y-12.855
X-90.831 Y-12.929
X-90.928 Y-13.043
X-90.98 Y-13.184
X-90.982 Y-13.334
X-90.935 Y-13.476
X-90.843 Y-13.595
X-90.717 Y-13.676
X-90.571 Y-13.712
X-90.422 Y-13.698
X-90.285 Y-13.636
X-90.177 Y-13.533
X-90.099 Y-13.405
X-90.048 Y-13.263
X-90.038 Y-13.114
X-90.073 Y-12.968
X-90.144 Y-12.835
X-90.252 Y-12.732
X-90.383 Y-12.658
X-90.529 Y-12.625
X-90.679 Y-12.632
X-90.823 Y-12.673
X-90.953 Y-12.749
X-91.059 Y-12.855
X-91.141 Y-12.98
X-91.152 Y-13.012
X-91.168 Y-13.081
X-91.167 Y-13.151
X-91.149 Y-13.22
X-91.057 Y-13.46
X-91.026 Y-13.545
X-91.014 Y-13.591
X-90.992 Y-13.663
X-90.902 Y-13.783
X-90.778 Y-13.868
X-90.636 Y-13.914
X-90.486 Y-13.923
X-90.338 Y-13.9
X-90.2 Y-13.84
X-90.079 Y-13.751
X-89.976 Y-13.641
X-89.943 Y-13.57
X-89.928 Y-13.493
X-89.934 Y-13.415
X-89.962 Y-13.291
X-90.01 Y-13.08
X-90.013 Y-13.07
X-90.029 Y-13.038
X-90.165 Y-12.784
X-90.251 Y-12.639
X-90.292 Y-12.577
X-90.406 Y-12.478
X-90.548 Y-12.43
X-90.697 Y-12.421
X-90.845 Y-12.448
X-90.984 Y-12.504
X-91.111 Y-12.584
X-91.221 Y-12.686
X-91.229 Y-12.697
X-91.275 Y-12.797
X-91.283 Y-12.906
X-91.25 Y-13.01
X-91.192 Y-13.122
X-91.164 Y-13.18
X-91.149 Y-13.22
X-91.13 Y-13.249
X-91.102 Y-13.27
X-91.068 Y-13.28
X-91.033 Y-13.277
X-91.001 Y-13.263
X-90.809 Y-13.131
X-90.282 Y-12.769
X-90.256 Y-12.744
X-90.242 Y-12.71
X-90.24 Y-12.674
X-90.251 Y-12.639
X-90.318 Y-12.525
X-90.375 Y-12.447
X-90.403 Y-12.411
X-90.501 Y-12.298
X-90.64 Y-12.242
X-90.79 Y-12.229
X-90.938 Y-12.249
X-91.081 Y-12.297
X-91.213 Y-12.368
X-91.328 Y-12.464
X-91.335 Y-12.474
X-91.387 Y-12.576
X-91.396 Y-12.691
X-91.362 Y-12.8
X-91.28 Y-12.953
X-91.25 Y-13.01
X-91.229 Y-13.036
X-91.201 Y-13.054
X-91.168 Y-13.061
X-91.135 Y-13.057
X-91.105 Y-13.042
X-90.935 Y-12.919
X-90.425 Y-12.551
X-90.399 Y-12.522
X-90.385 Y-12.486
X-90.387 Y-12.447
X-90.403 Y-12.411
X-90.572 Y-12.194
X-90.621 Y-12.138
X-90.753 Y-12.066
X-90.901 Y-12.045
X-91.05 Y-12.058
X-91.194 Y-12.1
X-91.329 Y-12.167
X-91.445 Y-12.262
X-91.471 Y-12.296
X-91.527 Y-12.424
X-91.52 Y-12.564
X-91.449 Y-12.685
X-91.424 Y-12.703
X-91.395 Y-12.713
X-91.364
X-91.335 Y-12.703
X-91.157 Y-12.615
X-90.609 Y-12.343
X-90.581 Y-12.322
X-90.562 Y-12.293
X-90.553 Y-12.26
X-90.557 Y-12.226
X-90.572 Y-12.194
X-90.64 Y-12.109
X-90.657 Y-12.091
X-90.826 Y-11.968
X-90.952 Y-11.886
X-91.101 Y-11.87
X-91.25 Y-11.891
X-91.39 Y-11.944
X-91.517 Y-12.023
X-91.602 Y-12.11
X-91.666 Y-12.207
X-91.687 Y-12.321
X-91.665 Y-12.434
X-91.601 Y-12.531
X-91.503 Y-12.629
X-91.449 Y-12.685
X-91.423 Y-12.704
X-91.392 Y-12.713
X-91.359 Y-12.712
X-91.329 Y-12.7
X-91.304 Y-12.679
X-91.22 Y-12.583
X-90.812 Y-12.113
X-90.795 Y-12.085
X-90.788 Y-12.054
X-90.791 Y-12.021
X-90.804 Y-11.992
X-90.826 Y-11.968
X-90.995 Y-11.846
X-91.08 Y-11.791
X-91.215 Y-11.726
X-91.365 Y-11.728
X-91.509 Y-11.768
X-91.64 Y-11.841
X-91.753 Y-11.94
X-91.794 Y-12.001
X-91.843 Y-12.134
X-91.826 Y-12.275
X-91.745 Y-12.392
X-91.684 Y-12.447
X-91.601 Y-12.531
X-91.572 Y-12.55
X-91.538 Y-12.558
X-91.504 Y-12.554
X-91.473 Y-12.539
X-91.449 Y-12.514
X-91.407 Y-12.451
X-91.054 Y-11.929
X-91.039 Y-11.894
Y-11.855
X-91.053 Y-11.819
X-91.08 Y-11.791
X-91.305 Y-11.667
X-91.44 Y-11.602
X-91.59 Y-11.607
X-91.732 Y-11.656
X-91.856 Y-11.74
X-91.955 Y-11.852
X-91.983 Y-11.907
X-92.016 Y-12.046
X-91.981 Y-12.184
X-91.886 Y-12.291
X-91.783 Y-12.362
X-91.757 Y-12.382
X-91.745 Y-12.392
X-91.715 Y-12.409
X-91.681 Y-12.415
X-91.647 Y-12.409
X-91.617 Y-12.392
X-91.595 Y-12.365
X-91.585 Y-12.348
X-91.27 Y-11.803
X-91.257 Y-11.767
X-91.26 Y-11.728
X-91.276 Y-11.693
X-91.305 Y-11.667
X-91.503 Y-11.562
X-91.524 Y-11.552
X-91.545 Y-11.544
X-91.623 Y-11.525
X-91.77 Y-11.495
X-91.912 Y-11.543
X-92.037 Y-11.626
X-92.133 Y-11.741
X-92.159 Y-11.795
X-92.19 Y-11.938
X-92.15 Y-12.079
X-92.047 Y-12.184
X-92.011 Y-12.207
X-91.886 Y-12.291
X-91.852 Y-12.304
X-91.816 Y-12.305
X-91.781 Y-12.292
X-91.754 Y-12.268
X-91.737 Y-12.236
X-91.555 Y-11.65
X-91.551 Y-11.611
X-91.562 Y-11.573
X-91.588 Y-11.543
X-91.623 Y-11.525
X-91.888 Y-11.458
X-91.926 Y-11.448
X-92 Y-11.44
X-92.142 Y-11.489
X-92.26 Y-11.582
X-92.344 Y-11.706
X-92.358 Y-11.752
X-92.369 Y-11.865
X-92.338 Y-11.975
X-92.267 Y-12.065
X-92.168 Y-12.122
X-92.137 Y-12.126
X-92.105 Y-12.121
X-92.077 Y-12.105
X-92.055 Y-12.081
X-92.042 Y-12.052
X-91.914 Y-11.561
X-91.911 Y-11.529
X-91.919 Y-11.497
X-91.936 Y-11.47
X-91.961 Y-11.449
X-91.991 Y-11.438
X-92.142 Y-11.413
X-92.216 Y-11.405
X-92.358 Y-11.452
X-92.471 Y-11.551
X-92.545 Y-11.682
X-92.553 Y-11.727
X-92.543 Y-11.872
X-92.466 Y-11.996
X-92.339 Y-12.069
X-92.264 Y-12.09
X-92.168 Y-12.122
X-92.131 Y-12.126
X-92.094 Y-12.116
X-92.064 Y-12.093
X-92.045 Y-12.06
X-92.039 Y-12.022
X-92.061 Y-11.507
X-92.068 Y-11.475
X-92.085 Y-11.446
X-92.111 Y-11.425
X-92.142 Y-11.413
X-92.18 Y-11.407
X-92.264 Y-11.396
X-92.349 Y-11.387
X-92.424 Y-11.382
X-92.567 Y-11.428
X-92.676 Y-11.531
X-92.71 Y-11.608
X-92.736 Y-11.733
X-92.707 Y-11.857
X-92.63 Y-11.958
X-92.517 Y-12.018
X-92.339 Y-12.069
X-92.301 Y-12.071
X-92.265 Y-12.058
X-92.237 Y-12.033
X-92.219 Y-12
X-92.216 Y-11.962
X-92.264 Y-11.476
X-92.272 Y-11.444
X-92.291 Y-11.417
X-92.317 Y-11.397
X-92.349 Y-11.387
X-92.434 Y-11.378
X-92.518 Y-11.37
X-92.565
X-92.64 Y-11.373
X-92.71 Y-11.398
X-92.832 Y-11.486
X-92.906 Y-11.616
X-92.912 Y-11.656
X-92.907 Y-11.774
X-92.856 Y-11.881
X-92.768 Y-11.96
X-92.656 Y-11.999
X-92.517 Y-12.018
X-92.478 Y-12.02
X-92.441 Y-12.006
X-92.413 Y-11.98
X-92.396 Y-11.944
X-92.395 Y-11.904
X-92.471 Y-11.453
X-92.482 Y-11.421
X-92.503 Y-11.395
X-92.532 Y-11.377
X-92.565 Y-11.37
X-92.772 Y-11.368
X-92.846 Y-11.378
X-92.915 Y-11.408
X-93.033 Y-11.5
X-93.094 Y-11.637
X-93.096 Y-11.668
X-93.078 Y-11.78
X-93.021 Y-11.878
X-92.931 Y-11.947
X-92.822 Y-11.979
X-92.772 Y-11.983
X-92.656 Y-11.999
X-92.617 Y-11.995
X-92.583 Y-11.976
X-92.558 Y-11.946
X-92.546 Y-11.909
X-92.55 Y-11.87
X-92.681 Y-11.439
X-92.694 Y-11.411
X-92.715 Y-11.389
X-92.742 Y-11.374
X-92.772 Y-11.368
X-92.857 Y-11.375
X-92.988 Y-11.389
X-93.062 Y-11.4
X-93.127 Y-11.437
X-93.234 Y-11.542
X-93.277 Y-11.686
X-93.276 Y-11.694
X-93.231 Y-11.826
X-93.132 Y-11.923
X-92.999 Y-11.965
X-92.822 Y-11.979
X-92.789 Y-11.975
X-92.759 Y-11.96
X-92.735 Y-11.936
X-92.721 Y-11.906
X-92.717 Y-11.873
X-92.725 Y-11.84
X-92.888 Y-11.45
X-92.905 Y-11.423
X-92.928 Y-11.403
X-92.957 Y-11.391
X-92.988 Y-11.389
X-93.026 Y-11.393
X-93.11 Y-11.405
X-93.23 Y-11.433
X-93.302 Y-11.454
X-93.357 Y-11.505
X-93.435 Y-11.633
X-93.436 Y-11.645
X-93.417 Y-11.77
X-93.349 Y-11.875
X-93.244 Y-11.944
X-93.12 Y-11.963
X-93.064
X-93.026
X-92.999 Y-11.965
X-92.963 Y-11.96
X-92.932 Y-11.943
X-92.909 Y-11.915
X-92.897 Y-11.881
X-92.898 Y-11.845
X-92.911 Y-11.811
X-93.127 Y-11.477
X-93.154 Y-11.449
X-93.19 Y-11.433
X-93.23
X-93.364 Y-11.464
X-93.411 Y-11.48
X-93.481 Y-11.506
X-93.529 Y-11.564
X-93.591 Y-11.7
X-93.559 Y-11.81
X-93.489 Y-11.9
X-93.39 Y-11.957
X-93.277 Y-11.972
X-93.12 Y-11.963
X-93.084 Y-11.954
X-93.055 Y-11.932
X-93.036 Y-11.901
X-93.029 Y-11.865
X-93.035 Y-11.829
X-93.054 Y-11.798
X-93.308 Y-11.51
X-93.337 Y-11.487
X-93.373 Y-11.476
X-93.411 Y-11.48
X-93.523 Y-11.517
X-93.58 Y-11.544
X-93.646 Y-11.58
X-93.688 Y-11.642
X-93.71 Y-11.714
X-93.685 Y-11.829
X-93.615 Y-11.922
X-93.511 Y-11.978
X-93.394 Y-11.985
X-93.364 Y-11.98
X-93.277 Y-11.972
X-93.24 Y-11.962
X-93.21 Y-11.938
X-93.191 Y-11.905
X-93.186 Y-11.867
X-93.195 Y-11.831
X-93.217 Y-11.8
X-93.471 Y-11.563
X-93.504 Y-11.542
X-93.542 Y-11.536
X-93.58 Y-11.544
X-93.703 Y-11.605
X-93.728 Y-11.619
X-93.76 Y-11.639
X-93.801 Y-11.701
Y-11.822
X-93.744 Y-11.928
X-93.644 Y-11.994
X-93.524 Y-12.005
X-93.394 Y-11.985
X-93.358 Y-11.97
X-93.33 Y-11.942
X-93.315 Y-11.906
Y-11.867
X-93.33 Y-11.831
X-93.358 Y-11.803
X-93.628 Y-11.625
X-93.66 Y-11.611
X-93.695 Y-11.609
X-93.728 Y-11.619
X-93.787 Y-11.651
X-93.82 Y-11.671
X-93.852 Y-11.691
X-93.897 Y-11.751
X-93.898 Y-11.755
X-93.893 Y-11.869
X-93.832 Y-11.966
X-93.732 Y-12.021
X-93.618
X-93.524 Y-12.005
X-93.487 Y-11.99
X-93.459 Y-11.962
X-93.444 Y-11.926
X-93.445 Y-11.886
X-93.46 Y-11.85
X-93.489 Y-11.823
X-93.719 Y-11.675
X-93.751 Y-11.661
X-93.787 Y-11.66
X-93.82 Y-11.671
X-93.93 Y-11.735
X-93.961 Y-11.755
X-93.996 Y-11.821
X-93.981 Y-11.923
X-93.92 Y-12.006
X-93.829 Y-12.052
X-93.726 Y-12.05
X-93.618 Y-12.021
X-93.587 Y-12.005
X-93.563 Y-11.98
X-93.55 Y-11.948
X-93.548 Y-11.914
X-93.558 Y-11.88
X-93.578 Y-11.853
X-93.607 Y-11.834
X-93.842 Y-11.731
X-93.872 Y-11.723
X-93.901 Y-11.725
X-93.93 Y-11.735
X-94.019 Y-11.787
X-94.05 Y-11.808
X-94.085 Y-11.874
X-94.068 Y-11.966
X-94.011 Y-12.04
X-93.927 Y-12.081
X-93.833 Y-12.078
X-93.726 Y-12.05
X-93.694 Y-12.033
X-93.671 Y-12.004
X-93.66 Y-11.97
X-93.663 Y-11.933
G3 X-94.019 Y-11.787 I-0.236 J-0.07
G1 X-94.126 Y-11.851
X-94.157 Y-11.872
X-94.177 Y-11.944
X-94.148 Y-12.032
X-94.081 Y-12.096
X-93.992 Y-12.121
X-93.902 Y-12.102
X-93.882 Y-12.088
X-93.868 Y-12.068
X-93.86 Y-12.045
G3 X-94.126 Y-11.851 I-0.178 J0.035
G1 X-94.21 Y-11.902
X-94.242 Y-11.921
X-94.265 Y-11.992
X-94.234 Y-12.078
X-94.167 Y-12.139
X-94.079 Y-12.163
X-93.99 Y-12.144
X-93.902 Y-12.102
X-93.876 Y-12.081
X-93.862 Y-12.05
Y-12.017
X-93.875 Y-11.986
G3 X-94.21 Y-11.902 I-0.219 J-0.16
G1 X-94.221 Y-11.907
X-94.252 Y-11.918
X-94.288 Y-11.93
X-94.313 Y-11.958
X-94.344 Y-12.026
X-94.317 Y-12.113
X-94.252 Y-12.178
X-94.165 Y-12.204
X-94.075 Y-12.185
X-93.99 Y-12.144
X-93.968 Y-12.127
X-93.954 Y-12.102
X-93.951 Y-12.074
X-93.96 Y-12.046
G3 X-94.252 Y-11.918 I-0.228 J-0.121
G1 X-94.295 Y-11.93
X-94.344 Y-11.94
X-94.38 Y-11.947
X-94.426 Y-12.007
X-94.442 Y-12.08
X-94.406 Y-12.167
X-94.335 Y-12.227
X-94.244 Y-12.248
X-94.153 Y-12.224
X-94.126 Y-12.21
X-94.075 Y-12.185
X-94.053 Y-12.167
X-94.04 Y-12.142
X-94.039 Y-12.114
X-94.049 Y-12.087
G3 X-94.344 Y-11.94 I-0.272 J-0.176
G1 X-94.379 Y-11.944
X-94.426
X-94.463 Y-11.946
X-94.52 Y-11.995
X-94.547 Y-12.065
Y-12.068
X-94.52 Y-12.183
X-94.436 Y-12.265
X-94.322 Y-12.292
X-94.21 Y-12.255
X-94.153 Y-12.224
X-94.132 Y-12.206
X-94.119 Y-12.18
X-94.117 Y-12.151
X-94.126 Y-12.124
G3 X-94.426 Y-11.944 I-0.31 J-0.175
G1 X-94.464
X-94.493 Y-11.94
X-94.53 Y-11.936
X-94.565 Y-11.951
X-94.623 Y-11.998
X-94.655 Y-12.066
X-94.664 Y-12.141
X-94.614 Y-12.252
X-94.516 Y-12.326
X-94.395 Y-12.345
X-94.28 Y-12.303
X-94.21 Y-12.255
X-94.183 Y-12.226
X-94.17 Y-12.188
X-94.173 Y-12.149
X-94.19 Y-12.113
X-94.22 Y-12.087
X-94.463 Y-11.951
X-94.493 Y-11.94
X-94.549 Y-11.931
X-94.595 Y-11.916
X-94.631 Y-11.906
X-94.7 Y-11.938
X-94.752 Y-11.991
X-94.785 Y-12.059
X-94.811 Y-12.206
X-94.809 Y-12.21
X-94.736 Y-12.324
X-94.619 Y-12.394
X-94.484 Y-12.405
X-94.357 Y-12.356
X-94.28 Y-12.303
X-94.255 Y-12.275
X-94.241 Y-12.241
Y-12.203
X-94.255 Y-12.169
X-94.28 Y-12.141
X-94.595 Y-11.916
X-94.633 Y-11.904
X-94.675 Y-11.883
X-94.709 Y-11.867
X-94.782 Y-11.882
X-94.908 Y-11.964
X-94.982 Y-12.095
Y-12.245
X-94.929 Y-12.385
X-94.906 Y-12.412
X-94.814 Y-12.486
X-94.7 Y-12.518
X-94.582 Y-12.504
X-94.479 Y-12.445
X-94.464 Y-12.432
X-94.357 Y-12.356
X-94.334 Y-12.331
X-94.32 Y-12.299
X-94.317 Y-12.265
X-94.327 Y-12.232
X-94.347 Y-12.204
X-94.675 Y-11.883
X-94.718 Y-11.859
X-94.747 Y-11.836
X-94.778 Y-11.814
X-94.852 Y-11.806
X-94.998 Y-11.842
X-95.11 Y-11.942
X-95.172 Y-12.079
X-95.186 Y-12.228
X-95.161 Y-12.376
X-95.092 Y-12.509
X-94.987 Y-12.617
X-94.931 Y-12.649
X-94.888 Y-12.669
X-94.843 Y-12.682
X-94.796 Y-12.688
X-94.749 Y-12.69
X-94.739 Y-12.689
X-94.728 Y-12.686
X-94.718 Y-12.683
X-94.708 Y-12.678
X-94.678 Y-12.658
X-94.667 Y-12.649
X-94.549 Y-12.515
X-94.479 Y-12.445
X-94.459 Y-12.419
X-94.449 Y-12.387
Y-12.354
X-94.461 Y-12.322
X-94.726 Y-11.862
X-94.747 Y-11.836
X-94.802 Y-11.792
X-94.825 Y-11.771
X-94.852 Y-11.745
X-94.922 Y-11.716
X-95.072 Y-11.714
X-95.205 Y-11.783
X-95.307 Y-11.893
X-95.372 Y-12.029
X-95.401 Y-12.176
X-95.397 Y-12.326
X-95.362 Y-12.472
X-95.345 Y-12.507
X-95.282 Y-12.593
X-95.193 Y-12.651
X-95.089 Y-12.675
X-94.796 Y-12.688
X-94.762 Y-12.683
X-94.732 Y-12.666
X-94.709 Y-12.64
X-94.697 Y-12.608
X-94.696 Y-12.574
X-94.7 Y-12.544
X-94.805 Y-11.818
X-94.812 Y-11.793
X-94.825 Y-11.771
X-94.859 Y-11.731
X-94.887 Y-11.691
X-94.93 Y-11.629
X-94.998 Y-11.597
X-95.146 Y-11.575
X-95.289 Y-11.62
X-95.412 Y-11.707
X-95.509 Y-11.821
X-95.579 Y-11.954
X-95.596 Y-12.015
X-95.601 Y-12.045
X-95.609 Y-12.109
X-95.615 Y-12.155
X-95.62 Y-12.193
X-95.631 Y-12.343
X-95.598 Y-12.49
X-95.535 Y-12.578
X-95.445 Y-12.638
X-95.34 Y-12.663
X-95.306 Y-12.657
X-95.276 Y-12.641
X-95.254 Y-12.615
X-95.241 Y-12.584
X-95.24 Y-12.55
X-95.25 Y-12.517
X-95.432 Y-12.163
X-95.454 Y-12.135
X-95.484 Y-12.116
X-95.519 Y-12.109
X-95.554 Y-12.115
X-95.585 Y-12.132
X-95.608 Y-12.16
X-95.62 Y-12.193
X-95.658 Y-12.493
X-95.663 Y-12.531
Y-12.546
X-95.658 Y-12.567
X-95.64 Y-12.594
X-95.612 Y-12.609
X-95.579
X-95.551 Y-12.594
X-95.533 Y-12.567
X-95.53 Y-12.535
X-95.542 Y-12.505
X-95.567 Y-12.485
X-95.599 Y-12.478
X-95.63 Y-12.488
X-95.653 Y-12.511
X-95.66 Y-12.528
X-95.663 Y-12.546
X-95.66 Y-12.56
X-95.656 Y-12.575
X-95.648 Y-12.589
X-95.63 Y-12.616
X-95.613 Y-12.632
X-95.597 Y-12.642
X-95.58 Y-12.649
X-95.564 Y-12.652
X-95.089 Y-12.675
X-95.054 Y-12.669
X-95.023 Y-12.65
X-95 Y-12.622
X-94.989 Y-12.588
X-94.972 Y-12.467
X-94.874 Y-11.755
X-94.875 Y-11.722
X-94.887 Y-11.691
X-94.931 Y-11.602
X-94.946 Y-11.555
X-94.96 Y-11.52
X-95.018 Y-11.473
X-95.158 Y-11.42
X-95.308 Y-11.428
X-95.363 Y-11.449
X-95.456 Y-11.504
X-95.523 Y-11.589
X-95.556 Y-11.692
X-95.601 Y-12.045
X-95.598 Y-12.079
X-95.583 Y-12.111
X-95.559 Y-12.136
X-95.527 Y-12.151
X-95.492 Y-12.153
X-95.458 Y-12.144
X-95.43 Y-12.124
X-94.971 Y-11.653
X-94.951 Y-11.624
X-94.943 Y-11.59
X-94.946 Y-11.555
X-94.959 Y-11.517
X-94.966 Y-11.472
X-94.981 Y-11.398
X-95.03 Y-11.341
X-95.157 Y-11.261
X-95.194 Y-11.256
X-95.312 Y-11.263
X-95.418 Y-11.315
X-95.496 Y-11.403
X-95.534 Y-11.515
X-95.556 Y-11.692
X-95.553 Y-11.728
X-95.537 Y-11.76
X-95.511 Y-11.785
X-95.478 Y-11.799
X-95.442 Y-11.8
X-95.408 Y-11.789
X-95.017 Y-11.571
X-94.987 Y-11.545
X-94.969 Y-11.511
X-94.966 Y-11.472
X-94.972 Y-11.433
X-94.973 Y-11.394
X-94.972 Y-11.356
X-94.97 Y-11.318
X-94.993 Y-11.247
X-95.039 Y-11.188
X-95.162 Y-11.102
X-95.176 Y-11.1
X-95.293 Y-11.107
X-95.399 Y-11.159
X-95.476 Y-11.248
X-95.514 Y-11.359
X-95.534 Y-11.515
X-95.531 Y-11.55
X-95.516 Y-11.582
X-95.49 Y-11.607
X-95.458 Y-11.622
X-95.423 Y-11.624
X-95.389 Y-11.614
X-95.026 Y-11.431
X-95 Y-11.412
X-94.981 Y-11.386
X-94.972 Y-11.356
X-94.959 Y-11.264
X-94.952 Y-11.218
X-94.948 Y-11.18
X-94.969 Y-11.109
X-95.01 Y-11.045
X-95.127 Y-10.952
X-95.142 Y-10.949
X-95.263 Y-10.952
X-95.374 Y-11.002
X-95.455 Y-11.092
X-95.494 Y-11.206
X-95.514 Y-11.359
X-95.511 Y-11.394
X-95.496 Y-11.426
X-95.472 Y-11.45
X-95.44 Y-11.465
X-95.405 Y-11.468
X-95.372 Y-11.459
X-95.007 Y-11.289
X-94.982 Y-11.271
X-94.962 Y-11.247
X-94.952 Y-11.218
X-94.932 Y-11.095
X-94.923 Y-11.021
X-94.946 Y-10.949
X-94.988 Y-10.888
X-95.108 Y-10.797
X-95.126 Y-10.794
X-95.246 Y-10.797
X-95.355 Y-10.848
X-95.436 Y-10.937
X-95.475 Y-11.051
X-95.494 Y-11.206
X-95.492 Y-11.24
X-95.478 Y-11.27
X-95.455 Y-11.295
X-95.425 Y-11.311
X-95.392 Y-11.315
X-95.359 Y-11.309
X-94.994 Y-11.169
X-94.965 Y-11.152
X-94.944 Y-11.126
X-94.932 Y-11.095
X-94.904 Y-10.926
X-94.896 Y-10.852
X-94.923 Y-10.782
X-94.97 Y-10.723
X-95.093 Y-10.637
X-95.112 Y-10.634
X-95.231 Y-10.64
X-95.338 Y-10.692
X-95.416 Y-10.781
X-95.454 Y-10.893
X-95.475 Y-11.051
X-95.472 Y-11.085
X-95.458 Y-11.116
X-95.434 Y-11.141
X-95.404 Y-11.156
X-95.37 Y-11.16
X-95.337 Y-11.153
X-94.964 Y-10.999
X-94.936 Y-10.982
X-94.915 Y-10.957
X-94.904 Y-10.926
X-94.881 Y-10.787
X-94.873 Y-10.712
X-94.896 Y-10.641
X-94.938 Y-10.579
X-95.055 Y-10.485
X-95.077 Y-10.481
X-95.2
X-95.312 Y-10.531
X-95.395 Y-10.621
X-95.435 Y-10.737
X-95.454 Y-10.893
X-95.452 Y-10.926
X-95.439 Y-10.957
X-95.416 Y-10.981
X-95.387 Y-10.997
X-95.354 Y-11.002
X-95.321 Y-10.996
X-94.945 Y-10.861
X-94.916 Y-10.844
X-94.893 Y-10.819
X-94.881 Y-10.787
X-94.855 Y-10.626
X-94.846 Y-10.552
X-94.87 Y-10.481
X-94.914 Y-10.42
X-95.032 Y-10.328
X-95.058 Y-10.323
X-95.18 Y-10.324
X-95.292 Y-10.373
X-95.375 Y-10.463
X-95.414 Y-10.579
X-95.435 Y-10.737
X-95.432 Y-10.77
X-95.419 Y-10.801
X-95.396 Y-10.825
X-95.367 Y-10.841
X-95.334 Y-10.846
X-95.301 Y-10.84
X-94.919 Y-10.701
X-94.889 Y-10.684
X-94.867 Y-10.658
X-94.855 Y-10.626
X-94.827 Y-10.457
X-94.819 Y-10.383
X-94.847 Y-10.313
X-94.94 Y-10.196
X-95.078 Y-10.138
X-95.093
X-95.233 Y-10.172
X-95.34 Y-10.266
X-95.392 Y-10.4
X-95.414 Y-10.579
X-95.412 Y-10.613
X-95.398 Y-10.643
X-95.375 Y-10.668
X-95.345 Y-10.683
X-95.312 Y-10.688
X-95.279 Y-10.681
X-94.889 Y-10.531
X-94.86 Y-10.514
X-94.839 Y-10.489
X-94.827 Y-10.457
X-94.802 Y-10.307
X-94.794 Y-10.232
X-94.817 Y-10.161
X-94.859 Y-10.099
X-94.968 Y-9.996
X-95 Y-9.988
X-95.126 Y-9.983
X-95.243 Y-10.03
X-95.33 Y-10.122
X-95.371 Y-10.24
X-95.392 Y-10.4
X-95.388 Y-10.439
X-95.369 Y-10.473
X-95.339 Y-10.498
X-95.301 Y-10.509
X-95.262 Y-10.505
X-94.871 Y-10.383
X-94.839 Y-10.366
X-94.815 Y-10.34
X-94.802 Y-10.307
X-94.772 Y-10.12
X-94.763 Y-10.045
X-94.791 Y-9.976
X-94.886 Y-9.859
X-95.023 Y-9.799
X-95.044
X-95.186 Y-9.831
X-95.296 Y-9.925
X-95.348 Y-10.061
X-95.371 Y-10.24
X-95.369 Y-10.274
X-95.355 Y-10.305
X-95.333 Y-10.329
X-95.303 Y-10.345
X-95.27 Y-10.35
X-95.237 Y-10.343
X-94.835 Y-10.194
X-94.806 Y-10.177
X-94.784 Y-10.151
X-94.772 Y-10.12
X-94.744 Y-9.951
X-94.74 Y-9.913
X-94.755 Y-9.84
X-94.832 Y-9.711
X-94.961 Y-9.634
X-94.988 Y-9.631
X-95.105 Y-9.638
X-95.211 Y-9.69
X-95.289 Y-9.778
X-95.327 Y-9.89
X-95.348 Y-10.061
X-95.344 Y-10.1
X-95.325 Y-10.135
X-95.294 Y-10.159
X-95.256 Y-10.17
X-95.217 Y-10.165
X-94.81 Y-10.026
X-94.779 Y-10.009
X-94.756 Y-9.983
X-94.744 Y-9.951
X-94.718 Y-9.791
X-94.709 Y-9.717
X-94.762 Y-9.576
X-94.878 Y-9.481
X-95.022 Y-9.44
X-95.03 Y-9.441
X-95.158 Y-9.482
X-95.256 Y-9.575
X-95.303 Y-9.702
X-95.327 Y-9.89
X-95.323 Y-9.929
X-95.304 Y-9.963
X-95.274 Y-9.988
X-95.236 Y-9.999
X-95.198 Y-9.995
X-94.786 Y-9.867
X-94.755 Y-9.851
X-94.731 Y-9.824
X-94.718 Y-9.791
X-94.688 Y-9.613
X-94.68 Y-9.538
X-94.73 Y-9.397
X-94.843 Y-9.299
X-94.987 Y-9.257
X-94.996
X-95.129 Y-9.296
X-95.231 Y-9.39
X-95.28 Y-9.519
X-95.303 Y-9.702
X-95.299 Y-9.74
X-95.281 Y-9.774
X-95.251 Y-9.799
X-95.214 Y-9.81
X-95.176 Y-9.807
X-94.759 Y-9.689
X-94.727 Y-9.673
X-94.702 Y-9.647
X-94.688 Y-9.613
X-94.661 Y-9.444
X-94.652 Y-9.369
X-94.672 Y-9.297
X-94.754 Y-9.171
X-94.881 Y-9.092
X-94.917 Y-9.087
X-95.035 Y-9.093
X-95.141 Y-9.145
X-95.22 Y-9.234
X-95.257 Y-9.346
X-95.28 Y-9.519
X-95.276 Y-9.557
X-95.258 Y-9.59
X-95.23 Y-9.615
X-95.194 Y-9.627
X-95.156 Y-9.625
X-94.735 Y-9.521
X-94.701 Y-9.506
X-94.675 Y-9.479
X-94.661 Y-9.444
X-94.633 Y-9.275
X-94.625 Y-9.201
X-94.665 Y-9.056
X-94.771 Y-8.951
X-94.912 Y-8.898
X-94.938
X-95.076 Y-8.933
X-95.183 Y-9.027
X-95.234 Y-9.16
X-95.257 Y-9.346
X-95.254 Y-9.383
X-95.237 Y-9.417
X-95.208 Y-9.441
X-95.173 Y-9.454
X-95.135 Y-9.452
X-94.709 Y-9.353
X-94.674 Y-9.338
X-94.647 Y-9.311
X-94.633 Y-9.275
X-94.599 Y-9.068
X-94.591 Y-8.993
X-94.644 Y-8.853
X-94.757 Y-8.754
X-94.901 Y-8.712
X-94.92 Y-8.713
X-95.056 Y-8.749
X-95.16 Y-8.843
X-95.21 Y-8.975
X-95.234 Y-9.16
X-95.23 Y-9.198
X-95.212 Y-9.232
X-95.182 Y-9.257
X-95.146 Y-9.269
X-95.108 Y-9.266
X-94.67 Y-9.145
X-94.638 Y-9.129
X-94.613 Y-9.102
X-94.599 Y-9.068
X-94.585 Y-8.984
X-94.576 Y-8.941
X-94.573 Y-8.931
X-94.56 Y-8.895
Y-8.82
X-94.582 Y-8.749
X-94.667 Y-8.625
X-94.794 Y-8.546
X-94.942 Y-8.522
X-94.945
X-95.06 Y-8.571
X-95.144 Y-8.662
X-95.185 Y-8.779
X-95.21 Y-8.975
X-95.206 Y-9.012
X-95.189 Y-9.046
X-95.161 Y-9.07
X-95.125 Y-9.083
X-95.088 Y-9.081
X-94.634 Y-8.974
X-94.599 Y-8.958
X-94.573 Y-8.931
X-94.524 Y-8.849
X-94.489 Y-8.782
X-94.483 Y-8.707
X-94.512 Y-8.56
X-94.602 Y-8.44
X-94.729 Y-8.36
X-94.875 Y-8.324
X-94.888 Y-8.325
X-95.016 Y-8.366
X-95.114 Y-8.46
X-95.161 Y-8.586
X-95.185 Y-8.779
X-95.183 Y-8.812
X-95.17 Y-8.842
