%
(n-066-070)
(T1  D=1 CR=0 - ZMIN=-2 - flat end mill)
G90 G94
G17
G21
G28 G91 Z0
G90

(Clear 18)
M9
T1 M6
S5000 M3
G54
M8
G0 X-121.007 Y-12.664
Z12
Z2
Z0.5
G3 X-120.523 Y-12.789 Z0.29 I0.242 J-0.062 F333.3
X-121.007 Y-12.664 Z0.079 I-0.242 J0.062
X-120.523 Y-12.789 Z-0.131 I0.242 J-0.062
X-121.007 Y-12.664 Z-0.342 I-0.242 J0.062
X-120.523 Y-12.789 Z-0.552 I0.242 J-0.062
X-121.007 Y-12.664 Z-0.763 I-0.242 J0.062
X-120.797 Y-12.974 Z-0.876 I0.242 J-0.062
X-120.515 Y-12.726 Z-0.99 I0.031 J0.248
X-121.015 I-0.25
X-120.515 I0.25
G1 X-120.478 Y-12.581 F1000
X-120.491 Y-12.507
X-120.528 Y-12.442
X-120.635 Y-12.337
X-120.78 Y-12.297
X-120.928 Y-12.318
X-121.058 Y-12.392
X-121.155 Y-12.507
X-121.207 Y-12.648
X-121.209 Y-12.798
X-121.162 Y-12.94
X-121.07 Y-13.058
X-120.944 Y-13.14
X-120.798 Y-13.176
X-120.649 Y-13.162
X-120.513 Y-13.1
X-120.404 Y-12.996
X-120.326 Y-12.868
X-120.276 Y-12.727
X-120.265 Y-12.577
X-120.3 Y-12.431
X-120.371 Y-12.299
X-120.479 Y-12.195
X-120.61 Y-12.122
X-120.756 Y-12.089
X-120.906 Y-12.096
X-121.05 Y-12.137
X-121.18 Y-12.213
X-121.286 Y-12.318
X-121.368 Y-12.444
X-121.418 Y-12.585
X-121.433 Y-12.735
X-121.416 Y-12.884
X-121.366 Y-13.025
X-121.283 Y-13.15
X-121.177 Y-13.256
X-121.049 Y-13.335
X-120.906 Y-13.381
X-120.757 Y-13.397
X-120.608 Y-13.38
X-120.468 Y-13.327
X-120.341 Y-13.247
X-120.232 Y-13.143
X-120.145 Y-13.022
X-120.082 Y-12.885
X-120.044 Y-12.74
X-120.036 Y-12.591
X-120.058 Y-12.442
X-120.066 Y-12.42
X-120.101 Y-12.349
X-120.155 Y-12.29
X-120.221 Y-12.247
X-120.267 Y-12.221
X-120.309 Y-12.193
X-120.352 Y-12.155
X-120.396 Y-12.109
X-120.418 Y-12.079
X-120.513 Y-11.963
X-120.65 Y-11.901
X-120.798 Y-11.874
X-120.948 Y-11.877
X-121.094 Y-11.911
X-121.23 Y-11.973
X-121.354 Y-12.058
X-121.366 Y-12.07
X-121.414 Y-12.13
X-121.445 Y-12.2
X-121.457 Y-12.276
X-121.464 Y-12.531
X-121.466 Y-12.784
Y-12.869
X-121.463 Y-13.038
X-121.452 Y-13.188
X-121.386 Y-13.322
X-121.288 Y-13.435
X-121.166 Y-13.523
X-121.029 Y-13.584
X-120.883 Y-13.619
X-120.734 Y-13.63
X-120.584 Y-13.614
X-120.527 Y-13.597
X-120.436 Y-13.553
X-120.364 Y-13.48
X-120.321 Y-13.388
X-120.318 Y-13.376
X-120.301 Y-13.334
X-120.28 Y-13.291
X-120.136 Y-13.038
X-120.087 Y-12.953
X-120.035 Y-12.869
X-120.013 Y-12.841
X-119.965 Y-12.784
X-119.874 Y-12.666
X-119.867 Y-12.628
X-119.869 Y-12.515
X-119.913 Y-12.412
X-119.994 Y-12.334
X-120.098 Y-12.292
X-120.132 Y-12.29
X-120.165 Y-12.299
X-120.193 Y-12.319
X-120.212 Y-12.347
X-120.221 Y-12.38
X-120.219 Y-12.414
X-120.136 Y-12.741
X-120.121 Y-12.774
X-120.096 Y-12.799
X-120.063 Y-12.814
X-120.028 Y-12.816
X-119.994 Y-12.806
X-119.965 Y-12.784
X-119.821 Y-12.616
X-119.802 Y-12.594
X-119.779 Y-12.567
X-119.756 Y-12.537
X-119.782 Y-12.421
X-119.864 Y-12.335
X-119.98 Y-12.304
X-120.016 Y-12.312
X-120.048 Y-12.33
X-120.074 Y-12.358
X-120.09 Y-12.391
G3 X-119.779 Y-12.567 I0.176 J-0.051
G1 X-119.726 Y-12.506
X-119.698 Y-12.475
X-119.675 Y-12.45
X-119.67 Y-12.441
X-119.69 Y-12.46
X-119.675 Y-12.45
X-119.667 Y-12.436
X-119.663 Y-12.425
X-119.66 Y-12.415
X-119.658 Y-12.391
Y-12.383
X-119.669 Y-12.357
X-119.691 Y-12.338
X-119.72 Y-12.33
X-119.748 Y-12.336
X-119.771 Y-12.354
X-119.784 Y-12.38
Y-12.409
X-119.772 Y-12.435
X-119.749 Y-12.453
X-119.721 Y-12.46
X-119.692 Y-12.453
X-119.672 Y-12.437
X-119.66 Y-12.415
X-119.658 Y-12.404
X-119.657 Y-12.394
X-119.658 Y-12.383
X-119.659 Y-12.373
X-119.662 Y-12.362
X-119.667 Y-12.349
X-119.675 Y-12.336
X-119.693 Y-12.316
X-119.714 Y-12.296
X-119.734 Y-12.284
X-119.754 Y-12.278
X-119.76 Y-12.277
X-119.778 Y-12.275
X-119.796 Y-12.278
X-119.844 Y-12.291
X-120.568 Y-12.596
X-120.785 Y-12.687
X-121.402 Y-12.947
X-121.434 Y-12.969
X-121.455 Y-13
X-121.463 Y-13.038
X-121.461 Y-13.122
X-121.452 Y-13.342
X-121.437 Y-13.491
X-121.356 Y-13.617
X-121.244 Y-13.716
X-121.113 Y-13.79
X-120.972 Y-13.839
X-120.824 Y-13.864
X-120.674 Y-13.867
X-120.622 Y-13.858
X-120.513 Y-13.816
X-120.428 Y-13.736
X-120.38 Y-13.629
X-120.341 Y-13.46
X-120.321 Y-13.388
X-120.319 Y-13.353
X-120.33 Y-13.319
X-120.351 Y-13.291
X-120.381 Y-13.272
X-120.416 Y-13.265
X-120.724 Y-13.257
X-121.349 Y-13.241
X-121.381 Y-13.245
X-121.409 Y-13.259
X-121.432 Y-13.282
X-121.447 Y-13.31
X-121.452 Y-13.342
X-121.441 Y-13.591
X-121.426 Y-13.74
X-121.345 Y-13.866
X-121.23 Y-13.963
X-121.098 Y-14.034
X-120.955 Y-14.08
X-120.807 Y-14.104
X-120.657 Y-14.098
X-120.642 Y-14.094
X-120.54 Y-14.045
X-120.463 Y-13.961
X-120.423 Y-13.855
X-120.399 Y-13.714
X-120.38 Y-13.629
X-120.379 Y-13.595
X-120.391 Y-13.562
X-120.412 Y-13.535
X-120.442 Y-13.517
X-120.476 Y-13.511
X-120.713 Y-13.505
X-121.338 Y-13.49
X-121.37 Y-13.495
X-121.398 Y-13.509
X-121.421 Y-13.531
X-121.436 Y-13.56
X-121.441 Y-13.591
X-121.434 Y-13.714
X-121.418 Y-13.883
X-121.407 Y-13.957
X-121.337 Y-14.089
X-121.227 Y-14.191
X-121.096 Y-14.265
X-120.954 Y-14.313
X-120.806 Y-14.337
X-120.656 Y-14.325
X-120.553 Y-14.266
X-120.481 Y-14.174
X-120.451 Y-14.061
X-120.443 Y-13.967
X-120.423 Y-13.855
X-120.425 Y-13.821
X-120.438 Y-13.788
X-120.461 Y-13.763
X-120.492 Y-13.746
X-120.527 Y-13.742
X-120.696 Y-13.749
X-121.322 Y-13.777
X-121.361 Y-13.786
X-121.392 Y-13.81
X-121.412 Y-13.843
X-121.418 Y-13.883
X-121.41 Y-13.967
X-121.388 Y-14.136
X-121.374 Y-14.21
X-121.302 Y-14.341
X-121.189 Y-14.44
X-121.057 Y-14.511
X-120.913 Y-14.551
X-120.763 Y-14.564
X-120.712 Y-14.556
X-120.587 Y-14.503
X-120.498 Y-14.4
X-120.464 Y-14.269
X-120.462 Y-14.22
X-120.451 Y-14.061
X-120.455 Y-14.028
X-120.471 Y-13.998
X-120.495 Y-13.974
X-120.526 Y-13.961
X-120.56 Y-13.958
X-120.672 Y-13.969
X-121.297 Y-14.027
X-121.335 Y-14.038
X-121.365 Y-14.063
X-121.384 Y-14.097
X-121.388 Y-14.136
X-121.354 Y-14.389
X-121.341 Y-14.463
X-121.264 Y-14.592
X-121.147 Y-14.687
X-121.011 Y-14.75
X-120.865 Y-14.782
X-120.715 Y-14.777
X-120.68 Y-14.767
X-120.566 Y-14.705
X-120.49 Y-14.601
X-120.465 Y-14.474
Y-14.305
X-120.464 Y-14.269
X-120.47 Y-14.235
X-120.487 Y-14.206
X-120.513 Y-14.183
X-120.545 Y-14.171
X-120.579
X-120.644 Y-14.181
X-121.27 Y-14.281
X-121.306 Y-14.294
X-121.334 Y-14.318
X-121.351 Y-14.352
X-121.354 Y-14.389
X-121.331 Y-14.558
X-121.314 Y-14.643
X-121.264 Y-14.784
X-121.157 Y-14.889
X-121.025 Y-14.96
X-120.88 Y-14.998
X-120.73 Y-14.997
X-120.681 Y-14.985
X-120.558 Y-14.921
X-120.476 Y-14.809
X-120.454 Y-14.671
X-120.463 Y-14.558
X-120.465 Y-14.474
X-120.473 Y-14.44
X-120.492 Y-14.411
X-120.52 Y-14.391
X-120.553 Y-14.381
X-120.587 Y-14.382
X-120.619 Y-14.389
X-121.238 Y-14.529
X-121.272 Y-14.544
X-121.299 Y-14.571
X-121.313 Y-14.605
X-121.314 Y-14.643
X-121.239 Y-14.896
X-121.188 Y-15.037
X-121.075 Y-15.136
X-120.937 Y-15.194
X-120.788 Y-15.215
X-120.64 Y-15.196
X-120.611 Y-15.183
X-120.504 Y-15.104
X-120.441 Y-14.987
X-120.435 Y-14.855
X-120.443 Y-14.812
X-120.454 Y-14.671
X-120.464 Y-14.637
X-120.486 Y-14.609
X-120.515 Y-14.59
X-120.549 Y-14.582
X-120.584 Y-14.587
X-121.172 Y-14.776
X-121.205 Y-14.794
X-121.229 Y-14.823
X-121.241 Y-14.859
X-121.239 Y-14.896
X-121.162 Y-15.15
X-121.136 Y-15.22
X-121.035 Y-15.331
X-120.9 Y-15.395
X-120.752 Y-15.421
X-120.603 Y-15.399
X-120.576 Y-15.388
X-120.468 Y-15.309
X-120.405 Y-15.192
X-120.398 Y-15.059
X-120.435 Y-14.855
X-120.449 Y-14.822
X-120.473 Y-14.796
X-120.505 Y-14.78
X-120.54 Y-14.776
X-120.575 Y-14.785
X-121.108 Y-15.033
X-121.136 Y-15.053
X-121.156 Y-15.081
X-121.165 Y-15.115
X-121.162 Y-15.15
X-121.094 Y-15.365
X-121.074 Y-15.417
X-120.978 Y-15.532
X-120.843 Y-15.597
X-120.695 Y-15.62
X-120.547 Y-15.594
X-120.519 Y-15.582
X-120.414 Y-15.498
X-120.355 Y-15.376
X-120.356 Y-15.241
X-120.398 Y-15.059
X-120.412 Y-15.025
X-120.438 Y-14.999
X-120.471 Y-14.983
X-120.507 Y-14.98
X-120.542 Y-14.991
X-121.043 Y-15.249
X-121.071 Y-15.27
X-121.089 Y-15.298
X-121.097 Y-15.331
X-121.094 Y-15.365
X-121.082 Y-15.403
X-121.012 Y-15.572
X-120.98 Y-15.64
X-120.876 Y-15.748
X-120.736 Y-15.801
X-120.586 Y-15.809
X-120.442 Y-15.769
X-120.423 Y-15.757
X-120.328 Y-15.656
X-120.288 Y-15.522
X-120.314 Y-15.385
X-120.333 Y-15.358
X-120.36 Y-15.338
X-120.392 Y-15.329
X-120.424 Y-15.33
X-120.939 Y-15.439
X-120.971 Y-15.452
X-120.997 Y-15.474
X-121.013 Y-15.504
X-121.019 Y-15.538
X-121.012 Y-15.572
X-120.931 Y-15.766
X-120.899 Y-15.834
X-120.795 Y-15.942
X-120.654 Y-15.992
X-120.504 Y-15.998
X-120.361 Y-15.95
X-120.337 Y-15.934
X-120.244 Y-15.831
X-120.207 Y-15.698
X-120.234 Y-15.562
X-120.314 Y-15.385
X-120.334 Y-15.357
X-120.362 Y-15.337
X-120.396 Y-15.329
X-120.43 Y-15.332
X-120.461 Y-15.346
X-120.895 Y-15.649
X-120.919 Y-15.672
X-120.933 Y-15.701
X-120.938 Y-15.734
X-120.931 Y-15.766
X-120.847 Y-15.97
X-120.816 Y-16.033
X-120.708 Y-16.137
X-120.565 Y-16.183
X-120.415 Y-16.182
X-120.274 Y-16.131
X-120.241 Y-16.108
X-120.147 Y-15.998
X-120.115 Y-15.857
X-120.152 Y-15.718
X-120.186 Y-15.656
X-120.234 Y-15.562
X-120.255 Y-15.534
X-120.284 Y-15.514
X-120.318 Y-15.506
X-120.353 Y-15.511
X-120.384 Y-15.527
X-120.814 Y-15.855
X-120.836 Y-15.878
X-120.849 Y-15.907
X-120.853 Y-15.938
X-120.847 Y-15.97
X-120.837 Y-15.994
X-120.799 Y-16.079
X-120.775 Y-16.113
X-120.69 Y-16.219
X-120.641 Y-16.276
X-120.51 Y-16.35
X-120.361 Y-16.362
X-120.216 Y-16.324
X-120.087 Y-16.247
X-120.081 Y-16.239
X-120.024 Y-16.133
X-120.014 Y-16.013
X-120.051 Y-15.898
X-120.098 Y-15.816
X-120.152 Y-15.718
X-120.177 Y-15.69
X-120.209 Y-15.673
X-120.246 Y-15.669
X-120.281 Y-15.679
X-120.311 Y-15.7
X-120.682 Y-16.091
X-120.702 Y-16.12
X-120.71 Y-16.154
X-120.706 Y-16.188
X-120.69 Y-16.219
X-120.563 Y-16.378
X-120.514 Y-16.435
X-120.386 Y-16.513
X-120.236 Y-16.523
X-120.09 Y-16.488
X-119.965 Y-16.403
X-119.91 Y-16.29
X-119.905 Y-16.165
X-119.952 Y-16.049
X-120.013 Y-15.958
X-120.045 Y-15.91
X-120.051 Y-15.898
X-120.076 Y-15.871
X-120.108 Y-15.855
X-120.145 Y-15.851
X-120.18 Y-15.86
X-120.209 Y-15.882
X-120.556 Y-16.25
X-120.575 Y-16.279
X-120.583 Y-16.313
X-120.579 Y-16.347
X-120.563 Y-16.378
X-120.436 Y-16.538
X-120.387 Y-16.594
X-120.259 Y-16.673
X-120.109 Y-16.684
X-119.964 Y-16.646
X-119.843 Y-16.558
X-119.84 Y-16.554
X-119.786 Y-16.423
X-119.798 Y-16.283
X-119.874 Y-16.163
X-119.889 Y-16.143
X-119.952 Y-16.049
X-119.978 Y-16.024
X-120.011 Y-16.01
X-120.047 Y-16.009
X-120.08 Y-16.02
X-120.108 Y-16.042
X-120.431 Y-16.413
X-120.449 Y-16.441
X-120.456 Y-16.474
X-120.452 Y-16.508
X-120.436 Y-16.538
X-120.331 Y-16.67
X-120.316 Y-16.687
X-120.299 Y-16.704
X-120.239 Y-16.754
X-120.179 Y-16.799
X-120.035 Y-16.839
X-119.886 Y-16.815
X-119.755 Y-16.743
X-119.725 Y-16.71
X-119.665 Y-16.61
X-119.647 Y-16.495
X-119.675 Y-16.382
X-119.743 Y-16.287
X-119.874 Y-16.163
X-119.904 Y-16.144
X-119.94 Y-16.138
X-119.975 Y-16.144
X-120.006 Y-16.163
X-120.029 Y-16.191
X-120.261 Y-16.633
X-120.271 Y-16.665
Y-16.698
X-120.26 Y-16.729
X-120.239 Y-16.754
X-120.064 Y-16.9
X-120.004 Y-16.945
X-119.856 Y-16.971
X-119.711 Y-16.935
X-119.587 Y-16.85
X-119.562 Y-16.814
X-119.508 Y-16.68
X-119.522 Y-16.537
X-119.602 Y-16.417
X-119.743 Y-16.287
X-119.776 Y-16.269
X-119.813 Y-16.263
X-119.85 Y-16.272
X-119.881 Y-16.294
X-119.901 Y-16.325
X-120.09 Y-16.788
X-120.097 Y-16.818
X-120.095 Y-16.848
X-120.083 Y-16.876
X-120.064 Y-16.9
X-119.935 Y-17.008
X-119.875 Y-17.053
X-119.733 Y-17.102
X-119.586 Y-17.075
X-119.46 Y-16.992
X-119.365 Y-16.876
X-119.36 Y-16.862
X-119.344 Y-16.732
X-119.386 Y-16.606
X-119.477 Y-16.511
X-119.506 Y-16.491
X-119.59 Y-16.428
X-119.602 Y-16.417
X-119.634 Y-16.399
X-119.67 Y-16.393
X-119.706 Y-16.401
X-119.737 Y-16.421
X-119.758 Y-16.451
X-119.959 Y-16.892
X-119.967 Y-16.922
X-119.966 Y-16.954
X-119.955 Y-16.983
X-119.935 Y-17.008
X-119.796 Y-17.123
X-119.778 Y-17.137
X-119.76 Y-17.148
X-119.679 Y-17.177
X-119.607 Y-17.198
X-119.458 Y-17.191
X-119.323 Y-17.124
X-119.221 Y-17.015
X-119.21 Y-16.992
X-119.183 Y-16.852
X-119.222 Y-16.716
X-119.32 Y-16.613
X-119.452 Y-16.528
X-119.477 Y-16.511
X-119.512 Y-16.498
X-119.55 Y-16.499
X-119.584 Y-16.513
X-119.611 Y-16.539
X-119.626 Y-16.574
X-119.74 Y-17.061
X-119.742 Y-17.096
X-119.731 Y-17.13
X-119.71 Y-17.158
X-119.679 Y-17.177
X-119.468 Y-17.25
X-119.396 Y-17.271
X-119.246 Y-17.256
X-119.118 Y-17.179
X-119.03 Y-17.057
X-119.027 Y-17.046
X-119.021 Y-16.914
X-119.072 Y-16.791
X-119.172 Y-16.703
X-119.232 Y-16.67
X-119.32 Y-16.613
X-119.357 Y-16.6
X-119.396 Y-16.602
X-119.432 Y-16.619
X-119.458 Y-16.649
X-119.47 Y-16.686
X-119.531 Y-17.144
X-119.53 Y-17.177
X-119.518 Y-17.208
X-119.496 Y-17.233
X-119.468 Y-17.25
X-119.29 Y-17.312
X-119.218 Y-17.333
X-119.143 Y-17.331
X-119.001 Y-17.284
X-118.892 Y-17.18
X-118.879 Y-17.148
X-118.854 Y-17.025
X-118.881 Y-16.903
X-118.957 Y-16.802
X-119.067 Y-16.742
X-119.083 Y-16.737
X-119.167 Y-16.705
X-119.172 Y-16.703
X-119.209 Y-16.693
X-119.247 Y-16.697
X-119.281 Y-16.716
X-119.306 Y-16.746
X-119.316 Y-16.784
X-119.354 Y-17.21
X-119.351 Y-17.242
X-119.339 Y-17.272
X-119.318 Y-17.296
X-119.29 Y-17.312
X-119.167 Y-17.355
X-119.083 Y-17.381
X-119.008 Y-17.387
X-118.934 Y-17.377
X-118.796 Y-17.318
X-118.704 Y-17.199
X-118.692 Y-17.158
X-118.684 Y-17.04
X-118.722 Y-16.928
X-118.801 Y-16.839
X-118.908 Y-16.788
X-119.025 Y-16.754
X-119.067 Y-16.742
X-119.105 Y-16.739
X-119.141 Y-16.751
X-119.17 Y-16.776
X-119.188 Y-16.81
X-119.192 Y-16.848
X-119.15 Y-17.295
X-119.139 Y-17.332
X-119.116 Y-17.362
X-119.083 Y-17.381
X-118.867 Y-17.411
X-118.792 Y-17.417
X-118.72 Y-17.398
X-118.591 Y-17.322
X-118.514 Y-17.193
X-118.51 Y-17.167
X-118.524 Y-17.023
X-118.605 Y-16.901
X-118.733 Y-16.832
X-118.908 Y-16.788
X-118.947 Y-16.787
X-118.983 Y-16.801
X-119.011 Y-16.829
X-119.027 Y-16.865
Y-16.904
X-118.948 Y-17.33
X-118.938 Y-17.359
X-118.92 Y-17.383
X-118.896 Y-17.401
X-118.867 Y-17.411
X-118.66 Y-17.439
X-118.585 Y-17.446
X-118.447 Y-17.387
X-118.356 Y-17.267
X-118.318 Y-17.122
X-118.363 Y-16.997
X-118.455 Y-16.904
X-118.579 Y-16.86
X-118.66 Y-16.85
X-118.708 Y-16.839
X-118.733 Y-16.832
X-118.767 Y-16.831
X-118.799 Y-16.841
X-118.826 Y-16.861
X-118.845 Y-16.889
X-118.854 Y-16.922
X-118.851 Y-16.956
X-118.739 Y-17.367
X-118.723 Y-17.4
X-118.695 Y-17.426
X-118.66 Y-17.439
X-118.491 Y-17.462
X-118.416 Y-17.469
X-118.345 Y-17.444
X-118.224 Y-17.355
X-118.149 Y-17.225
X-118.148 Y-17.206
X-118.159 Y-17.092
X-118.213 Y-16.991
X-118.3 Y-16.917
X-118.409 Y-16.881
X-118.579 Y-16.86
X-118.617 Y-16.864
X-118.651 Y-16.882
X-118.675 Y-16.911
X-118.687 Y-16.948
X-118.684 Y-16.987
X-118.57 Y-17.391
X-118.553 Y-17.424
X-118.525 Y-17.449
X-118.491 Y-17.462
X-118.321 Y-17.486
X-118.3 Y-17.487
X-118.226 Y-17.479
X-118.156 Y-17.451
X-118.095 Y-17.408
X-117.999 Y-17.293
X-117.965 Y-17.147
X-117.966 Y-17.144
X-118.018 Y-17.013
X-118.125 Y-16.921
X-118.262 Y-16.888
X-118.321
X-118.409 Y-16.881
X-118.448 Y-16.885
X-118.482 Y-16.904
X-118.507 Y-16.935
X-118.517 Y-16.972
X-118.513 Y-17.011
X-118.385 Y-17.418
X-118.366 Y-17.452
X-118.337 Y-17.476
X-118.3 Y-17.487
X-118.152 Y-17.476
X-118.106 Y-17.472
X-118.031 Y-17.462
X-117.962 Y-17.434
X-117.848 Y-17.336
X-117.792 Y-17.197
X-117.793 Y-17.166
X-117.822 Y-17.046
X-117.897 Y-16.947
X-118.006 Y-16.887
X-118.129 Y-16.876
X-118.237 Y-16.888
X-118.262
X-118.299 Y-16.896
X-118.33 Y-16.918
X-118.351 Y-16.949
X-118.359 Y-16.986
X-118.352 Y-17.024
X-118.203 Y-17.408
X-118.188 Y-17.435
X-118.165 Y-17.456
X-118.137 Y-17.469
X-118.106 Y-17.472
X-117.898 Y-17.456
X-117.824 Y-17.445
X-117.76 Y-17.407
X-117.706 Y-17.354
X-117.632 Y-17.224
X-117.62 Y-17.074
X-117.623 Y-17.065
X-117.693 Y-16.945
X-117.809 Y-16.869
X-117.948 Y-16.854
X-118.129 Y-16.876
X-118.165 Y-16.889
X-118.194 Y-16.915
X-118.21 Y-16.949
X-118.213 Y-16.987
X-118.201 Y-17.023
X-117.99 Y-17.404
X-117.967 Y-17.433
X-117.935 Y-17.45
X-117.898 Y-17.456
X-117.814 Y-17.448
X-117.729 Y-17.438
X-117.655 Y-17.425
X-117.589 Y-17.389
X-117.486 Y-17.28
X-117.437 Y-17.139
X-117.45 Y-16.989
X-117.454 Y-16.981
X-117.542 Y-16.875
X-117.668 Y-16.819
X-117.806 Y-16.826
X-117.85 Y-16.839
X-117.898 Y-16.847
X-117.948 Y-16.854
X-117.983 Y-16.866
X-118.011 Y-16.891
X-118.028 Y-16.924
X-118.032 Y-16.961
X-118.021 Y-16.997
X-117.827 Y-17.383
X-117.803 Y-17.414
X-117.768 Y-17.433
X-117.729 Y-17.438
X-117.56 Y-17.417
X-117.513 Y-17.407
X-117.441 Y-17.387
X-117.321 Y-17.297
X-117.26 Y-17.16
X-117.25 Y-17.01
X-117.262 Y-16.973
X-117.317 Y-16.872
X-117.407 Y-16.799
X-117.517 Y-16.765
X-117.632 Y-16.776
X-117.806 Y-16.826
X-117.838 Y-16.843
X-117.861 Y-16.871
X-117.874 Y-16.905
X-117.873 Y-16.941
X-117.86 Y-16.974
X-117.616 Y-17.361
X-117.589 Y-17.39
X-117.553 Y-17.406
X-117.513 Y-17.407
X-117.475 Y-17.398
X-117.306 Y-17.357
X-117.234 Y-17.336
X-117.123 Y-17.236
X-117.067 Y-17.097
X-117.069 Y-17.007
X-117.105 Y-16.869
X-117.2 Y-16.763
X-117.333 Y-16.711
X-117.475 Y-16.725
X-117.56 Y-16.755
X-117.632 Y-16.776
X-117.665 Y-16.794
X-117.688 Y-16.823
X-117.7 Y-16.858
X-117.698 Y-16.895
X-117.682 Y-16.929
X-117.408 Y-17.317
X-117.38 Y-17.343
X-117.345 Y-17.358
X-117.306 Y-17.357
X-117.137 Y-17.316
X-117.065 Y-17.295
X-117.004 Y-17.252
X-116.914 Y-17.132
X-116.884 Y-16.985
X-116.91 Y-16.837
X-116.977 Y-16.703
X-116.983 Y-16.697
X-117.099 Y-16.627
X-117.233 Y-16.615
X-117.359 Y-16.663
X-117.381 Y-16.684
X-117.395 Y-16.712
X-117.401 Y-16.742
X-117.396 Y-16.773
X-117.253 Y-17.247
X-117.236 Y-17.28
X-117.208 Y-17.304
X-117.174 Y-17.317
X-117.137 Y-17.316
X-117.021 Y-17.288
X-117.01 Y-17.284
X-116.968 Y-17.261
X-116.883 Y-17.211
X-116.821 Y-17.17
X-116.732 Y-17.049
X-116.705 Y-16.901
X-116.724 Y-16.752
X-116.791 Y-16.618
X-116.812 Y-16.596
X-116.931 Y-16.519
X-117.071 Y-16.504
X-117.203 Y-16.555
X-117.306 Y-16.627
X-117.359 Y-16.663
X-117.383 Y-16.687
X-117.397 Y-16.718
X-117.4 Y-16.752
X-117.392 Y-16.785
X-117.372 Y-16.814
X-117.003 Y-17.193
X-116.977 Y-17.212
X-116.946 Y-17.222
X-116.914
X-116.883 Y-17.211
X-116.714 Y-17.112
X-116.651 Y-17.07
X-116.558 Y-16.953
X-116.527 Y-16.806
X-116.546 Y-16.657
X-116.594 Y-16.559
X-116.678 Y-16.455
X-116.797 Y-16.396
X-116.93 Y-16.394
X-117.052 Y-16.447
X-117.137 Y-16.509
X-117.203 Y-16.555
X-117.226 Y-16.58
X-117.24 Y-16.611
X-117.243 Y-16.645
X-117.234 Y-16.677
X-117.214 Y-16.705
X-116.833 Y-17.094
X-116.807 Y-17.113
X-116.777 Y-17.123
X-116.744 Y-17.122
X-116.714 Y-17.112
X-116.538 Y-17.008
X-116.499 Y-16.985
X-116.48 Y-16.972
X-116.423 Y-16.923
X-116.36 Y-16.787
X-116.356 Y-16.637
X-116.397 Y-16.492
X-116.477 Y-16.366
X-116.589 Y-16.265
X-116.591 Y-16.264
X-116.708 Y-16.237
X-116.825 Y-16.258
X-116.926 Y-16.323
X-117.052 Y-16.447
X-117.071 Y-16.474
X-117.08 Y-16.506
X-117.078 Y-16.539
X-117.066 Y-16.57
X-117.044 Y-16.594
X-116.595 Y-16.964
X-116.569 Y-16.979
X-116.539 Y-16.986
X-116.508 Y-16.984
X-116.48 Y-16.972
X-116.46 Y-16.957
X-116.325 Y-16.839
X-116.271 Y-16.787
X-116.202 Y-16.653
X-116.198 Y-16.503
X-116.238 Y-16.359
X-116.313 Y-16.229
X-116.422 Y-16.126
X-116.429 Y-16.123
X-116.555 Y-16.089
X-116.683 Y-16.113
X-116.789 Y-16.188
X-116.799 Y-16.198
X-116.926 Y-16.323
X-116.944 Y-16.351
X-116.953 Y-16.383
X-116.95 Y-16.416
X-116.937 Y-16.446
X-116.915 Y-16.47
X-116.45 Y-16.84
X-116.421 Y-16.856
X-116.387 Y-16.861
X-116.354 Y-16.855
X-116.325 Y-16.839
X-116.165 Y-16.699
X-116.111 Y-16.647
X-116.045 Y-16.513
X-116.041 Y-16.363
X-116.08 Y-16.218
X-116.153 Y-16.087
X-116.262 Y-15.984
X-116.311 Y-15.958
X-116.419 Y-15.923
X-116.533 Y-15.932
X-116.635 Y-15.983
X-116.711 Y-16.067
X-116.768 Y-16.163
X-116.789 Y-16.188
X-116.806 Y-16.215
X-116.813 Y-16.247
X-116.809 Y-16.279
X-116.796 Y-16.308
X-116.773 Y-16.332
X-116.289 Y-16.701
X-116.26 Y-16.717
X-116.227 Y-16.722
X-116.194 Y-16.716
X-116.165 Y-16.699
X-116.035 Y-16.585
X-115.991 Y-16.543
X-115.911 Y-16.417
X-115.882 Y-16.269
X-115.905 Y-16.121
X-115.969 Y-15.985
X-116.063 Y-15.869
X-116.184 Y-15.779
X-116.24 Y-15.758
X-116.379 Y-15.741
X-116.51 Y-15.789
X-116.606 Y-15.891
X-116.711 Y-16.067
X-116.723 Y-16.103
X-116.72 Y-16.141
X-116.704 Y-16.175
X-116.676 Y-16.201
X-116.668 Y-16.206
X-116.111 Y-16.554
X-116.081 Y-16.566
X-116.049 Y-16.568
X-116.018 Y-16.561
X-115.991 Y-16.543
X-115.961 Y-16.501
X-115.826 Y-16.286
X-115.79 Y-16.22
X-115.758 Y-16.074
X-115.786 Y-15.926
X-115.855 Y-15.793
X-115.952 Y-15.679
X-116.077 Y-15.595
X-116.217 Y-15.541
X-116.341 Y-15.558
X-116.445 Y-15.623
X-116.515 Y-15.724
X-116.523 Y-15.741
X-116.545 Y-15.783
X-116.606 Y-15.891
X-116.616 Y-15.921
Y-15.953
X-116.606 Y-15.983
X-116.587 Y-16.009
X-116.561 Y-16.027
X-116.532 Y-16.041
X-115.953 Y-16.32
X-115.919 Y-16.329
X-115.883 Y-16.326
X-115.851 Y-16.311
X-115.826 Y-16.286
X-115.783 Y-16.216
X-115.702 Y-16.079
X-115.668 Y-16.012
X-115.643 Y-15.864
X-115.679 Y-15.718
X-115.754 Y-15.589
X-115.857 Y-15.48
X-115.98 Y-15.393
X-116.121 Y-15.344
X-116.135 Y-15.343
X-116.259 Y-15.36
X-116.365 Y-15.426
X-116.435 Y-15.53
X-116.487 Y-15.656
X-116.515 Y-15.724
X-116.522 Y-15.761
X-116.514 Y-15.799
X-116.492 Y-15.83
X-116.46 Y-15.852
X-116.421 Y-15.868
X-115.825 Y-16.117
X-115.791 Y-16.125
X-115.757 Y-16.12
X-115.726 Y-16.104
X-115.702 Y-16.079
X-115.653 Y-15.994
X-115.574 Y-15.825
X-115.546 Y-15.756
X-115.547 Y-15.606
X-115.601 Y-15.466
X-115.688 Y-15.343
X-115.8 Y-15.245
X-115.931 Y-15.17
X-115.984 Y-15.157
X-116.137 Y-15.156
X-116.274 Y-15.225
X-116.363 Y-15.35
X-116.435 Y-15.53
X-116.441 Y-15.562
X-116.437 Y-15.594
X-116.423 Y-15.622
X-116.4 Y-15.645
X-116.372 Y-15.66
X-116.307 Y-15.68
X-115.694 Y-15.875
X-115.659 Y-15.88
X-115.624 Y-15.872
X-115.595 Y-15.853
X-115.574 Y-15.825
X-115.484 Y-15.631
X-115.456 Y-15.561
X-115.451 Y-15.411
X-115.503 Y-15.27
X-115.589 Y-15.148
X-115.7 Y-15.046
X-115.832 Y-14.977
X-115.977 Y-14.937
X-116.042 Y-14.939
X-116.171 Y-14.972
X-116.273 Y-15.058
X-116.328 Y-15.179
X-116.363 Y-15.35
Y-15.386
X-116.35 Y-15.419
X-116.326 Y-15.446
X-116.295 Y-15.463
X-116.218 Y-15.487
X-115.603 Y-15.681
X-115.569 Y-15.686
X-115.535 Y-15.678
X-115.505 Y-15.659
X-115.484 Y-15.631
X-115.445 Y-15.546
X-115.42 Y-15.487
X-115.391 Y-15.356
X-115.365 Y-15.209
X-115.415 Y-15.067
X-115.502 Y-14.945
X-115.614 Y-14.845
X-115.744 Y-14.77
X-115.887 Y-14.727
X-116.037 Y-14.717
X-116.058 Y-14.722
X-116.169 Y-14.77
X-116.251 Y-14.859
X-116.292 Y-14.972
X-116.305 Y-15.065
X-116.328 Y-15.179
X-116.327 Y-15.218
X-116.311 Y-15.253
X-116.283 Y-15.28
X-116.247 Y-15.294
X-116.131 Y-15.315
X-115.505 Y-15.43
X-115.468
X-115.434 Y-15.416
X-115.406 Y-15.39
X-115.391 Y-15.356
X-115.345 Y-15.15
X-115.335 Y-15.103
X-115.324 Y-15.029
X-115.348 Y-14.881
X-115.425 Y-14.752
X-115.532 Y-14.647
X-115.658 Y-14.566
X-115.799 Y-14.513
X-115.947 Y-14.492
X-115.998 Y-14.497
X-116.128 Y-14.543
X-116.224 Y-14.642
X-116.266 Y-14.774
X-116.269 Y-14.812
X-116.292 Y-14.972
X-116.289 Y-15.01
X-116.271 Y-15.045
X-116.242 Y-15.07
X-116.205 Y-15.082
X-116.079 Y-15.098
X-115.445 Y-15.179
X-115.409 Y-15.177
X-115.376 Y-15.162
X-115.35 Y-15.136
X-115.335 Y-15.103
X-115.296 Y-14.896
X-115.288 Y-14.85
X-115.282 Y-14.812
X-115.278 Y-14.737
X-115.329 Y-14.595
X-115.421 Y-14.477
X-115.538 Y-14.383
X-115.672 Y-14.316
X-115.817 Y-14.276
X-115.967 Y-14.272
X-116.007 Y-14.28
X-116.127 Y-14.333
X-116.214 Y-14.432
X-116.251 Y-14.558
X-116.266 Y-14.774
X-116.26 Y-14.813
X-116.239 Y-14.846
X-116.206 Y-14.869
X-116.168 Y-14.878
X-116.028 Y-14.88
X-115.381 Y-14.892
X-115.347 Y-14.886
X-115.317 Y-14.87
X-115.294 Y-14.844
X-115.282 Y-14.812
X-115.261 Y-14.596
X-115.258 Y-14.521
X-115.297 Y-14.376
X-115.386 Y-14.256
X-115.503 Y-14.162
X-115.637 Y-14.094
X-115.781 Y-14.052
X-115.93 Y-14.045
X-116.078 Y-14.07
X-116.084 Y-14.073
X-116.176 Y-14.141
X-116.235 Y-14.238
X-116.254 Y-14.351
X-116.251 Y-14.474
Y-14.558
X-116.243 Y-14.595
X-116.222 Y-14.626
X-116.191 Y-14.647
X-116.155 Y-14.655
X-116.001 Y-14.661
X-115.364 Y-14.683
X-115.328 Y-14.678
X-115.296 Y-14.66
X-115.273 Y-14.631
X-115.261 Y-14.596
X-115.237 Y-14.343
X-115.234 Y-14.305
Y-14.263
X-115.244 Y-14.188
X-115.324 Y-14.061
X-115.435 Y-13.96
X-115.564 Y-13.884
X-115.706 Y-13.835
X-115.854 Y-13.814
X-116.004 Y-13.82
X-116.053 Y-13.834
X-116.169 Y-13.901
X-116.245 Y-14.011
X-116.265 Y-14.143
X-116.26 Y-14.22
X-116.255 Y-14.305
X-116.254 Y-14.351
X-116.247 Y-14.382
X-116.23 Y-14.41
X-116.206 Y-14.43
X-116.176 Y-14.442
X-116.144 Y-14.444
X-115.962 Y-14.425
X-115.323 Y-14.358
X-115.289 Y-14.348
X-115.261 Y-14.327
X-115.241 Y-14.297
X-115.234 Y-14.263
X-115.253 Y-14.051
X-115.274 Y-13.903
X-115.364 Y-13.783
X-115.483 Y-13.691
X-115.618 Y-13.628
X-115.764 Y-13.59
X-115.913 Y-13.58
X-116.061 Y-13.604
X-116.1 Y-13.619
X-116.211 Y-13.698
X-116.276 Y-13.817
X-116.282 Y-13.953
X-116.28 Y-13.967
X-116.272 Y-14.051
X-116.265 Y-14.143
X-116.254 Y-14.18
X-116.229 Y-14.21
X-116.195 Y-14.228
X-116.157 Y-14.232
X-115.973 Y-14.215
X-115.343 Y-14.157
X-115.307 Y-14.146
X-115.277 Y-14.122
X-115.258 Y-14.089
X-115.253 Y-14.051
X-115.269 Y-13.883
X-115.278 Y-13.798
X-115.301 Y-13.65
X-115.394 Y-13.532
X-115.516 Y-13.445
X-115.654 Y-13.386
X-115.801 Y-13.356
X-115.951 Y-13.351
X-116.098 Y-13.381
X-116.148 Y-13.403
X-116.255 Y-13.482
X-116.318 Y-13.6
X-116.323 Y-13.733
X-116.282 Y-13.953
X-116.267 Y-13.987
X-116.241 Y-14.013
X-116.207 Y-14.028
X-116.169 Y-14.03
X-115.992 Y-14.002
X-115.362 Y-13.904
X-115.328 Y-13.891
X-115.3 Y-13.867
X-115.282 Y-13.835
X-115.278 Y-13.798
X-115.287 Y-13.714
X-115.301 Y-13.629
X-115.331 Y-13.498
X-115.352 Y-13.426
X-115.435 Y-13.301
X-115.556 Y-13.213
X-115.695 Y-13.155
X-115.842 Y-13.127
X-115.992 Y-13.126
X-116.139 Y-13.158
X-116.203 Y-13.187
X-116.315 Y-13.274
X-116.373 Y-13.403
X-116.363 Y-13.545
X-116.343 Y-13.629
X-116.323 Y-13.733
X-116.307 Y-13.769
X-116.278 Y-13.796
X-116.241 Y-13.81
X-116.202 Y-13.809
X-116.021 Y-13.764
X-115.406 Y-13.615
X-115.371 Y-13.599
X-115.345 Y-13.571
X-115.331 Y-13.536
Y-13.498
X-115.39 Y-13.245
X-115.399 Y-13.207
X-115.409 Y-13.165
X-115.44 Y-13.1
X-115.465 Y-13.07
X-115.5 Y-13.052
X-115.539 Y-13.049
X-115.576 Y-13.061
X-115.606 Y-13.087
X-115.624 Y-13.122
X-115.627 Y-13.161
X-115.614 Y-13.198
X-115.594 Y-13.233
X-115.572 Y-13.26
X-115.542 Y-13.278
X-115.507 Y-13.284
X-115.472 Y-13.278
X-115.442 Y-13.26
X-115.42 Y-13.233
X-115.408 Y-13.2
X-115.409 Y-13.165
X-115.418 Y-13.143
X-115.445 Y-13.09
X-115.464 Y-13.058
X-115.589 Y-12.975
X-115.729 Y-12.922
X-115.877 Y-12.897
X-116.027 Y-12.898
X-116.174 Y-12.929
X-116.312 Y-12.988
X-116.348 Y-13.017
X-116.429 Y-13.119
X-116.46 Y-13.246
X-116.434 Y-13.373
X-116.414 Y-13.401
X-116.386 Y-13.42
X-116.354 Y-13.429
X-116.32 Y-13.427
X-116.103 Y-13.374
X-115.512 Y-13.23
X-115.48 Y-13.216
X-115.454 Y-13.191
X-115.439 Y-13.159
X-115.436 Y-13.124
X-115.445 Y-13.09
X-115.515 Y-12.953
X-115.591 Y-12.824
X-115.714 Y-12.738
X-115.856 Y-12.689
X-116.005 Y-12.674
X-116.154 Y-12.687
X-116.299 Y-12.728
X-116.429 Y-12.801
X-116.455 Y-12.824
X-116.53 Y-12.93
X-116.553 Y-13.057
X-116.52 Y-13.183
X-116.508 Y-13.207
X-116.395 Y-13.46
X-116.376 Y-13.506
X-116.363 Y-13.545
X-116.344 Y-13.577
X-116.314 Y-13.6
X-116.278 Y-13.61
X-116.241 Y-13.607
X-116.208 Y-13.59
X-116.058 Y-13.474
X-115.544 Y-13.075
X-115.522 Y-13.05
X-115.509 Y-13.019
X-115.506 Y-12.986
X-115.515 Y-12.953
X-115.603 Y-12.784
X-115.68 Y-12.663
X-115.723 Y-12.602
X-115.845 Y-12.515
X-115.989 Y-12.472
X-116.139 Y-12.464
X-116.287 Y-12.487
X-116.429 Y-12.536
X-116.555 Y-12.618
X-116.581 Y-12.646
X-116.648 Y-12.756
X-116.662 Y-12.884
X-116.622 Y-13.007
X-116.545 Y-13.135
X-116.52 Y-13.183
X-116.5 Y-13.208
X-116.473 Y-13.226
X-116.442 Y-13.234
X-116.409 Y-13.231
X-116.38 Y-13.219
X-116.247 Y-13.135
X-115.713 Y-12.798
X-115.685 Y-12.772
X-115.669 Y-12.737
X-115.667 Y-12.699
X-115.68 Y-12.663
X-115.783 Y-12.5
X-115.822 Y-12.447
X-115.868 Y-12.388
X-115.992 Y-12.303
X-116.137 Y-12.266
X-116.287
X-116.434 Y-12.297
X-116.572 Y-12.356
X-116.692 Y-12.445
X-116.712 Y-12.469
X-116.771 Y-12.581
X-116.779 Y-12.707
X-116.734 Y-12.825
X-116.711 Y-12.848
X-116.682 Y-12.863
X-116.65 Y-12.868
X-116.618 Y-12.862
X-116.44 Y-12.798
X-115.871 Y-12.596
X-115.84 Y-12.578
X-115.817 Y-12.55
X-115.806 Y-12.516
X-115.807 Y-12.48
X-115.822 Y-12.447
X-115.979 Y-12.229
X-115.993 Y-12.211
X-116.109 Y-12.116
X-116.253 Y-12.075
X-116.403 Y-12.074
X-116.55 Y-12.104
X-116.689 Y-12.162
X-116.809 Y-12.252
X-116.838 Y-12.286
X-116.902 Y-12.411
Y-12.551
X-116.838 Y-12.676
X-116.818 Y-12.7
X-116.799 Y-12.725
X-116.705 Y-12.869
X-116.622 Y-13.007
X-116.594 Y-13.035
X-116.558 Y-13.05
X-116.519 Y-13.051
X-116.483 Y-13.036
X-116.455 Y-13.009
X-116.363 Y-12.874
X-115.99 Y-12.327
X-115.977 Y-12.299
X-115.973 Y-12.269
X-115.978 Y-12.238
X-115.993 Y-12.211
X-116.013 Y-12.193
X-116.241 Y-12.007
X-116.362 Y-11.918
X-116.511 Y-11.9
X-116.66 Y-11.92
X-116.8 Y-11.973
X-116.923 Y-12.059
X-117.024 Y-12.17
X-117.039 Y-12.202
X-117.069 Y-12.328
X-117.042 Y-12.454
X-116.965 Y-12.558
X-116.883 Y-12.629
X-116.848 Y-12.665
X-116.838 Y-12.676
X-116.812 Y-12.697
X-116.78 Y-12.707
X-116.747
X-116.715 Y-12.695
X-116.689 Y-12.674
X-116.644 Y-12.622
X-116.232 Y-12.148
X-116.212 Y-12.114
X-116.207 Y-12.075
X-116.218 Y-12.038
X-116.241 Y-12.007
X-116.376 Y-11.897
X-116.486 Y-11.83
X-116.618 Y-11.759
X-116.768 Y-11.758
X-116.912 Y-11.8
X-117.043 Y-11.874
X-117.152 Y-11.976
X-117.231 Y-12.104
X-117.24 Y-12.222
X-117.204 Y-12.332
X-117.129 Y-12.42
X-117.1 Y-12.435
X-117.067 Y-12.44
X-117.035 Y-12.434
X-117.007 Y-12.418
X-116.942 Y-12.366
X-116.478 Y-11.992
X-116.453 Y-11.963
X-116.441 Y-11.928
X-116.443 Y-11.89
X-116.459 Y-11.856
X-116.486 Y-11.83
X-116.676 Y-11.716
X-116.714 Y-11.694
X-116.781 Y-11.659
X-116.929 Y-11.635
X-117.075 Y-11.669
X-117.207 Y-11.739
X-117.32 Y-11.838
X-117.4 Y-11.965
X-117.403 Y-11.975
X-117.413 Y-12.104
X-117.367 Y-12.225
X-117.275 Y-12.316
X-117.202 Y-12.362
X-117.096 Y-12.447
X-117.052 Y-12.482
X-116.965 Y-12.558
X-116.936 Y-12.574
X-116.902 Y-12.58
X-116.868 Y-12.574
X-116.839 Y-12.557
X-116.816 Y-12.531
X-116.804 Y-12.499
X-116.795 Y-12.451
X-116.67 Y-11.797
Y-11.757
X-116.686 Y-11.721
X-116.714 Y-11.694
X-116.841 Y-11.621
X-116.862 Y-11.611
X-117.014 Y-11.571
X-117.161 Y-11.54
X-117.306 Y-11.58
X-117.432 Y-11.661
X-117.534 Y-11.771
X-117.559 Y-11.824
X-117.589 Y-11.965
X-117.548 Y-12.105
X-117.447 Y-12.209
X-117.414 Y-12.221
X-117.378 Y-12.22
X-117.345 Y-12.207
X-117.319 Y-12.183
X-116.964 Y-11.728
X-116.947 Y-11.694
X-116.944 Y-11.655
X-116.955 Y-11.619
X-116.98 Y-11.589
X-117.014 Y-11.571
X-117.222 Y-11.516
X-117.268 Y-11.507
X-117.416 Y-11.484
X-117.558 Y-11.534
X-117.672 Y-11.631
X-117.752 Y-11.757
X-117.762 Y-11.796
X-117.76 Y-11.944
X-117.687 Y-12.073
X-117.562 Y-12.152
X-117.529 Y-12.155
X-117.496 Y-12.148
X-117.467 Y-12.129
X-117.447 Y-12.103
X-117.204 Y-11.651
X-117.193 Y-11.617
X-117.195 Y-11.581
X-117.209 Y-11.547
X-117.235 Y-11.522
X-117.268 Y-11.507
X-117.306 Y-11.499
X-117.522 Y-11.466
X-117.597 Y-11.458
X-117.744 Y-11.486
X-117.863 Y-11.578
X-117.936 Y-11.709
X-117.944 Y-11.746
X-117.947 Y-11.858
X-117.909 Y-11.963
X-117.835 Y-12.048
X-117.735 Y-12.099
X-117.699 Y-12.101
X-117.665 Y-12.091
X-117.636 Y-12.069
X-117.617 Y-12.038
X-117.447 Y-11.6
X-117.44 Y-11.566
X-117.446 Y-11.532
X-117.463 Y-11.501
X-117.489 Y-11.478
X-117.522 Y-11.466
X-117.56 Y-11.46
X-117.776 Y-11.437
X-117.832 Y-11.434
X-117.974 Y-11.481
X-118.079 Y-11.588
X-118.104 Y-11.646
X-118.127 Y-11.772
X-118.095 Y-11.897
X-118.014 Y-11.998
X-117.898 Y-12.055
X-117.859
X-117.823 Y-12.041
X-117.795 Y-12.013
X-117.78 Y-11.977
X-117.692 Y-11.557
X-117.69 Y-11.524
X-117.7 Y-11.493
X-117.718 Y-11.466
X-117.745 Y-11.447
X-117.776 Y-11.437
X-117.815 Y-11.433
X-117.898 Y-11.431
X-117.983
X-118.058 Y-11.435
X-118.127 Y-11.465
X-118.241 Y-11.562
X-118.302 Y-11.699
X-118.303 Y-11.714
X-118.277 Y-11.857
X-118.186 Y-11.971
X-118.053 Y-12.029
X-118.014 Y-12.026
X-117.98 Y-12.009
X-117.954 Y-11.98
X-117.941 Y-11.943
X-117.887 Y-11.544
X-117.888 Y-11.511
X-117.9 Y-11.48
X-117.922 Y-11.454
X-117.95 Y-11.438
X-117.983 Y-11.431
X-118.068
X-118.145 Y-11.433
X-118.199 Y-11.439
X-118.273 Y-11.45
X-118.337 Y-11.489
X-118.443 Y-11.596
X-118.484 Y-11.74
X-118.44 Y-11.866
X-118.347 Y-11.959
X-118.223 Y-12.004
X-118.184 Y-12
X-118.149 Y-11.98
X-118.125 Y-11.949
X-118.115 Y-11.91
X-118.092 Y-11.545
X-118.096 Y-11.511
X-118.11 Y-11.48
X-118.134 Y-11.456
X-118.165 Y-11.442
X-118.199 Y-11.439
X-118.321 Y-11.453
X-118.406 Y-11.465
X-118.478 Y-11.485
X-118.538 Y-11.531
X-118.586 Y-11.588
X-118.607 Y-11.726
X-118.561 Y-11.859
X-118.46 Y-11.955
X-118.326 Y-11.993
X-118.291 Y-11.987
X-118.26 Y-11.969
X-118.238 Y-11.941
X-118.227 Y-11.907
X-118.228 Y-11.872
X-118.298 Y-11.543
X-118.312 Y-11.51
X-118.337 Y-11.483
X-118.37 Y-11.468
X-118.406 Y-11.465
X-118.491 Y-11.484
X-118.575 Y-11.507
X-118.647 Y-11.53
X-118.698 Y-11.585
X-118.76 Y-11.721
X-118.731 Y-11.834
X-118.66 Y-11.926
X-118.558 Y-11.983
X-118.442 Y-11.996
X-118.409 Y-11.985
X-118.381 Y-11.964
X-118.362 Y-11.934
X-118.355 Y-11.9
X-118.36 Y-11.865
X-118.458 Y-11.573
X-118.476 Y-11.541
X-118.504 Y-11.517
X-118.539 Y-11.506
X-118.575 Y-11.507
X-118.66 Y-11.53
X-118.706 Y-11.544
X-118.763 Y-11.564
X-118.825 Y-11.606
X-118.863 Y-11.67
X-118.867 Y-11.799
X-118.81 Y-11.914
X-118.706 Y-11.99
X-118.578 Y-12.009
X-118.545 Y-11.998
X-118.517 Y-11.977
X-118.499 Y-11.947
X-118.491 Y-11.913
X-118.496 Y-11.878
X-118.586 Y-11.609
X-118.604 Y-11.576
X-118.633 Y-11.552
X-118.669 Y-11.541
X-118.706 Y-11.544
X-118.744 Y-11.555
X-118.867 Y-11.602
X-118.911 Y-11.622
X-119.011 Y-11.734
X-119.086 Y-11.789
X-119.076 Y-11.822
X-119 Y-11.948
X-118.874 Y-12.023
X-118.727 Y-12.029
X-118.697 Y-12.016
X-118.672 Y-11.993
X-118.657 Y-11.964
X-118.651 Y-11.931
X-118.657 Y-11.899
X-118.74 Y-11.663
X-118.76 Y-11.63
X-118.791 Y-11.607
X-118.828 Y-11.597
X-118.867 Y-11.602
X-118.914 Y-11.62
X-118.998 Y-11.663
X-119.041 Y-11.686
X-119.167 Y-11.764
X-119.287 Y-11.855
X-119.337 Y-11.896
X-119.384 Y-11.94
X-119.612 Y-12.171
X-119.62 Y-12.182
X-119.626 Y-12.193
X-119.63 Y-12.204
X-119.633 Y-12.214
X-119.634 Y-12.225
Y-12.246
X-119.633 Y-12.257
X-119.63 Y-12.267
X-119.626 Y-12.278
X-119.621 Y-12.288
X-119.613 Y-12.299
X-119.602 Y-12.311
X-119.59 Y-12.32
X-119.58 Y-12.327
X-119.569 Y-12.331
X-119.559 Y-12.334
X-119.548 Y-12.336
X-119.538 Y-12.337
X-119.527
X-119.516 Y-12.336
X-119.506 Y-12.333
X-119.495 Y-12.329
X-119.244 Y-12.193
X-119.167 Y-12.157
X-119.055 Y-12.109
X-118.998 Y-12.087
X-118.914 Y-12.068
X-118.705 Y-12.024
X-118.66 Y-12.017
X-118.406 Y-11.992
X-118.364 Y-11.991
X-118.321 Y-11.993
X-118.237 Y-12.002
X-118.152 Y-12.013
X-117.898 Y-12.055
X-117.814 Y-12.076
X-117.645 Y-12.125
X-117.56 Y-12.152
X-117.472 Y-12.193
X-117.275 Y-12.316
X-117.238 Y-12.329
X-117.199 Y-12.326
X-117.164 Y-12.309
X-117.138 Y-12.279
X-117.119 Y-12.246 Z-0.982
X-117.103 Y-12.218 Z-0.961
X-117.092 Y-12.199 Z-0.928
X-117.088 Y-12.193 Z-0.89
G0 Z2
X-120.045 Y-12.77
Z1.11
G1 Z1.01 F1000
Z-0.99
G3 X-120.418 Y-12.079 I-3.376 J-1.377
G1 X-120.436 Y-12.054
X-120.455 Y-12.024
X-120.475 Y-11.982
X-120.492 Y-11.94
X-120.505 Y-11.893
X-120.516 Y-11.858
X-120.619 Y-11.748
X-120.756 Y-11.686
X-120.904 Y-11.663
X-121.053 Y-11.671
X-121.199 Y-11.706
X-121.262 Y-11.732
X-121.355 Y-11.793
X-121.42 Y-11.884
X-121.447 Y-11.992
X-121.451 Y-12.109
X-121.457 Y-12.276
X-121.451 Y-12.308
X-121.435 Y-12.338
X-121.41 Y-12.36
X-121.38 Y-12.373
X-121.346 Y-12.375
X-121.314 Y-12.366
X-121.146 Y-12.286
X-120.559 Y-12.006
X-120.532 Y-11.987
X-120.512 Y-11.959
X-120.503 Y-11.927
X-120.505 Y-11.893
X-120.515 Y-11.855
X-120.521 Y-11.812
X-120.524 Y-11.771
X-120.53 Y-11.696
X-120.614 Y-11.572
X-120.742 Y-11.494
X-120.886 Y-11.453
X-121.036 Y-11.443
X-121.185 Y-11.461
X-121.224 Y-11.474
X-121.326 Y-11.532
X-121.398 Y-11.625
X-121.429 Y-11.738
X-121.445 Y-11.969
X-121.447 Y-11.992
X-121.44 Y-12.03
X-121.421 Y-12.062
X-121.39 Y-12.084
X-121.354 Y-12.094
X-121.316 Y-12.09
X-121.228 Y-12.062
X-120.593 Y-11.859
X-120.559 Y-11.84
X-120.535 Y-11.809
X-120.524 Y-11.771
X-120.521 Y-11.686
X-120.517 Y-11.64
X-120.514 Y-11.565
X-120.566 Y-11.424
X-120.676 Y-11.323
X-120.811 Y-11.258
X-120.958 Y-11.225
X-121.108 Y-11.22
X-121.169 Y-11.232
X-121.287 Y-11.283
X-121.373 Y-11.379
X-121.411 Y-11.502
X-121.429 Y-11.738
X-121.425 Y-11.772
X-121.408 Y-11.803
X-121.382 Y-11.827
X-121.349 Y-11.839
X-121.314 Y-11.84
X-121.248 Y-11.83
X-120.6 Y-11.727
X-120.57 Y-11.717
X-120.544 Y-11.697
X-120.526 Y-11.671
X-120.517 Y-11.64
X-120.499 Y-11.433
X-120.496 Y-11.358
X-120.554 Y-11.22
X-120.663 Y-11.117
X-120.795 Y-11.046
X-120.939 Y-11.004
X-121.089 Y-10.996
X-121.139 Y-11.004
X-121.26 Y-11.053
X-121.349 Y-11.148
X-121.389 Y-11.271
X-121.408 Y-11.471
X-121.411 Y-11.502
X-121.406 Y-11.536
X-121.39 Y-11.567
X-121.365 Y-11.59
X-121.333 Y-11.604
X-121.299 Y-11.606
X-121.235 Y-11.598
X-120.587 Y-11.519
X-120.555 Y-11.51
X-120.528 Y-11.491
X-120.509 Y-11.464
X-120.499 Y-11.433
X-120.483 Y-11.264
X-120.48 Y-11.189
X-120.515 Y-11.043
X-120.612 Y-10.929
X-120.736 Y-10.845
X-120.877 Y-10.792
X-121.025 Y-10.772
X-121.09 Y-10.778
X-121.215 Y-10.818
X-121.311 Y-10.908
X-121.359 Y-11.03
X-121.37 Y-11.095
X-121.38 Y-11.18
X-121.389 Y-11.271
X-121.386 Y-11.304
X-121.372 Y-11.335
X-121.349 Y-11.358
X-121.319 Y-11.373
X-121.286 Y-11.377
X-121.223 Y-11.375
X-120.579 Y-11.351
X-120.545 Y-11.344
X-120.515 Y-11.325
X-120.494 Y-11.297
X-120.483 Y-11.264
X-120.476 Y-11.18
X-120.459 Y-11.049
X-120.454 Y-10.974
X-120.494 Y-10.83
X-120.59 Y-10.714
X-120.714 Y-10.63
X-120.853 Y-10.574
X-121.002 Y-10.554
X-121.051 Y-10.557
X-121.176 Y-10.596
X-121.273 Y-10.684
X-121.323 Y-10.805
X-121.359 Y-11.03
X-121.358 Y-11.064
X-121.345 Y-11.095
X-121.322 Y-11.12
X-121.292 Y-11.136
X-121.259 Y-11.142
X-121.203 Y-11.141
X-120.557 Y-11.133
X-120.523 Y-11.126
X-120.493 Y-11.108
X-120.471 Y-11.081
X-120.459 Y-11.049
X-120.436 Y-10.872
X-120.432 Y-10.842
X-120.423 Y-10.767
X-120.462 Y-10.622
X-120.556 Y-10.505
X-120.678 Y-10.418
X-120.816 Y-10.359
X-120.964 Y-10.336
X-121.01 Y-10.339
X-121.132 Y-10.375
X-121.228 Y-10.457
X-121.282 Y-10.571
X-121.323 Y-10.805
X-121.322 Y-10.839
X-121.309 Y-10.87
X-121.287 Y-10.896
X-121.258 Y-10.913
X-121.224 Y-10.919
X-121.178
X-120.53 Y-10.922
X-120.496 Y-10.916
X-120.466 Y-10.9
X-120.444 Y-10.874
X-120.432 Y-10.842
X-120.396 Y-10.626
X-120.387 Y-10.552
X-120.429 Y-10.408
X-120.523 Y-10.291
X-120.644 Y-10.202
X-120.781 Y-10.143
X-120.93 Y-10.12
X-120.96 Y-10.122
X-121.081 Y-10.157
X-121.177 Y-10.239
X-121.231 Y-10.352
X-121.282 Y-10.571
X-121.283 Y-10.606
X-121.271 Y-10.639
X-121.25 Y-10.666
X-121.22 Y-10.684
X-121.186 Y-10.69
X-121.142 Y-10.691
X-120.496 Y-10.706
X-120.462 Y-10.701
X-120.432 Y-10.684
X-120.409 Y-10.658
X-120.396 Y-10.626
X-120.389 Y-10.588
X-120.362 Y-10.457
X-120.35 Y-10.383
X-120.367 Y-10.234
X-120.449 Y-10.109
X-120.562 Y-10.01
X-120.696 Y-9.941
X-120.841 Y-9.907
X-120.887
X-121.014 Y-9.936
X-121.118 Y-10.016
X-121.177 Y-10.134
X-121.227 Y-10.335
X-121.231 Y-10.352
X-121.232 Y-10.385
X-121.222 Y-10.417
X-121.202 Y-10.444
X-121.174 Y-10.463
X-121.142 Y-10.471
X-121.109 Y-10.474
X-120.468 Y-10.533
X-120.433 Y-10.53
X-120.401 Y-10.515
X-120.376 Y-10.49
X-120.362 Y-10.457
X-120.336 Y-10.335
X-120.315 Y-10.25
X-120.301 Y-10.177
X-120.32 Y-10.028
X-120.4 Y-9.901
X-120.513 Y-9.802
X-120.644 Y-9.73
X-120.79 Y-9.695
X-120.82
X-120.938 Y-9.719
X-121.037 Y-9.787
X-121.102 Y-9.889
X-121.142 Y-9.997
X-121.177 Y-10.134
X-121.178 Y-10.167
X-121.169 Y-10.199
X-121.149 Y-10.226
X-121.121 Y-10.245
X-121.089 Y-10.254
X-121.064 Y-10.257
X-120.422 Y-10.323
X-120.387 Y-10.32
X-120.355 Y-10.306
X-120.33 Y-10.282
X-120.315 Y-10.25
X-120.295 Y-10.166
X-120.267 Y-10.059
X-120.251 Y-9.986
X-120.261 Y-9.837
X-120.335 Y-9.706
X-120.443 Y-9.602
X-120.573 Y-9.526
X-120.718 Y-9.487
X-120.734
X-120.852 Y-9.508
X-120.953 Y-9.574
X-121.019 Y-9.674
X-121.091 Y-9.861
X-121.102 Y-9.889
X-121.107 Y-9.923
X-121.101 Y-9.956
X-121.083 Y-9.986
X-121.056 Y-10.008
X-121.024 Y-10.019
X-121.012 Y-10.021
X-120.379 Y-10.128
X-120.344
X-120.31 Y-10.115
X-120.284 Y-10.091
X-120.267 Y-10.059
X-120.204 Y-9.828
X-120.187 Y-9.755
X-120.213 Y-9.607
X-120.293 Y-9.481
X-120.406 Y-9.381
X-120.537 Y-9.31
X-120.597 Y-9.297
X-120.734 Y-9.299
X-120.857 Y-9.363
X-120.938 Y-9.474
X-121.019 Y-9.674
X-121.025 Y-9.708
X-121.019 Y-9.743
X-121.001 Y-9.774
X-120.973 Y-9.796
X-120.939 Y-9.807
X-120.313 Y-9.897
X-120.279 Y-9.896
X-120.246 Y-9.882
X-120.22 Y-9.859
X-120.204 Y-9.828
X-120.18 Y-9.744
X-120.148 Y-9.659
X-120.121 Y-9.589
X-120.129 Y-9.439
X-120.2 Y-9.307
X-120.303 Y-9.199
X-120.434 Y-9.124
X-120.491 Y-9.108
X-120.63 Y-9.102
X-120.756 Y-9.159
X-120.844 Y-9.268
X-120.909 Y-9.406
X-120.938 Y-9.474
X-120.944 Y-9.509
X-120.938 Y-9.543
X-120.921 Y-9.574
X-120.894 Y-9.596
X-120.861 Y-9.608
X-120.252 Y-9.71
X-120.221 Y-9.711
X-120.192 Y-9.701
X-120.166 Y-9.684
X-120.148 Y-9.659
X-120.078 Y-9.522
X-120.062 Y-9.49
X-120.032 Y-9.422
X-120.034 Y-9.272
X-120.097 Y-9.136
X-120.196 Y-9.023
X-120.322 Y-8.942
X-120.464 Y-8.894
X-120.567 Y-8.909
X-120.657 Y-8.957
X-120.726 Y-9.032
X-120.749 Y-9.068
X-120.844 Y-9.268
X-120.852 Y-9.302
X-120.848 Y-9.337
X-120.832 Y-9.368
X-120.806 Y-9.392
X-120.774 Y-9.405
X-120.171 Y-9.539
X-120.14 Y-9.541
X-120.109 Y-9.533
X-120.082 Y-9.515
X-120.062 Y-9.49
X-119.976 Y-9.321
X-119.945 Y-9.253
X-119.937 Y-9.103
X-119.993 Y-8.964
X-120.088 Y-8.848
X-120.207 Y-8.757
X-120.25 Y-8.74
X-120.38 Y-8.72
X-120.507 Y-8.757
X-120.605 Y-8.844
X-120.726 Y-9.032
X-120.738 Y-9.065
Y-9.101
X-120.726 Y-9.134
X-120.702 Y-9.161
X-120.671 Y-9.178
X-120.094 Y-9.368
X-120.06 Y-9.373
X-120.027 Y-9.366
X-119.997 Y-9.348
X-119.976 Y-9.321
X-119.929 Y-9.23
X-119.887 Y-9.152
X-119.851 Y-9.087
X-119.834 Y-8.938
X-119.885 Y-8.796
X-119.972 Y-8.674
X-120.092 Y-8.584
X-120.12 Y-8.572
X-120.25 Y-8.55
X-120.377 Y-8.585
X-120.477 Y-8.671
X-120.605 Y-8.844
X-120.619 Y-8.878
X-120.62 Y-8.914
X-120.609 Y-8.948
X-120.586 Y-8.976
X-120.554 Y-8.994
X-119.999 Y-9.187
X-119.968 Y-9.192
X-119.937 Y-9.188
X-119.909 Y-9.174
X-119.887 Y-9.152
X-119.844 Y-9.092
X-119.78 Y-9.014
X-119.735 Y-8.953
X-119.708 Y-8.806
X-119.745 Y-8.66
X-119.825 Y-8.533
X-119.937 Y-8.434
X-119.963 Y-8.421
X-120.084 Y-8.389
X-120.208 Y-8.41
X-120.313 Y-8.48
X-120.352 Y-8.521
X-120.389 Y-8.561
X-120.458 Y-8.646
X-120.477 Y-8.671
X-120.491 Y-8.703
X-120.494 Y-8.738
X-120.484 Y-8.772
X-120.462 Y-8.801
X-120.432 Y-8.82
X-119.893 Y-9.04
X-119.863 Y-9.047
X-119.832 Y-9.045
X-119.804 Y-9.033
X-119.78 Y-9.014
X-119.675 Y-8.885
X-119.63 Y-8.825
X-119.579 Y-8.684
X-119.602 Y-8.536
X-119.67 Y-8.402
X-119.775 Y-8.295
X-119.798 Y-8.281
X-119.92 Y-8.241
X-120.047 Y-8.256
X-120.157 Y-8.322
X-120.183 Y-8.346
X-120.313 Y-8.48
X-120.331 Y-8.511
X-120.338 Y-8.546
X-120.332 Y-8.581
X-120.315 Y-8.612
X-120.287 Y-8.635
X-119.799 Y-8.907
X-119.767 Y-8.918
X-119.733
X-119.701 Y-8.907
X-119.675 Y-8.885
X-119.59 Y-8.784
X-119.545 Y-8.73
X-119.499 Y-8.671
X-119.449 Y-8.529
X-119.472 Y-8.381
X-119.538 Y-8.246
X-119.585 Y-8.198
X-119.709 Y-8.124
X-119.853 Y-8.116
X-119.985 Y-8.176
X-120.008 Y-8.205
X-120.019 Y-8.241
X-120.016 Y-8.278
X-120 Y-8.311
X-119.699 Y-8.722
X-119.674 Y-8.746
X-119.642 Y-8.76
X-119.606 Y-8.762
X-119.573 Y-8.752
X-119.545 Y-8.73
X-119.506 Y-8.684
X-119.484 Y-8.664
X-119.462 Y-8.646
X-119.421 Y-8.616
X-119.391 Y-8.594
X-119.351 Y-8.53
X-119.308 Y-8.387
X-119.328 Y-8.238
X-119.401 Y-8.107
X-119.429 Y-8.078
X-119.55 Y-8.004
X-119.692 Y-7.993
X-119.823 Y-8.049
X-119.938 Y-8.139
X-120.044 Y-8.223
X-120.098 Y-8.268
X-120.157 Y-8.322
X-120.177 Y-8.351
X-120.186 Y-8.385
X-120.182 Y-8.421
X-120.166 Y-8.452
X-120.14 Y-8.476
X-120.107 Y-8.49
X-119.489 Y-8.625
X-119.454 Y-8.626
X-119.421 Y-8.616
X-119.337 Y-8.568
X-119.323 Y-8.561
X-119.258 Y-8.524
X-119.165 Y-8.407
X-119.142 Y-8.258
X-119.17 Y-8.111
X-119.246 Y-7.982
X-119.257 Y-7.971
X-119.36 Y-7.904
X-119.481 Y-7.885
X-119.6 Y-7.916
X-119.71 Y-7.97
X-119.735 Y-7.984
X-119.823 Y-8.049
X-119.846 Y-8.076
X-119.858 Y-8.108
X-119.859 Y-8.143
X-119.848 Y-8.176
X-119.826 Y-8.203
X-119.43 Y-8.546
X-119.398 Y-8.565
X-119.36 Y-8.57
X-119.323 Y-8.561
X-119.155 Y-8.477
X-119.089 Y-8.44
X-118.994 Y-8.324
X-118.966 Y-8.176
X-118.989 Y-8.028
X-119.058 Y-7.893
X-119.159 Y-7.823
X-119.28 Y-7.798
X-119.4 Y-7.825
X-119.59 Y-7.911
X-119.6 Y-7.916
X-119.628 Y-7.938
X-119.647 Y-7.97
X-119.653 Y-8.006
X-119.645 Y-8.041
X-119.626 Y-8.072
X-119.269 Y-8.454
X-119.245 Y-8.473
X-119.216 Y-8.484
X-119.184 Y-8.485
X-119.155 Y-8.477
X-118.985 Y-8.392
X-118.919 Y-8.357
X-118.821 Y-8.244
X-118.788 Y-8.098
X-118.804 Y-7.948
X-118.829 Y-7.896
X-118.922 Y-7.784
X-119.057 Y-7.729
X-119.202 Y-7.743
X-119.252 Y-7.762
X-119.347 Y-7.801
X-119.4 Y-7.825
X-119.429 Y-7.846
X-119.449 Y-7.877
X-119.456 Y-7.912
X-119.45 Y-7.948
X-119.432 Y-7.98
X-119.101 Y-8.366
X-119.077 Y-8.386
X-119.048 Y-8.398
X-119.016 Y-8.4
X-118.985 Y-8.392
X-118.914 Y-8.358
X-118.829 Y-8.33
X-118.758 Y-8.306
X-118.65 Y-8.202
X-118.604 Y-8.059
X-118.614 Y-7.91
X-118.633 Y-7.859
X-118.709 Y-7.746
X-118.827 Y-7.678
X-118.963 Y-7.67
X-119.019 Y-7.68
X-119.04 Y-7.685
X-119.202 Y-7.743
X-119.233 Y-7.763
X-119.255 Y-7.793
X-119.264 Y-7.829
X-119.26 Y-7.866
X-119.243 Y-7.899
X-118.926 Y-8.294
X-118.899 Y-8.318
X-118.865 Y-8.33
X-118.829
X-118.693 Y-8.299
X-118.66 Y-8.292
X-118.587 Y-8.272
X-118.473 Y-8.175
X-118.419 Y-8.035
X-118.42 Y-7.885
X-118.431 Y-7.847
X-118.504 Y-7.723
X-118.626 Y-7.648
X-118.769 Y-7.637
X-118.963 Y-7.67
X-118.999 Y-7.685
X-119.026 Y-7.712
X-119.041 Y-7.747
X-119.042 Y-7.785
X-119.028 Y-7.821
X-118.763 Y-8.246
X-118.736 Y-8.275
X-118.699 Y-8.291
X-118.66 Y-8.292
X-118.491 Y-8.254
X-118.418 Y-8.234
X-118.357 Y-8.191
X-118.266 Y-8.072
X-118.23 Y-7.926
X-118.236 Y-7.876
X-118.271 Y-7.768
X-118.344 Y-7.68
X-118.445 Y-7.626
X-118.559 Y-7.614
X-118.595 Y-7.626
X-118.624 Y-7.65
X-118.642 Y-7.684
X-118.647 Y-7.722
X-118.608 Y-8.165
X-118.6 Y-8.197
X-118.582 Y-8.224
X-118.555 Y-8.244
X-118.524 Y-8.255
X-118.491 Y-8.254
X-118.406 Y-8.236
X-118.321 Y-8.219
X-118.248 Y-8.204
X-118.125 Y-8.117
X-118.059 Y-7.983
X-118.048 Y-7.833
X-118.052 Y-7.82
X-118.113 Y-7.706
X-118.216 Y-7.629
X-118.342 Y-7.601
X-118.379 Y-7.61
X-118.41 Y-7.632
X-118.431 Y-7.665
X-118.438 Y-7.702
X-118.433 Y-8.121
X-118.427 Y-8.154
X-118.411 Y-8.183
X-118.386 Y-8.205
X-118.355 Y-8.218
X-118.321 Y-8.219
X-118.237 Y-8.206
X-118.152 Y-8.207
X-118.115
X-118.046 Y-8.178
X-117.929 Y-8.084
X-117.865 Y-7.948
Y-7.904
X-117.885 Y-7.791
X-117.947 Y-7.694
X-118.04 Y-7.627
X-118.152 Y-7.601
X-118.406 Y-7.602
X-118.66 Y-7.622
X-118.744 Y-7.633
X-118.769 Y-7.637
X-118.805 Y-7.653
X-118.833 Y-7.681
X-118.847 Y-7.718
X-118.846 Y-7.757
X-118.83 Y-7.793
X-118.801 Y-7.82
X-118.191 Y-8.193
X-118.172 Y-8.202
X-118.152 Y-8.207
X-118.029 Y-8.22
X-117.954 Y-8.224
X-117.814 Y-8.172
X-117.717 Y-8.057
X-117.676 Y-7.913
X-117.679 Y-7.885
X-117.723 Y-7.752
X-117.823 Y-7.654
X-117.957 Y-7.612
X-118.068 Y-7.604
X-118.152 Y-7.601
X-118.189 Y-7.607
X-118.221 Y-7.627
X-118.243 Y-7.658
X-118.252 Y-7.694
X-118.248 Y-7.732
X-118.109 Y-8.152
X-118.092 Y-8.184
X-118.064 Y-8.208
X-118.029 Y-8.22
X-117.898 Y-8.234
X-117.852 Y-8.24
X-117.777 Y-8.246
X-117.706 Y-8.224
X-117.583 Y-8.137
X-117.508 Y-8.007
X-117.503 Y-7.963
X-117.512 Y-7.847
X-117.564 Y-7.743
X-117.652 Y-7.667
X-117.762 Y-7.63
X-117.814 Y-7.623
X-117.931 Y-7.614
X-117.957 Y-7.612
X-117.994 Y-7.618
X-118.026 Y-7.637
X-118.049 Y-7.666
X-118.06 Y-7.702
X-118.056 Y-7.74
X-117.932 Y-8.169
X-117.915 Y-8.203
X-117.887 Y-8.227
X-117.852 Y-8.24
X-117.814 Y-8.245
X-117.729 Y-8.265
X-117.683 Y-8.279
X-117.646 Y-8.288
X-117.572 Y-8.274
X-117.438 Y-8.209
X-117.348 Y-8.088
X-117.308 Y-7.944
X-117.309 Y-7.929
X-117.347 Y-7.805
X-117.434 Y-7.709
X-117.553 Y-7.658
X-117.591 Y-7.659
X-117.626 Y-7.675
X-117.652 Y-7.702
X-117.666 Y-7.738
X-117.749 Y-8.165
Y-8.201
X-117.737 Y-8.234
X-117.714 Y-8.261
X-117.683 Y-8.279
X-117.56 Y-8.315
X-117.487 Y-8.333
X-117.413 Y-8.322
X-117.274 Y-8.266
X-117.175 Y-8.153
X-117.123 Y-8.013
X-117.122 Y-7.996
X-117.151 Y-7.86
X-117.238 Y-7.752
X-117.364 Y-7.694
X-117.399 Y-7.695
X-117.432 Y-7.707
X-117.458 Y-7.73
X-117.475 Y-7.76
X-117.623 Y-8.188
X-117.628 Y-8.226
X-117.618 Y-8.264
X-117.594 Y-8.296
X-117.56 Y-8.315
X-117.475 Y-8.34
X-117.433 Y-8.355
X-117.391 Y-8.372
X-117.356 Y-8.387
X-117.281 Y-8.39
X-117.136 Y-8.353
X-117.023 Y-8.254
X-116.949 Y-8.123
X-116.942 Y-8.08
X-116.949 Y-7.95
X-117.011 Y-7.835
X-117.115 Y-7.757
X-117.137 Y-7.747
X-117.179 Y-7.731
X-117.25 Y-7.717
X-117.475 Y-7.672
X-117.56 Y-7.657
X-117.762 Y-7.63
X-117.8 Y-7.634
X-117.834 Y-7.652
X-117.859 Y-7.681
X-117.871 Y-7.718
X-117.868 Y-7.756
X-117.85 Y-7.791
X-117.419 Y-8.347
X-117.391 Y-8.372
X-117.354 Y-8.392
X-117.306 Y-8.422
X-117.283 Y-8.438
X-117.251 Y-8.459
X-117.179 Y-8.478
X-117.029 Y-8.466
X-116.9 Y-8.389
X-116.803 Y-8.275
X-116.748 Y-8.134
X-116.765 Y-8.017
X-116.826 Y-7.915
X-116.922 Y-7.844
X-116.956 Y-7.837
X-116.991 Y-7.841
X-117.022 Y-7.858
X-117.045 Y-7.884
X-117.307 Y-8.306
X-117.32 Y-8.34
Y-8.377
X-117.307 Y-8.411
X-117.283 Y-8.438
X-117.137 Y-8.542
X-117.074 Y-8.582
X-116.924 Y-8.591
X-116.785 Y-8.534
X-116.672 Y-8.435
X-116.588 Y-8.311
X-116.579 Y-8.279
X-116.575 Y-8.14
X-116.633 Y-8.014
X-116.742 Y-7.928
X-116.776 Y-7.92
X-116.81 Y-7.924
X-116.841 Y-7.939
X-116.864 Y-7.964
X-117.16 Y-8.406
X-117.174 Y-8.441
X-117.175 Y-8.478
X-117.162 Y-8.514
X-117.137 Y-8.542
X-117.109 Y-8.561
X-117.052 Y-8.604
X-117.028 Y-8.627
X-116.97 Y-8.675
X-116.826 Y-8.715
X-116.68 Y-8.68
X-116.553 Y-8.601
X-116.451 Y-8.491
X-116.387 Y-8.354
X-116.391 Y-8.239
X-116.439 Y-8.134
X-116.522 Y-8.055
X-116.554 Y-8.043
X-116.588 Y-8.042
X-116.62 Y-8.053
X-116.646 Y-8.073
X-117.03 Y-8.488
X-117.051 Y-8.521
X-117.057 Y-8.558
X-117.049 Y-8.595
X-117.028 Y-8.627
X-116.968 Y-8.683
X-116.901 Y-8.753
X-116.846 Y-8.804
X-116.703 Y-8.85
X-116.555 Y-8.826
X-116.421 Y-8.758
X-116.311 Y-8.657
X-116.226 Y-8.533
X-116.22 Y-8.511
X-116.208 Y-8.381
X-116.253 Y-8.259
X-116.345 Y-8.168
X-116.376 Y-8.156
X-116.408 Y-8.155
X-116.44 Y-8.164
X-116.466 Y-8.183
X-116.897 Y-8.615
X-116.918 Y-8.647
X-116.926 Y-8.683
X-116.92 Y-8.72
X-116.901 Y-8.753
X-116.799 Y-8.859
X-116.779 Y-8.881
X-116.726 Y-8.935
X-116.588 Y-8.991
X-116.438 Y-8.979
X-116.299 Y-8.922
X-116.178 Y-8.833
X-116.082 Y-8.719
X-116.072 Y-8.699
X-116.045 Y-8.586
X-116.062 Y-8.472
X-116.122 Y-8.373
X-116.206 Y-8.278
X-116.261 Y-8.223
X-116.291 Y-8.202
X-116.657 Y-7.97
X-116.714 Y-7.941
X-116.968 Y-7.823
X-117.115 Y-7.757
X-117.154 Y-7.749
X-117.193 Y-7.758
X-117.225 Y-7.78
X-117.246 Y-7.814
X-117.253 Y-7.853
X-117.244 Y-7.892
X-117.113 Y-8.17
X-116.779 Y-8.881
X-116.763 Y-8.899
X-116.737 Y-8.934
X-116.714 Y-8.968
X-116.69 Y-9.009
X-116.649 Y-9.072
X-116.518 Y-9.145
X-116.368 Y-9.152
X-116.223 Y-9.114
X-116.091 Y-9.043
X-115.977 Y-8.945
X-115.95 Y-8.906
X-115.904 Y-8.797
Y-8.678
X-115.95 Y-8.569
X-115.976 Y-8.544
X-116.01 Y-8.53
X-116.047 Y-8.529
X-116.081 Y-8.541
X-116.107 Y-8.557
X-116.652 Y-8.875
X-116.681 Y-8.9
X-116.698 Y-8.934
X-116.701 Y-8.973
X-116.69 Y-9.009
X-116.655 Y-9.068
X-116.629 Y-9.114
X-116.609 Y-9.152
X-116.589 Y-9.195
X-116.583 Y-9.205
X-116.566 Y-9.223
X-116.557 Y-9.232
X-116.525 Y-9.25
X-116.488 Y-9.255
X-116.452 Y-9.247
X-116.421 Y-9.225
X-116.401 Y-9.195
X-116.393 Y-9.158
X-116.398 Y-9.122
X-116.417 Y-9.09
X-116.446 Y-9.067
X-116.482 Y-9.056
X-116.519 Y-9.059
X-116.553 Y-9.075
X-116.555 Y-9.077
X-116.579 Y-9.103
X-116.593 Y-9.136
X-116.594 Y-9.172
X-116.583 Y-9.205
X-116.575 Y-9.216
X-116.551 Y-9.237
X-116.545 Y-9.243
X-116.534 Y-9.25
X-116.515 Y-9.26
X-116.483 Y-9.264
X-116.452 Y-9.255
X-116.427 Y-9.234
X-116.414 Y-9.204
Y-9.171
X-116.427 Y-9.142
X-116.452 Y-9.12
X-116.483 Y-9.111
X-116.515 Y-9.116
X-116.543 Y-9.133
X-116.56 Y-9.16
X-116.565 Y-9.192
X-116.557 Y-9.223
X-116.534 Y-9.25
X-116.524 Y-9.256
X-116.513 Y-9.261
X-116.502 Y-9.264
X-116.492 Y-9.265
X-116.46 Y-9.266
X-116.244
X-116.095 Y-9.258
X-115.956 Y-9.201
X-115.84 Y-9.106
X-115.833 Y-9.097
X-115.783 Y-8.986
X-115.78 Y-8.864
X-115.826 Y-8.751
X-115.852 Y-8.727
X-115.884 Y-8.713
X-115.919 Y-8.711
X-115.952 Y-8.721
X-115.98 Y-8.742
X-116.314 Y-9.098
X-116.334 Y-9.13
X-116.341 Y-9.167
X-116.333 Y-9.204
X-116.313 Y-9.236
X-116.281 Y-9.257
X-116.244 Y-9.266
X-115.906
X-115.868
X-115.821
X-115.794 Y-9.265
X-115.71 Y-9.158
X-115.687 Y-9.023
X-115.731 Y-8.894
X-115.762 Y-8.863
X-115.8 Y-8.842
X-115.842 Y-8.833
X-115.886 Y-8.836
X-115.926 Y-8.853
G3 X-115.821 Y-9.266 I0.113 J-0.191
G1 X-115.741
X-115.73 Y-9.265
X-115.72 Y-9.263
X-115.695 Y-9.252
X-115.686 Y-9.247
X-115.67 Y-9.225
X-115.665 Y-9.197
X-115.671 Y-9.17
X-115.691 Y-9.145
X-115.721 Y-9.133
X-115.753 Y-9.136
X-115.779 Y-9.154
X-115.794 Y-9.182
Y-9.214
X-115.779 Y-9.243
X-115.752 Y-9.26
X-115.72 Y-9.263
X-115.709 Y-9.259
X-115.699 Y-9.255
X-115.686 Y-9.247
X-115.674 Y-9.237
X-115.657 Y-9.216
X-115.644 Y-9.195
X-115.639 Y-9.184
X-115.636 Y-9.174
X-115.634 Y-9.163
X-115.633 Y-9.152
Y-9.142
X-115.634 Y-9.131
X-115.64 Y-9.11
X-115.69 Y-8.964
X-115.699 Y-8.945
X-115.784 Y-8.815
X-115.955 Y-8.561
X-116.037 Y-8.467
X-116.122 Y-8.373
X-116.144 Y-8.355
X-116.171 Y-8.345
X-116.194 Y-8.342 Z-0.987
X-116.221 Y-8.353 Z-0.974
X-116.244 Y-8.362 Z-0.951
X-116.258 Y-8.368 Z-0.922
X-116.263 Y-8.37 Z-0.89
G0 Z2
X-112.665 Y-12.664
Z0.5
G3 X-112.181 Y-12.788 Z0.29 I0.242 J-0.062 F333.3
X-112.665 Y-12.664 Z0.079 I-0.242 J0.062
X-112.181 Y-12.788 Z-0.131 I0.242 J-0.062
X-112.665 Y-12.664 Z-0.342 I-0.242 J0.062
X-112.181 Y-12.788 Z-0.552 I0.242 J-0.062
X-112.665 Y-12.664 Z-0.763 I-0.242 J0.062
X-112.454 Y-12.974 Z-0.876 I0.242 J-0.062
X-112.173 Y-12.726 Z-0.99 I0.031 J0.248
X-112.673 I-0.25
X-112.173 I0.25
G1 X-112.135 Y-12.581 F1000
X-112.148 Y-12.507
X-112.185 Y-12.442
X-112.292 Y-12.337
X-112.437 Y-12.297
X-112.585 Y-12.318
X-112.716 Y-12.392
X-112.813 Y-12.507
X-112.865 Y-12.647
X-112.867 Y-12.797
X-112.819 Y-12.94
X-112.727 Y-13.058
X-112.601 Y-13.14
X-112.456 Y-13.176
X-112.306 Y-13.162
X-112.17 Y-13.1
X-112.061 Y-12.996
X-111.983 Y-12.868
X-111.933 Y-12.727
X-111.922 Y-12.577
X-111.958 Y-12.431
X-112.028 Y-12.299
X-112.137 Y-12.195
X-112.268 Y-12.122
X-112.414 Y-12.089
X-112.564 Y-12.096
X-112.708 Y-12.137
X-112.837 Y-12.213
X-112.944 Y-12.318
X-113.026 Y-12.444
X-113.076 Y-12.585
X-113.09 Y-12.735
X-113.074 Y-12.884
X-113.023 Y-13.025
X-112.941 Y-13.15
X-112.834 Y-13.256
X-112.707 Y-13.335
X-112.564 Y-13.381
X-112.415 Y-13.397
X-112.266 Y-13.38
X-112.125 Y-13.327
X-111.999 Y-13.247
X-111.89 Y-13.143
X-111.802 Y-13.022
X-111.74 Y-12.885
X-111.701 Y-12.74
X-111.693 Y-12.59
X-111.716 Y-12.442
X-111.723 Y-12.42
X-111.759 Y-12.35
X-111.811 Y-12.291
X-111.878 Y-12.248
X-111.892 Y-12.241
X-111.966 Y-12.193
X-111.976 Y-12.185
X-112.054 Y-12.109
X-112.061 Y-12.101
X-112.089 Y-12.063
X-112.133 Y-12.002
X-112.26 Y-11.922
X-112.404 Y-11.88
X-112.553 Y-11.873
X-112.701 Y-11.898
X-112.842 Y-11.95
X-112.971 Y-12.026
X-113.012 Y-12.062
X-113.066 Y-12.123
X-113.101 Y-12.197
X-113.115 Y-12.278
X-113.121 Y-12.531
X-113.124 Y-12.784
Y-12.869
X-113.121 Y-13.038
X-113.11 Y-13.188
X-113.044 Y-13.322
X-112.945 Y-13.435
X-112.824 Y-13.523
X-112.687 Y-13.584
X-112.541 Y-13.619
X-112.391 Y-13.63
X-112.242 Y-13.614
X-112.185 Y-13.597
X-112.093 Y-13.553
X-112.022 Y-13.48
X-111.979 Y-13.388
X-111.976 Y-13.376
X-111.958 Y-13.334
X-111.938 Y-13.291
X-111.793 Y-13.038
X-111.723 Y-12.915
X-111.689 Y-12.869
X-111.621 Y-12.784
X-111.531 Y-12.664
X-111.526 Y-12.636
X-111.537 Y-12.488
X-111.618 Y-12.363
X-111.748 Y-12.292
X-111.788
X-111.825 Y-12.307
X-111.853 Y-12.335
X-111.868 Y-12.372
X-111.867 Y-12.412
X-111.793 Y-12.74
X-111.779 Y-12.774
X-111.753 Y-12.8
X-111.72 Y-12.815
X-111.684 Y-12.818
X-111.649 Y-12.807
X-111.621 Y-12.784
X-111.551 Y-12.7
X-111.478 Y-12.616
X-111.455 Y-12.586
X-111.445 Y-12.49
X-111.479 Y-12.4
X-111.549 Y-12.334
X-111.641 Y-12.306
X-111.685 Y-12.311
X-111.725 Y-12.327
X-111.76 Y-12.353
X-111.787 Y-12.387
G3 X-111.478 Y-12.616 I0.167 J-0.098
G1 X-111.406 Y-12.531
X-111.384 Y-12.507
X-111.351 Y-12.474
X-111.333 Y-12.454
Y-12.451
X-111.374 Y-12.361
X-111.455 Y-12.306
X-111.553 Y-12.3
X-111.582 Y-12.309
X-111.604 Y-12.329
X-111.617 Y-12.357
Y-12.387
G3 X-111.351 Y-12.474 I0.157 J0.031
G1 X-111.324 Y-12.447
X-111.3 Y-12.425
X-111.286 Y-12.409
X-111.274 Y-12.384
X-111.272 Y-12.378
X-111.278 Y-12.371
X-111.3 Y-12.349
X-111.328 Y-12.335
X-111.359 Y-12.331
X-111.39 Y-12.336
X-111.609 Y-12.412
X-111.679 Y-12.437
X-111.713 Y-12.457
X-111.737 Y-12.488
X-111.746 Y-12.525
X-111.741 Y-12.564
X-111.721 Y-12.598
X-111.69 Y-12.621
X-111.652 Y-12.631
X-111.614 Y-12.626
G3 X-111.286 Y-12.409 I-0.259 J0.748
G1 X-111.278 Y-12.393
X-111.272 Y-12.378
X-111.269 Y-12.362
Y-12.352
Y-12.341
X-111.275 Y-12.318
X-111.278 Y-12.31
X-111.297 Y-12.289
X-111.323 Y-12.278
X-111.351 Y-12.279
X-111.379 Y-12.295
X-111.396 Y-12.322
X-111.398 Y-12.353
X-111.385 Y-12.382
X-111.36 Y-12.402
X-111.328 Y-12.407
X-111.298 Y-12.396
X-111.277 Y-12.372
X-111.269 Y-12.341
X-111.271 Y-12.331
X-111.274 Y-12.321
X-111.278 Y-12.31
X-111.283 Y-12.3
X-111.29 Y-12.289
X-111.301 Y-12.278
X-111.311 Y-12.269
X-111.322 Y-12.263
X-111.332 Y-12.258
X-111.343 Y-12.255
X-111.353 Y-12.252
X-111.363 Y-12.251
X-111.374
X-111.384 Y-12.252
X-111.402 Y-12.257
X-111.457 Y-12.278
X-112.182 Y-12.581
X-112.442 Y-12.689
X-113.059 Y-12.947
X-113.091 Y-12.968
X-113.113 Y-13
X-113.121 Y-13.038
X-113.119 Y-13.122
X-113.109 Y-13.338
X-113.095 Y-13.487
X-113.016 Y-13.614
X-112.904 Y-13.714
X-112.774 Y-13.789
X-112.632 Y-13.838
X-112.484 Y-13.864
X-112.335 Y-13.867
X-112.281 Y-13.858
X-112.171 Y-13.817
X-112.086 Y-13.736
X-112.037 Y-13.629
X-111.999 Y-13.46
X-111.979 Y-13.388
X-111.977 Y-13.353
X-111.987 Y-13.319
X-112.009 Y-13.291
X-112.039 Y-13.272
X-112.073 Y-13.265
X-112.382 Y-13.256
X-113.006 Y-13.237
X-113.038 Y-13.241
X-113.067 Y-13.255
X-113.09 Y-13.277
X-113.105 Y-13.306
X-113.109 Y-13.338
X-113.098 Y-13.591
X-113.084 Y-13.74
X-113.002 Y-13.866
X-112.888 Y-13.963
X-112.756 Y-14.034
X-112.613 Y-14.08
X-112.465 Y-14.104
X-112.315 Y-14.098
X-112.299 Y-14.094
X-112.197 Y-14.045
X-112.121 Y-13.961
X-112.081 Y-13.855
X-112.056 Y-13.714
X-112.037 Y-13.629
Y-13.595
X-112.048 Y-13.562
X-112.07 Y-13.535
X-112.099 Y-13.517
X-112.133 Y-13.511
X-112.371 Y-13.505
X-112.996 Y-13.49
X-113.028 Y-13.495
X-113.056 Y-13.509
X-113.079 Y-13.531
X-113.093 Y-13.56
X-113.098 Y-13.591
X-113.092 Y-13.714
X-113.076 Y-13.876
X-113.065 Y-13.95
X-112.998 Y-14.084
X-112.889 Y-14.187
X-112.759 Y-14.262
X-112.618 Y-14.312
X-112.47 Y-14.336
X-112.32 Y-14.326
X-112.316 Y-14.324
X-112.213 Y-14.267
X-112.14 Y-14.174
X-112.108 Y-14.06
X-112.1 Y-13.967
X-112.081 Y-13.855
X-112.082 Y-13.821
X-112.095 Y-13.788
X-112.119 Y-13.763
X-112.149 Y-13.747
X-112.183 Y-13.742
X-112.354 Y-13.748
X-112.98 Y-13.77
X-113.018 Y-13.779
X-113.05 Y-13.802
X-113.071 Y-13.837
X-113.076 Y-13.876
X-113.067 Y-13.967
X-113.045 Y-14.136
X-113.032 Y-14.21
X-112.96 Y-14.341
X-112.847 Y-14.44
X-112.715 Y-14.511
X-112.57 Y-14.551
X-112.421 Y-14.564
X-112.37 Y-14.555
X-112.245 Y-14.502
X-112.156 Y-14.4
X-112.121 Y-14.269
X-112.12 Y-14.22
X-112.108 Y-14.06
X-112.113 Y-14.027
X-112.128 Y-13.997
X-112.153 Y-13.973
X-112.184 Y-13.96
X-112.218 Y-13.957
X-112.33 Y-13.968
X-112.955 Y-14.027
X-112.993 Y-14.038
X-113.023 Y-14.063
X-113.042 Y-14.097
X-113.045 Y-14.136
X-113.012 Y-14.389
X-112.998 Y-14.463
X-112.922 Y-14.592
X-112.805 Y-14.687
X-112.669 Y-14.75
X-112.523 Y-14.782
X-112.41 Y-14.778
X-112.297 Y-14.752
X-112.204 Y-14.685
X-112.142 Y-14.587
X-112.123 Y-14.474
X-112.122 Y-14.305
X-112.121 Y-14.269
X-112.127 Y-14.235
X-112.144 Y-14.205
X-112.171 Y-14.183
X-112.203 Y-14.171
X-112.237 Y-14.17
X-112.302 Y-14.181
X-112.928 Y-14.281
X-112.963 Y-14.294
X-112.991 Y-14.319
X-113.008 Y-14.352
X-113.012 Y-14.389
X-112.992 Y-14.542
X-112.989 Y-14.558
X-112.966 Y-14.643
X-112.92 Y-14.785
X-112.812 Y-14.89
X-112.68 Y-14.96
X-112.534 Y-14.995
X-112.384 Y-14.997
X-112.335 Y-14.984
X-112.213 Y-14.92
X-112.133 Y-14.808
X-112.112 Y-14.671
X-112.121 Y-14.558
X-112.123 Y-14.474
X-112.131 Y-14.44
X-112.149 Y-14.412
X-112.177 Y-14.391
X-112.21 Y-14.381
X-112.244 Y-14.382
X-112.277 Y-14.389
X-112.89 Y-14.522
X-112.926 Y-14.538
X-112.953 Y-14.567
X-112.967 Y-14.603
X-112.966 Y-14.643
X-112.907 Y-14.86
X-112.896 Y-14.896
X-112.871 Y-14.967
X-112.783 Y-15.088
X-112.654 Y-15.165
X-112.51 Y-15.207
X-112.36 Y-15.204
X-112.312 Y-15.191
X-112.183 Y-15.119
X-112.104 Y-14.995
X-112.094 Y-14.848
X-112.1 Y-14.812
X-112.112 Y-14.671
X-112.122 Y-14.638
X-112.143 Y-14.609
X-112.173 Y-14.59
X-112.207 Y-14.583
X-112.242 Y-14.587
X-112.83 Y-14.776
X-112.863 Y-14.794
X-112.887 Y-14.823
X-112.899 Y-14.859
X-112.896 Y-14.896
X-112.822 Y-15.142
X-112.796 Y-15.212
X-112.697 Y-15.325
X-112.562 Y-15.39
X-112.414 Y-15.414
X-112.265 Y-15.395
X-112.232 Y-15.38
X-112.125 Y-15.302
X-112.063 Y-15.185
X-112.057 Y-15.052
X-112.094 Y-14.848
X-112.107 Y-14.815
X-112.132 Y-14.789
X-112.164 Y-14.773
X-112.199 Y-14.77
X-112.233 Y-14.779
X-112.768 Y-15.026
X-112.796 Y-15.045
X-112.816 Y-15.074
X-112.825 Y-15.107
X-112.822 Y-15.142
X-112.752 Y-15.365
X-112.732 Y-15.419
X-112.632 Y-15.531
X-112.496 Y-15.593
X-112.347 Y-15.614
X-112.2 Y-15.587
X-112.175 Y-15.574
X-112.071 Y-15.49
X-112.014 Y-15.369
X-112.015 Y-15.236
X-112.055 Y-15.065
X-112.057 Y-15.052
X-112.071 Y-15.019
X-112.097 Y-14.992
X-112.13 Y-14.977
X-112.167 Y-14.974
X-112.202 Y-14.985
X-112.702 Y-15.25
X-112.729 Y-15.27
X-112.747 Y-15.298
X-112.755 Y-15.331
X-112.752 Y-15.365
X-112.738 Y-15.409
X-112.67 Y-15.572
X-112.638 Y-15.64
X-112.531 Y-15.745
X-112.39 Y-15.796
X-112.24 Y-15.803
X-112.096 Y-15.762
X-112.08 Y-15.751
X-111.986 Y-15.649
X-111.948 Y-15.515
X-111.974 Y-15.378
X-111.993 Y-15.352
X-112.021 Y-15.333
X-112.052 Y-15.323
X-112.085 Y-15.325
X-112.598 Y-15.439
X-112.63 Y-15.452
X-112.655 Y-15.475
X-112.671 Y-15.505
X-112.677 Y-15.538
X-112.67 Y-15.572
X-112.583 Y-15.782
X-112.55 Y-15.85
X-112.436 Y-15.947
X-112.293 Y-15.99
X-112.143 Y-15.989
X-112.002 Y-15.936
X-111.985 Y-15.923
X-111.898 Y-15.821
X-111.865 Y-15.691
X-111.892 Y-15.56
X-111.974 Y-15.378
X-111.995 Y-15.35
X-112.024 Y-15.331
X-112.058 Y-15.323
X-112.093 Y-15.327
X-112.124 Y-15.343
X-112.55 Y-15.667
X-112.572 Y-15.69
X-112.585 Y-15.719
X-112.589 Y-15.751
X-112.583 Y-15.782
X-112.505 Y-15.968
X-112.474 Y-16.033
X-112.363 Y-16.134
X-112.221 Y-16.18
X-112.071 Y-16.178
X-111.93 Y-16.127
X-111.902 Y-16.106
X-111.808 Y-15.997
X-111.777 Y-15.856
X-111.815 Y-15.716
X-111.848 Y-15.656
X-111.892 Y-15.56
X-111.913 Y-15.532
X-111.942 Y-15.512
X-111.976 Y-15.504
X-112.011 Y-15.509
X-112.042 Y-15.525
X-112.472 Y-15.853
X-112.494 Y-15.876
X-112.508 Y-15.905
X-112.512 Y-15.936
X-112.505 Y-15.968
X-112.458 Y-16.079
X-112.372 Y-16.189
X-112.347 Y-16.221
X-112.297 Y-16.277
X-112.165 Y-16.349
X-112.015 Y-16.36
X-111.871 Y-16.32
X-111.743 Y-16.241
X-111.738 Y-16.234
X-111.682 Y-16.125
X-111.674 Y-16.003
X-111.716 Y-15.888
X-111.815 Y-15.716
X-111.839 Y-15.689
X-111.872 Y-15.672
X-111.908 Y-15.669
X-111.944 Y-15.678
X-111.973 Y-15.7
X-112.34 Y-16.093
X-112.358 Y-16.122
X-112.366 Y-16.156
X-112.362 Y-16.19
X-112.347 Y-16.221
X-112.209 Y-16.394
X-112.159 Y-16.451
X-112.023 Y-16.515
X-111.873 Y-16.516
X-111.729 Y-16.475
X-111.691 Y-16.446
X-111.614 Y-16.364
X-111.574 Y-16.259
X-111.575 Y-16.147
X-111.617 Y-16.043
X-111.716 Y-15.888
X-111.742 Y-15.861
X-111.775 Y-15.846
X-111.812 Y-15.844
X-111.847 Y-15.855
X-111.876 Y-15.879
X-112.205 Y-16.27
X-112.222 Y-16.299
X-112.228 Y-16.332
X-112.224 Y-16.365
X-112.209 Y-16.394
X-112.081 Y-16.555
X-112.031 Y-16.611
X-111.895 Y-16.675
X-111.745 Y-16.678
X-111.653 Y-16.642
X-111.535 Y-16.561
X-111.467 Y-16.434
X-111.466 Y-16.291
X-111.531 Y-16.163
X-111.553 Y-16.137
X-111.594 Y-16.079
X-111.617 Y-16.043
X-111.643 Y-16.016
X-111.678 Y-16.002
X-111.715 Y-16.001
X-111.751 Y-16.014
X-111.778 Y-16.039
X-112.08 Y-16.435
X-112.095 Y-16.463
X-112.1 Y-16.495
X-112.095 Y-16.526
X-112.081 Y-16.555
X-111.989 Y-16.67
X-111.976 Y-16.684
X-111.897 Y-16.754
X-111.837 Y-16.799
X-111.69 Y-16.83
X-111.543 Y-16.8
X-111.418 Y-16.718
X-111.389 Y-16.683
X-111.335 Y-16.585
X-111.32 Y-16.473
X-111.348 Y-16.364
X-111.414 Y-16.273
X-111.531 Y-16.163
X-111.562 Y-16.145
X-111.597 Y-16.138
X-111.633 Y-16.145
X-111.663 Y-16.164
X-111.686 Y-16.192
X-111.917 Y-16.635
X-111.927 Y-16.666
Y-16.698
X-111.916 Y-16.729
X-111.897 Y-16.754
X-111.745 Y-16.88
X-111.685 Y-16.925
X-111.54 Y-16.962
X-111.394 Y-16.928
X-111.27 Y-16.844
X-111.24 Y-16.805
X-111.182 Y-16.671
X-111.195 Y-16.524
X-111.276 Y-16.402
X-111.414 Y-16.273
X-111.447 Y-16.254
X-111.484 Y-16.248
X-111.52 Y-16.256
X-111.551 Y-16.277
X-111.572 Y-16.308
X-111.77 Y-16.766
X-111.778 Y-16.796
X-111.776 Y-16.827
X-111.765 Y-16.856
X-111.745 Y-16.88
X-111.592 Y-17.008
X-111.532 Y-17.053
X-111.387 Y-17.089
X-111.241 Y-17.053
X-111.121 Y-16.964
X-111.03 Y-16.844
X-111.029 Y-16.84
X-111.016 Y-16.714
X-111.056 Y-16.594
X-111.142 Y-16.502
X-111.215 Y-16.451
X-111.26 Y-16.417
X-111.276 Y-16.402
X-111.309 Y-16.383
X-111.346 Y-16.378
X-111.383 Y-16.387
X-111.413 Y-16.409
X-111.434 Y-16.441
X-111.618 Y-16.896
X-111.625 Y-16.925
X-111.623 Y-16.956
X-111.612 Y-16.984
X-111.592 Y-17.008
X-111.469 Y-17.111
X-111.445 Y-17.128
X-111.426 Y-17.142
X-111.405 Y-17.153
X-111.261 Y-17.195
X-111.113 Y-17.174
X-110.982 Y-17.101
X-110.884 Y-16.987
X-110.878 Y-16.973
X-110.855 Y-16.835
X-110.897 Y-16.702
X-110.995 Y-16.602
X-111.046 Y-16.569
X-111.142 Y-16.502
X-111.176 Y-16.488
X-111.214 Y-16.487
X-111.248 Y-16.5
X-111.276 Y-16.525
X-111.293 Y-16.558
X-111.434 Y-17.042
X-111.438 Y-17.079
X-111.428 Y-17.115
X-111.406 Y-17.144
X-111.374 Y-17.164
X-111.168 Y-17.235
X-111.096 Y-17.256
X-110.946 Y-17.26
X-110.813 Y-17.192
X-110.719 Y-17.076
X-110.713 Y-17.06
X-110.695 Y-16.916
X-110.748 Y-16.78
X-110.858 Y-16.686
X-110.877 Y-16.676
X-110.995 Y-16.602
X-111.031 Y-16.59
X-111.069 Y-16.591
X-111.103 Y-16.607
X-111.129 Y-16.635
X-111.143 Y-16.67
X-111.23 Y-17.123
X-111.231 Y-17.158
X-111.22 Y-17.191
X-111.198 Y-17.217
X-111.168 Y-17.235
X-110.961 Y-17.307
X-110.889 Y-17.328
X-110.739 Y-17.32
X-110.613 Y-17.239
X-110.532 Y-17.112
X-110.527 Y-17.088
X-110.532 Y-16.943
X-110.604 Y-16.817
X-110.727 Y-16.74
X-110.792 Y-16.719
X-110.858 Y-16.686
X-110.896 Y-16.677
X-110.934 Y-16.682
X-110.967 Y-16.702
X-110.99 Y-16.733
X-111 Y-16.771
X-111.025 Y-17.208
X-111.022 Y-17.24
X-111.009 Y-17.268
X-110.988 Y-17.292
X-110.961 Y-17.307
X-110.792 Y-17.366
X-110.75 Y-17.379
X-110.675 Y-17.386
X-110.527 Y-17.36
X-110.411 Y-17.266
X-110.346 Y-17.13
X-110.344 Y-17.112
X-110.36 Y-16.976
X-110.436 Y-16.861
X-110.556 Y-16.792
X-110.727 Y-16.74
X-110.765 Y-16.737
X-110.802 Y-16.748
X-110.832 Y-16.773
X-110.85 Y-16.806
X-110.854 Y-16.845
X-110.817 Y-17.293
X-110.807 Y-17.33
X-110.783 Y-17.36
X-110.75 Y-17.379
X-110.538 Y-17.409
X-110.463 Y-17.415
X-110.39 Y-17.398
X-110.26 Y-17.323
X-110.181 Y-17.196
X-110.177 Y-17.176
X-110.178 Y-17.059
X-110.224 Y-16.951
X-110.307 Y-16.869
X-110.416 Y-16.825
X-110.454 Y-16.818
X-110.538 Y-16.797
X-110.556 Y-16.792
X-110.595 Y-16.79
X-110.632 Y-16.803
X-110.661 Y-16.829
X-110.678 Y-16.864
X-110.68 Y-16.903
X-110.62 Y-17.324
X-110.611 Y-17.354
X-110.593 Y-17.38
X-110.568 Y-17.399
X-110.538 Y-17.409
X-110.322 Y-17.438
X-110.248 Y-17.445
X-110.179 Y-17.415
X-110.059 Y-17.325
X-109.995 Y-17.189
X-109.994 Y-17.169
X-110.021 Y-17.027
X-110.111 Y-16.914
X-110.244 Y-16.857
X-110.284 Y-16.85
X-110.416 Y-16.825
X-110.449
X-110.481 Y-16.837
X-110.507 Y-16.858
X-110.524 Y-16.887
X-110.531 Y-16.919
X-110.527 Y-16.953
X-110.401 Y-17.369
X-110.384 Y-17.401
X-110.357 Y-17.426
X-110.322 Y-17.438
X-110.153 Y-17.462
X-110.078 Y-17.468
X-109.94 Y-17.411
X-109.844 Y-17.295
X-109.807 Y-17.15
X-109.809 Y-17.139
X-109.854 Y-17.015
X-109.948 Y-16.922
X-110.072 Y-16.878
X-110.2 Y-16.864
X-110.244 Y-16.857
X-110.284 Y-16.859
X-110.319 Y-16.877
X-110.345 Y-16.907
X-110.357 Y-16.945
X-110.353 Y-16.984
X-110.232 Y-17.392
X-110.215 Y-17.424
X-110.188 Y-17.449
X-110.153 Y-17.462
X-109.988 Y-17.484
X-109.967 Y-17.487
X-109.892 Y-17.482
X-109.822 Y-17.456
X-109.785 Y-17.427
X-109.696 Y-17.313
X-109.67 Y-17.17
X-109.715 Y-17.032
X-109.819 Y-16.931
X-109.958 Y-16.891
X-109.988 Y-16.888
X-110.072 Y-16.878
X-110.111 Y-16.883
X-110.145 Y-16.902
X-110.169 Y-16.932
X-110.18 Y-16.969
X-110.176 Y-17.008
X-110.047 Y-17.418
X-110.029 Y-17.451
X-110.002 Y-17.475
X-109.967 Y-17.487
X-109.946
X-109.777 Y-17.473
X-109.702 Y-17.464
X-109.637 Y-17.426
X-109.533 Y-17.319
X-109.495 Y-17.173
X-109.498 Y-17.145
X-109.532 Y-17.034
X-109.607 Y-16.944
X-109.709 Y-16.89
X-109.825 Y-16.878
X-109.958 Y-16.891
X-109.991 Y-16.896
X-110.02 Y-16.912
X-110.043 Y-16.937
X-110.056 Y-16.967
X-110.058 Y-17.001
X-110.049 Y-17.033
X-109.872 Y-17.415
X-109.849 Y-17.447
X-109.815 Y-17.467
X-109.777 Y-17.473
X-109.607 Y-17.46
X-109.533 Y-17.45
X-109.468 Y-17.413
X-109.414 Y-17.361
X-109.335 Y-17.233
X-109.321 Y-17.084
X-109.324 Y-17.072
X-109.397 Y-16.946
X-109.521 Y-16.87
X-109.667 Y-16.86
X-109.692 Y-16.865
X-109.825 Y-16.878
X-109.861 Y-16.89
X-109.891 Y-16.915
X-109.908 Y-16.949
X-109.912 Y-16.987
X-109.901 Y-17.024
X-109.701 Y-17.406
X-109.677 Y-17.436
X-109.645 Y-17.454
X-109.607 Y-17.46
X-109.438 Y-17.446
X-109.364 Y-17.434
X-109.298 Y-17.4
X-109.191 Y-17.294
X-109.139 Y-17.153
X-109.15 Y-17.004
X-109.154 Y-16.995
X-109.234 Y-16.891
X-109.35 Y-16.831
X-109.48 Y-16.826
X-109.667 Y-16.86
X-109.7 Y-16.875
X-109.726 Y-16.9
X-109.742 Y-16.933
X-109.744 Y-16.969
X-109.734 Y-17.004
X-109.531 Y-17.392
X-109.508 Y-17.422
X-109.476 Y-17.441
X-109.438 Y-17.446
X-109.354 Y-17.436
X-109.223 Y-17.412
X-109.15 Y-17.395
X-109.027 Y-17.309
X-108.963 Y-17.173
X-108.952 Y-17.024
X-108.961 Y-16.991
X-109.016 Y-16.888
X-109.107 Y-16.813
X-109.219 Y-16.778
X-109.335 Y-16.79
X-109.438 Y-16.819
X-109.48 Y-16.826
X-109.514 Y-16.841
X-109.541 Y-16.867
X-109.556 Y-16.901
X-109.558 Y-16.938
X-109.546 Y-16.973
X-109.324 Y-17.363
X-109.298 Y-17.393
X-109.262 Y-17.41
X-109.223 Y-17.412
X-109.1 Y-17.39
X-109.015 Y-17.37
X-108.943 Y-17.348
X-108.829 Y-17.252
X-108.77 Y-17.114
X-108.771 Y-16.964
X-108.788 Y-16.917
X-108.851 Y-16.816
X-108.947 Y-16.748
X-109.063 Y-16.721
X-109.179 Y-16.742
X-109.335 Y-16.79
X-109.368 Y-16.808
X-109.391 Y-16.836
X-109.402 Y-16.871
X-109.4 Y-16.908
X-109.385 Y-16.941
X-109.117 Y-17.329
X-109.09 Y-17.355
X-109.054 Y-17.37
X-109.015
X-108.846 Y-17.329
X-108.774 Y-17.308
X-108.712 Y-17.266
X-108.619 Y-17.149
X-108.584 Y-17.003
X-108.604 Y-16.854
X-108.673 Y-16.72
X-108.783 Y-16.651
X-108.912 Y-16.634
X-109.036 Y-16.674
X-109.1 Y-16.711
X-109.179 Y-16.742
X-109.209 Y-16.761
X-109.229 Y-16.79
X-109.239 Y-16.824
X-109.237 Y-16.859
X-109.222 Y-16.891
X-108.948 Y-17.288
X-108.921 Y-17.315
X-108.885 Y-17.329
X-108.846
X-108.677 Y-17.287
X-108.651 Y-17.276
X-108.592 Y-17.242
X-108.53 Y-17.2
X-108.435 Y-17.084
X-108.4 Y-16.938
X-108.414 Y-16.789
X-108.475 Y-16.652
X-108.496 Y-16.629
X-108.613 Y-16.546
X-108.755 Y-16.528
X-108.89 Y-16.577
X-109.036 Y-16.674
X-109.061 Y-16.697
X-109.078 Y-16.727
X-109.083 Y-16.761
X-109.076 Y-16.794
X-109.058 Y-16.824
X-108.716 Y-17.219
X-108.69 Y-17.241
X-108.658 Y-17.252
X-108.624
X-108.592 Y-17.242
X-108.398 Y-17.127
X-108.335 Y-17.086
X-108.249 Y-16.963
X-108.224 Y-16.815
X-108.245 Y-16.666
X-108.315 Y-16.534
X-108.342 Y-16.506
X-108.434 Y-16.439
X-108.545 Y-16.412
X-108.658 Y-16.428
X-108.757 Y-16.485
X-108.778 Y-16.501
X-108.89 Y-16.577
X-108.914 Y-16.602
X-108.928 Y-16.634
X-108.93 Y-16.668
X-108.921 Y-16.701
X-108.901 Y-16.729
X-108.516 Y-17.11
X-108.49 Y-17.129
X-108.459 Y-17.138
X-108.428 Y-17.137
X-108.398 Y-17.127
X-108.222 Y-17.023
X-108.165 Y-16.986
X-108.075 Y-16.866
X-108.047 Y-16.719
X-108.068 Y-16.57
X-108.134 Y-16.435
X-108.234 Y-16.324
X-108.249 Y-16.314
X-108.374 Y-16.271
X-108.505 Y-16.287
X-108.618 Y-16.357
X-108.678 Y-16.417
X-108.757 Y-16.485
X-108.777 Y-16.511
X-108.787 Y-16.543
Y-16.576
X-108.776 Y-16.607
X-108.755 Y-16.633
X-108.337 Y-17.01
X-108.311 Y-17.026
X-108.281 Y-17.035
X-108.251 Y-17.034
X-108.222 Y-17.023
X-108.169 Y-16.992
X-108.127 Y-16.964
X-108 Y-16.854
X-107.946 Y-16.802
X-107.886 Y-16.664
X-107.888 Y-16.514
X-107.934 Y-16.372
X-108.013 Y-16.244
X-108.126 Y-16.146
X-108.135 Y-16.142
X-108.252 Y-16.117
X-108.37 Y-16.14
X-108.469 Y-16.207
X-108.618 Y-16.357
X-108.636 Y-16.385
X-108.644 Y-16.418
X-108.641 Y-16.451
X-108.627 Y-16.482
X-108.604 Y-16.506
X-108.122 Y-16.857
X-108.093 Y-16.872
X-108.061 Y-16.876
X-108.028 Y-16.87
X-108 Y-16.854
X-107.856 Y-16.728
X-107.802 Y-16.676
X-107.732 Y-16.543
X-107.728 Y-16.393
X-107.766 Y-16.248
X-107.84 Y-16.118
X-107.947 Y-16.013
X-107.984 Y-15.993
X-108.091 Y-15.958
X-108.203 Y-15.965
X-108.304 Y-16.012
X-108.381 Y-16.094
X-108.423 Y-16.159
X-108.469 Y-16.207
X-108.487 Y-16.234
X-108.495 Y-16.266
X-108.493 Y-16.298
X-108.48 Y-16.329
X-108.458 Y-16.353
X-107.981 Y-16.729
X-107.951 Y-16.745
X-107.918 Y-16.75
X-107.885 Y-16.744
X-107.856 Y-16.728
X-107.693 Y-16.585
X-107.662 Y-16.558
X-107.647 Y-16.544
X-107.607 Y-16.481
X-107.566 Y-16.336
X-107.581 Y-16.187
X-107.637 Y-16.048
X-107.723 Y-15.925
X-107.838 Y-15.829
X-107.903 Y-15.801
X-108.046 Y-15.777
X-108.184 Y-15.823
X-108.284 Y-15.928
X-108.338 Y-16.023
X-108.381 Y-16.094
X-108.394 Y-16.131
X-108.392 Y-16.171
X-108.374 Y-16.206
X-108.344 Y-16.232
X-108.339 Y-16.235
X-107.764 Y-16.558
X-107.735 Y-16.569
X-107.704 Y-16.57
X-107.673 Y-16.562
X-107.647 Y-16.544
X-107.637 Y-16.53
X-107.492 Y-16.299
X-107.456 Y-16.233
X-107.437 Y-16.085
X-107.472 Y-15.939
X-107.546 Y-15.808
X-107.649 Y-15.699
X-107.777 Y-15.621
X-107.833 Y-15.602
X-107.974 Y-15.591
X-108.105 Y-15.646
X-108.196 Y-15.754
X-108.254 Y-15.872
X-108.284 Y-15.928
X-108.294 Y-15.959
Y-15.991
X-108.283 Y-16.022
X-108.263 Y-16.048
X-108.235 Y-16.066
X-108.209 Y-16.077
X-107.615 Y-16.335
X-107.582 Y-16.343
X-107.547 Y-16.339
X-107.516 Y-16.324
X-107.492 Y-16.299
X-107.371 Y-16.105
X-107.342 Y-16.053
X-107.318 Y-15.905
X-107.353 Y-15.759
X-107.427 Y-15.629
X-107.529 Y-15.519
X-107.655 Y-15.437
X-107.796 Y-15.386
X-107.815 Y-15.385
X-107.937 Y-15.404
X-108.04 Y-15.469
X-108.109 Y-15.571
X-108.147 Y-15.656
X-108.196 Y-15.754
X-108.204 Y-15.785
X-108.202 Y-15.818
X-108.19 Y-15.848
X-108.169 Y-15.872
X-108.141 Y-15.888
X-108.097 Y-15.906
X-107.491 Y-16.142
X-107.458 Y-16.149
X-107.424 Y-16.145
X-107.395 Y-16.129
X-107.371 Y-16.105
X-107.355 Y-16.079
X-107.323 Y-16.021
X-107.31 Y-15.994
X-107.253 Y-15.872
X-107.225 Y-15.802
X-107.221 Y-15.652
X-107.272 Y-15.511
X-107.359 Y-15.389
X-107.472 Y-15.29
X-107.601 Y-15.215
X-107.747 Y-15.177
X-107.752
X-107.867 Y-15.202
X-107.964 Y-15.268
X-108.027 Y-15.367
X-108.109 Y-15.571
X-108.115 Y-15.603
X-108.111 Y-15.634
X-108.097 Y-15.663
X-108.075 Y-15.686
X-108.047 Y-15.701
X-107.985 Y-15.721
X-107.373 Y-15.922
X-107.338 Y-15.927
X-107.304 Y-15.919
X-107.274 Y-15.9
X-107.253 Y-15.872
X-107.154 Y-15.657
X-107.126 Y-15.588
X-107.128 Y-15.438
X-107.184 Y-15.299
X-107.274 Y-15.179
X-107.388 Y-15.08
X-107.518 Y-15.007
X-107.664 Y-14.97
X-107.7
X-107.831 Y-15.001
X-107.936 Y-15.087
X-107.992 Y-15.21
X-108.021 Y-15.35
X-108.027 Y-15.367
X-108.033 Y-15.398
X-108.028 Y-15.43
X-108.014 Y-15.459
X-107.991 Y-15.482
X-107.962 Y-15.496
X-107.889 Y-15.518
X-107.273 Y-15.708
X-107.238 Y-15.712
X-107.204 Y-15.704
X-107.175 Y-15.685
X-107.154 Y-15.657
X-107.115 Y-15.572
X-107.078 Y-15.487
X-107.059 Y-15.403
X-107.033 Y-15.255
X-107.084 Y-15.114
X-107.169 Y-14.99
X-107.278 Y-14.887
X-107.407 Y-14.81
X-107.549 Y-14.763
X-107.699 Y-14.751
X-107.718 Y-14.755
X-107.83 Y-14.803
X-107.913 Y-14.891
X-107.955 Y-15.006
X-107.963 Y-15.065
X-107.992 Y-15.21
X-107.991 Y-15.248
X-107.976 Y-15.283
X-107.949 Y-15.31
X-107.913 Y-15.325
X-107.796 Y-15.349
X-107.175 Y-15.476
X-107.138
X-107.102 Y-15.463
X-107.075 Y-15.437
X-107.059 Y-15.403
X-107.002 Y-15.15
X-106.98 Y-15.001
X-107.035 Y-14.861
X-107.127 Y-14.743
X-107.243 Y-14.649
X-107.377 Y-14.58
X-107.52 Y-14.536
X-107.67 Y-14.53
X-107.687 Y-14.534
X-107.805 Y-14.586
X-107.889 Y-14.683
X-107.926 Y-14.806
X-107.955 Y-15.006
X-107.951 Y-15.044
X-107.934 Y-15.078
X-107.905 Y-15.103
X-107.869 Y-15.116
X-107.746 Y-15.133
X-107.113 Y-15.223
X-107.077 Y-15.222
X-107.044 Y-15.208
X-107.018 Y-15.182
X-107.002 Y-15.15
X-106.985 Y-15.062
X-106.954 Y-14.896
X-106.945 Y-14.822
X-106.974 Y-14.675
X-107.056 Y-14.549
X-107.167 Y-14.448
X-107.296 Y-14.37
X-107.437 Y-14.321
X-107.586 Y-14.303
X-107.648 Y-14.311
X-107.777 Y-14.358
X-107.871 Y-14.457
X-107.911 Y-14.589
X-107.926 Y-14.806
X-107.92 Y-14.843
X-107.901 Y-14.876
X-107.871 Y-14.899
X-107.834 Y-14.909
X-107.699 Y-14.921
X-107.06 Y-14.974
X-107.024 Y-14.971
X-106.992 Y-14.955
X-106.968 Y-14.929
X-106.954 Y-14.896
X-106.939 Y-14.812
X-106.923 Y-14.643
X-106.92 Y-14.568
X-106.956 Y-14.422
X-107.042 Y-14.299
X-107.157 Y-14.203
X-107.29 Y-14.133
X-107.433 Y-14.09
X-107.583 Y-14.081
X-107.731 Y-14.103
X-107.736 Y-14.105
X-107.83 Y-14.173
X-107.892 Y-14.271
X-107.911 Y-14.386
X-107.909 Y-14.474
Y-14.558
X-107.911 Y-14.589
X-107.905 Y-14.627
X-107.885 Y-14.66
X-107.853 Y-14.682
X-107.816 Y-14.692
X-107.663 Y-14.699
X-107.027 Y-14.73
X-106.991 Y-14.725
X-106.958 Y-14.707
X-106.935 Y-14.678
X-106.923 Y-14.643
X-106.9 Y-14.397
X-106.897 Y-14.323
X-106.937 Y-14.178
X-107.028 Y-14.058
X-107.146 Y-13.966
X-107.281 Y-13.901
X-107.426 Y-13.862
X-107.575 Y-13.848
X-107.723 Y-13.871
X-107.737 Y-13.877
X-107.839 Y-13.947
X-107.904 Y-14.053
X-107.921 Y-14.175
X-107.915 Y-14.248
X-107.911 Y-14.386
X-107.902 Y-14.422
X-107.88 Y-14.453
X-107.849 Y-14.473
X-107.812 Y-14.48
X-107.641 Y-14.481
X-107 Y-14.485
X-106.965 Y-14.478
X-106.934 Y-14.46
X-106.911 Y-14.432
X-106.9 Y-14.397
X-106.892 Y-14.305
X-106.891 Y-14.263
X-106.907 Y-14.089
X-106.928 Y-13.941
X-107.02 Y-13.823
X-107.14 Y-13.732
X-107.276 Y-13.668
X-107.421 Y-13.629
X-107.57 Y-13.616
X-107.675 Y-13.632
X-107.785 Y-13.671
X-107.873 Y-13.748
X-107.926 Y-13.851
X-107.937 Y-13.967
X-107.93 Y-14.051
X-107.921 Y-14.175
X-107.909 Y-14.212
X-107.885 Y-14.242
X-107.851 Y-14.26
X-107.813 Y-14.264
X-107.627 Y-14.248
X-106.998 Y-14.195
X-106.962 Y-14.184
X-106.931 Y-14.161
X-106.912 Y-14.127
X-106.907 Y-14.089
X-106.918 Y-13.967
X-106.932 Y-13.836
X-106.943 Y-13.762
X-107.009 Y-13.627
X-107.119 Y-13.525
X-107.25 Y-13.452
X-107.392 Y-13.405
X-107.541 Y-13.389
X-107.691 Y-13.401
X-107.833 Y-13.45
X-107.846 Y-13.458
X-107.929 Y-13.54
X-107.974 Y-13.647
X-107.975 Y-13.764
X-107.937 Y-13.967
X-107.923 Y-14.001
X-107.897 Y-14.027
X-107.864 Y-14.042
X-107.827 Y-14.044
X-107.648 Y-14.022
X-107.019 Y-13.942
X-106.983 Y-13.93
X-106.954 Y-13.906
X-106.936 Y-13.873
X-106.932 Y-13.836
X-106.944 Y-13.714
X-106.958 Y-13.629
X-106.978 Y-13.545
X-106.999 Y-13.473
X-107.082 Y-13.347
X-107.201 Y-13.256
X-107.338 Y-13.196
X-107.485 Y-13.164
X-107.635 Y-13.162
X-107.783 Y-13.187
X-107.846 Y-13.214
X-107.956 Y-13.296
X-108.017 Y-13.419
X-108.018 Y-13.557
X-108 Y-13.634
X-107.975 Y-13.764
X-107.96 Y-13.799
X-107.931 Y-13.826
X-107.895 Y-13.84
X-107.856 Y-13.839
X-107.67 Y-13.798
X-107.055 Y-13.662
X-107.019 Y-13.646
X-106.993 Y-13.619
X-106.978 Y-13.583
Y-13.545
X-107.037 Y-13.291
X-107.058 Y-13.219
X-107.144 Y-13.096
X-107.267 Y-13.011
X-107.408 Y-12.958
X-107.556 Y-12.934
X-107.706 Y-12.937
X-107.851 Y-12.973
X-107.987 Y-13.038
X-108.004 Y-13.053
X-108.078 Y-13.154
X-108.105 Y-13.277
X-108.079 Y-13.4
X-108.056 Y-13.431
X-108.023 Y-13.45
X-107.984 Y-13.456
X-107.743 Y-13.443
X-107.13 Y-13.41
X-107.097 Y-13.403
X-107.068 Y-13.385
X-107.047 Y-13.358
X-107.036 Y-13.325
X-107.037 Y-13.291
X-107.057 Y-13.207
X-107.069 Y-13.158
X-107.086 Y-13.122
X-107.154 Y-12.99
X-107.229 Y-12.86
X-107.353 Y-12.776
X-107.495 Y-12.727
X-107.644 Y-12.71
X-107.794 Y-12.722
X-107.939 Y-12.758
X-108.037 Y-12.811
X-108.147 Y-12.911
X-108.195 Y-13.052
X-108.169 Y-13.199
X-108.053 Y-13.46
X-108.021 Y-13.545
X-108.018 Y-13.557
X-108.001 Y-13.591
X-107.972 Y-13.617
X-107.935 Y-13.63
X-107.897 Y-13.628
X-107.862 Y-13.611
X-107.707 Y-13.497
X-107.185 Y-13.113
X-107.162 Y-13.089
X-107.148 Y-13.057
X-107.145 Y-13.023
X-107.154 Y-12.99
X-107.26 Y-12.784
X-107.286 Y-12.738
X-107.365 Y-12.611
X-107.496 Y-12.537
X-107.641 Y-12.5
X-107.791 Y-12.494
X-107.939 Y-12.519
X-108.079 Y-12.574
X-108.206 Y-12.654
X-108.23 Y-12.682
X-108.292 Y-12.791
X-108.303 Y-12.915
X-108.263 Y-13.034
X-108.211 Y-13.122
X-108.169 Y-13.199
X-108.144 Y-13.228
X-108.111 Y-13.245
X-108.073 Y-13.248
X-108.037 Y-13.238
X-107.888 Y-13.161
X-107.329 Y-12.872
X-107.299 Y-12.848
X-107.28 Y-12.814
X-107.276 Y-12.775
X-107.286 Y-12.738
X-107.323 Y-12.671
X-107.358 Y-12.616
X-107.452 Y-12.485
X-107.545 Y-12.367
X-107.683 Y-12.308
X-107.832 Y-12.288
X-107.982 Y-12.301
X-108.126 Y-12.342
X-108.259 Y-12.411
X-108.372 Y-12.51
X-108.376 Y-12.515
X-108.42 Y-12.622
X-108.421 Y-12.737
X-108.378 Y-12.845
X-108.356 Y-12.867
X-108.328 Y-12.882
X-108.297 Y-12.887
X-108.265 Y-12.883
X-108.076 Y-12.821
X-107.504 Y-12.635
X-107.472 Y-12.618
X-107.448 Y-12.59
X-107.436 Y-12.555
X-107.437 Y-12.518
X-107.452 Y-12.485
X-107.601 Y-12.278
X-107.629 Y-12.239
X-107.643 Y-12.22
X-107.678 Y-12.187
X-107.684 Y-12.182
X-107.719 Y-12.165
X-107.757 Y-12.163
X-107.794 Y-12.175
X-107.823 Y-12.2
X-107.841 Y-12.235
X-107.844 Y-12.273
X-107.832 Y-12.31
X-107.807 Y-12.34
X-107.788 Y-12.355
X-107.756 Y-12.372
X-107.721 Y-12.377
X-107.686 Y-12.37
X-107.657 Y-12.35
X-107.635 Y-12.322
X-107.625 Y-12.287
X-107.628 Y-12.252
X-107.643 Y-12.22
X-107.662 Y-12.2
X-107.693 Y-12.174
X-107.754 Y-12.13
X-107.9 Y-12.096
X-108.05 Y-12.097
X-108.196 Y-12.128
X-108.334 Y-12.189
X-108.456 Y-12.276
X-108.482 Y-12.306
X-108.545 Y-12.432
X-108.543 Y-12.573
X-108.477 Y-12.698
X-108.45 Y-12.718
X-108.419 Y-12.728
X-108.385 Y-12.727
X-108.354 Y-12.716
X-108.222 Y-12.638
X-107.708 Y-12.336
X-107.68 Y-12.311
X-107.663 Y-12.278
X-107.66 Y-12.24
X-107.67 Y-12.204
X-107.693 Y-12.174
X-107.857 Y-12.041
X-107.977 Y-11.953
X-108.125 Y-11.923
X-108.274 Y-11.936
X-108.417 Y-11.983
X-108.545 Y-12.061
X-108.65 Y-12.168
X-108.67 Y-12.205
X-108.706 Y-12.336
X-108.681 Y-12.469
X-108.6 Y-12.578
X-108.556 Y-12.616
X-108.508 Y-12.664
X-108.476 Y-12.7
X-108.417 Y-12.784
X-108.338 Y-12.907
X-108.263 Y-13.034
X-108.237 Y-13.061
X-108.203 Y-13.077
X-108.165 Y-13.079
X-108.129 Y-13.067
X-108.101 Y-13.042
X-108.083 Y-13.008
X-108.018 Y-12.789
X-107.827 Y-12.145
X-107.823 Y-12.108
X-107.833 Y-12.071
X-107.857 Y-12.041
X-108 Y-11.925
X-108.105 Y-11.855
X-108.235 Y-11.781
X-108.385 Y-11.774
X-108.531 Y-11.809
X-108.664 Y-11.878
X-108.776 Y-11.978
X-108.86 Y-12.102
X-108.864 Y-12.116
X-108.877 Y-12.233
X-108.843 Y-12.346
X-108.769 Y-12.437
X-108.74 Y-12.453
X-108.708 Y-12.458
X-108.676 Y-12.453
X-108.647 Y-12.437
X-108.574 Y-12.381
X-108.101 Y-12.017
X-108.076 Y-11.989
X-108.063 Y-11.954
X-108.064 Y-11.916
X-108.078 Y-11.882
X-108.105 Y-11.855
X-108.239 Y-11.771
X-108.338 Y-11.713
X-108.472 Y-11.644
X-108.622 Y-11.649
X-108.763 Y-11.7
X-108.887 Y-11.784
X-108.989 Y-11.894
X-109.014 Y-11.942
X-109.047 Y-12.085
X-109.008 Y-12.226
X-108.907 Y-12.333
X-108.86 Y-12.362
X-108.625 Y-12.557
X-108.6 Y-12.578
X-108.57 Y-12.594
X-108.537 Y-12.599
X-108.504 Y-12.593
X-108.475 Y-12.576
X-108.453 Y-12.551
X-108.44 Y-12.52
X-108.43 Y-12.468
X-108.294 Y-11.818
X-108.292 Y-11.788
X-108.3 Y-11.758
X-108.316 Y-11.733
X-108.338 Y-11.713
X-108.423 Y-11.664
X-108.508 Y-11.617
X-108.519 Y-11.612
X-108.639 Y-11.58
X-108.786 Y-11.549
X-108.931 Y-11.587
X-109.059 Y-11.664
X-109.158 Y-11.777
X-109.228 Y-11.91
X-109.229 Y-11.917
X-109.224 Y-12.034
X-109.176 Y-12.141
X-109.089 Y-12.22
X-109.056 Y-12.232
X-109.022
X-108.989 Y-12.219
X-108.963 Y-12.197
X-108.962 Y-12.196
X-108.59 Y-11.739
X-108.572 Y-11.704
X-108.568 Y-11.665
X-108.58 Y-11.628
X-108.604 Y-11.598
X-108.639 Y-11.58
X-108.761 Y-11.547
X-108.846 Y-11.527
X-108.931 Y-11.509
X-109.005 Y-11.497
X-109.151 Y-11.53
X-109.275 Y-11.615
X-109.371 Y-11.73
X-109.386 Y-11.768
X-109.406 Y-11.885
X-109.379 Y-12
X-109.31 Y-12.095
X-109.209 Y-12.157
X-109.173 Y-12.162
X-109.139 Y-12.154
X-109.109 Y-12.135
X-109.088 Y-12.106
X-108.865 Y-11.65
X-108.855 Y-11.616
X-108.858 Y-11.58
X-108.873 Y-11.548
X-108.898 Y-11.523
X-108.931 Y-11.509
X-109.1 Y-11.473
X-109.184 Y-11.464
X-109.259 Y-11.459
X-109.402 Y-11.506
X-109.513 Y-11.607
X-109.583 Y-11.74
X-109.588 Y-11.769
X-109.575 Y-11.913
X-109.498 Y-12.034
X-109.372 Y-12.105
X-109.336 Y-12.107
X-109.301 Y-12.095
X-109.272 Y-12.072
X-109.254 Y-12.04
X-109.104 Y-11.595
X-109.099 Y-11.56
X-109.106 Y-11.526
X-109.124 Y-11.496
X-109.151 Y-11.475
X-109.184 Y-11.464
X-109.354 Y-11.446
X-109.4 Y-11.442
X-109.475 Y-11.44
X-109.616 Y-11.492
X-109.721 Y-11.599
X-109.776 Y-11.739
Y-11.759
X-109.75 Y-11.893
X-109.666 Y-12.002
X-109.543 Y-12.062
X-109.506
X-109.471 Y-12.049
X-109.444 Y-12.023
X-109.428 Y-11.99
X-109.315 Y-11.567
X-109.312 Y-11.533
X-109.32 Y-11.5
X-109.34 Y-11.472
X-109.367 Y-11.452
X-109.4 Y-11.442
X-109.438 Y-11.439
X-109.607 Y-11.43
X-109.681 Y-11.432
X-109.822 Y-11.482
X-109.92 Y-11.595
X-109.963 Y-11.739
Y-11.745
X-109.925 Y-11.876
X-109.833 Y-11.977
X-109.706 Y-12.026
X-109.669 Y-12.023
X-109.636 Y-12.007
X-109.611 Y-11.98
X-109.597 Y-11.946
X-109.518 Y-11.55
X-109.517 Y-11.516
X-109.527 Y-11.484
X-109.547 Y-11.457
X-109.575 Y-11.439
X-109.607 Y-11.43
X-109.692 Y-11.428
X-109.861 Y-11.442
X-109.936 Y-11.452
X-110.06 Y-11.536
X-110.131 Y-11.668
X-110.132 Y-11.683
X-110.119 Y-11.796
X-110.066 Y-11.897
X-109.978 Y-11.97
X-109.87 Y-12.005
X-109.837 Y-12.003
X-109.807 Y-11.99
X-109.783 Y-11.968
X-109.767 Y-11.939
X-109.761 Y-11.907
X-109.756 Y-11.543
X-109.761 Y-11.511
X-109.776 Y-11.482
X-109.8 Y-11.459
X-109.829 Y-11.446
X-109.861 Y-11.442
X-109.946 Y-11.449
X-110.031 Y-11.463
X-110.077 Y-11.473
X-110.15 Y-11.491
X-110.207 Y-11.54
X-110.287 Y-11.667
Y-11.671
X-110.271 Y-11.789
X-110.211 Y-11.892
X-110.115 Y-11.964
X-109.999 Y-11.992
X-109.964 Y-11.986
X-109.934 Y-11.968
X-109.912 Y-11.941
X-109.9 Y-11.908
Y-11.873
X-109.962 Y-11.552
X-109.976 Y-11.517
X-110.003 Y-11.489
X-110.039 Y-11.473
X-110.077
X-110.2 Y-11.498
X-110.246 Y-11.509
X-110.298 Y-11.523
X-110.358 Y-11.568
X-110.397 Y-11.632
X-110.403 Y-11.768
X-110.345 Y-11.891
X-110.236 Y-11.973
X-110.102 Y-11.996
X-110.067 Y-11.986
X-110.038 Y-11.963
X-110.019 Y-11.932
X-110.013 Y-11.896
X-110.02 Y-11.86
X-110.134 Y-11.57
X-110.152 Y-11.541
X-110.179 Y-11.519
X-110.212 Y-11.508
X-110.246 Y-11.509
X-110.285 Y-11.517
X-110.369 Y-11.544
X-110.415 Y-11.56
X-110.45 Y-11.574
X-110.549 Y-11.687
X-110.53 Y-11.818
X-110.457 Y-11.928
X-110.342 Y-11.995
X-110.21 Y-12.007
X-110.174 Y-11.993
X-110.146 Y-11.966
X-110.13 Y-11.93
X-110.129 Y-11.891
X-110.143 Y-11.855
X-110.301 Y-11.602
X-110.323 Y-11.578
X-110.351 Y-11.562
X-110.383 Y-11.555
X-110.415 Y-11.56
X-110.454 Y-11.573
X-110.538 Y-11.605
X-110.564 Y-11.618
X-110.596 Y-11.635
X-110.623 Y-11.648
X-110.749 Y-11.73
X-110.854 Y-11.785
X-110.872 Y-11.796
G0 Z2
X-109.75 Y-11.514
Z-0.79
G1 Z-0.89 F1000
X-109.758 Z-0.928
X-109.78 Y-11.512 Z-0.961
X-109.812 Y-11.51 Z-0.982
X-109.85 Y-11.507 Z-0.99
G3 X-110.623 Y-11.648 I-0.111 J-1.579
G1 X-110.834 Y-11.771
X-110.877 Y-11.799
X-110.961 Y-11.869
X-111.046 Y-11.944
X-111.13 Y-12.029
X-111.207 Y-12.109
X-111.215 Y-12.12
X-111.223 Y-12.138
X-111.228 Y-12.157
Y-12.175
X-111.226 Y-12.193
X-111.222 Y-12.207
X-111.215 Y-12.221
X-111.195 Y-12.249
X-111.179 Y-12.267
X-111.162 Y-12.278
X-111.146 Y-12.284
X-111.13 Y-12.288
X-111.115 Y-12.289
X-111.1 Y-12.288
X-111.085 Y-12.284
X-111.07 Y-12.278
X-111.046 Y-12.263
X-110.877 Y-12.18
X-110.792 Y-12.14
X-110.707 Y-12.105
X-110.623 Y-12.08
X-110.538 Y-12.06
X-110.454 Y-12.044
X-110.284 Y-12.017
X-110.2 Y-12.005
X-110.115 Y-11.997
X-110.031 Y-11.991
X-109.988 Y-11.992
X-109.946 Y-11.996
X-109.692 Y-12.028
X-109.438 Y-12.086
X-109.354 Y-12.11
X-109.269 Y-12.135
X-109.184 Y-12.166
X-109.134 Y-12.193
X-108.907 Y-12.333
X-108.87 Y-12.345
X-108.831 Y-12.343
X-108.796 Y-12.326
X-108.77 Y-12.297
X-108.751 Y-12.263 Z-0.982
X-108.735 Y-12.235 Z-0.961
X-108.724 Y-12.217 Z-0.928
X-108.72 Y-12.21 Z-0.89
G0 Z2
X-111.75 Y-12.88
Z-0.79
G1 Z-0.89 F1000
X-111.753 Y-12.873 Z-0.928
X-111.759 Y-12.852 Z-0.961
X-111.768 Y-12.821 Z-0.982
X-111.78 Y-12.785 Z-0.99
G3 X-112.089 Y-12.063 I-3.486 J-1.065
G1 X-112.112 Y-12.024
X-112.13 Y-11.989
X-112.146 Y-11.954
X-112.15 Y-11.94
X-112.174 Y-11.869
X-112.27 Y-11.753
X-112.405 Y-11.688
X-112.553 Y-11.663
X-112.703 Y-11.669
X-112.849 Y-11.702
X-112.919 Y-11.731
X-113.013 Y-11.792
X-113.077 Y-11.884
X-113.104 Y-11.992
X-113.109 Y-12.109
X-113.115 Y-12.278
X-113.107 Y-12.316
X-113.086 Y-12.348
X-113.053 Y-12.37
X-113.015 Y-12.378
X-112.977 Y-12.37
X-112.806 Y-12.3
X-112.21 Y-12.055
X-112.18 Y-12.036
X-112.159 Y-12.008
X-112.148 Y-11.975
X-112.15 Y-11.94
X-112.173 Y-11.855
X-112.179 Y-11.813
X-112.182 Y-11.771
X-112.187 Y-11.696
X-112.271 Y-11.572
X-112.399 Y-11.494
X-112.544 Y-11.453
X-112.693 Y-11.442
X-112.842 Y-11.461
X-112.882 Y-11.474
X-112.984 Y-11.532
X-113.056 Y-11.624
X-113.087 Y-11.737
X-113.103 Y-11.969
X-113.104 Y-11.992
X-113.098 Y-12.029
X-113.078 Y-12.062
X-113.048 Y-12.084
X-113.012 Y-12.094
X-112.974 Y-12.089
X-112.886 Y-12.061
X-112.251 Y-11.859
X-112.217 Y-11.84
X-112.192 Y-11.809
X-112.182 Y-11.771
X-112.178 Y-11.686
X-112.175 Y-11.64
X-112.172 Y-11.565
X-112.223 Y-11.424
X-112.334 Y-11.323
X-112.469 Y-11.258
X-112.615 Y-11.224
X-112.765 Y-11.219
X-112.827 Y-11.231
X-112.945 Y-11.282
X-113.03 Y-11.378
X-113.068 Y-11.501
X-113.087 Y-11.737
X-113.082 Y-11.772
X-113.066 Y-11.803
X-113.039 Y-11.826
X-113.007 Y-11.839
X-112.972 Y-11.84
X-112.906 Y-11.829
X-112.258 Y-11.727
X-112.228 Y-11.717
X-112.202 Y-11.697
X-112.183 Y-11.671
X-112.175 Y-11.64
X-112.157 Y-11.433
X-112.154 Y-11.358
X-112.212 Y-11.22
X-112.32 Y-11.116
X-112.453 Y-11.045
X-112.596 Y-11.003
X-112.746 Y-10.996
X-112.797 Y-11.004
X-112.918 Y-11.052
X-113.007 Y-11.147
X-113.047 Y-11.271
X-113.066 Y-11.471
X-113.068 Y-11.501
X-113.064 Y-11.536
X-113.048 Y-11.566
X-113.023 Y-11.59
X-112.991 Y-11.603
X-112.956 Y-11.605
X-112.893 Y-11.598
X-112.244 Y-11.519
X-112.213 Y-11.51
X-112.186 Y-11.491
X-112.167 Y-11.465
X-112.157 Y-11.433
X-112.141 Y-11.264
X-112.138 Y-11.189
X-112.172 Y-11.043
X-112.269 Y-10.929
X-112.394 Y-10.845
X-112.534 Y-10.792
X-112.682 Y-10.772
X-112.747 Y-10.777
X-112.872 Y-10.817
X-112.968 Y-10.907
X-113.017 Y-11.029
X-113.027 Y-11.095
X-113.038 Y-11.18
X-113.047 Y-11.271
X-113.044 Y-11.304
X-113.029 Y-11.334
X-113.006 Y-11.358
X-112.976 Y-11.373
X-112.944 Y-11.377
X-112.881 Y-11.375
X-112.237 Y-11.351
X-112.203 Y-11.344
X-112.173 Y-11.325
X-112.152 Y-11.297
X-112.141 Y-11.264
X-112.133 Y-11.18
X-112.117 Y-11.049
X-112.111 Y-10.974
X-112.152 Y-10.829
X-112.248 Y-10.714
X-112.371 Y-10.629
X-112.511 Y-10.573
X-112.659 Y-10.553
X-112.709 Y-10.557
X-112.834 Y-10.596
X-112.93 Y-10.684
X-112.981 Y-10.805
X-113.001 Y-10.926
X-113.017 Y-11.029
X-113.015 Y-11.063
X-113.002 Y-11.095
X-112.98 Y-11.12
X-112.95 Y-11.136
X-112.916 Y-11.141
X-112.86
X-112.215 Y-11.133
X-112.18 Y-11.126
X-112.151 Y-11.108
X-112.129 Y-11.081
X-112.117 Y-11.049
X-112.101 Y-10.926
X-112.089 Y-10.842
X-112.081 Y-10.767
X-112.12 Y-10.622
X-112.214 Y-10.505
X-112.335 Y-10.417
X-112.473 Y-10.358
X-112.621 Y-10.336
X-112.667 Y-10.339
X-112.79 Y-10.375
X-112.886 Y-10.458
X-112.94 Y-10.574
X-112.943 Y-10.588
X-112.981 Y-10.805
X-112.979 Y-10.838
X-112.967 Y-10.87
X-112.945 Y-10.896
X-112.915 Y-10.912
X-112.882 Y-10.918
X-112.835 Y-10.919
X-112.188 Y-10.922
X-112.154 Y-10.916
X-112.124 Y-10.9
X-112.102 Y-10.874
X-112.089 Y-10.842
X-112.053 Y-10.625
X-112.044 Y-10.55
X-112.087 Y-10.407
X-112.181 Y-10.289
X-112.303 Y-10.201
X-112.44 Y-10.142
X-112.589 Y-10.119
X-112.619 Y-10.122
X-112.739 Y-10.157
X-112.835 Y-10.239
X-112.888 Y-10.352
X-112.933 Y-10.542
X-112.94 Y-10.574
Y-10.608
X-112.928 Y-10.641
X-112.907 Y-10.668
X-112.877 Y-10.685
X-112.843 Y-10.692
X-112.8 Y-10.693
X-112.153 Y-10.704
X-112.119 Y-10.699
X-112.089 Y-10.682
X-112.066 Y-10.657
X-112.053 Y-10.625
X-112.047 Y-10.588
X-112.019 Y-10.457
X-112.007 Y-10.383
X-112.025 Y-10.234
X-112.106 Y-10.109
X-112.219 Y-10.01
X-112.353 Y-9.941
X-112.499 Y-9.906
X-112.544
X-112.672 Y-9.935
X-112.775 Y-10.016
X-112.834 Y-10.133
X-112.884 Y-10.335
X-112.888 Y-10.352
X-112.889 Y-10.385
X-112.879 Y-10.417
X-112.859 Y-10.444
X-112.832 Y-10.463
X-112.799 Y-10.471
X-112.766 Y-10.474
X-112.125 Y-10.533
X-112.09 Y-10.53
X-112.058 Y-10.515
X-112.034 Y-10.49
X-112.019 Y-10.457
X-111.993 Y-10.335
X-111.973 Y-10.25
X-111.958 Y-10.177
X-111.977 Y-10.028
X-112.057 Y-9.901
X-112.169 Y-9.802
X-112.301 Y-9.73
X-112.447 Y-9.695
X-112.477
X-112.595 Y-9.718
X-112.695 Y-9.786
X-112.759 Y-9.888
X-112.8 Y-9.997
X-112.834 Y-10.133
X-112.836 Y-10.167
X-112.826 Y-10.199
X-112.806 Y-10.226
X-112.779 Y-10.245
X-112.747 Y-10.254
X-112.722 Y-10.256
X-112.079 Y-10.322
X-112.044 Y-10.32
X-112.013 Y-10.306
X-111.988 Y-10.282
X-111.973 Y-10.25
X-111.918 Y-10.035
X-111.902 Y-9.962
X-111.928 Y-9.814
X-112.009 Y-9.688
X-112.122 Y-9.589
X-112.254 Y-9.518
X-112.4 Y-9.484
X-112.406
X-112.519 Y-9.51
X-112.615 Y-9.577
X-112.677 Y-9.675
X-112.759 Y-9.888
X-112.765 Y-9.923
X-112.758 Y-9.957
X-112.739 Y-9.987
X-112.711 Y-10.009
X-112.678 Y-10.02
X-112.666 Y-10.021
X-112.027 Y-10.105
X-111.992 Y-10.104
X-111.959 Y-10.09
X-111.934 Y-10.066
X-111.918 Y-10.035
X-111.862 Y-9.828
X-111.845 Y-9.755
X-111.871 Y-9.607
X-111.952 Y-9.481
X-112.064 Y-9.381
X-112.195 Y-9.309
X-112.255 Y-9.296
X-112.392 Y-9.298
X-112.513 Y-9.36
X-112.594 Y-9.469
X-112.604 Y-9.49
X-112.677 Y-9.675
X-112.683 Y-9.71
X-112.676 Y-9.744
X-112.658 Y-9.774
X-112.631 Y-9.796
X-112.597 Y-9.807
X-111.971 Y-9.897
X-111.936 Y-9.896
X-111.904 Y-9.883
X-111.878 Y-9.859
X-111.862 Y-9.828
X-111.838 Y-9.744
X-111.807 Y-9.663
X-111.78 Y-9.593
X-111.786 Y-9.443
X-111.856 Y-9.31
X-111.959 Y-9.2
X-112.088 Y-9.124
X-112.146 Y-9.107
X-112.286 Y-9.101
X-112.413 Y-9.158
X-112.501 Y-9.267
X-112.569 Y-9.41
X-112.594 Y-9.469
X-112.601 Y-9.503
X-112.596 Y-9.538
X-112.579 Y-9.569
X-112.552 Y-9.592
X-112.519 Y-9.604
X-111.914 Y-9.715
X-111.882
X-111.852 Y-9.706
X-111.826 Y-9.688
X-111.807 Y-9.663
X-111.741 Y-9.531
X-111.723 Y-9.495
X-111.692 Y-9.427
X-111.691 Y-9.277
X-111.752 Y-9.139
X-111.849 Y-9.026
X-111.975 Y-8.944
X-112.034 Y-8.923
X-112.169 Y-8.909
X-112.297 Y-8.956
X-112.391 Y-9.054
X-112.447 Y-9.152
X-112.501 Y-9.267
X-112.509 Y-9.301
X-112.505 Y-9.335
X-112.489 Y-9.366
X-112.464 Y-9.39
X-112.432 Y-9.404
X-111.833 Y-9.544
X-111.801 Y-9.546
X-111.769 Y-9.538
X-111.742 Y-9.52
X-111.723 Y-9.495
X-111.638 Y-9.33
X-111.607 Y-9.262
X-111.592 Y-9.112
X-111.645 Y-8.972
X-111.738 Y-8.854
X-111.86 Y-8.767
X-111.91 Y-8.746
X-112.041 Y-8.725
X-112.168 Y-8.763
X-112.267 Y-8.852
X-112.3 Y-8.899
X-112.391 Y-9.054
X-112.402 Y-9.088
X-112.401 Y-9.123
X-112.388 Y-9.155
X-112.364 Y-9.181
X-112.333 Y-9.197
X-111.755 Y-9.377
X-111.721 Y-9.381
X-111.688 Y-9.374
X-111.659 Y-9.356
X-111.638 Y-9.33
X-111.59 Y-9.237
X-111.553 Y-9.168
X-111.544 Y-9.152
X-111.505 Y-9.088
X-111.49 Y-8.939
X-111.541 Y-8.798
X-111.631 Y-8.677
X-111.751 Y-8.588
X-111.778 Y-8.577
X-111.906 Y-8.555
X-112.031 Y-8.588
X-112.131 Y-8.672
X-112.241 Y-8.815
X-112.267 Y-8.852
X-112.281 Y-8.886
X-112.282 Y-8.922
X-112.27 Y-8.957
X-112.246 Y-8.984
X-112.214 Y-9.002
X-111.654 Y-9.186
X-111.624 Y-9.191
X-111.594 Y-9.186
X-111.566 Y-9.173
X-111.544 Y-9.152
X-111.482 Y-9.068
X-111.438 Y-9.014
X-111.394 Y-8.954
X-111.366 Y-8.806
X-111.404 Y-8.661
X-111.485 Y-8.535
X-111.598 Y-8.436
X-111.628 Y-8.422
X-111.746 Y-8.392
X-111.866 Y-8.411
X-111.969 Y-8.476
X-111.976 Y-8.483
X-112.046 Y-8.561
X-112.131 Y-8.672
X-112.146 Y-8.704
X-112.149 Y-8.74
X-112.139 Y-8.775
X-112.117 Y-8.803
X-112.087 Y-8.823
X-111.551 Y-9.041
X-111.521 Y-9.048
X-111.49 Y-9.045
X-111.462 Y-9.034
X-111.438 Y-9.014
X-111.319 Y-8.869
X-111.275 Y-8.809
X-111.239 Y-8.663
X-111.27 Y-8.517
X-111.344 Y-8.386
