%
(n-061-065)
(T1  D=1 CR=0 - ZMIN=-2 - flat end mill)
G90 G94
G17
G21
G28 G91 Z0
G90

(Clear 19)
M9
T1 M6
S5000 M3
G54
M8
G0 X-120.202 Y-12.674
Z12
Z2
Z0.5
G3 X-119.718 Y-12.799 Z0.29 I0.242 J-0.062 F333.3
X-120.202 Y-12.674 Z0.079 I-0.242 J0.062
X-119.718 Y-12.799 Z-0.131 I0.242 J-0.062
X-120.202 Y-12.674 Z-0.342 I-0.242 J0.062
X-119.718 Y-12.799 Z-0.552 I0.242 J-0.062
X-120.202 Y-12.674 Z-0.763 I-0.242 J0.062
X-119.991 Y-12.984 Z-0.876 I0.242 J-0.062
X-119.71 Y-12.736 Z-0.99 I0.031 J0.248
X-120.21 I-0.25
X-119.71 I0.25
G1 X-119.673 Y-12.591 F1000
X-119.686 Y-12.517
X-119.723 Y-12.452
X-119.83 Y-12.347
X-119.974 Y-12.307
X-120.123 Y-12.328
X-120.253 Y-12.402
X-120.35 Y-12.517
X-120.402 Y-12.658
X-120.404 Y-12.808
X-120.356 Y-12.95
X-120.265 Y-13.068
X-120.139 Y-13.15
X-119.993 Y-13.186
X-119.844 Y-13.172
X-119.707 Y-13.11
X-119.599 Y-13.006
X-119.521 Y-12.878
X-119.47 Y-12.737
X-119.46 Y-12.587
X-119.495 Y-12.441
X-119.566 Y-12.309
X-119.674 Y-12.205
X-119.805 Y-12.132
X-119.951 Y-12.099
X-120.101 Y-12.106
X-120.245 Y-12.147
X-120.375 Y-12.223
X-120.481 Y-12.328
X-120.563 Y-12.454
X-120.613 Y-12.596
X-120.627 Y-12.745
X-120.611 Y-12.894
X-120.56 Y-13.035
X-120.478 Y-13.16
X-120.371 Y-13.266
X-120.244 Y-13.345
X-120.101 Y-13.391
X-119.952 Y-13.408
X-119.803 Y-13.39
X-119.663 Y-13.337
X-119.536 Y-13.257
X-119.427 Y-13.154
X-119.34 Y-13.032
X-119.277 Y-12.895
X-119.239 Y-12.75
X-119.231 Y-12.601
X-119.253 Y-12.452
X-119.26 Y-12.431
X-119.297 Y-12.358
X-119.352 Y-12.298
X-119.421 Y-12.256
X-119.506 Y-12.202
X-119.516 Y-12.193
X-119.59 Y-12.119
X-119.599 Y-12.109
X-119.692 Y-11.992
X-119.825 Y-11.922
X-119.971 Y-11.887
X-120.121 Y-11.885
X-120.268 Y-11.915
X-120.406 Y-11.973
X-120.532 Y-12.055
X-120.556 Y-12.077
X-120.607 Y-12.138
X-120.64 Y-12.211
X-120.652 Y-12.289
X-120.659 Y-12.531
X-120.662 Y-12.784
Y-12.869
X-120.658 Y-13.038
X-120.648 Y-13.188
X-120.586 Y-13.324
X-120.489 Y-13.439
X-120.369 Y-13.528
X-120.233 Y-13.591
X-120.087 Y-13.628
X-119.938 Y-13.64
X-119.788 Y-13.626
X-119.723 Y-13.607
X-119.633 Y-13.565
X-119.562 Y-13.495
X-119.517 Y-13.406
X-119.506 Y-13.37
X-119.469 Y-13.291
X-119.421 Y-13.205
X-119.252 Y-12.912
X-119.221 Y-12.869
X-119.167 Y-12.802
X-119.076 Y-12.684
X-119.069 Y-12.655
X-119.067 Y-12.539
X-119.109 Y-12.432
X-119.189 Y-12.348
X-119.294 Y-12.3
X-119.333
X-119.369 Y-12.315
X-119.397 Y-12.343
X-119.412 Y-12.38
X-119.411 Y-12.419
X-119.339 Y-12.756
X-119.325 Y-12.789
X-119.3 Y-12.815
X-119.267 Y-12.831
X-119.231 Y-12.834
X-119.196 Y-12.824
X-119.167 Y-12.802
X-119.022 Y-12.633
X-119.007 Y-12.616
X-118.998 Y-12.605
X-118.975 Y-12.575
X-118.978 Y-12.472
X-119.026 Y-12.381
X-119.111 Y-12.322
X-119.213 Y-12.307
X-119.248 Y-12.316
X-119.279 Y-12.334
X-119.306 Y-12.359
X-119.324 Y-12.39
G3 X-118.998 Y-12.605 I0.181 J-0.081
G1 X-118.935 Y-12.531
X-118.914 Y-12.506
X-118.885 Y-12.477
X-118.867 Y-12.452
X-118.863 Y-12.447
X-118.867 Y-12.438
X-118.89 Y-12.407
X-118.923 Y-12.387
X-118.961 Y-12.381
X-118.999 Y-12.39
X-119.564 Y-12.646
X-119.635 Y-12.678
X-119.665 Y-12.699
X-119.686 Y-12.73
X-119.693 Y-12.766
X-119.688 Y-12.803
X-119.669 Y-12.835
X-119.64 Y-12.858
X-119.604 Y-12.868
X-119.567 Y-12.865
G3 X-118.885 Y-12.477 I-0.418 J1.526
G1 X-118.872 Y-12.462
X-118.863 Y-12.447
X-118.859 Y-12.436
X-118.856 Y-12.425
X-118.854 Y-12.415
X-118.855 Y-12.391
X-118.856 Y-12.383
X-118.87 Y-12.359
X-118.893 Y-12.343
X-118.921 Y-12.338
X-118.951 Y-12.347
X-118.973 Y-12.37
X-118.982 Y-12.4
X-118.975 Y-12.431
X-118.955 Y-12.455
X-118.925 Y-12.466
X-118.894 Y-12.462
X-118.868 Y-12.444
X-118.854 Y-12.415
Y-12.404
Y-12.394
X-118.856 Y-12.383
X-118.859 Y-12.373
X-118.863 Y-12.362
X-118.871 Y-12.348
X-118.883 Y-12.333
X-118.914 Y-12.304
X-118.924 Y-12.298
X-118.935 Y-12.293
X-118.945 Y-12.289
X-118.956 Y-12.287
X-118.966 Y-12.286
X-118.977
X-119.241 Y-12.31
X-119.252
X-119.337 Y-12.29
X-119.372 Y-12.278
X-119.421 Y-12.256
X-119.452 Y-12.249
X-119.483 Y-12.252
X-119.512 Y-12.264
X-120.031 Y-12.59
X-120.612 Y-12.955
X-120.636 Y-12.977
X-120.652 Y-13.005
X-120.658 Y-13.038
X-120.657 Y-13.122
X-120.646 Y-13.376
X-120.639 Y-13.45
X-120.578 Y-13.588
X-120.475 Y-13.697
X-120.349 Y-13.779
X-120.21 Y-13.835
X-120.064 Y-13.868
X-119.914 Y-13.878
X-119.833 Y-13.869
X-119.717 Y-13.83
X-119.626 Y-13.749
X-119.574 Y-13.638
X-119.534 Y-13.46
X-119.517 Y-13.406
X-119.514 Y-13.37
X-119.525 Y-13.335
X-119.547 Y-13.306
X-119.577 Y-13.287
X-119.613 Y-13.28
X-119.918 Y-13.279
X-120.545 Y-13.275
X-120.584 Y-13.282
X-120.617 Y-13.304
X-120.638 Y-13.337
X-120.646 Y-13.376
X-120.634 Y-13.629
X-120.627 Y-13.704
X-120.563 Y-13.84
X-120.457 Y-13.946
X-120.329 Y-14.024
X-120.189 Y-14.078
X-120.042 Y-14.108
X-119.892 Y-14.11
X-119.857 Y-14.103
X-119.746 Y-14.058
X-119.662 Y-13.973
X-119.618 Y-13.861
X-119.59 Y-13.707
X-119.574 Y-13.638
Y-13.602
X-119.586 Y-13.569
X-119.608 Y-13.542
X-119.639 Y-13.524
X-119.674 Y-13.519
X-119.907 Y-13.521
X-120.536 Y-13.528
X-120.574 Y-13.536
X-120.606 Y-13.558
X-120.627 Y-13.591
X-120.634 Y-13.629
X-120.63 Y-13.714
X-120.614 Y-13.883
X-120.603 Y-13.957
X-120.537 Y-14.091
X-120.429 Y-14.195
X-120.299 Y-14.271
X-120.158 Y-14.32
X-120.009 Y-14.343
X-119.86 Y-14.333
X-119.851 Y-14.33
X-119.749 Y-14.273
X-119.677 Y-14.18
X-119.646 Y-14.067
X-119.637 Y-13.967
X-119.618 Y-13.861
X-119.619 Y-13.826
X-119.632 Y-13.794
X-119.655 Y-13.768
X-119.686 Y-13.752
X-119.721 Y-13.747
X-119.892 Y-13.754
X-120.518 Y-13.777
X-120.556 Y-13.786
X-120.588 Y-13.809
X-120.608 Y-13.843
X-120.614 Y-13.883
X-120.606 Y-13.972
X-120.584 Y-14.136
X-120.571 Y-14.21
X-120.503 Y-14.343
X-120.392 Y-14.444
X-120.26 Y-14.515
X-120.116 Y-14.557
X-119.966 Y-14.571
X-119.91 Y-14.562
X-119.784 Y-14.51
X-119.694 Y-14.408
X-119.658 Y-14.276
X-119.656 Y-14.22
X-119.646 Y-14.067
X-119.65 Y-14.033
X-119.665 Y-14.003
X-119.69 Y-13.98
X-119.72 Y-13.966
X-119.754 Y-13.963
X-119.868 Y-13.973
X-120.493 Y-14.027
X-120.531 Y-14.038
X-120.562 Y-14.062
X-120.58 Y-14.097
X-120.584 Y-14.136
X-120.551 Y-14.389
X-120.537 Y-14.463
X-120.464 Y-14.594
X-120.349 Y-14.69
X-120.213 Y-14.755
X-120.067 Y-14.789
X-119.917 Y-14.785
X-119.881 Y-14.775
X-119.765 Y-14.713
X-119.687 Y-14.608
X-119.661 Y-14.479
X-119.659 Y-14.305
X-119.658 Y-14.276
X-119.664 Y-14.243
X-119.681 Y-14.213
X-119.707 Y-14.191
X-119.739 Y-14.178
X-119.773
X-119.839 Y-14.187
X-120.466 Y-14.281
X-120.501 Y-14.293
X-120.53 Y-14.318
X-120.547 Y-14.352
X-120.551 Y-14.389
X-120.527 Y-14.558
X-120.506 Y-14.643
X-120.463 Y-14.786
X-120.357 Y-14.893
X-120.226 Y-14.965
X-120.081 Y-15.004
X-119.931
X-119.879 Y-14.992
X-119.754 Y-14.928
X-119.672 Y-14.815
X-119.65 Y-14.677
X-119.659 Y-14.558
X-119.661 Y-14.479
X-119.668 Y-14.446
X-119.687 Y-14.417
X-119.714 Y-14.396
X-119.747 Y-14.386
X-119.781 Y-14.387
X-119.815 Y-14.394
X-120.429 Y-14.524
X-120.465 Y-14.54
X-120.492 Y-14.567
X-120.507 Y-14.604
X-120.506 Y-14.643
X-120.485 Y-14.727
X-120.462 Y-14.812
X-120.437 Y-14.896
X-120.387 Y-15.037
X-120.276 Y-15.138
X-120.138 Y-15.198
X-119.99 Y-15.22
X-119.841 Y-15.203
X-119.809 Y-15.189
X-119.701 Y-15.112
X-119.637 Y-14.994
X-119.63 Y-14.861
X-119.639 Y-14.812
X-119.65 Y-14.677
X-119.66 Y-14.643
X-119.681 Y-14.615
X-119.71 Y-14.596
X-119.744 Y-14.588
X-119.779 Y-14.593
X-120.37 Y-14.775
X-120.403 Y-14.793
X-120.427 Y-14.822
X-120.439 Y-14.858
X-120.437 Y-14.896
X-120.361 Y-15.15
X-120.335 Y-15.22
X-120.236 Y-15.333
X-120.101 Y-15.399
X-119.954 Y-15.426
X-119.85 Y-15.412
X-119.737 Y-15.373
X-119.648 Y-15.292
X-119.598 Y-15.183
X-119.595 Y-15.063
X-119.63 Y-14.861
X-119.643 Y-14.828
X-119.667 Y-14.802
X-119.699 Y-14.786
X-119.734 Y-14.782
X-119.769 Y-14.791
X-120.305 Y-15.033
X-120.334 Y-15.052
X-120.354 Y-15.081
X-120.363 Y-15.115
X-120.361 Y-15.15
X-120.293 Y-15.365
X-120.281 Y-15.403
X-120.25 Y-15.471
X-120.136 Y-15.568
X-119.994 Y-15.617
X-119.844 Y-15.622
X-119.699 Y-15.583
X-119.69 Y-15.578
X-119.598 Y-15.493
X-119.549 Y-15.378
X-119.552 Y-15.253
X-119.59 Y-15.085
X-119.595 Y-15.063
X-119.609 Y-15.028
X-119.636 Y-15.002
X-119.67 Y-14.986
X-119.708 Y-14.985
X-119.744 Y-14.998
X-120.236 Y-15.29
X-120.261 Y-15.311
X-120.277 Y-15.339
X-120.285 Y-15.371
X-120.281 Y-15.403
X-120.267 Y-15.439
X-120.212 Y-15.572
X-120.179 Y-15.64
X-120.08 Y-15.752
X-119.941 Y-15.808
X-119.792 Y-15.819
X-119.647 Y-15.781
X-119.629 Y-15.77
X-119.527 Y-15.669
X-119.484 Y-15.532
X-119.51 Y-15.391
X-119.529 Y-15.365
X-119.555 Y-15.345
X-119.586 Y-15.336
X-119.619 Y-15.337
X-120.137 Y-15.439
X-120.17 Y-15.451
X-120.196 Y-15.474
X-120.213 Y-15.504
X-120.218 Y-15.538
X-120.212 Y-15.572
X-120.117 Y-15.799
X-120.085 Y-15.866
X-119.971 Y-15.963
X-119.826 Y-16.005
X-119.676 Y-16.001
X-119.536 Y-15.948
X-119.517 Y-15.933
X-119.433 Y-15.831
X-119.402 Y-15.702
X-119.429 Y-15.572
X-119.51 Y-15.391
X-119.531 Y-15.363
X-119.56 Y-15.343
X-119.595 Y-15.335
X-119.63 Y-15.34
X-119.661 Y-15.356
X-120.085 Y-15.684
X-120.107 Y-15.708
X-120.12 Y-15.736
X-120.124 Y-15.768
X-120.117 Y-15.799
X-120.036 Y-15.994
X-120.009 Y-16.051
X-119.897 Y-16.15
X-119.753 Y-16.194
X-119.603 Y-16.191
X-119.463 Y-16.138
X-119.433 Y-16.116
X-119.341 Y-16.007
X-119.309 Y-15.868
X-119.346 Y-15.73
X-119.386 Y-15.656
X-119.421 Y-15.588
X-119.429 Y-15.572
X-119.45 Y-15.544
X-119.48 Y-15.524
X-119.515 Y-15.517
X-119.55 Y-15.522
X-119.581 Y-15.539
X-120.005 Y-15.881
X-120.026 Y-15.904
X-120.039 Y-15.933
X-120.042 Y-15.964
X-120.036 Y-15.994
X-120.001 Y-16.079
X-119.988 Y-16.1
X-119.972 Y-16.121
X-119.897 Y-16.215
X-119.847 Y-16.271
X-119.722 Y-16.353
X-119.573 Y-16.372
X-119.426 Y-16.341
X-119.367 Y-16.308
X-119.278 Y-16.232
X-119.225 Y-16.128
X-119.216 Y-16.011
X-119.252 Y-15.9
X-119.346 Y-15.73
X-119.37 Y-15.703
X-119.401 Y-15.686
X-119.437 Y-15.681
X-119.472 Y-15.689
X-119.502 Y-15.709
X-119.886 Y-16.084
X-119.907 Y-16.113
X-119.916 Y-16.147
X-119.913 Y-16.183
X-119.897 Y-16.215
X-119.76 Y-16.387
X-119.71 Y-16.444
X-119.581 Y-16.521
X-119.432 Y-16.531
X-119.288 Y-16.49
X-119.238 Y-16.455
X-119.157 Y-16.371
X-119.115 Y-16.263
X-119.117 Y-16.147
X-119.162 Y-16.041
X-119.252 Y-15.9
X-119.277 Y-15.873
X-119.31 Y-15.856
X-119.347 Y-15.852
X-119.382 Y-15.862
X-119.412 Y-15.885
X-119.753 Y-16.26
X-119.772 Y-16.289
X-119.779 Y-16.323
X-119.775 Y-16.357
X-119.76 Y-16.387
X-119.632 Y-16.547
X-119.582 Y-16.604
X-119.454 Y-16.681
X-119.304 Y-16.688
X-119.163 Y-16.639
X-119.115 Y-16.603
X-119.035 Y-16.508
X-119 Y-16.388
X-119.016 Y-16.264
X-119.082 Y-16.158
X-119.162 Y-16.041
X-119.189 Y-16.016
X-119.222 Y-16.002
X-119.259 Y-16.001
X-119.293 Y-16.013
X-119.321 Y-16.037
X-119.63 Y-16.426
X-119.646 Y-16.454
X-119.652 Y-16.486
X-119.647 Y-16.518
X-119.632 Y-16.547
X-119.534 Y-16.67
X-119.506 Y-16.703
X-119.446 Y-16.754
X-119.386 Y-16.799
X-119.241 Y-16.838
X-119.094 Y-16.809
X-118.965 Y-16.734
X-118.931 Y-16.694
X-118.876 Y-16.596
X-118.86 Y-16.484
X-118.887 Y-16.375
X-118.952 Y-16.283
X-119.082 Y-16.158
X-119.113 Y-16.137
X-119.15 Y-16.13
X-119.186 Y-16.136
X-119.218 Y-16.155
X-119.241 Y-16.185
X-119.468 Y-16.636
X-119.478 Y-16.667
X-119.477 Y-16.699
X-119.466 Y-16.729
X-119.446 Y-16.754
X-119.279 Y-16.894
X-119.219 Y-16.939
X-119.071 Y-16.966
X-118.925 Y-16.931
X-118.802 Y-16.845
X-118.776 Y-16.809
X-118.721 Y-16.675
X-118.736 Y-16.531
X-118.816 Y-16.41
X-118.914 Y-16.32
X-118.952 Y-16.283
X-118.984 Y-16.264
X-119.022 Y-16.258
X-119.059 Y-16.266
X-119.09 Y-16.288
X-119.111 Y-16.319
X-119.304 Y-16.781
X-119.312 Y-16.811
X-119.309 Y-16.841
X-119.298 Y-16.87
X-119.279 Y-16.894
X-119.142 Y-17.008
X-119.082 Y-17.053
X-118.938 Y-17.097
X-118.792 Y-17.066
X-118.668 Y-16.98
X-118.575 Y-16.863
X-118.572 Y-16.854
X-118.557 Y-16.729
X-118.594 Y-16.609
X-118.678 Y-16.515
X-118.744 Y-16.466
X-118.809 Y-16.416
X-118.816 Y-16.41
X-118.848 Y-16.392
X-118.885 Y-16.386
X-118.921 Y-16.395
X-118.951 Y-16.416
X-118.972 Y-16.446
X-119.167 Y-16.893
X-119.175 Y-16.923
X-119.173 Y-16.955
X-119.162 Y-16.984
X-119.142 Y-17.008
X-118.998 Y-17.127
X-118.977 Y-17.144
X-118.956 Y-17.157
X-118.813 Y-17.203
X-118.664 Y-17.188
X-118.531 Y-17.117
X-118.431 Y-17.006
X-118.422 Y-16.987
X-118.396 Y-16.848
X-118.436 Y-16.713
X-118.534 Y-16.611
X-118.575 Y-16.585
X-118.66 Y-16.528
X-118.678 Y-16.515
X-118.712 Y-16.5
X-118.749 Y-16.498
X-118.784 Y-16.51
X-118.812 Y-16.534
X-118.83 Y-16.567
X-118.984 Y-17.045
X-118.988 Y-17.082
X-118.979 Y-17.117
X-118.958 Y-17.148
X-118.927 Y-17.168
X-118.698 Y-17.248
X-118.626 Y-17.269
X-118.476 Y-17.264
X-118.345 Y-17.192
X-118.307 Y-17.143
X-118.252 Y-17.028
X-118.25 Y-16.901
X-118.3 Y-16.785
X-118.395 Y-16.7
X-118.442 Y-16.67
X-118.534 Y-16.611
X-118.57 Y-16.598
X-118.608 Y-16.6
X-118.643 Y-16.616
X-118.67 Y-16.645
X-118.683 Y-16.681
X-118.761 Y-17.138
Y-17.172
X-118.749 Y-17.204
X-118.727 Y-17.23
X-118.698 Y-17.248
X-118.491 Y-17.32
X-118.419 Y-17.341
X-118.344 Y-17.332
X-118.206 Y-17.273
X-118.107 Y-17.16
X-118.096 Y-17.13
X-118.078 Y-17.011
X-118.107 Y-16.895
X-118.18 Y-16.799
X-118.285 Y-16.74
X-118.364 Y-16.715
X-118.385 Y-16.705
X-118.395 Y-16.7
X-118.427 Y-16.689
X-118.46 Y-16.69
X-118.492 Y-16.702
X-118.518 Y-16.723
X-118.535 Y-16.752
X-118.541 Y-16.785
X-118.554 Y-17.224
X-118.551 Y-17.254
X-118.538 Y-17.282
X-118.517 Y-17.305
X-118.491 Y-17.32
X-118.321 Y-17.379
X-118.3 Y-17.386
X-118.279 Y-17.391
X-118.204 Y-17.397
X-118.06 Y-17.356
X-117.955 Y-17.249
X-117.895 Y-17.111
Y-17.106
X-117.915 Y-16.972
X-117.992 Y-16.861
X-118.111 Y-16.795
X-118.152 Y-16.783
X-118.285 Y-16.74
X-118.324 Y-16.737
X-118.361 Y-16.749
X-118.391 Y-16.775
X-118.409 Y-16.81
X-118.411 Y-16.849
X-118.353 Y-17.307
X-118.34 Y-17.344
X-118.314 Y-17.373
X-118.279 Y-17.391
X-118.068 Y-17.42
X-117.993 Y-17.426
X-117.854 Y-17.37
X-117.753 Y-17.259
X-117.707 Y-17.116
X-117.741 Y-16.99
X-117.824 Y-16.892
X-117.94 Y-16.837
X-118.068 Y-16.808
X-118.111 Y-16.795
X-118.144 Y-16.793
X-118.176 Y-16.801
X-118.204 Y-16.82
X-118.224 Y-16.846
X-118.234 Y-16.878
X-118.233 Y-16.912
X-118.149 Y-17.341
X-118.138 Y-17.369
X-118.12 Y-17.393
X-118.096 Y-17.41
X-118.068 Y-17.42
X-117.898 Y-17.443
X-117.824 Y-17.45
X-117.751 Y-17.43
X-117.625 Y-17.349
X-117.544 Y-17.223
X-117.542 Y-17.208
X-117.548 Y-17.089
X-117.6 Y-16.982
X-117.689 Y-16.904
X-117.801 Y-16.866
X-117.814 Y-16.865
X-117.94 Y-16.837
X-117.978
X-118.014 Y-16.852
X-118.042 Y-16.879
X-118.057 Y-16.915
Y-16.954
X-117.98 Y-17.363
X-117.97 Y-17.392
X-117.951 Y-17.416
X-117.927 Y-17.433
X-117.898 Y-17.443
X-117.683 Y-17.473
X-117.608 Y-17.479
X-117.472 Y-17.416
X-117.385 Y-17.294
X-117.376 Y-17.252
X-117.374 Y-17.127
X-117.423 Y-17.013
X-117.513 Y-16.929
X-117.631 Y-16.888
X-117.801 Y-16.866
X-117.841 Y-16.871
X-117.875 Y-16.89
X-117.9 Y-16.921
X-117.91 Y-16.96
X-117.904 Y-16.999
X-117.76 Y-17.408
X-117.742 Y-17.438
X-117.716 Y-17.461
X-117.683 Y-17.473
X-117.518 Y-17.495
X-117.497 Y-17.497
X-117.422 Y-17.49
X-117.354 Y-17.459
X-117.242 Y-17.359
X-117.222 Y-17.308
X-117.203 Y-17.169
X-117.25 Y-17.037
X-117.352 Y-16.94
X-117.487 Y-16.9
X-117.56 Y-16.897
X-117.631 Y-16.888
X-117.664 Y-16.89
X-117.695 Y-16.904
X-117.719 Y-16.927
X-117.735 Y-16.957
X-117.74 Y-16.99
X-117.733 Y-17.023
X-117.577 Y-17.433
X-117.559 Y-17.464
X-117.531 Y-17.486
X-117.497 Y-17.497
X-117.391 Y-17.489
X-117.26 Y-17.479
X-117.222 Y-17.474
X-117.16 Y-17.433
X-117.06 Y-17.321
X-117.026 Y-17.175
X-117.029 Y-17.151
X-117.066 Y-17.041
X-117.142 Y-16.953
X-117.246 Y-16.9
X-117.362 Y-16.891
X-117.391 Y-16.894
X-117.475 Y-16.901
X-117.487 Y-16.9
X-117.522 Y-16.906
X-117.552 Y-16.923
X-117.575 Y-16.95
X-117.587 Y-16.983
Y-17.018
X-117.574 Y-17.051
X-117.35 Y-17.43
X-117.327 Y-17.457
X-117.295 Y-17.474
X-117.26 Y-17.479
X-117.137 Y-17.469
X-117.063 Y-17.459
X-116.998 Y-17.422
X-116.944 Y-17.369
X-116.865 Y-17.242
X-116.852 Y-17.092
X-116.856 Y-17.079
X-116.927 Y-16.957
X-117.046 Y-16.881
X-117.186 Y-16.868
X-117.306 Y-16.884
X-117.362 Y-16.891
X-117.397 Y-16.904
X-117.426 Y-16.929
X-117.443 Y-16.963
X-117.446 Y-17.001
X-117.434 Y-17.037
X-117.229 Y-17.417
X-117.206 Y-17.446
X-117.174 Y-17.464
X-117.137 Y-17.469
X-116.968 Y-17.456
X-116.894 Y-17.444
X-116.827 Y-17.41
X-116.721 Y-17.303
X-116.669 Y-17.163
X-116.68 Y-17.013
X-116.683 Y-17.008
X-116.764 Y-16.904
X-116.881 Y-16.844
X-117.013 Y-16.841
X-117.052 Y-16.848
X-117.186 Y-16.868
X-117.221 Y-16.881
X-117.248 Y-16.905
X-117.265 Y-16.939
X-117.268 Y-16.975
X-117.258 Y-17.011
X-117.062 Y-17.401
X-117.038 Y-17.431
X-117.005 Y-17.45
X-116.968 Y-17.456
X-116.883 Y-17.447
X-116.746 Y-17.423
X-116.673 Y-17.407
X-116.553 Y-17.317
X-116.491 Y-17.18
X-116.482 Y-17.03
X-116.493 Y-16.996
X-116.548 Y-16.894
X-116.638 Y-16.82
X-116.749 Y-16.787
X-116.865 Y-16.797
X-117.004 Y-16.839
X-117.013 Y-16.841
X-117.048 Y-16.856
X-117.074 Y-16.883
X-117.088 Y-16.917
X-117.089 Y-16.954
X-117.076 Y-16.989
X-116.846 Y-17.375
X-116.82 Y-17.404
X-116.785 Y-17.421
X-116.746 Y-17.423
X-116.714 Y-17.418
X-116.545 Y-17.378
X-116.473 Y-17.357
X-116.357 Y-17.261
X-116.299 Y-17.122
X-116.301 Y-16.972
X-116.319 Y-16.925
X-116.382 Y-16.823
X-116.479 Y-16.754
X-116.596 Y-16.729
X-116.714 Y-16.751
X-116.835 Y-16.789
X-116.865 Y-16.797
X-116.897 Y-16.815
X-116.92 Y-16.844
X-116.932 Y-16.879
X-116.93 Y-16.916
X-116.915 Y-16.949
X-116.647 Y-17.337
X-116.619 Y-17.364
X-116.583 Y-17.378
X-116.545
X-116.376 Y-17.337
X-116.304 Y-17.316
X-116.241 Y-17.274
X-116.148 Y-17.157
X-116.114 Y-17.011
X-116.134 Y-16.862
X-116.203 Y-16.729
X-116.315 Y-16.657
X-116.444 Y-16.641
X-116.569 Y-16.681
X-116.629 Y-16.717
X-116.714 Y-16.751
X-116.743 Y-16.771
X-116.763 Y-16.8
X-116.772 Y-16.833
X-116.769 Y-16.868
X-116.755 Y-16.9
X-116.478 Y-17.296
X-116.45 Y-17.323
X-116.414 Y-17.337
X-116.376
X-116.291 Y-17.316
X-116.206 Y-17.295
X-116.122 Y-17.247
X-116.059 Y-17.206
X-115.964 Y-17.089
X-115.93 Y-16.943
X-115.945 Y-16.794
X-116.007 Y-16.658
X-116.028 Y-16.634
X-116.146 Y-16.552
X-116.288 Y-16.534
X-116.422 Y-16.584
X-116.55 Y-16.67
X-116.569 Y-16.681
X-116.594 Y-16.704
X-116.61 Y-16.735
X-116.615 Y-16.769
X-116.608 Y-16.802
X-116.59 Y-16.831
X-116.245 Y-17.225
X-116.219 Y-17.246
X-116.187 Y-17.257
X-116.154 Y-17.258
X-116.122 Y-17.247
X-115.927 Y-17.132
X-115.864 Y-17.091
X-115.779 Y-16.967
X-115.755 Y-16.819
X-115.777 Y-16.671
X-115.847 Y-16.539
X-115.874 Y-16.51
X-115.968 Y-16.444
X-116.079 Y-16.417
X-116.193 Y-16.435
X-116.291 Y-16.494
X-116.422 Y-16.584
X-116.446 Y-16.609
X-116.46 Y-16.64
X-116.462 Y-16.675
X-116.453 Y-16.708
X-116.433 Y-16.736
X-116.045 Y-17.116
X-116.019 Y-17.134
X-115.988 Y-17.143
X-115.957
X-115.927 Y-17.132
X-115.746 Y-17.026
X-115.698 Y-16.993
X-115.606 Y-16.875
X-115.577 Y-16.727
X-115.598 Y-16.579
X-115.663 Y-16.444
X-115.762 Y-16.331
X-115.779 Y-16.321
X-115.904 Y-16.277
X-116.035 Y-16.291
X-116.148 Y-16.361
X-116.206 Y-16.418
X-116.291 Y-16.494
X-116.311 Y-16.52
X-116.321 Y-16.552
X-116.32 Y-16.585
X-116.308 Y-16.616
X-116.287 Y-16.641
X-115.86 Y-17.013
X-115.834 Y-17.029
X-115.805 Y-17.037
X-115.775 Y-17.036
X-115.746 Y-17.026
X-115.699 Y-16.997
X-115.656 Y-16.968
X-115.53 Y-16.857
X-115.476 Y-16.805
X-115.417 Y-16.667
X-115.419 Y-16.517
X-115.465 Y-16.374
X-115.546 Y-16.248
X-115.659 Y-16.15
X-115.668 Y-16.146
X-115.787 Y-16.121
X-115.906 Y-16.146
X-116.005 Y-16.215
X-116.037 Y-16.249
X-116.122 Y-16.335
X-116.148 Y-16.361
X-116.167 Y-16.389
X-116.175 Y-16.422
X-116.172 Y-16.456
X-116.158 Y-16.486
X-116.134 Y-16.511
X-115.651 Y-16.86
X-115.622 Y-16.875
X-115.59 Y-16.879
X-115.558 Y-16.873
X-115.53 Y-16.857
X-115.384 Y-16.73
X-115.33 Y-16.677
X-115.262 Y-16.544
X-115.26 Y-16.394
X-115.299 Y-16.249
X-115.375 Y-16.119
X-115.482 Y-16.015
X-115.521 Y-15.994
X-115.63 Y-15.96
X-115.744 Y-15.969
X-115.846 Y-16.02
X-115.922 Y-16.106
X-115.933 Y-16.142
X-115.93 Y-16.181
X-115.913 Y-16.215
X-115.91 Y-16.219
X-115.526 Y-16.713
X-115.496 Y-16.739
X-115.458 Y-16.751
X-115.419 Y-16.748
X-115.384 Y-16.73
X-115.219 Y-16.585
X-115.191 Y-16.561
X-115.178 Y-16.546
X-115.104 Y-16.415
X-115.098 Y-16.265
X-115.134 Y-16.12
X-115.205 Y-15.988
X-115.307 Y-15.878
X-115.434 Y-15.797
X-115.469 Y-15.787
X-115.6 Y-15.778
X-115.723 Y-15.826
X-115.813 Y-15.922
X-115.922 Y-16.106
X-115.933 Y-16.143
X-115.93 Y-16.181
X-115.912 Y-16.216
X-115.882 Y-16.241
X-115.87 Y-16.248
X-115.3 Y-16.565
X-115.269 Y-16.576
X-115.236
X-115.204 Y-16.566
X-115.178 Y-16.546
X-115.044 Y-16.332
X-114.971 Y-16.201
X-114.97 Y-16.051
X-115.018 Y-15.909
X-115.1 Y-15.783
X-115.207 Y-15.678
X-115.339 Y-15.606
X-115.378 Y-15.595
X-115.513 Y-15.591
X-115.636 Y-15.646
X-115.723 Y-15.749
X-115.783 Y-15.868
X-115.813 Y-15.922
X-115.825 Y-15.959
X-115.821 Y-15.999
X-115.802 Y-16.034
X-115.771 Y-16.058
X-115.743 Y-16.073
X-115.173 Y-16.365
X-115.138 Y-16.375
X-115.102 Y-16.373
X-115.07 Y-16.358
X-115.044 Y-16.332
X-114.937 Y-16.16
X-114.912 Y-16.115
X-114.878 Y-16.048
X-114.852 Y-15.9
X-114.889 Y-15.755
X-114.962 Y-15.624
X-115.064 Y-15.514
X-115.19 Y-15.433
X-115.332 Y-15.383
X-115.351 Y-15.382
X-115.472 Y-15.402
X-115.575 Y-15.469
X-115.643 Y-15.571
X-115.677 Y-15.656
X-115.699 Y-15.702
X-115.723 Y-15.749
X-115.732 Y-15.788
X-115.726 Y-15.827
X-115.704 Y-15.861
X-115.672 Y-15.884
X-115.628 Y-15.902
X-115.036 Y-16.155
X-115.002 Y-16.163
X-114.967 Y-16.158
X-114.936 Y-16.142
X-114.912 Y-16.115
X-114.843 Y-15.994
X-114.784 Y-15.868
X-114.756 Y-15.798
X-114.753 Y-15.648
X-114.805 Y-15.507
X-114.892 Y-15.385
X-115.005 Y-15.286
X-115.135 Y-15.211
X-115.28 Y-15.175
X-115.286
X-115.4 Y-15.199
X-115.497 Y-15.265
X-115.56 Y-15.363
X-115.643 Y-15.571
X-115.649 Y-15.602
X-115.644 Y-15.634
X-115.63 Y-15.663
X-115.608 Y-15.685
X-115.58 Y-15.7
X-115.517 Y-15.72
X-114.904 Y-15.918
X-114.869 Y-15.923
X-114.835 Y-15.915
X-114.805 Y-15.896
X-114.784 Y-15.868
X-114.686 Y-15.656
X-114.658 Y-15.587
X-114.66 Y-15.437
X-114.716 Y-15.298
X-114.805 Y-15.177
X-114.918 Y-15.079
X-115.049 Y-15.004
X-115.194 Y-14.967
X-115.232
X-115.365 Y-14.998
X-115.47 Y-15.085
X-115.527 Y-15.209
X-115.555 Y-15.35
X-115.56 Y-15.363
X-115.566 Y-15.395
X-115.562 Y-15.427
X-115.547 Y-15.456
X-115.525 Y-15.478
X-115.496 Y-15.493
X-115.421 Y-15.516
X-114.805 Y-15.707
X-114.771 Y-15.711
X-114.737 Y-15.703
X-114.707 Y-15.684
X-114.686 Y-15.656
X-114.619 Y-15.508
X-114.613 Y-15.487
X-114.594 Y-15.403
X-114.569 Y-15.255
X-114.617 Y-15.113
X-114.702 Y-14.989
X-114.81 Y-14.886
X-114.938 Y-14.808
X-115.081 Y-14.76
X-115.23 Y-14.748
X-115.252 Y-14.752
X-115.365 Y-14.8
X-115.449 Y-14.889
X-115.49 Y-15.005
X-115.499 Y-15.065
X-115.527 Y-15.209
X-115.526 Y-15.247
X-115.51 Y-15.281
X-115.483 Y-15.308
X-115.448 Y-15.323
X-115.331 Y-15.347
X-114.711 Y-15.476
X-114.673
X-114.638 Y-15.463
X-114.61 Y-15.437
X-114.594 Y-15.403
X-114.538 Y-15.15
X-114.516 Y-15.001
X-114.569 Y-14.861
X-114.66 Y-14.741
X-114.776 Y-14.647
X-114.909 Y-14.578
X-115.052 Y-14.533
X-115.202 Y-14.527
X-115.222 Y-14.531
X-115.34 Y-14.583
X-115.426 Y-14.68
X-115.463 Y-14.804
X-115.475 Y-14.896
X-115.49 Y-15.005
X-115.487 Y-15.042
X-115.47 Y-15.076
X-115.441 Y-15.102
X-115.405 Y-15.114
X-115.281 Y-15.132
X-114.649 Y-15.223
X-114.612 Y-15.222
X-114.579 Y-15.208
X-114.553 Y-15.182
X-114.538 Y-15.15
X-114.514 Y-15.029
X-114.49 Y-14.896
X-114.481 Y-14.822
X-114.508 Y-14.674
X-114.59 Y-14.548
X-114.7 Y-14.446
X-114.828 Y-14.369
X-114.97 Y-14.319
X-115.119 Y-14.3
X-115.183 Y-14.308
X-115.312 Y-14.355
X-115.407 Y-14.454
X-115.448 Y-14.586
X-115.463 Y-14.804
X-115.457 Y-14.841
X-115.438 Y-14.874
X-115.408 Y-14.897
X-115.371 Y-14.907
X-115.235 Y-14.919
X-114.596 Y-14.974
X-114.561 Y-14.971
X-114.528 Y-14.955
X-114.504 Y-14.929
X-114.49 Y-14.896
X-114.476 Y-14.812
X-114.46 Y-14.643
X-114.453 Y-14.493
X-114.521 Y-14.359
X-114.624 Y-14.25
X-114.747 Y-14.165
X-114.885 Y-14.106
X-115.033 Y-14.077
X-115.182 Y-14.081
X-115.23 Y-14.094
X-115.346 Y-14.157
X-115.424 Y-14.264
X-115.449 Y-14.393
X-115.445 Y-14.502
Y-14.544
X-115.448 Y-14.586
X-115.441 Y-14.624
X-115.421 Y-14.657
X-115.39 Y-14.68
X-115.353 Y-14.689
X-115.2 Y-14.697
X-114.564 Y-14.73
X-114.528 Y-14.725
X-114.495 Y-14.707
X-114.472 Y-14.678
X-114.46 Y-14.643
X-114.436 Y-14.389
X-114.433 Y-14.353
X-114.43 Y-14.323
X-114.429 Y-14.281
X-114.439 Y-14.244
X-114.462 Y-14.213
X-114.495 Y-14.194
X-114.532 Y-14.187
X-114.569 Y-14.196
X-114.601 Y-14.218
X-114.622 Y-14.25
X-114.629 Y-14.287
Y-14.31
X-114.622 Y-14.347
X-114.602 Y-14.379
X-114.572 Y-14.401
X-114.535 Y-14.41
X-114.498 Y-14.405
X-114.465 Y-14.387
X-114.441 Y-14.359
X-114.43 Y-14.323
X-114.428 Y-14.305
X-114.43 Y-14.261
X-114.44 Y-14.187
X-114.531 Y-14.068
X-114.647 Y-13.973
X-114.78 Y-13.903
X-114.924 Y-13.86
X-115.073 Y-13.843
X-115.222 Y-13.861
X-115.26 Y-13.875
X-115.37 Y-13.943
X-115.44 Y-14.052
X-115.459 Y-14.18
X-115.456 Y-14.22
X-115.451 Y-14.305
X-115.449 Y-14.393
X-115.441 Y-14.425
X-115.423 Y-14.453
X-115.398 Y-14.473
X-115.367 Y-14.485
X-115.334
X-115.151 Y-14.457
X-114.515 Y-14.36
X-114.481 Y-14.349
X-114.454 Y-14.326
X-114.436 Y-14.296
X-114.43 Y-14.261
X-114.445 Y-14.089
X-114.467 Y-13.941
X-114.553 Y-13.818
X-114.671 Y-13.726
X-114.806 Y-13.661
X-114.952 Y-13.625
X-115.101 Y-13.614
X-115.249 Y-13.638
X-115.281 Y-13.65
X-115.391 Y-13.723
X-115.46 Y-13.836
X-115.476 Y-13.967
X-115.468 Y-14.051
X-115.459 Y-14.18
X-115.447 Y-14.217
X-115.423 Y-14.247
X-115.389 Y-14.265
X-115.35 Y-14.269
X-115.165 Y-14.252
X-114.536 Y-14.195
X-114.5 Y-14.184
X-114.47 Y-14.16
X-114.451 Y-14.127
X-114.445 Y-14.089
X-114.457 Y-13.967
X-114.471 Y-13.836
X-114.494 Y-13.688
X-114.584 Y-13.568
X-114.706 Y-13.48
X-114.844 Y-13.421
X-114.991 Y-13.391
X-115.141 Y-13.386
X-115.288 Y-13.416
X-115.34 Y-13.439
X-115.447 Y-13.518
X-115.509 Y-13.636
X-115.514 Y-13.769
X-115.476 Y-13.967
X-115.462 Y-14.001
X-115.436 Y-14.027
X-115.403 Y-14.042
X-115.366 Y-14.044
X-115.186 Y-14.022
X-114.558 Y-13.943
X-114.522 Y-13.931
X-114.493 Y-13.907
X-114.475 Y-13.874
X-114.471 Y-13.836
X-114.484 Y-13.714
X-114.498 Y-13.629
X-114.518 Y-13.545
X-114.559 Y-13.4
X-114.664 Y-13.293
X-114.794 Y-13.218
X-114.937 Y-13.172
X-115.086 Y-13.155
X-115.235 Y-13.166
X-115.379 Y-13.21
X-115.415 Y-13.23
X-115.512 Y-13.317
X-115.562 Y-13.437
X-115.557 Y-13.567
X-115.541 Y-13.629
X-115.514 Y-13.769
X-115.498 Y-13.804
X-115.469 Y-13.831
X-115.433 Y-13.845
X-115.394 Y-13.844
X-115.209 Y-13.802
X-114.594 Y-13.661
X-114.559 Y-13.646
X-114.532 Y-13.618
X-114.518 Y-13.583
Y-13.545
X-114.577 Y-13.291
X-114.598 Y-13.219
X-114.681 Y-13.095
X-114.804 Y-13.009
X-114.945 Y-12.956
X-115.093 Y-12.931
X-115.242 Y-12.934
X-115.388 Y-12.969
X-115.524 Y-13.034
X-115.545 Y-13.054
X-115.62 Y-13.155
X-115.647 Y-13.278
X-115.621 Y-13.401
X-115.597 Y-13.432
X-115.564 Y-13.451
X-115.526 Y-13.457
X-115.283 Y-13.444
X-114.67 Y-13.41
X-114.636 Y-13.403
X-114.608 Y-13.384
X-114.587 Y-13.358
X-114.576 Y-13.325
X-114.577 Y-13.291
X-114.599 Y-13.197
X-114.61 Y-13.16
X-114.629 Y-13.122
X-114.701 Y-12.981
X-114.776 Y-12.852
X-114.902 Y-12.769
X-115.044 Y-12.722
X-115.193 Y-12.707
X-115.343 Y-12.72
X-115.488 Y-12.759
X-115.593 Y-12.818
X-115.679 Y-12.89
X-115.73 Y-12.989
X-115.74 Y-13.1
X-115.708 Y-13.207
X-115.689 Y-13.233
X-115.664 Y-13.252
X-115.633 Y-13.262
X-115.601 Y-13.261
X-115.368 Y-13.222
X-114.775 Y-13.123
X-114.741 Y-13.11
X-114.713 Y-13.086
X-114.696 Y-13.053
X-114.692 Y-13.017
X-114.701 Y-12.981
X-114.803 Y-12.784
X-114.853 Y-12.705
X-114.895 Y-12.643
X-115.016 Y-12.554
X-115.159 Y-12.508
X-115.308 Y-12.495
X-115.457 Y-12.514
X-115.599 Y-12.561
X-115.729 Y-12.636
X-115.758 Y-12.664
X-115.831 Y-12.775
X-115.848 Y-12.907
X-115.806 Y-13.034
X-115.753 Y-13.122
X-115.708 Y-13.207
X-115.614 Y-13.416
X-115.595 Y-13.46
X-115.563 Y-13.545
X-115.557 Y-13.567
X-115.54 Y-13.601
X-115.511 Y-13.625
X-115.476 Y-13.637
X-115.439 Y-13.636
X-115.404 Y-13.621
X-115.378 Y-13.594
X-115.23 Y-13.372
X-114.856 Y-12.81
X-114.842 Y-12.776
X-114.841 Y-12.74
X-114.853 Y-12.705
X-114.937 Y-12.569
X-114.981 Y-12.506
X-115.003 Y-12.475
X-115.05 Y-12.416
X-115.175 Y-12.333
X-115.32 Y-12.296
X-115.47
X-115.617 Y-12.326
X-115.756 Y-12.383
X-115.877 Y-12.472
X-115.897 Y-12.495
X-115.955 Y-12.607
X-115.963 Y-12.733
X-115.918 Y-12.851
X-115.896 Y-12.874
X-115.867 Y-12.889
X-115.835 Y-12.893
X-115.803 Y-12.888
X-115.623 Y-12.824
X-115.054 Y-12.625
X-115.022 Y-12.607
X-114.999 Y-12.579
X-114.988 Y-12.544
X-114.989 Y-12.508
X-115.003 Y-12.475
X-115.145 Y-12.278
X-115.167 Y-12.248
X-115.177 Y-12.234
X-115.215 Y-12.198
X-115.25 Y-12.179
X-115.289 Y-12.175
X-115.326 Y-12.187
X-115.357 Y-12.212
X-115.375 Y-12.246
X-115.378 Y-12.286
X-115.366 Y-12.323
X-115.341 Y-12.353
X-115.322 Y-12.368
X-115.291 Y-12.384
X-115.256 Y-12.389
X-115.222 Y-12.382
X-115.192 Y-12.363
X-115.171 Y-12.335
X-115.161 Y-12.301
X-115.163 Y-12.266
X-115.177 Y-12.234
X-115.191 Y-12.219
X-115.22 Y-12.193
X-115.341 Y-12.104
X-115.49 Y-12.086
X-115.639 Y-12.1
X-115.783 Y-12.143
X-115.916 Y-12.212
X-116.029 Y-12.311
X-116.042 Y-12.33
X-116.091 Y-12.451
X-116.085 Y-12.582
X-116.023 Y-12.697
X-115.997 Y-12.717
X-115.966 Y-12.728
X-115.933
X-115.901 Y-12.717
X-115.764 Y-12.641
X-115.241 Y-12.353
X-115.212 Y-12.329
X-115.194 Y-12.297
X-115.189 Y-12.26
X-115.198 Y-12.224
X-115.22 Y-12.193
X-115.427 Y-12.024
X-115.548 Y-11.935
X-115.697 Y-11.918
X-115.846 Y-11.94
X-115.985 Y-11.996
X-116.11 Y-12.079
X-116.21 Y-12.191
X-116.224 Y-12.22
X-116.253 Y-12.346
X-116.227 Y-12.473
X-116.15 Y-12.577
X-116.105 Y-12.616
X-116.037 Y-12.681
X-116.021 Y-12.7
X-115.953 Y-12.798
X-115.907 Y-12.869
X-115.828 Y-12.998
X-115.806 Y-13.034
X-115.78 Y-13.061
X-115.745 Y-13.077
X-115.706 Y-13.078
X-115.67 Y-13.065
X-115.642 Y-13.039
X-115.626 Y-13.004
X-115.567 Y-12.778
X-115.396 Y-12.125
X-115.394 Y-12.088
X-115.405 Y-12.053
X-115.427 Y-12.024
X-115.531 Y-11.94
X-115.614 Y-11.882
X-115.658 Y-11.855
X-115.789 Y-11.783
X-115.939 Y-11.777
X-116.085 Y-11.814
X-116.216 Y-11.886
X-116.328 Y-11.986
X-116.41 Y-12.112
X-116.413 Y-12.121
X-116.424 Y-12.239
X-116.389 Y-12.352
X-116.312 Y-12.443
X-116.283 Y-12.457
X-116.251 Y-12.462
X-116.219 Y-12.456
X-116.191 Y-12.441
X-116.121 Y-12.386
X-115.651 Y-12.017
X-115.627 Y-11.989
X-115.614 Y-11.954
X-115.616 Y-11.916
X-115.631 Y-11.882
X-115.658 Y-11.855
X-115.795 Y-11.771
X-115.907 Y-11.705
X-115.974 Y-11.671
X-116.123 Y-11.654
X-116.268 Y-11.691
X-116.399 Y-11.764
X-116.51 Y-11.865
X-116.549 Y-11.929
X-116.588 Y-12.037
X-116.584 Y-12.152
X-116.537 Y-12.257
X-116.453 Y-12.337
X-116.413 Y-12.362
X-116.206 Y-12.528
X-116.15 Y-12.577
X-116.12 Y-12.593
X-116.086 Y-12.599
X-116.052 Y-12.593
X-116.022 Y-12.575
X-116 Y-12.549
X-115.989 Y-12.517
X-115.979 Y-12.463
X-115.862 Y-11.807
X-115.863 Y-11.768
X-115.878 Y-11.732
X-115.907 Y-11.705
X-116.037 Y-11.629
X-116.048 Y-11.624
X-116.079 Y-11.615
X-116.172 Y-11.591
X-116.319 Y-11.56
X-116.465 Y-11.592
X-116.595 Y-11.666
X-116.699 Y-11.775
X-116.731 Y-11.838
X-116.765 Y-11.982
X-116.726 Y-12.124
X-116.624 Y-12.23
X-116.591 Y-12.242
X-116.556
X-116.523 Y-12.23
X-116.496 Y-12.207
Y-12.206
X-116.123 Y-11.75
X-116.105 Y-11.715
X-116.101 Y-11.677
X-116.113 Y-11.639
X-116.137 Y-11.609
X-116.172 Y-11.591
X-116.376 Y-11.537
X-116.46 Y-11.519
X-116.609 Y-11.5
X-116.748 Y-11.557
X-116.857 Y-11.66
X-116.934 Y-11.789
X-116.941 Y-11.822
X-116.937 Y-11.964
X-116.868 Y-12.087
X-116.751 Y-12.166
X-116.716 Y-12.171
X-116.682 Y-12.164
X-116.652 Y-12.145
X-116.631 Y-12.117
X-116.396 Y-11.662
X-116.386 Y-11.627
X-116.388 Y-11.592
X-116.402 Y-11.559
X-116.428 Y-11.534
X-116.46 Y-11.519
X-116.714 Y-11.474
X-116.789 Y-11.47
X-116.933 Y-11.51
X-117.049 Y-11.606
X-117.118 Y-11.739
X-117.124 Y-11.77
X-117.116 Y-11.915
X-117.041 Y-12.039
X-116.916 Y-12.113
X-116.879 Y-12.116
X-116.843 Y-12.105
X-116.814 Y-12.082
X-116.796 Y-12.05
X-116.64 Y-11.606
X-116.634 Y-11.572
X-116.64 Y-11.539
X-116.657 Y-11.509
X-116.682 Y-11.487
X-116.714 Y-11.474
X-116.93 Y-11.452
X-117.004 Y-11.447
X-117.147 Y-11.491
X-117.254 Y-11.597
X-117.312 Y-11.735
X-117.313 Y-11.759
X-117.288 Y-11.9
X-117.2 Y-12.013
X-117.07 Y-12.072
X-117.034 Y-12.071
X-117 Y-12.057
X-116.974 Y-12.032
X-116.958 Y-11.999
X-116.847 Y-11.576
X-116.844 Y-11.543
X-116.852 Y-11.51
X-116.871 Y-11.482
X-116.898 Y-11.462
X-116.93 Y-11.452
X-116.968 Y-11.447
X-117.052 Y-11.444
X-117.184 Y-11.441
X-117.258 Y-11.444
X-117.388 Y-11.519
X-117.473 Y-11.642
X-117.482 Y-11.681
X-117.483 Y-11.801
X-117.438 Y-11.911
X-117.353 Y-11.996
X-117.242 Y-12.04
X-117.21 Y-12.039
X-117.179 Y-12.029
X-117.154 Y-12.009
X-117.136 Y-11.982
X-117.128 Y-11.951
X-117.089 Y-11.551
X-117.091 Y-11.519
X-117.103 Y-11.489
X-117.124 Y-11.465
X-117.152 Y-11.448
X-117.184 Y-11.441
X-117.222
X-117.306 Y-11.442
X-117.391 Y-11.45
X-117.465 Y-11.462
X-117.529 Y-11.501
X-117.628 Y-11.613
X-117.637 Y-11.644
X-117.643 Y-11.773
X-117.594 Y-11.892
X-117.501 Y-11.98
X-117.378 Y-12.021
X-117.345 Y-12.017
X-117.315 Y-12.003
X-117.291 Y-11.98
X-117.276 Y-11.951
X-117.272 Y-11.917
X-117.284 Y-11.547
X-117.294 Y-11.508
X-117.317 Y-11.476
X-117.351 Y-11.456
X-117.391 Y-11.45
X-117.56 Y-11.467
X-117.633 Y-11.486
X-117.697 Y-11.525
X-117.792 Y-11.64
X-117.795 Y-11.656
X-117.79 Y-11.777
X-117.738 Y-11.887
X-117.646 Y-11.968
X-117.53 Y-12.005
X-117.496 Y-12.001
X-117.465 Y-11.986
X-117.441 Y-11.962
X-117.427 Y-11.93
X-117.424 Y-11.896
X-117.454 Y-11.558
X-117.465 Y-11.521
X-117.488 Y-11.491
X-117.522 Y-11.472
X-117.56 Y-11.467
X-117.645 Y-11.484
X-117.729 Y-11.504
X-117.757 Y-11.511
X-117.829 Y-11.534
X-117.881 Y-11.588
X-117.917 Y-11.654
X-117.915 Y-11.788
X-117.852 Y-11.907
X-117.742 Y-11.985
X-117.608 Y-12.005
X-117.574 Y-11.994
X-117.545 Y-11.972
X-117.527 Y-11.941
X-117.52 Y-11.905
X-117.527 Y-11.87
X-117.642 Y-11.573
X-117.66 Y-11.542
X-117.688 Y-11.52
X-117.722 Y-11.51
X-117.757 Y-11.511
X-117.814 Y-11.526
X-117.898 Y-11.551
X-117.968 Y-11.58
X-118.016 Y-11.638
X-118.072 Y-11.777
X-118.019 Y-11.907
X-117.908 Y-11.995
X-117.769 Y-12.019
X-117.735 Y-12.008
X-117.707 Y-11.987
X-117.688 Y-11.957
X-117.681 Y-11.922
X-117.686 Y-11.887
X-117.779 Y-11.616
X-117.797 Y-11.583
X-117.826 Y-11.56
X-117.861 Y-11.549
X-117.898 Y-11.551
X-118.04 Y-11.602
X-118.068 Y-11.612
X-118.2 Y-11.682
X-118.265 Y-11.749
X-118.341 Y-11.797
X-118.278 Y-11.935
X-118.196 Y-12.011
X-118.091 Y-12.053
X-117.979
X-117.945 Y-12.038
X-117.918 Y-12.012
X-117.904 Y-11.978
X-117.902 Y-11.941
X-117.938 Y-11.693
X-117.949 Y-11.66
X-117.97 Y-11.633
X-118 Y-11.615
X-118.033 Y-11.607
X-118.068 Y-11.612
X-118.152 Y-11.651
X-118.237 Y-11.699
X-118.321 Y-11.747
X-118.474 Y-11.855
X-118.568 Y-11.94
X-118.763 Y-12.137
X-118.777 Y-12.156
X-118.785 Y-12.174
X-118.789 Y-12.193
X-118.79 Y-12.214
X-118.789 Y-12.235
X-118.787 Y-12.246
X-118.784 Y-12.257
X-118.779 Y-12.267
X-118.773 Y-12.278
X-118.759 Y-12.295
X-118.744 Y-12.306
X-118.734 Y-12.312
X-118.723 Y-12.316
X-118.713 Y-12.319
X-118.702 Y-12.321
X-118.692 Y-12.322
X-118.681
X-118.67 Y-12.32
X-118.66 Y-12.317
X-118.575 Y-12.275
X-118.406 Y-12.187
X-118.321 Y-12.146
X-118.237 Y-12.112
X-118.152 Y-12.087
X-118.068 Y-12.07
X-117.832 Y-12.024
X-117.571 Y-12.002
X-117.56
X-117.306 Y-12.028
X-117.137 Y-12.06
X-117.052 Y-12.076
X-116.968 Y-12.098
X-116.799 Y-12.149
X-116.714 Y-12.18
X-116.686 Y-12.193
X-116.629 Y-12.227
X-116.453 Y-12.337
X-116.416 Y-12.35
X-116.378 Y-12.347
X-116.342 Y-12.331
X-116.316 Y-12.301
X-116.297 Y-12.269 Z-0.982
X-116.28 Y-12.241 Z-0.961
X-116.269 Y-12.222 Z-0.928
X-116.265 Y-12.215 Z-0.89
G0 Z2
X-119.358 Y-12.958
Z-0.79
G1 Z-0.89 F1000
Y-12.95 Z-0.928
X-119.359 Y-12.928 Z-0.961
X-119.361 Y-12.896 Z-0.982
X-119.363 Y-12.858 Z-0.99
G3 X-119.599 Y-12.109 I-1.58 J-0.086
G1 X-119.655 Y-12.024
X-119.675 Y-11.982
X-119.691 Y-11.94
X-119.717 Y-11.87
X-119.818 Y-11.759
X-119.954 Y-11.696
X-120.103 Y-11.673
X-120.252 Y-11.682
X-120.398 Y-11.718
X-120.459 Y-11.744
X-120.552 Y-11.805
X-120.615 Y-11.895
X-120.642 Y-12.003
X-120.652 Y-12.289
X-120.644 Y-12.328
X-120.622 Y-12.36
X-120.59 Y-12.381
X-120.551 Y-12.389
X-120.513 Y-12.38
X-120.345 Y-12.308
X-119.749 Y-12.052
X-119.721 Y-12.033
X-119.7 Y-12.006
X-119.69 Y-11.974
X-119.691 Y-11.94
X-119.711 Y-11.855
X-119.717 Y-11.813
X-119.72 Y-11.771
X-119.722 Y-11.733
X-119.792 Y-11.601
X-119.915 Y-11.515
X-120.058 Y-11.469
X-120.207 Y-11.455
X-120.357 Y-11.468
X-120.411 Y-11.484
X-120.517 Y-11.54
X-120.592 Y-11.634
X-120.625 Y-11.75
X-120.64 Y-11.975
X-120.642 Y-12.003
X-120.635 Y-12.041
X-120.615 Y-12.073
X-120.585 Y-12.096
X-120.548 Y-12.105
X-120.51 Y-12.1
X-120.422 Y-12.07
X-119.787 Y-11.857
X-119.754 Y-11.838
X-119.73 Y-11.808
X-119.72 Y-11.771
X-119.715 Y-11.686
X-119.711 Y-11.64
X-119.709 Y-11.565
X-119.766 Y-11.426
X-119.879 Y-11.328
X-120.015 Y-11.265
X-120.162 Y-11.233
X-120.312 Y-11.232
X-120.368 Y-11.243
X-120.484 Y-11.295
X-120.569 Y-11.391
X-120.606 Y-11.512
X-120.625 Y-11.75
X-120.62 Y-11.785
X-120.603 Y-11.816
X-120.576 Y-11.839
X-120.543 Y-11.852
X-120.508
X-120.441 Y-11.84
X-119.793 Y-11.727
X-119.763 Y-11.716
X-119.738 Y-11.697
X-119.72 Y-11.671
X-119.711 Y-11.64
X-119.694 Y-11.433
X-119.69 Y-11.358
X-119.754 Y-11.222
X-119.865 Y-11.121
X-119.998 Y-11.052
X-120.143 Y-11.012
X-120.293 Y-11.007
X-120.339 Y-11.016
X-120.458 Y-11.065
X-120.545 Y-11.159
X-120.585 Y-11.282
X-120.599 Y-11.433
X-120.606 Y-11.512
X-120.601 Y-11.547
X-120.585 Y-11.578
X-120.559 Y-11.602
X-120.527 Y-11.615
X-120.492 Y-11.616
X-120.428 Y-11.608
X-119.779 Y-11.519
X-119.748 Y-11.51
X-119.722 Y-11.491
X-119.703 Y-11.464
X-119.694 Y-11.433
X-119.678 Y-11.264
X-119.674 Y-11.189
X-119.715 Y-11.045
X-119.814 Y-10.933
X-119.94 Y-10.851
X-120.081 Y-10.8
X-120.23 Y-10.782
X-120.29 Y-10.788
X-120.413 Y-10.829
X-120.507 Y-10.919
X-120.555 Y-11.039
X-120.564 Y-11.095
X-120.575 Y-11.18
X-120.585 Y-11.282
X-120.581 Y-11.315
X-120.567 Y-11.345
X-120.543 Y-11.369
X-120.513 Y-11.384
X-120.48 Y-11.388
X-120.417 Y-11.385
X-119.771 Y-11.351
X-119.738 Y-11.343
X-119.709 Y-11.324
X-119.688 Y-11.297
X-119.678 Y-11.264
X-119.669 Y-11.18
X-119.653 Y-11.049
X-119.648 Y-10.974
X-119.694 Y-10.831
X-119.792 Y-10.718
X-119.917 Y-10.635
X-120.057 Y-10.581
X-120.206 Y-10.563
X-120.251 Y-10.567
X-120.374 Y-10.607
X-120.469 Y-10.695
X-120.518 Y-10.815
X-120.555 Y-11.039
X-120.553 Y-11.073
X-120.54 Y-11.105
X-120.517 Y-11.13
X-120.487 Y-11.146
X-120.453 Y-11.151
X-120.396 Y-11.15
X-119.749 Y-11.133
X-119.716 Y-11.126
X-119.686 Y-11.108
X-119.665 Y-11.081
X-119.653 Y-11.049
X-119.638 Y-10.926
X-119.625 Y-10.842
X-119.617 Y-10.767
X-119.662 Y-10.624
X-119.758 Y-10.509
X-119.881 Y-10.423
X-120.019 Y-10.366
X-120.168 Y-10.345
X-120.21 Y-10.349
X-120.33 Y-10.386
X-120.425 Y-10.468
X-120.477 Y-10.583
X-120.518 Y-10.815
X-120.517 Y-10.849
X-120.504 Y-10.88
X-120.482 Y-10.906
X-120.452 Y-10.923
X-120.418 Y-10.928
X-120.372
X-119.722 Y-10.922
X-119.689 Y-10.916
X-119.66 Y-10.899
X-119.638 Y-10.873
X-119.625 Y-10.842
X-119.59 Y-10.633
X-119.581 Y-10.558
X-119.625 Y-10.415
X-119.719 Y-10.298
X-119.841 Y-10.21
X-119.979 Y-10.151
X-120.127 Y-10.129
X-120.157 Y-10.131
X-120.276 Y-10.166
X-120.372 Y-10.247
X-120.425 Y-10.36
X-120.46 Y-10.504
X-120.477 Y-10.583
X-120.478 Y-10.617
X-120.466 Y-10.65
X-120.444 Y-10.677
X-120.414 Y-10.695
X-120.38 Y-10.701
X-120.338 Y-10.702
X-119.69 Y-10.711
X-119.656 Y-10.706
X-119.626 Y-10.689
X-119.603 Y-10.664
X-119.59 Y-10.633
X-119.582 Y-10.588
X-119.555 Y-10.457
X-119.543 Y-10.383
X-119.567 Y-10.235
X-119.651 Y-10.111
X-119.766 Y-10.014
X-119.9 Y-9.947
X-120.046 Y-9.915
X-120.085 Y-9.916
X-120.211 Y-9.946
X-120.312 Y-10.026
X-120.371 Y-10.141
X-120.399 Y-10.25
X-120.425 Y-10.36
X-120.426 Y-10.394
X-120.416 Y-10.426
X-120.396 Y-10.453
X-120.368 Y-10.472
X-120.335 Y-10.48
X-120.302 Y-10.482
X-119.66 Y-10.533
X-119.625 Y-10.53
X-119.593 Y-10.514
X-119.569 Y-10.489
X-119.555 Y-10.457
X-119.529 Y-10.335
X-119.508 Y-10.25
X-119.493 Y-10.177
X-119.518 Y-10.029
X-119.601 Y-9.904
X-119.715 Y-9.806
X-119.847 Y-9.736
X-119.994 Y-9.703
X-120.019 Y-9.704
X-120.136 Y-9.729
X-120.233 Y-9.796
X-120.296 Y-9.897
X-120.334 Y-9.997
X-120.371 Y-10.141
X-120.372 Y-10.175
X-120.362 Y-10.207
X-120.342 Y-10.234
X-120.315 Y-10.253
X-120.282 Y-10.262
X-120.258 Y-10.264
X-119.613 Y-10.322
X-119.579 Y-10.319
X-119.547 Y-10.305
X-119.523 Y-10.281
X-119.508 Y-10.25
X-119.453 Y-10.035
X-119.437 Y-9.962
X-119.468 Y-9.815
X-119.552 Y-9.691
X-119.666 Y-9.593
X-119.799 Y-9.524
X-119.946 Y-9.492
X-120.061 Y-9.519
X-120.154 Y-9.587
X-120.216 Y-9.685
X-120.296 Y-9.897
X-120.302 Y-9.932
X-120.294 Y-9.967
X-120.275 Y-9.997
X-120.247 Y-10.018
X-120.213 Y-10.029
X-120.202 Y-10.03
X-119.56 Y-10.105
X-119.525 Y-10.103
X-119.494 Y-10.09
X-119.468 Y-10.066
X-119.453 Y-10.035
X-119.396 Y-9.828
X-119.379 Y-9.755
X-119.411 Y-9.609
X-119.494 Y-9.484
X-119.607 Y-9.385
X-119.739 Y-9.315
X-119.795 Y-9.303
X-119.93 Y-9.307
X-120.05 Y-9.369
X-120.131 Y-9.478
X-120.183 Y-9.601
X-120.216 Y-9.685
X-120.221 Y-9.72
X-120.214 Y-9.755
X-120.195 Y-9.785
X-120.167 Y-9.806
X-120.134 Y-9.817
X-119.504 Y-9.896
X-119.47 Y-9.895
X-119.438 Y-9.882
X-119.413 Y-9.858
X-119.396 Y-9.828
X-119.372 Y-9.744
X-119.338 Y-9.659
X-119.31 Y-9.59
X-119.326 Y-9.44
X-119.399 Y-9.309
X-119.504 Y-9.202
X-119.634 Y-9.129
X-119.688 Y-9.114
X-119.826 Y-9.11
X-119.951 Y-9.167
X-120.038 Y-9.275
X-120.099 Y-9.406
X-120.131 Y-9.478
X-120.138 Y-9.513
X-120.132 Y-9.548
X-120.114 Y-9.579
X-120.087 Y-9.601
X-120.054 Y-9.613
X-119.444 Y-9.713
X-119.412
X-119.382 Y-9.703
X-119.357 Y-9.685
X-119.338 Y-9.659
X-119.252 Y-9.49
X-119.222 Y-9.422
X-119.23 Y-9.272
X-119.295 Y-9.137
X-119.395 Y-9.025
X-119.523 Y-8.946
X-119.581 Y-8.928
X-119.72 Y-8.917
X-119.85 Y-8.97
X-119.941 Y-9.077
X-119.979 Y-9.152
X-120.038 Y-9.275
X-120.046 Y-9.309
X-120.041 Y-9.344
X-120.025 Y-9.376
X-119.999 Y-9.399
X-119.966 Y-9.413
X-119.36 Y-9.54
X-119.329 Y-9.541
X-119.298 Y-9.533
X-119.272 Y-9.515
X-119.252 Y-9.49
X-119.167 Y-9.324
X-119.137 Y-9.256
X-119.132 Y-9.106
X-119.189 Y-8.968
X-119.285 Y-8.852
X-119.409 Y-8.767
X-119.452 Y-8.751
X-119.581 Y-8.733
X-119.706 Y-8.771
X-119.803 Y-8.859
X-119.889 Y-8.984
X-119.936 Y-9.068
X-119.941 Y-9.077
X-119.95 Y-9.11
X-119.947 Y-9.145
X-119.932 Y-9.177
X-119.907 Y-9.201
X-119.876 Y-9.216
X-119.28 Y-9.372
X-119.247 Y-9.375
X-119.216 Y-9.368
X-119.188 Y-9.35
X-119.167 Y-9.324
X-119.123 Y-9.237
X-119.083 Y-9.163
X-119.047 Y-9.098
X-119.027 Y-8.949
X-119.075 Y-8.807
X-119.164 Y-8.686
X-119.285 Y-8.596
X-119.314 Y-8.584
X-119.442 Y-8.561
X-119.569 Y-8.595
X-119.668 Y-8.679
X-119.771 Y-8.815
X-119.803 Y-8.859
X-119.817 Y-8.892
X-119.818 Y-8.928
X-119.806 Y-8.963
X-119.783 Y-8.99
X-119.752 Y-9.008
X-119.197 Y-9.2
X-119.165 Y-9.205
X-119.134 Y-9.201
X-119.105 Y-9.186
X-119.083 Y-9.163
X-119.075 Y-9.152
X-119.012 Y-9.068
X-118.968 Y-9.014
X-118.923 Y-8.954
X-118.902 Y-8.805
X-118.943 Y-8.661
X-119.025 Y-8.536
X-119.14 Y-8.439
X-119.163 Y-8.428
X-119.282 Y-8.399
X-119.403 Y-8.42
X-119.505 Y-8.487
X-119.576 Y-8.561
X-119.643 Y-8.646
X-119.668 Y-8.679
X-119.684 Y-8.712
X-119.686 Y-8.748
X-119.676 Y-8.783
X-119.654 Y-8.811
X-119.623 Y-8.83
X-119.079 Y-9.041
X-119.049 Y-9.048
X-119.019 Y-9.045
X-118.991 Y-9.034
X-118.968 Y-9.014
X-118.849 Y-8.871
X-118.803 Y-8.811
X-118.773 Y-8.664
X-118.807 Y-8.518
X-118.882 Y-8.389
X-118.993 Y-8.288
X-119.005 Y-8.282
X-119.126 Y-8.249
X-119.25 Y-8.268
X-119.355 Y-8.337
X-119.374 Y-8.368
X-119.381 Y-8.404
X-119.375 Y-8.44
X-119.356 Y-8.472
X-118.997 Y-8.87
X-118.971 Y-8.891
X-118.939 Y-8.902
X-118.906
X-118.875 Y-8.891
X-118.849 Y-8.871
X-118.73 Y-8.73
X-118.684 Y-8.67
X-118.642 Y-8.527
X-118.668 Y-8.379
X-118.737 Y-8.246
X-118.783 Y-8.203
X-118.905 Y-8.131
X-119.047 Y-8.124
X-119.176 Y-8.183
X-119.2 Y-8.212
X-119.211 Y-8.248
X-119.208 Y-8.286
X-119.191 Y-8.32
X-118.883 Y-8.724
X-118.857 Y-8.747
X-118.825 Y-8.761
X-118.79 Y-8.762
X-118.757 Y-8.751
X-118.73 Y-8.73
X-118.699 Y-8.694
X-118.68 Y-8.675
X-118.644 Y-8.646
X-118.627 Y-8.634
X-118.565 Y-8.591
X-118.497 Y-8.457
X-118.5 Y-8.307
X-118.553 Y-8.167
X-118.646 Y-8.05
X-118.66 Y-8.04
X-118.774 Y-7.995
X-118.896 Y-7.999
X-119.006 Y-8.05
X-119.227 Y-8.223
X-119.252 Y-8.243
X-119.326 Y-8.308
X-119.505 Y-8.487
X-119.525 Y-8.52
X-119.531 Y-8.558
X-119.523 Y-8.596
X-119.501 Y-8.628
X-119.468 Y-8.649
X-119.43 Y-8.656
X-119.411 Y-8.655
X-118.669 Y-8.644
X-118.647 Y-8.641
X-118.627 Y-8.634
X-118.491 Y-8.561
X-118.426 Y-8.523
X-118.341 Y-8.399
X-118.326 Y-8.25
X-118.362 Y-8.104
X-118.435 Y-7.973
X-118.442 Y-7.967
X-118.544 Y-7.904
X-118.663 Y-7.887
X-118.779 Y-7.918
X-118.914 Y-7.985
X-119.006 Y-8.05
X-119.029 Y-8.077
X-119.042 Y-8.11
Y-8.145
X-119.03 Y-8.178
X-119.008 Y-8.205
X-118.599 Y-8.548
X-118.565 Y-8.566
X-118.527 Y-8.571
X-118.491 Y-8.561
X-118.33 Y-8.477
X-118.264 Y-8.44
X-118.174 Y-8.32
X-118.151 Y-8.172
X-118.174 Y-8.023
X-118.202 Y-7.97
X-118.301 Y-7.859
X-118.441 Y-7.809
X-118.587 Y-7.832
X-118.711 Y-7.885
X-118.744 Y-7.901
X-118.779 Y-7.918
X-118.807 Y-7.94
X-118.826 Y-7.972
X-118.831 Y-8.008
X-118.824 Y-8.044
X-118.804 Y-8.074
X-118.444 Y-8.455
X-118.419 Y-8.473
X-118.39 Y-8.484
X-118.359 Y-8.485
X-118.33 Y-8.477
X-118.237 Y-8.43
X-118.158 Y-8.392
X-118.092 Y-8.357
X-118.001 Y-8.238
X-117.971 Y-8.09
X-117.999 Y-7.943
X-118.02 Y-7.901
X-118.113 Y-7.79
X-118.247 Y-7.736
X-118.391 Y-7.751
X-118.491 Y-7.79
X-118.587 Y-7.832
X-118.617 Y-7.854
X-118.637 Y-7.885
X-118.645 Y-7.922
X-118.638 Y-7.959
X-118.618 Y-7.99
X-118.271 Y-8.368
X-118.247 Y-8.387
X-118.218 Y-8.398
X-118.188 Y-8.4
X-118.158 Y-8.392
X-118.099 Y-8.364
X-118.089 Y-8.36
X-118.021 Y-8.344
X-117.949 Y-8.322
X-117.839 Y-8.221
X-117.793 Y-8.078
X-117.799 Y-7.928
X-117.85 Y-7.787
X-117.852 Y-7.784
X-117.932 Y-7.715
X-118.031 Y-7.677
X-118.136 Y-7.676
X-118.237 Y-7.696
X-118.391 Y-7.751
X-118.422 Y-7.771
X-118.444 Y-7.801
X-118.453 Y-7.836
X-118.449 Y-7.873
X-118.433 Y-7.905
X-118.121 Y-8.307
X-118.093 Y-8.332
X-118.058 Y-8.344
X-118.021
X-117.842 Y-8.299
X-117.77 Y-8.278
X-117.658 Y-8.178
X-117.606 Y-8.038
X-117.601 Y-7.888
X-117.612 Y-7.854
X-117.685 Y-7.731
X-117.806 Y-7.655
X-117.949 Y-7.645
X-118.136 Y-7.676
X-118.171 Y-7.691
X-118.198 Y-7.717
X-118.214 Y-7.752
X-118.215 Y-7.79
X-118.202 Y-7.825
X-117.948 Y-8.253
X-117.928 Y-8.276
X-117.902 Y-8.293
X-117.873 Y-8.301
X-117.842 Y-8.299
X-117.729 Y-8.274
X-117.683 Y-8.264
X-117.61 Y-8.244
X-117.486 Y-8.159
X-117.42 Y-8.025
X-117.411 Y-7.875
X-117.418 Y-7.848
X-117.481 Y-7.725
X-117.593 Y-7.643
X-117.73 Y-7.62
X-117.766 Y-7.631
X-117.795 Y-7.654
X-117.814 Y-7.687
X-117.819 Y-7.724
X-117.801 Y-8.169
X-117.794 Y-8.203
X-117.776 Y-8.232
X-117.749 Y-8.253
X-117.717 Y-8.264
X-117.683
X-117.56 Y-8.237
X-117.495 Y-8.223
X-117.422 Y-8.206
X-117.359 Y-8.165
X-117.264 Y-8.049
X-117.227 Y-7.904
X-117.23 Y-7.876
X-117.28 Y-7.742
X-117.385 Y-7.646
X-117.524 Y-7.61
X-117.562 Y-7.618
X-117.594 Y-7.641
X-117.615 Y-7.674
X-117.622 Y-7.713
X-117.609 Y-8.127
X-117.603 Y-8.16
X-117.586 Y-8.189
X-117.56 Y-8.211
X-117.529 Y-8.222
X-117.495 Y-8.223
X-117.475 Y-8.22
X-117.391 Y-8.216
X-117.344 Y-8.219
X-117.307 Y-8.22
X-117.236 Y-8.194
X-117.118 Y-8.101
X-117.054 Y-7.966
X-117.052 Y-7.926
X-117.07 Y-7.808
X-117.133 Y-7.707
X-117.231 Y-7.638
X-117.347 Y-7.612
X-117.56 Y-7.609
X-117.814 Y-7.626
X-117.875 Y-7.632
X-117.949 Y-7.645
X-117.985 Y-7.66
X-118.013 Y-7.688
X-118.027 Y-7.724
Y-7.764
X-118.011 Y-7.8
X-117.982 Y-7.827
X-117.388 Y-8.204
X-117.367 Y-8.214
X-117.344 Y-8.219
X-117.283 Y-8.223
X-117.222 Y-8.23
X-117.147 Y-8.235
X-117.076 Y-8.211
X-117.013 Y-8.17
X-116.91 Y-8.061
X-116.867 Y-7.917
X-116.869 Y-7.895
X-116.914 Y-7.762
X-117.014 Y-7.664
X-117.147 Y-7.622
X-117.222 Y-7.617
X-117.306 Y-7.613
X-117.347 Y-7.612
X-117.384 Y-7.62
X-117.415 Y-7.64
X-117.436 Y-7.671
X-117.445 Y-7.707
X-117.44 Y-7.744
X-117.302 Y-8.163
X-117.284 Y-8.195
X-117.256 Y-8.218
X-117.222 Y-8.23
X-117.052 Y-8.249
X-116.978 Y-8.258
X-116.906 Y-8.236
X-116.781 Y-8.153
X-116.702 Y-8.025
X-116.681 Y-7.877
X-116.731 Y-7.764
X-116.819 Y-7.682
X-116.933 Y-7.641
X-116.968 Y-7.636
X-117.007 Y-7.632
X-117.147 Y-7.622
X-117.184 Y-7.628
X-117.216 Y-7.647
X-117.239 Y-7.676
X-117.25 Y-7.712
X-117.247 Y-7.75
X-117.125 Y-8.18
X-117.109 Y-8.211
X-117.084 Y-8.235
X-117.052 Y-8.249
X-116.968 Y-8.267
X-116.921 Y-8.28
X-116.848 Y-8.296
X-116.774 Y-8.286
X-116.637 Y-8.225
X-116.542 Y-8.108
X-116.492 Y-7.967
Y-7.957
X-116.527 Y-7.824
X-116.618 Y-7.721
X-116.745 Y-7.669
X-116.779 Y-7.671
X-116.811 Y-7.684
X-116.836 Y-7.707
X-116.852 Y-7.737
X-116.987 Y-8.154
X-116.991 Y-8.193
X-116.98 Y-8.23
X-116.956 Y-8.261
X-116.921 Y-8.28
X-116.752 Y-8.327
X-116.714 Y-8.338
X-116.678 Y-8.347
X-116.529 Y-8.323
X-116.411 Y-8.232
X-116.328 Y-8.106
X-116.319 Y-8.057
Y-7.94
X-116.364 Y-7.832
X-116.447 Y-7.75
X-116.555 Y-7.705
X-116.592 Y-7.706
X-116.626 Y-7.72
X-116.653 Y-7.746
X-116.668 Y-7.779
X-116.778 Y-8.219
X-116.78 Y-8.256
X-116.769 Y-8.291
X-116.746 Y-8.319
X-116.714 Y-8.338
X-116.629 Y-8.364
X-116.595 Y-8.379
X-116.525 Y-8.407
X-116.375 Y-8.4
X-116.248 Y-8.321
X-116.161 Y-8.199
X-116.116 Y-8.056
Y-8.043
X-116.14 Y-7.93
X-116.205 Y-7.835
X-116.302 Y-7.771
X-116.376 Y-7.741
X-116.714 Y-7.674
X-116.799 Y-7.66
X-116.933 Y-7.641
X-116.971 Y-7.645
X-117.005 Y-7.662
X-117.03 Y-7.69
X-117.043 Y-7.726
X-117.041 Y-7.764
X-117.025 Y-7.799
X-116.632 Y-8.348
X-116.615 Y-8.366
X-116.595 Y-8.379
X-116.567 Y-8.392
X-116.545 Y-8.405
X-116.46 Y-8.461
X-116.429 Y-8.482
X-116.355 Y-8.496
X-116.206 Y-8.486
X-116.078 Y-8.408
X-115.982 Y-8.292
X-115.961 Y-8.239
X-115.94 Y-8.127
X-115.961 Y-8.016
X-116.023 Y-7.92
X-116.115 Y-7.854
X-116.151 Y-7.847
X-116.186 Y-7.852
X-116.218 Y-7.87
X-116.241 Y-7.898
X-116.486 Y-8.333
X-116.498 Y-8.367
X-116.497 Y-8.402
X-116.484 Y-8.435
X-116.46 Y-8.461
X-116.346 Y-8.544
X-116.283 Y-8.585
X-116.136 Y-8.613
X-115.994 Y-8.566
X-115.874 Y-8.476
X-115.788 Y-8.353
X-115.771 Y-8.301
X-115.762 Y-8.16
X-115.818 Y-8.031
X-115.927 Y-7.941
X-115.959 Y-7.933
X-115.993 Y-7.936
X-116.024 Y-7.95
X-116.048 Y-7.973
X-116.365 Y-8.406
X-116.382 Y-8.44
X-116.384 Y-8.479
X-116.371 Y-8.515
X-116.346 Y-8.544
X-116.291 Y-8.584
X-116.21 Y-8.646
X-116.206 Y-8.649
X-116.151 Y-8.7
X-116.006 Y-8.737
X-115.86 Y-8.702
X-115.734 Y-8.621
X-115.636 Y-8.507
X-115.573 Y-8.371
X-115.572 Y-8.367
X-115.578 Y-8.253
X-115.626 Y-8.149
X-115.708 Y-8.071
X-115.741 Y-8.059
X-115.775 Y-8.058
X-115.807 Y-8.07
X-115.834 Y-8.091
X-116.207 Y-8.516
X-116.226 Y-8.547
X-116.232 Y-8.583
X-116.225 Y-8.618
X-116.206 Y-8.649
X-116.099 Y-8.76
X-116.071 Y-8.79
X-116.044 Y-8.816
X-115.905 Y-8.872
X-115.756 Y-8.854
X-115.621 Y-8.788
X-115.508 Y-8.689
X-115.42 Y-8.568
X-115.409 Y-8.535
X-115.394 Y-8.403
X-115.438 Y-8.278
X-115.531 Y-8.183
X-115.563 Y-8.171
X-115.597
X-115.629 Y-8.181
X-115.656 Y-8.202
X-116.07 Y-8.657
X-116.089 Y-8.687
X-116.096 Y-8.723
X-116.09 Y-8.759
X-116.071 Y-8.79
X-115.968 Y-8.899
X-115.914 Y-8.951
X-115.777 Y-9.012
X-115.628 Y-9
X-115.489 Y-8.944
X-115.367 Y-8.856
X-115.27 Y-8.742
X-115.26 Y-8.72
X-115.232 Y-8.607
X-115.249 Y-8.492
X-115.308 Y-8.392
X-115.384 Y-8.308
X-115.445 Y-8.241
X-115.468 Y-8.223
X-115.868 Y-7.97
X-115.953 Y-7.929
X-116.234 Y-7.801
X-116.302 Y-7.771
X-116.34 Y-7.765
X-116.378 Y-7.774
X-116.41 Y-7.797
X-116.43 Y-7.83
X-116.436 Y-7.869
X-116.427 Y-7.907
X-116.298 Y-8.186
X-115.968 Y-8.899
X-115.953 Y-8.916
X-115.927 Y-8.95
X-115.885 Y-9.019
X-115.844 Y-9.082
X-115.717 Y-9.162
X-115.568 Y-9.173
X-115.422 Y-9.139
X-115.289 Y-9.07
X-115.173 Y-8.974
X-115.143 Y-8.933
X-115.094 Y-8.822
X-115.093 Y-8.701
X-115.14 Y-8.59
X-115.166 Y-8.565
X-115.199 Y-8.551
X-115.235 Y-8.55
X-115.269 Y-8.561
X-115.297 Y-8.577
X-115.846 Y-8.884
X-115.876 Y-8.909
X-115.894 Y-8.943
X-115.897 Y-8.982
X-115.885 Y-9.019
X-115.856 Y-9.068
X-115.809 Y-9.152
X-115.795 Y-9.182
X-115.783 Y-9.206
X-115.773 Y-9.222
X-115.735 Y-9.256
X-115.7 Y-9.271
X-115.661 Y-9.272
X-115.626 Y-9.257
X-115.599 Y-9.229
X-115.586 Y-9.193
X-115.587 Y-9.155
X-115.604 Y-9.12
X-115.632 Y-9.095
X-115.644 Y-9.088
X-115.678 Y-9.076
X-115.714 Y-9.078
X-115.747 Y-9.093
X-115.772 Y-9.119
X-115.786 Y-9.152
Y-9.188
X-115.773 Y-9.222
X-115.758 Y-9.237
X-115.743 Y-9.25
X-115.728 Y-9.261
X-115.714 Y-9.269
X-115.699 Y-9.273
X-115.688 Y-9.275
X-115.656 Y-9.276
X-115.445
X-115.295 Y-9.268
X-115.154 Y-9.218
X-115.035 Y-9.127
X-115.028 Y-9.118
X-114.975 Y-9.006
X-114.972 Y-8.881
X-115.019 Y-8.767
X-115.044 Y-8.743
X-115.075 Y-8.729
X-115.11 Y-8.726
X-115.143 Y-8.736
X-115.171 Y-8.756
X-115.513 Y-9.106
X-115.534 Y-9.138
X-115.541 Y-9.176
X-115.534 Y-9.213
X-115.514 Y-9.245
X-115.482 Y-9.267
X-115.445 Y-9.276
X-115.107
X-115.06
X-115.022
X-114.994 Y-9.274
X-114.907 Y-9.171
X-114.881 Y-9.037
X-114.924 Y-8.908
X-114.954 Y-8.877
X-114.992 Y-8.855
X-115.034 Y-8.845
X-115.077 Y-8.848
X-115.118 Y-8.862
G3 X-115.022 Y-9.276 I0.104 J-0.194
G1 X-114.937
X-114.919 Y-9.273
X-114.9 Y-9.266
X-114.881 Y-9.254
X-114.853 Y-9.227
X-114.839 Y-9.209
X-114.832 Y-9.19
X-114.828 Y-9.171
Y-9.152
X-114.829 Y-9.142
X-114.831 Y-9.132
X-114.882 Y-8.984
X-114.89 Y-8.962
X-114.902 Y-8.941
X-114.986 Y-8.815
X-115.159 Y-8.561
X-115.191 Y-8.523
X-115.308 Y-8.392
X-115.331 Y-8.375
X-115.357 Y-8.364
X-115.38 Y-8.362 Z-0.987
X-115.408 Y-8.373 Z-0.974
X-115.43 Y-8.382 Z-0.951
X-115.445 Y-8.388 Z-0.922
X-115.45 Y-8.39 Z-0.89
G0 Z2
X-109.254 Y-9.296
Z0.5
G3 X-108.77 Y-9.42 Z0.29 I0.242 J-0.062 F333.3
X-109.254 Y-9.296 Z0.079 I-0.242 J0.062
X-108.77 Y-9.42 Z-0.131 I0.242 J-0.062
X-109.254 Y-9.296 Z-0.342 I-0.242 J0.062
X-108.77 Y-9.42 Z-0.552 I0.242 J-0.062
X-109.254 Y-9.296 Z-0.763 I-0.242 J0.062
X-109.044 Y-9.606 Z-0.876 I0.242 J-0.062
X-108.762 Y-9.358 Z-0.99 I0.031 J0.248
X-109.262 I-0.25
X-108.762 I0.25
G1 X-108.725 Y-9.213 F1000
X-108.738 Y-9.139
X-108.775 Y-9.074
X-108.882 Y-8.968
X-109.026 Y-8.929
X-109.175 Y-8.95
X-109.305 Y-9.024
X-109.402 Y-9.139
X-109.454 Y-9.279
X-109.456 Y-9.429
X-109.409 Y-9.571
X-109.317 Y-9.69
X-109.191 Y-9.772
X-109.045 Y-9.808
X-108.896 Y-9.794
X-108.759 Y-9.731
X-108.651 Y-9.628
X-108.573 Y-9.5
X-108.523 Y-9.359
X-108.512 Y-9.209
X-108.547 Y-9.063
X-108.618 Y-8.931
X-108.726 Y-8.827
X-108.857 Y-8.754
X-109.003 Y-8.721
X-109.153 Y-8.728
X-109.297 Y-8.769
X-109.427 Y-8.845
X-109.533 Y-8.95
X-109.615 Y-9.076
X-109.665 Y-9.217
X-109.68 Y-9.366
X-109.663 Y-9.516
X-109.613 Y-9.657
X-109.53 Y-9.782
X-109.424 Y-9.888
X-109.296 Y-9.967
X-109.153 Y-10.013
X-109.004 Y-10.029
X-108.855 Y-10.011
X-108.715 Y-9.959
X-108.588 Y-9.879
X-108.479 Y-9.775
X-108.392 Y-9.653
X-108.329 Y-9.517
X-108.291 Y-9.372
X-108.283 Y-9.222
X-108.305 Y-9.074
X-108.354 Y-8.932
X-108.43 Y-8.803
X-108.531 Y-8.692
X-108.652 Y-8.603
X-108.787 Y-8.537
X-108.932 Y-8.499
X-109.082 Y-8.49
X-109.231 Y-8.507
X-109.26 Y-8.515
X-109.317 Y-8.539
X-109.368 Y-8.574
X-109.411 Y-8.618
X-109.438 Y-8.653
X-109.509 Y-8.73
X-109.607 Y-8.821
X-109.654 Y-8.861
X-109.763 Y-8.964
X-109.841 Y-9.092
X-109.887 Y-9.235
X-109.904 Y-9.384
X-109.894 Y-9.533
X-109.855 Y-9.678
X-109.812 Y-9.77
X-109.766 Y-9.84
X-109.703 Y-9.894
X-109.627 Y-9.929
X-109.591 Y-9.932
X-109.556 Y-9.922
X-109.528 Y-9.9
X-109.508 Y-9.869
X-109.502 Y-9.834
X-109.498 Y-9.5
X-109.492 Y-8.94
X-109.498 Y-8.903
X-109.518 Y-8.872
X-109.548 Y-8.849
X-109.584 Y-8.839
X-109.621 Y-8.843
X-109.654 Y-8.861
X-109.699 Y-8.899
X-109.777 Y-8.96
X-109.899 Y-9.046
X-110.017 Y-9.139
X-110.084 Y-9.273
X-110.114 Y-9.42
X-110.113 Y-9.57
X-110.096 Y-9.658
X-110.041 Y-9.781
X-109.937 Y-9.867
X-109.807 Y-9.899
X-109.775 Y-9.894
X-109.747 Y-9.878
X-109.725 Y-9.855
X-109.712 Y-9.826
X-109.709 Y-9.794
X-109.714 Y-9.699
X-109.744 Y-9.125
X-109.752 Y-9.091
X-109.771 Y-9.062
X-109.799 Y-9.041
X-109.832 Y-9.031
X-109.867 Y-9.033
X-109.899 Y-9.046
X-109.946 Y-9.079
X-110.055 Y-9.152
X-110.088 Y-9.171
X-110.214 Y-9.252
X-110.288 Y-9.383
X-110.319 Y-9.529
X-110.31 Y-9.679
X-110.303 Y-9.699
X-110.239 Y-9.803
X-110.14 Y-9.874
X-110.02 Y-9.898
X-109.982 Y-9.89
X-109.951 Y-9.867
X-109.93 Y-9.834
X-109.924 Y-9.795
X-109.942 Y-9.257
X-109.948 Y-9.224
X-109.966 Y-9.195
X-109.991 Y-9.173
X-110.023 Y-9.162
X-110.056 Y-9.161
X-110.088 Y-9.171
X-110.115 Y-9.187
X-110.2 Y-9.225
X-110.284 Y-9.261
X-110.353 Y-9.29
X-110.458 Y-9.398
X-110.51 Y-9.538
X-110.508 Y-9.689
X-110.446 Y-9.798
X-110.345 Y-9.872
X-110.222 Y-9.898
X-110.184 Y-9.889
X-110.152 Y-9.866
X-110.131 Y-9.832
X-110.126 Y-9.792
X-110.153 Y-9.349
X-110.162 Y-9.314
X-110.183 Y-9.284
X-110.213 Y-9.264
X-110.248 Y-9.256
X-110.284 Y-9.261
X-110.5 Y-9.341
X-110.569 Y-9.371
X-110.661 Y-9.489
X-110.699 Y-9.634
X-110.698 Y-9.641
X-110.645 Y-9.772
X-110.538 Y-9.865
X-110.401 Y-9.898
X-110.367 Y-9.892
X-110.338 Y-9.874
X-110.317 Y-9.847
X-110.306 Y-9.815
Y-9.781
X-110.37 Y-9.419
X-110.382 Y-9.386
X-110.403 Y-9.36
X-110.433 Y-9.343
X-110.466 Y-9.336
X-110.5 Y-9.341
X-110.538 Y-9.355
X-110.623 Y-9.381
X-110.669 Y-9.394
X-110.74 Y-9.418
X-110.791 Y-9.473
X-110.858 Y-9.608
X-110.833 Y-9.719
X-110.768 Y-9.814
X-110.672 Y-9.876
X-110.56 Y-9.898
X-110.525 Y-9.891
X-110.495 Y-9.871
X-110.473 Y-9.843
X-110.464 Y-9.808
X-110.467 Y-9.773
X-110.549 Y-9.465
X-110.566 Y-9.431
X-110.595 Y-9.405
X-110.631 Y-9.392
X-110.669 Y-9.394
X-110.792 Y-9.429
X-110.838 Y-9.438
X-110.875 Y-9.448
X-110.933 Y-9.495
X-110.966 Y-9.631
X-110.927 Y-9.765
X-110.827 Y-9.863
X-110.692 Y-9.898
X-110.653 Y-9.889
X-110.622 Y-9.866
X-110.601 Y-9.832
X-110.595 Y-9.793
X-110.605 Y-9.755
X-110.732 Y-9.493
X-110.75 Y-9.467
X-110.776 Y-9.448
X-110.806 Y-9.438
X-110.838
X-110.877 Y-9.446
X-110.923 Y-9.453
X-110.96 Y-9.46
X-111.024 Y-9.5
X-111.066 Y-9.561
X-111.075 Y-9.681
X-111.029 Y-9.792
X-110.937 Y-9.87
X-110.82 Y-9.898
X-110.784 Y-9.89
X-110.753 Y-9.869
X-110.732 Y-9.838
X-110.724 Y-9.802
X-110.73 Y-9.765
X-110.817 Y-9.519
X-110.834 Y-9.49
X-110.859 Y-9.467
X-110.89 Y-9.455
X-110.923 Y-9.453
X-111.046 Y-9.472
X-111.083 Y-9.479
X-111.143 Y-9.523
X-111.184 Y-9.586
X-111.187 Y-9.699
X-111.14 Y-9.802
X-111.052 Y-9.873
X-110.942 Y-9.898
X-110.905 Y-9.89
X-110.874 Y-9.868
X-110.853 Y-9.837
X-110.846 Y-9.799
X-110.853 Y-9.762
X-110.942 Y-9.534
X-110.959 Y-9.507
X-110.983 Y-9.485
X-111.013 Y-9.473
X-111.046 Y-9.472
X-111.16 Y-9.487
X-111.197 Y-9.494
X-111.257 Y-9.538
X-111.298 Y-9.601
X-111.299 Y-9.709
X-111.252 Y-9.807
X-111.168 Y-9.874
X-111.063 Y-9.898
X-111.026 Y-9.89
X-110.995 Y-9.868
X-110.974 Y-9.836
X-110.967 Y-9.799
X-110.974 Y-9.762
X-111.058 Y-9.55
X-111.074 Y-9.522
X-111.098 Y-9.502
X-111.128 Y-9.489
X-111.16 Y-9.487
X-111.261 Y-9.5
X-111.298 Y-9.507
X-111.364 Y-9.543
X-111.406 Y-9.605
X-111.409 Y-9.711
X-111.365 Y-9.807
X-111.283 Y-9.875
X-111.179 Y-9.898
X-111.143 Y-9.89
X-111.112 Y-9.869
X-111.091 Y-9.839
X-111.083 Y-9.802
X-111.088 Y-9.765
X-111.158 Y-9.567
X-111.174 Y-9.538
X-111.198 Y-9.516
X-111.229 Y-9.503
X-111.261 Y-9.5
X-111.384 Y-9.515
X-111.421 Y-9.522
X-111.481 Y-9.567
X-111.519 Y-9.631
X-111.517 Y-9.729
X-111.474 Y-9.817
X-111.397 Y-9.877
X-111.301 Y-9.898
X-111.272 Y-9.893
X-111.246 Y-9.879
G3 X-111.384 Y-9.515 I-0.122 J0.162
G1 X-111.515 Y-9.53
X-111.552 Y-9.536
X-111.605 Y-9.589
X-111.625 Y-9.695
X-111.591 Y-9.798
X-111.512 Y-9.872
X-111.407 Y-9.898
X-111.38 Y-9.893
X-111.356 Y-9.881
X-111.336 Y-9.861
G3 X-111.515 Y-9.53 I-0.165 J0.125
G1 X-111.553 Y-9.534
X-111.6 Y-9.538
X-111.638 Y-9.541
X-111.657 Y-9.544
X-111.681 Y-9.554
X-111.701 Y-9.575
X-111.71 Y-9.603
X-111.705 Y-9.632
X-111.687 Y-9.655
X-111.661 Y-9.668
X-111.632
X-111.606 Y-9.655
X-111.589 Y-9.632
X-111.584 Y-9.603
X-111.593 Y-9.575
X-111.613 Y-9.554
X-111.634 Y-9.545
X-111.657 Y-9.544
X-111.675 Y-9.55
X-111.694 Y-9.562
X-111.713 Y-9.575
X-111.723 Y-9.584
X-111.739 Y-9.609
X-111.744 Y-9.639
X-111.735 Y-9.669
X-111.713 Y-9.691
X-111.684 Y-9.701
X-111.654 Y-9.697
X-111.628 Y-9.68
X-111.613 Y-9.654
X-111.611 Y-9.623
X-111.623 Y-9.594
X-111.646 Y-9.574
X-111.676 Y-9.567
X-111.701 Y-9.571
X-111.723 Y-9.584
X-111.737 Y-9.603
X-111.745 Y-9.621
X-111.749 Y-9.64
X-111.75 Y-9.659
Y-9.706
Y-9.744
X-111.747 Y-9.809
X-111.727 Y-9.843
X-111.696 Y-9.867
X-111.658 Y-9.877
X-111.619 Y-9.872
X-111.586 Y-9.852
X-111.562 Y-9.821
X-111.552 Y-9.783
X-111.55 Y-9.753
X-111.555 Y-9.714
X-111.575 Y-9.68
X-111.607 Y-9.657
X-111.645 Y-9.647
X-111.684 Y-9.653
X-111.718 Y-9.674
X-111.741 Y-9.705
X-111.75 Y-9.744
Y-9.786
X-111.749 Y-9.796
X-111.747 Y-9.807
X-111.744 Y-9.818
X-111.74 Y-9.828
X-111.732 Y-9.84
X-111.723 Y-9.853
X-111.691 Y-9.88
X-111.68 Y-9.886
X-111.67 Y-9.891
X-111.659 Y-9.895
X-111.648 Y-9.897
X-111.638 Y-9.898
X-109.861
X-109.777 Y-9.9
X-109.734 Y-9.904
X-109.692 Y-9.91
X-109.607 Y-9.935
X-109.523 Y-9.975
X-109.49 Y-9.997
X-109.438 Y-10.037
X-109.413 Y-10.061
X-109.302 Y-10.161
X-109.164 Y-10.221
X-109.016 Y-10.248
X-108.867 Y-10.243
X-108.72 Y-10.209
X-108.582 Y-10.152
X-108.454 Y-10.074
X-108.339 Y-9.977
X-108.285 Y-9.914
X-108.246 Y-9.855
X-108.222 Y-9.789
X-108.214 Y-9.719
Y-8.984
X-108.221 Y-8.834
X-108.27 Y-8.692
X-108.353 Y-8.567
X-108.459 Y-8.461
X-108.583 Y-8.376
X-108.718 Y-8.312
X-108.862 Y-8.27
X-108.958 Y-8.257
X-109.069 Y-8.262
X-109.17 Y-8.308
X-109.247 Y-8.386
X-109.261 Y-8.423
X-109.26 Y-8.461
X-109.244 Y-8.497
X-109.216 Y-8.524
X-108.852 Y-8.755
X-108.367 Y-9.064
X-108.335 Y-9.078
X-108.3 Y-9.079
X-108.267 Y-9.069
X-108.239 Y-9.047
X-108.221 Y-9.018
X-108.214 Y-8.984
Y-8.646
X-108.221 Y-8.496
X-108.289 Y-8.362
X-108.39 Y-8.251
X-108.509 Y-8.16
X-108.642 Y-8.091
X-108.785 Y-8.044
X-108.83 Y-8.038
X-108.956 Y-8.047
X-109.067 Y-8.107
X-109.143 Y-8.207
X-109.151 Y-8.243
X-109.146 Y-8.28
X-109.127 Y-8.312
X-109.098 Y-8.335
X-108.874 Y-8.455
X-108.361 Y-8.73
X-108.329 Y-8.741
X-108.295 Y-8.74
X-108.264 Y-8.729
X-108.238 Y-8.707
X-108.22 Y-8.679
X-108.214 Y-8.646
Y-8.346
X-108.217 Y-8.271
X-108.271 Y-8.131
X-108.366 Y-8.015
X-108.485 Y-7.923
X-108.619 Y-7.856
X-108.764 Y-7.819
X-108.776 Y-7.82
X-108.889 Y-7.843
X-108.985 Y-7.907
X-109.05 Y-8.003
X-109.056 Y-8.04
X-109.049 Y-8.076
X-109.029 Y-8.107
X-108.999 Y-8.129
X-108.888 Y-8.182
X-108.356 Y-8.433
X-108.318 Y-8.442
X-108.279 Y-8.436
X-108.246 Y-8.416
X-108.223 Y-8.384
X-108.214 Y-8.346
Y-8.092
Y-8.054
Y-8.008
X-108.215 Y-7.97
X-108.289 Y-7.84
X-108.342 Y-7.788
X-108.404 Y-7.742
X-108.475 Y-7.713
X-108.552 Y-7.703
X-108.591 Y-7.712
X-108.623 Y-7.735
X-108.643 Y-7.769
X-108.648 Y-7.809
X-108.638 Y-7.847
X-108.614 Y-7.878
X-108.379 Y-8.08
X-108.346 Y-8.099
X-108.31 Y-8.104
X-108.273 Y-8.096
X-108.243 Y-8.075
X-108.222 Y-8.044
X-108.214 Y-8.008
Y-7.885
Y-7.839
X-108.215 Y-7.801
X-108.219 Y-7.785
X-108.227 Y-7.768
X-108.238 Y-7.752
X-108.266 Y-7.725
X-108.278 Y-7.717
X-108.293 Y-7.709
X-108.308 Y-7.705
X-108.323 Y-7.703
X-108.862
X-108.877 Y-7.705
X-108.893 Y-7.709
X-108.909 Y-7.717
X-108.92 Y-7.724
X-108.949 Y-7.75
X-108.962 Y-7.767
X-108.97 Y-7.784
X-109.015 Y-7.915
X-109.036 Y-7.97
X-109.071 Y-8.054
X-109.151 Y-8.223
X-109.184 Y-8.292
X-109.308 Y-8.477
X-109.354 Y-8.544
X-109.366 Y-8.561
X-109.411 Y-8.618
X-109.425 Y-8.646
X-109.43 Y-8.676
X-109.435 Y-9.283
X-109.441 Y-9.992
X-109.434 Y-10.029
X-109.413 Y-10.061
X-109.393 Y-10.082
X-109.354 Y-10.132
X-109.332 Y-10.166
X-109.309 Y-10.212
X-109.272 Y-10.278
X-109.166 Y-10.384
X-109.027 Y-10.44
X-108.878 Y-10.458
X-108.728 Y-10.446
X-108.583 Y-10.408
X-108.445 Y-10.35
X-108.361 Y-10.301
X-108.282 Y-10.234
X-108.231 Y-10.144
X-108.214 Y-10.042
Y-9.719
X-108.223 Y-9.68
X-108.246 Y-9.648
X-108.28 Y-9.628
X-108.32 Y-9.622
X-108.358 Y-9.633
X-108.696 Y-9.801
X-109.262 Y-10.082
X-109.292 Y-10.105
X-109.312 Y-10.138
X-109.317 Y-10.175
X-109.309 Y-10.212
X-109.29 Y-10.25
X-109.269 Y-10.316
X-109.265 Y-10.335
X-109.259 Y-10.381
X-109.252 Y-10.418
X-109.174 Y-10.547
X-109.047 Y-10.625
X-108.902 Y-10.665
X-108.752 Y-10.674
X-108.603 Y-10.657
X-108.458 Y-10.619
X-108.391 Y-10.589
X-108.298 Y-10.523
X-108.235 Y-10.427
X-108.214 Y-10.315
Y-10.042
X-108.222 Y-10.005
X-108.244 Y-9.974
X-108.275 Y-9.954
X-108.312 Y-9.946
X-108.35 Y-9.953
X-108.583 Y-10.043
X-109.195 Y-10.279
X-109.223 Y-10.295
X-109.244 Y-10.32
X-109.257 Y-10.349
X-109.259 Y-10.381
X-109.254 Y-10.419
X-109.252 Y-10.504
Y-10.55
X-109.25 Y-10.588
X-109.187 Y-10.724
X-109.069 Y-10.816
X-108.93 Y-10.872
X-108.782 Y-10.898
X-108.632 Y-10.899
X-108.484 Y-10.876
X-108.415 Y-10.852
X-108.31 Y-10.788
X-108.239 Y-10.688
X-108.214 Y-10.568
Y-10.315
X-108.221 Y-10.28
X-108.241 Y-10.249
X-108.27 Y-10.228
X-108.305 Y-10.219
X-108.341 Y-10.222
X-108.545 Y-10.279
X-109.179 Y-10.458
X-109.208 Y-10.471
X-109.231 Y-10.492
X-109.246 Y-10.52
X-109.252 Y-10.55
Y-10.719
X-109.248 Y-10.794
X-109.181 Y-10.928
X-109.066 Y-11.024
X-108.93 Y-11.087
X-108.784 Y-11.123
X-108.634 Y-11.133
X-108.485 Y-11.116
X-108.425 Y-11.098
X-108.315 Y-11.036
X-108.24 Y-10.934
X-108.214 Y-10.811
Y-10.568
X-108.221 Y-10.535
X-108.238 Y-10.506
X-108.265 Y-10.485
X-108.297 Y-10.473
X-108.331 Y-10.474
X-108.531 Y-10.509
X-109.17 Y-10.624
X-109.202 Y-10.636
X-109.228 Y-10.657
X-109.245 Y-10.686
X-109.252 Y-10.719
Y-10.926
X-109.248 Y-11.001
X-109.183 Y-11.136
X-109.071 Y-11.236
X-108.938 Y-11.306
X-108.794 Y-11.348
X-108.645 Y-11.366
X-108.496 Y-11.354
X-108.434 Y-11.337
X-108.319 Y-11.277
X-108.241 Y-11.174
X-108.214 Y-11.048
Y-10.811
X-108.22 Y-10.778
X-108.237 Y-10.75
X-108.263 Y-10.728
X-108.294 Y-10.716
X-108.327 Y-10.715
X-108.526 Y-10.743
X-109.166 Y-10.831
X-109.199 Y-10.841
X-109.227 Y-10.863
X-109.245 Y-10.892
X-109.252 Y-10.926
Y-11.142
X-109.248 Y-11.217
X-109.184 Y-11.352
X-109.075 Y-11.455
X-108.944 Y-11.529
X-108.802 Y-11.576
X-108.653 Y-11.597
X-108.504 Y-11.589
X-108.44 Y-11.572
X-108.323 Y-11.513
X-108.242 Y-11.41
X-108.214 Y-11.282
Y-11.048
X-108.22 Y-11.016
X-108.237 Y-10.987
X-108.261 Y-10.966
X-108.292 Y-10.954
X-108.325 Y-10.952
X-108.524 Y-10.974
X-109.163 Y-11.046
X-109.197 Y-11.056
X-109.226 Y-11.077
X-109.245 Y-11.107
X-109.252 Y-11.142
Y-11.349
X-109.248 Y-11.423
X-109.192 Y-11.563
X-109.088 Y-11.67
X-108.96 Y-11.749
X-108.82 Y-11.801
X-108.672 Y-11.827
X-108.522 Y-11.824
X-108.376 Y-11.791
X-108.289 Y-11.723
X-108.233 Y-11.631
X-108.214 Y-11.525
Y-11.282
X-108.22 Y-11.25
X-108.236 Y-11.222
X-108.26 Y-11.201
X-108.289 Y-11.188
X-108.321 Y-11.186
X-108.523 Y-11.202
X-109.16 Y-11.252
X-109.195 Y-11.262
X-109.225 Y-11.283
X-109.244 Y-11.313
X-109.252 Y-11.349
Y-11.564
X-109.248 Y-11.639
X-109.198 Y-11.78
X-109.097 Y-11.891
X-108.971 Y-11.973
X-108.832 Y-12.027
X-108.684 Y-12.057
X-108.535 Y-12.061
X-108.455 Y-12.046
X-108.331 Y-11.99
X-108.245 Y-11.884
X-108.214 Y-11.751
Y-11.525
X-108.223 Y-11.487
X-108.246 Y-11.455
X-108.279 Y-11.434
X-108.318 Y-11.428
X-108.521 Y-11.438
X-109.157 Y-11.468
X-109.193 Y-11.476
X-109.223 Y-11.497
X-109.244 Y-11.528
X-109.252 Y-11.564
Y-11.817
X-109.248 Y-11.892
X-109.187 Y-12.029
X-109.082 Y-12.136
X-108.953 Y-12.214
X-108.813 Y-12.266
X-108.665 Y-12.292
X-108.515 Y-12.288
X-108.449 Y-12.273
X-108.328 Y-12.216
X-108.244 Y-12.111
X-108.214 Y-11.981
Y-11.751
X-108.22 Y-11.72
X-108.236 Y-11.692
X-108.26 Y-11.67
X-108.289 Y-11.658
X-108.321 Y-11.655
X-108.522 Y-11.671
X-109.16 Y-11.721
X-109.195 Y-11.73
X-109.225 Y-11.752
X-109.244 Y-11.782
X-109.252 Y-11.817
Y-12.024
X-109.248 Y-12.099
X-109.198 Y-12.241
X-109.098 Y-12.352
X-108.973 Y-12.435
X-108.834 Y-12.491
X-108.687 Y-12.521
X-108.537 Y-12.522
X-108.39 Y-12.493
X-108.381 Y-12.489
X-108.292 Y-12.423
X-108.234 Y-12.329
X-108.214 Y-12.22
Y-11.981
X-108.223 Y-11.942
X-108.246 Y-11.91
X-108.28 Y-11.89
X-108.319 Y-11.884
X-108.521 Y-11.895
X-109.158 Y-11.928
X-109.193 Y-11.937
X-109.224 Y-11.958
X-109.244 Y-11.988
X-109.252 Y-12.024
Y-12.278
X-109.248 Y-12.353
X-109.188 Y-12.49
X-109.083 Y-12.597
X-108.956 Y-12.676
X-108.815 Y-12.728
X-108.667 Y-12.754
X-108.517 Y-12.756
X-108.446 Y-12.74
X-108.326 Y-12.681
X-108.243 Y-12.577
X-108.214 Y-12.447
Y-12.22
X-108.22 Y-12.189
X-108.236 Y-12.161
X-108.259 Y-12.139
X-108.289 Y-12.127
X-108.32 Y-12.124
X-108.522 Y-12.138
X-109.159 Y-12.181
X-109.194 Y-12.19
X-109.224 Y-12.212
X-109.244 Y-12.242
X-109.252 Y-12.278
Y-12.493
X-109.248 Y-12.568
X-109.196 Y-12.708
X-109.094 Y-12.819
X-108.968 Y-12.9
X-108.828 Y-12.955
X-108.682 Y-12.987
X-108.532
X-108.385 Y-12.958
X-108.379 Y-12.955
X-108.291 Y-12.888
X-108.234 Y-12.795
X-108.214 Y-12.687
Y-12.447
X-108.223 Y-12.409
X-108.246 Y-12.377
X-108.28 Y-12.357
X-108.319 Y-12.351
X-108.521 Y-12.362
X-109.158 Y-12.397
X-109.194 Y-12.405
X-109.224 Y-12.427
X-109.244 Y-12.457
X-109.252 Y-12.493
Y-12.746
X-109.248 Y-12.821
X-109.185 Y-12.957
X-109.08 Y-13.064
X-108.952 Y-13.142
X-108.811 Y-13.194
X-108.663 Y-13.219
X-108.513 Y-13.221
X-108.445 Y-13.205
X-108.325 Y-13.147
X-108.243 Y-13.043
X-108.214 Y-12.913
Y-12.687
X-108.22 Y-12.655
X-108.236 Y-12.628
X-108.259 Y-12.606
X-108.289 Y-12.593
X-108.321 Y-12.591
X-108.522 Y-12.605
X-109.159 Y-12.65
X-109.195 Y-12.659
X-109.224 Y-12.681
X-109.244 Y-12.711
X-109.252 Y-12.746
Y-12.953
X-109.248 Y-13.028
X-109.197 Y-13.169
X-109.097 Y-13.28
X-108.971 Y-13.363
X-108.832 Y-13.419
X-108.686 Y-13.452
X-108.536 Y-13.453
X-108.388 Y-13.425
X-108.381 Y-13.421
X-108.292 Y-13.355
X-108.234 Y-13.261
X-108.214 Y-13.152
Y-12.913
X-108.223 Y-12.875
X-108.246 Y-12.843
X-108.279 Y-12.823
X-108.318 Y-12.817
X-108.521 Y-12.827
X-109.157 Y-12.857
X-109.193 Y-12.866
X-109.223 Y-12.887
X-109.244 Y-12.917
X-109.252 Y-12.953
Y-13.207
X-109.248 Y-13.282
X-109.187 Y-13.419
X-109.082 Y-13.526
X-108.955 Y-13.605
X-108.815 Y-13.658
X-108.667 Y-13.684
X-108.517 Y-13.687
X-108.447 Y-13.671
X-108.326 Y-13.613
X-108.243 Y-13.509
X-108.214 Y-13.379
Y-13.152
X-108.223 Y-13.113
X-108.246 Y-13.081
X-108.281 Y-13.061
X-108.32 Y-13.056
X-108.522 Y-13.069
X-109.159 Y-13.11
X-109.194 Y-13.12
X-109.224 Y-13.141
X-109.244 Y-13.171
X-109.252 Y-13.207
Y-13.422
X-109.248 Y-13.497
X-109.195 Y-13.637
X-109.094 Y-13.748
X-108.968 Y-13.83
X-108.829 Y-13.885
X-108.682 Y-13.917
X-108.532 Y-13.918
X-108.385 Y-13.889
X-108.379 Y-13.886
X-108.292 Y-13.82
X-108.234 Y-13.726
X-108.214 Y-13.618
Y-13.379
X-108.223 Y-13.34
X-108.246 Y-13.308
X-108.28 Y-13.288
X-108.319 Y-13.282
X-108.521 Y-13.293
X-109.157 Y-13.326
X-109.193 Y-13.334
X-109.224 Y-13.356
X-109.244 Y-13.386
X-109.252 Y-13.422
Y-13.676
X-109.248 Y-13.75
X-109.186 Y-13.887
X-109.08 Y-13.993
X-108.953 Y-14.072
X-108.812 Y-14.124
X-108.664 Y-14.15
X-108.514 Y-14.152
X-108.445 Y-14.136
X-108.326 Y-14.078
X-108.243 Y-13.974
X-108.214 Y-13.844
Y-13.618
X-108.22 Y-13.586
X-108.236 Y-13.559
X-108.259 Y-13.537
X-108.289 Y-13.524
X-108.32 Y-13.522
X-108.522 Y-13.535
X-109.159 Y-13.579
X-109.194 Y-13.588
X-109.224 Y-13.61
X-109.244 Y-13.64
X-109.252 Y-13.676
Y-13.883
X-109.248 Y-13.957
X-109.198 Y-14.099
X-109.097 Y-14.21
X-108.972 Y-14.293
X-108.833 Y-14.349
X-108.687 Y-14.382
X-108.537 Y-14.384
X-108.39 Y-14.356
X-108.381 Y-14.352
X-108.293 Y-14.286
X-108.234 Y-14.191
X-108.214 Y-14.083
Y-13.844
X-108.223 Y-13.806
X-108.246 Y-13.774
X-108.279 Y-13.754
X-108.318 Y-13.748
X-108.521 Y-13.757
X-109.157 Y-13.786
X-109.193 Y-13.795
X-109.223 Y-13.816
X-109.244 Y-13.846
X-109.252 Y-13.883
Y-14.136
X-109.248 Y-14.211
X-109.188 Y-14.348
X-109.083 Y-14.456
X-108.956 Y-14.535
X-108.816 Y-14.588
X-108.668 Y-14.615
X-108.518 Y-14.618
X-108.447 Y-14.602
X-108.327 Y-14.544
X-108.243 Y-14.439
X-108.214 Y-14.309
Y-14.083
X-108.223 Y-14.044
X-108.246 Y-14.012
X-108.28 Y-13.992
X-108.32 Y-13.986
X-108.522 Y-13.999
X-109.159 Y-14.04
X-109.194 Y-14.049
X-109.224 Y-14.07
X-109.244 Y-14.1
X-109.252 Y-14.136
Y-14.351
X-109.248 Y-14.426
X-109.196 Y-14.567
X-109.095 Y-14.677
X-108.969 Y-14.759
X-108.83 Y-14.815
X-108.684 Y-14.848
X-108.534 Y-14.849
X-108.386 Y-14.82
X-108.38 Y-14.817
X-108.292 Y-14.75
X-108.234 Y-14.657
X-108.214 Y-14.548
Y-14.309
X-108.223 Y-14.271
X-108.246 Y-14.239
X-108.28 Y-14.219
X-108.319 Y-14.213
X-108.521 Y-14.223
X-109.157 Y-14.255
X-109.193 Y-14.264
X-109.224 Y-14.285
X-109.244 Y-14.315
X-109.252 Y-14.351
Y-14.605
X-109.248 Y-14.68
X-109.186 Y-14.816
X-109.081 Y-14.923
X-108.954 Y-15.002
X-108.813 Y-15.054
X-108.665 Y-15.08
X-108.515 Y-15.083
X-108.446 Y-15.067
X-108.326 Y-15.009
X-108.243 Y-14.904
X-108.214 Y-14.775
Y-14.548
X-108.22 Y-14.517
X-108.236 Y-14.489
X-108.259 Y-14.468
X-108.288 Y-14.455
X-108.32 Y-14.452
X-108.522 Y-14.466
X-109.159 Y-14.508
X-109.194 Y-14.517
X-109.224 Y-14.539
X-109.244 Y-14.569
X-109.252 Y-14.605
Y-14.812
X-109.245 Y-14.961
X-109.164 Y-15.088
X-109.049 Y-15.185
X-108.917 Y-15.255
X-108.773 Y-15.299
X-108.625 Y-15.319
X-108.475 Y-15.306
X-108.429 Y-15.293
X-108.317 Y-15.231
X-108.241 Y-15.129
X-108.214 Y-15.005
Y-14.775
X-108.223 Y-14.736
X-108.246 Y-14.705
X-108.279 Y-14.684
X-108.318 Y-14.678
X-108.521 Y-14.687
X-109.157 Y-14.715
X-109.193 Y-14.724
X-109.223 Y-14.745
X-109.244 Y-14.775
X-109.252 Y-14.812
Y-15.065
X-109.248 Y-15.14
X-109.191 Y-15.279
X-109.087 Y-15.386
X-108.96 Y-15.466
X-108.82 Y-15.52
X-108.673 Y-15.548
X-108.523 Y-15.546
X-108.376 Y-15.514
X-108.289 Y-15.446
X-108.233 Y-15.354
X-108.214 Y-15.247
Y-15.005
X-108.22 Y-14.973
X-108.236 Y-14.946
X-108.259 Y-14.924
X-108.289 Y-14.911
X-108.321 Y-14.908
X-108.522 Y-14.923
X-109.159 Y-14.969
X-109.195 Y-14.978
X-109.224 Y-14.999
X-109.244 Y-15.03
X-109.252 Y-15.065
Y-15.28
X-109.248 Y-15.355
X-109.198 Y-15.497
X-109.098 Y-15.608
X-108.973 Y-15.691
X-108.834 Y-15.747
X-108.687 Y-15.778
X-108.537 Y-15.783
X-108.389 Y-15.755
X-108.297 Y-15.689
X-108.235 Y-15.593
X-108.214 Y-15.482
Y-15.247
X-108.223 Y-15.209
X-108.245 Y-15.177
X-108.279 Y-15.157
X-108.317 Y-15.151
X-108.521 Y-15.159
X-109.156 Y-15.184
X-109.193 Y-15.192
X-109.223 Y-15.213
X-109.244 Y-15.244
X-109.252 Y-15.28
Y-15.534
X-109.248 Y-15.609
X-109.188 Y-15.746
X-109.084 Y-15.854
X-108.956 Y-15.933
X-108.816 Y-15.986
X-108.668 Y-16.013
X-108.518 Y-16.016
X-108.448 Y-16.001
X-108.327 Y-15.943
X-108.243 Y-15.838
X-108.214 Y-15.708
Y-15.482
X-108.223 Y-15.443
X-108.246 Y-15.411
X-108.28 Y-15.391
X-108.32 Y-15.385
X-108.522 Y-15.398
X-109.159 Y-15.438
X-109.194 Y-15.446
X-109.224 Y-15.468
X-109.244 Y-15.498
X-109.252 Y-15.534
Y-15.741
X-109.245 Y-15.891
X-109.165 Y-16.017
X-109.051 Y-16.115
X-108.919 Y-16.186
X-108.776 Y-16.232
X-108.627 Y-16.252
X-108.478 Y-16.24
X-108.43 Y-16.226
X-108.318 Y-16.165
X-108.241 Y-16.063
X-108.214 Y-15.938
Y-15.708
X-108.223 Y-15.67
X-108.245 Y-15.638
X-108.279 Y-15.618
X-108.317 Y-15.611
X-108.521 Y-15.619
X-109.156 Y-15.644
X-109.192 Y-15.653
X-109.223 Y-15.674
X-109.244 Y-15.704
X-109.252 Y-15.741
Y-15.994
X-109.248 Y-16.069
X-109.193 Y-16.208
X-109.089 Y-16.317
X-108.963 Y-16.397
X-108.823 Y-16.452
X-108.676 Y-16.481
X-108.526 Y-16.48
X-108.379 Y-16.448
X-108.376 Y-16.446
X-108.29 Y-16.379
X-108.233 Y-16.287
X-108.214 Y-16.18
Y-15.938
X-108.22 Y-15.906
X-108.236 Y-15.879
X-108.259 Y-15.857
X-108.288 Y-15.844
X-108.32 Y-15.841
X-108.522 Y-15.855
X-109.159 Y-15.898
X-109.194 Y-15.907
X-109.224 Y-15.928
X-109.244 Y-15.959
X-109.252 Y-15.994
Y-16.21
X-109.245 Y-16.359
X-109.164 Y-16.486
X-109.051 Y-16.584
X-108.918 Y-16.655
X-108.775 Y-16.698
X-108.626 Y-16.716
X-108.476 Y-16.71
X-108.428 Y-16.696
X-108.317 Y-16.635
X-108.241 Y-16.533
X-108.214 Y-16.408
Y-16.18
X-108.223 Y-16.142
X-108.245 Y-16.11
X-108.279 Y-16.089
X-108.317 Y-16.083
X-108.521 Y-16.09
X-109.156 Y-16.113
X-109.192 Y-16.121
X-109.223 Y-16.142
X-109.244 Y-16.173
X-109.252 Y-16.21
Y-16.463
X-109.248 Y-16.538
X-109.192 Y-16.677
X-109.089 Y-16.785
X-108.962 Y-16.865
X-108.821 Y-16.919
X-108.674 Y-16.949
X-108.524
X-108.378 Y-16.917
X-108.29 Y-16.849
X-108.233 Y-16.756
X-108.214 Y-16.649
Y-16.408
X-108.223 Y-16.37
X-108.246 Y-16.338
X-108.281 Y-16.317
X-108.32 Y-16.312
X-108.522 Y-16.325
X-109.159 Y-16.367
X-109.194 Y-16.376
X-109.224 Y-16.397
X-109.244 Y-16.427
X-109.252 Y-16.463
Y-16.716
X-109.248 Y-16.791
X-109.182 Y-16.926
X-109.074 Y-17.03
X-108.945 Y-17.107
X-108.804 Y-17.157
X-108.656 Y-17.182
X-108.506 Y-17.183
X-108.442 Y-17.167
X-108.324 Y-17.108
X-108.243 Y-17.004
X-108.214 Y-16.875
Y-16.649
X-108.22 Y-16.618
X-108.236 Y-16.59
X-108.26 Y-16.569
X-108.289 Y-16.556
X-108.321 Y-16.553
X-108.523 Y-16.569
X-109.16 Y-16.62
X-109.195 Y-16.63
X-109.225 Y-16.651
X-109.244 Y-16.681
X-109.252 Y-16.716
Y-16.923
Y-16.97
Y-17.008
X-109.251 Y-17.042
X-109.234 Y-17.072
X-109.167 Y-17.152
X-109.076 Y-17.204
X-108.973 Y-17.223
X-108.938 Y-17.215
X-108.908 Y-17.195
X-108.887 Y-17.166
X-108.877 Y-17.131
X-108.881 Y-17.095
X-108.897 Y-17.063
X-108.923 Y-17.038
X-109.099 Y-16.927
X-109.131 Y-16.914
X-109.166 Y-16.912
X-109.199 Y-16.923
X-109.226 Y-16.944
X-109.245 Y-16.974
X-109.252 Y-17.008
Y-17.113
X-109.251 Y-17.124
X-109.249 Y-17.134
X-109.246 Y-17.145
X-109.241 Y-17.156
X-109.235 Y-17.166
X-109.226 Y-17.177
X-109.216 Y-17.187
X-109.184 Y-17.209
X-109.174 Y-17.215
X-109.163 Y-17.218
X-109.153 Y-17.221
X-109.142 Y-17.222
X-108.377 Y-17.223
X-108.338
X-108.306 Y-17.22
X-108.276 Y-17.205
X-108.253 Y-17.18
X-108.239 Y-17.149
X-108.236 Y-17.115
X-108.246 Y-17.079
X-108.269 Y-17.049
X-108.302 Y-17.029
X-108.339 Y-17.024
X-108.376 Y-17.033
X-108.407 Y-17.054
X-108.427 Y-17.086
X-108.435 Y-17.124
X-108.427 Y-17.161
X-108.406 Y-17.193
X-108.375 Y-17.214
X-108.338 Y-17.223
X-108.317 Y-17.222
X-108.307 Y-17.22
X-108.296 Y-17.217
X-108.286 Y-17.213
X-108.275 Y-17.207
X-108.254 Y-17.19
X-108.24 Y-17.177
X-108.231 Y-17.166
X-108.225 Y-17.156
X-108.22 Y-17.145
X-108.217 Y-17.134
X-108.215 Y-17.124
X-108.214 Y-17.113
Y-16.875
X-108.219 Y-16.847
X-108.231 Y-16.822
X-108.26 Y-16.805 Z-0.983
X-108.286 Y-16.79 Z-0.966
X-108.304 Y-16.779 Z-0.939
X-108.314 Z-0.916
X-108.317 Z-0.89
G0 Z2
X-95.808 Y-12.673
Z0.5
G3 X-95.324 Y-12.798 Z0.29 I0.242 J-0.062 F333.3
X-95.808 Y-12.673 Z0.079 I-0.242 J0.062
X-95.324 Y-12.798 Z-0.131 I0.242 J-0.062
X-95.808 Y-12.673 Z-0.342 I-0.242 J0.062
X-95.324 Y-12.798 Z-0.552 I0.242 J-0.062
X-95.808 Y-12.673 Z-0.763 I-0.242 J0.062
X-95.598 Y-12.984 Z-0.876 I0.242 J-0.062
X-95.316 Y-12.736 Z-0.99 I0.031 J0.248
X-95.816 I-0.25
X-95.316 I0.25
G1 X-95.279 Y-12.59 F1000
X-95.292 Y-12.517
X-95.329 Y-12.451
X-95.436 Y-12.346
X-95.581 Y-12.306
X-95.729 Y-12.328
X-95.859 Y-12.402
X-95.956 Y-12.516
X-96.008 Y-12.657
X-96.01 Y-12.807
X-95.963 Y-12.949
X-95.871 Y-13.068
X-95.745 Y-13.15
X-95.599 Y-13.185
X-95.45 Y-13.171
X-95.314 Y-13.109
X-95.205 Y-13.006
X-95.127 Y-12.878
X-95.077 Y-12.736
X-95.066 Y-12.587
X-95.101 Y-12.441
X-95.172 Y-12.309
X-95.28 Y-12.205
X-95.411 Y-12.132
X-95.557 Y-12.098
X-95.707 Y-12.105
X-95.851 Y-12.146
X-95.981 Y-12.222
X-96.087 Y-12.328
X-96.169 Y-12.453
X-96.219 Y-12.595
X-96.234 Y-12.744
X-96.217 Y-12.893
X-96.167 Y-13.035
X-96.084 Y-13.16
X-95.978 Y-13.266
X-95.85 Y-13.344
X-95.707 Y-13.391
X-95.558 Y-13.407
X-95.409 Y-13.389
X-95.269 Y-13.336
X-95.142 Y-13.256
X-95.033 Y-13.153
X-94.946 Y-13.031
X-94.883 Y-12.895
X-94.845 Y-12.75
X-94.837 Y-12.6
X-94.859 Y-12.452
X-94.867 Y-12.429
X-94.902 Y-12.359
X-94.955 Y-12.3
X-95.021 Y-12.257
X-95.056 Y-12.24
X-95.089 Y-12.217
X-95.122 Y-12.193
X-95.141 Y-12.176
X-95.205 Y-12.109
X-95.225 Y-12.082
X-95.317 Y-11.963
X-95.455 Y-11.906
X-95.603 Y-11.881
X-95.753 Y-11.886
X-95.899 Y-11.921
X-96.035 Y-11.984
X-96.158 Y-12.07
X-96.168 Y-12.08
X-96.216 Y-12.14
X-96.246 Y-12.21
X-96.258 Y-12.286
X-96.263 Y-12.447
X-96.266 Y-12.616
X-96.268 Y-12.869
X-96.265 Y-13.038
X-96.254 Y-13.187
X-96.192 Y-13.324
X-96.095 Y-13.439
X-95.974 Y-13.528
X-95.838 Y-13.59
X-95.693 Y-13.627
X-95.543 Y-13.639
X-95.394 Y-13.625
X-95.33 Y-13.607
X-95.239 Y-13.564
X-95.167 Y-13.492
X-95.123 Y-13.401
X-95.116 Y-13.376
X-95.097 Y-13.333
X-95.076 Y-13.291
X-94.931 Y-13.038
X-94.882 Y-12.953
X-94.826 Y-12.869
X-94.777 Y-12.81
X-94.687 Y-12.69
X-94.68 Y-12.663
X-94.675 Y-12.55
X-94.712 Y-12.443
X-94.786 Y-12.357
X-94.887 Y-12.305
X-94.927 Y-12.303
X-94.964 Y-12.316
X-94.993 Y-12.343
X-95.01 Y-12.379
X-95.011 Y-12.419
X-94.95 Y-12.761
X-94.937 Y-12.796
X-94.912 Y-12.823
X-94.879 Y-12.84
X-94.842 Y-12.843
X-94.806 Y-12.833
X-94.777 Y-12.81
X-94.657 Y-12.666
X-94.633 Y-12.639
X-94.613 Y-12.616
X-94.594 Y-12.593
X-94.571 Y-12.563
X-94.593 Y-12.44
X-94.678 Y-12.347
X-94.799 Y-12.315
X-94.837 Y-12.323
X-94.87 Y-12.342
X-94.897 Y-12.369
X-94.914 Y-12.403
G3 X-94.594 Y-12.593 I0.18 J-0.06
G1 X-94.549 Y-12.54
X-94.541 Y-12.531
X-94.52 Y-12.508
X-94.49 Y-12.471
X-94.523 Y-12.379
X-94.599 Y-12.319
X-94.696 Y-12.309
X-94.722 Y-12.32
X-94.743 Y-12.339
X-94.757 Y-12.364
G3 X-94.52 Y-12.508 I0.134 J-0.046
G1 X-94.503 Y-12.489
X-94.482 Y-12.468
X-94.473 Y-12.457
X-94.466 Y-12.447
X-94.457 Y-12.422
X-94.46 Y-12.392
X-94.478 Y-12.367
X-94.505 Y-12.354
X-94.536 Y-12.357
X-94.561 Y-12.374
X-94.574 Y-12.401
X-94.573 Y-12.431
X-94.556 Y-12.457
X-94.529 Y-12.471
X-94.499 Y-12.47
X-94.48 Y-12.461
X-94.466 Y-12.447
X-94.46 Y-12.432
X-94.457 Y-12.422
X-94.455 Y-12.412
X-94.454 Y-12.402
Y-12.392
X-94.455 Y-12.382
X-94.457 Y-12.372
X-94.464 Y-12.355
X-94.471 Y-12.342
X-94.481 Y-12.33
X-94.506 Y-12.305
X-94.517 Y-12.298
X-94.527 Y-12.292
X-94.538 Y-12.288
X-94.549 Y-12.285
X-94.559 Y-12.283
X-94.57
X-94.58 Y-12.284
X-94.591 Y-12.285
X-94.633 Y-12.298
X-95.359 Y-12.598
X-95.584 Y-12.691
X-96.203 Y-12.947
X-96.235 Y-12.969
X-96.257 Y-13
X-96.265 Y-13.038
X-96.263 Y-13.122
X-96.252 Y-13.376
X-96.245 Y-13.45
X-96.184 Y-13.587
X-96.081 Y-13.697
X-95.955 Y-13.778
X-95.816 Y-13.835
X-95.67 Y-13.867
X-95.52 Y-13.877
X-95.439 Y-13.868
X-95.323 Y-13.829
X-95.231 Y-13.748
X-95.18 Y-13.637
X-95.14 Y-13.46
X-95.123 Y-13.401
X-95.12 Y-13.365
X-95.131 Y-13.33
X-95.153 Y-13.302
X-95.184 Y-13.283
X-95.22 Y-13.276
X-95.524
X-96.152 Y-13.275
X-96.19 Y-13.282
X-96.223 Y-13.304
X-96.244 Y-13.337
X-96.252 Y-13.376
X-96.241 Y-13.628
X-96.233 Y-13.703
X-96.17 Y-13.839
X-96.064 Y-13.945
X-95.936 Y-14.023
X-95.796 Y-14.077
X-95.649 Y-14.107
X-95.499 Y-14.109
X-95.468 Y-14.103
X-95.354 Y-14.056
X-95.269 Y-13.968
X-95.227 Y-13.852
X-95.217 Y-13.798
X-95.18 Y-13.637
Y-13.602
X-95.192 Y-13.568
X-95.214 Y-13.541
X-95.245 Y-13.524
X-95.28 Y-13.518
X-95.513 Y-13.52
X-96.142 Y-13.527
X-96.18 Y-13.535
X-96.212 Y-13.557
X-96.233 Y-13.59
X-96.241 Y-13.628
X-96.236 Y-13.714
X-96.22 Y-13.883
X-96.209 Y-13.957
X-96.143 Y-14.091
X-96.035 Y-14.195
X-95.905 Y-14.271
X-95.763 Y-14.319
X-95.615 Y-14.342
X-95.465 Y-14.332
X-95.455 Y-14.328
X-95.354 Y-14.27
X-95.282 Y-14.178
X-95.251 Y-14.065
X-95.243 Y-13.967
X-95.227 Y-13.852
X-95.229 Y-13.818
X-95.242 Y-13.787
X-95.266 Y-13.761
X-95.296 Y-13.746
X-95.33 Y-13.741
X-95.498 Y-13.749
X-96.125 Y-13.777
X-96.163 Y-13.786
X-96.194 Y-13.81
X-96.215 Y-13.844
X-96.22 Y-13.883
X-96.212 Y-13.967
X-96.19 Y-14.136
X-96.177 Y-14.21
X-96.108 Y-14.343
X-95.997 Y-14.444
X-95.865 Y-14.515
X-95.721 Y-14.557
X-95.572 Y-14.57
X-95.515 Y-14.561
X-95.39 Y-14.509
X-95.3 Y-14.407
X-95.264 Y-14.275
X-95.263 Y-14.22
X-95.251 Y-14.065
X-95.256 Y-14.032
X-95.271 Y-14.002
X-95.296 Y-13.979
X-95.326 Y-13.965
X-95.36 Y-13.962
X-95.474 Y-13.972
X-96.099 Y-14.027
X-96.137 Y-14.038
X-96.168 Y-14.062
X-96.186 Y-14.097
X-96.19 Y-14.136
X-96.157 Y-14.389
X-96.143 Y-14.463
X-96.069 Y-14.594
X-95.954 Y-14.69
X-95.819 Y-14.754
X-95.673 Y-14.788
X-95.523 Y-14.784
X-95.486 Y-14.774
X-95.371 Y-14.712
X-95.293 Y-14.607
X-95.267 Y-14.478
X-95.265 Y-14.305
X-95.264 Y-14.275
X-95.27 Y-14.242
X-95.287 Y-14.212
X-95.313 Y-14.19
X-95.345 Y-14.177
X-95.379
X-95.445 Y-14.186
X-96.072 Y-14.281
X-96.108 Y-14.293
X-96.136 Y-14.318
X-96.153 Y-14.352
X-96.157 Y-14.389
X-96.133 Y-14.558
X-96.111 Y-14.643
X-96.066 Y-14.786
X-95.96 Y-14.892
X-95.829 Y-14.964
X-95.684 Y-15.003
X-95.534 Y-15.002
X-95.484 Y-14.99
X-95.36 Y-14.927
X-95.278 Y-14.814
X-95.256 Y-14.676
X-95.265 Y-14.558
X-95.267 Y-14.478
X-95.274 Y-14.445
X-95.293 Y-14.416
X-95.32 Y-14.395
X-95.353 Y-14.385
X-95.387 Y-14.386
X-95.421 Y-14.393
X-96.034 Y-14.523
X-96.071 Y-14.538
X-96.098 Y-14.567
X-96.112 Y-14.603
X-96.111 Y-14.643
X-96.067 Y-14.812
X-96.043 Y-14.896
X-95.993 Y-15.037
X-95.881 Y-15.138
X-95.743 Y-15.197
X-95.595 Y-15.219
X-95.446 Y-15.201
X-95.416 Y-15.189
X-95.309 Y-15.112
X-95.245 Y-14.997
X-95.236 Y-14.866
X-95.245 Y-14.812
X-95.256 Y-14.676
X-95.266 Y-14.642
X-95.287 Y-14.614
X-95.316 Y-14.595
X-95.351 Y-14.587
X-95.385 Y-14.592
X-95.976 Y-14.777
X-96.009 Y-14.794
X-96.033 Y-14.823
X-96.045 Y-14.859
X-96.043 Y-14.896
X-95.967 Y-15.15
X-95.941 Y-15.22
X-95.841 Y-15.332
X-95.707 Y-15.398
X-95.559 Y-15.425
X-95.41 Y-15.405
X-95.382 Y-15.393
X-95.271 Y-15.313
X-95.207 Y-15.192
X-95.203 Y-15.056
X-95.218 Y-14.981
X-95.236 Y-14.866
X-95.249 Y-14.833
X-95.273 Y-14.806
X-95.305 Y-14.789
X-95.341 Y-14.785
X-95.375 Y-14.794
X-95.911 Y-15.032
X-95.94 Y-15.052
X-95.96 Y-15.081
X-95.97 Y-15.115
X-95.967 Y-15.15
X-95.902 Y-15.355
X-95.88 Y-15.416
X-95.786 Y-15.533
X-95.652 Y-15.6
X-95.504 Y-15.625
X-95.356 Y-15.6
X-95.327 Y-15.587
X-95.219 Y-15.504
X-95.159 Y-15.383
Y-15.247
X-95.203 Y-15.056
X-95.217 Y-15.023
X-95.242 Y-14.998
X-95.274 Y-14.982
X-95.31 Y-14.98
X-95.344 Y-14.989
X-95.85 Y-15.239
X-95.878 Y-15.259
X-95.897 Y-15.288
X-95.905 Y-15.321
X-95.902 Y-15.355
X-95.887 Y-15.403
X-95.818 Y-15.572
X-95.786 Y-15.64
X-95.684 Y-15.75
X-95.544 Y-15.804
X-95.394 Y-15.814
X-95.249 Y-15.775
X-95.229 Y-15.762
X-95.132 Y-15.66
X-95.092 Y-15.525
X-95.118 Y-15.387
X-95.137 Y-15.36
X-95.163 Y-15.341
X-95.195 Y-15.332
X-95.227 Y-15.333
X-95.744 Y-15.439
X-95.776 Y-15.451
X-95.802 Y-15.474
X-95.819 Y-15.504
X-95.824 Y-15.538
X-95.818 Y-15.572
X-95.733 Y-15.776
X-95.701 Y-15.843
X-95.594 Y-15.948
X-95.452 Y-15.997
X-95.302 Y-16
X-95.16 Y-15.952
X-95.138 Y-15.936
X-95.047 Y-15.834
X-95.01 Y-15.702
X-95.036 Y-15.567
X-95.118 Y-15.387
X-95.138 Y-15.359
X-95.167 Y-15.34
X-95.2 Y-15.331
X-95.235 Y-15.335
X-95.266 Y-15.35
X-95.698 Y-15.659
X-95.721 Y-15.682
X-95.735 Y-15.711
X-95.739 Y-15.744
X-95.733 Y-15.776
X-95.648 Y-15.979
X-95.619 Y-16.04
X-95.509 Y-16.142
X-95.366 Y-16.187
X-95.216 Y-16.185
X-95.125 Y-16.152
X-95.02 Y-16.086
X-94.95 Y-15.984
X-94.927 Y-15.861
X-94.956 Y-15.741
X-95.036 Y-15.567
X-95.057 Y-15.539
X-95.087 Y-15.52
X-95.121 Y-15.512
X-95.156 Y-15.516
X-95.187 Y-15.533
X-95.616 Y-15.865
X-95.638 Y-15.888
X-95.651 Y-15.916
X-95.655 Y-15.948
X-95.648 Y-15.979
X-95.606 Y-16.079
X-95.564 Y-16.139
X-95.508 Y-16.208
X-95.459 Y-16.264
X-95.334 Y-16.347
X-95.185 Y-16.365
X-95.038 Y-16.334
X-94.909 Y-16.258
X-94.898 Y-16.246
X-94.835 Y-16.133
X-94.824 Y-16.005
X-94.869 Y-15.883
X-94.905 Y-15.825
X-94.956 Y-15.741
X-94.979 Y-15.715
X-95.01 Y-15.7
X-95.044 Y-15.695
X-95.078 Y-15.703
X-95.107 Y-15.721
X-95.495 Y-16.075
X-95.518 Y-16.104
X-95.528 Y-16.139
X-95.524 Y-16.175
X-95.508 Y-16.208
X-95.366 Y-16.387
X-95.316 Y-16.443
X-95.185 Y-16.516
X-95.035 Y-16.523
X-94.89 Y-16.483
X-94.767 Y-16.396
X-94.716 Y-16.286
X-94.713 Y-16.165
X-94.758 Y-16.052
X-94.869 Y-15.883
X-94.894 Y-15.858
X-94.927 Y-15.843
X-94.964 Y-15.841
X-94.998 Y-15.852
X-95.026 Y-15.875
X-95.361 Y-16.262
X-95.379 Y-16.291
X-95.385 Y-16.324
X-95.381 Y-16.357
X-95.366 Y-16.387
X-95.225 Y-16.563
X-95.176 Y-16.62
X-95.038 Y-16.68
X-94.888 Y-16.678
X-94.746 Y-16.631
X-94.708 Y-16.601
X-94.631 Y-16.505
X-94.599 Y-16.387
X-94.618 Y-16.266
X-94.685 Y-16.163
X-94.758 Y-16.052
X-94.784 Y-16.026
X-94.819 Y-16.012
X-94.856 Y-16.011
X-94.891 Y-16.024
X-94.918 Y-16.049
X-95.224 Y-16.442
X-95.239 Y-16.471
X-95.245 Y-16.503
X-95.24 Y-16.535
X-95.225 Y-16.563
X-95.14 Y-16.67
X-95.121 Y-16.693
X-95.098 Y-16.716
X-94.978 Y-16.806
X-94.832 Y-16.839
X-94.685 Y-16.808
X-94.557 Y-16.73
X-94.529 Y-16.696
X-94.466 Y-16.562
X-94.475 Y-16.415
X-94.554 Y-16.289
X-94.685 Y-16.163
X-94.714 Y-16.144
X-94.747 Y-16.136
X-94.782 Y-16.14
X-94.813 Y-16.156
X-94.836 Y-16.181
X-95.108 Y-16.593
X-95.122 Y-16.623
X-95.125 Y-16.656
X-95.116 Y-16.688
X-95.098 Y-16.716
X-94.887 Y-16.892
X-94.827 Y-16.937
X-94.681 Y-16.971
X-94.534 Y-16.94
X-94.412 Y-16.854
X-94.386 Y-16.822
X-94.334 Y-16.722
X-94.322 Y-16.611
X-94.351 Y-16.503
X-94.418 Y-16.413
X-94.554 Y-16.289
X-94.586 Y-16.27
X-94.623 Y-16.264
X-94.659 Y-16.272
X-94.69 Y-16.293
X-94.712 Y-16.324
X-94.912 Y-16.777
X-94.92 Y-16.807
X-94.918 Y-16.839
X-94.907 Y-16.868
X-94.887 Y-16.892
X-94.748 Y-17.008
X-94.688 Y-17.053
X-94.617 Y-17.077
X-94.467 Y-17.082
X-94.328 Y-17.026
X-94.217 Y-16.925
X-94.201 Y-16.895
X-94.164 Y-16.755
X-94.197 Y-16.614
X-94.292 Y-16.505
X-94.379 Y-16.444
X-94.418 Y-16.413
X-94.45 Y-16.395
X-94.487 Y-16.39
X-94.523 Y-16.398
X-94.553 Y-16.418
X-94.574 Y-16.449
X-94.773 Y-16.892
X-94.781 Y-16.923
X-94.779 Y-16.954
X-94.768 Y-16.983
X-94.748 Y-17.008
X-94.591 Y-17.139
X-94.57 Y-17.152
X-94.559 Y-17.159
X-94.522 Y-17.172
X-94.487 Y-17.177
X-94.452 Y-17.168
X-94.423 Y-17.148
X-94.402 Y-17.119
X-94.393 Y-17.085
X-94.396 Y-17.05
X-94.412 Y-17.018
X-94.438 Y-16.993
X-94.47 Y-16.979
X-94.484 Y-16.976
X-94.519 Y-16.974
X-94.552 Y-16.985
X-94.58 Y-17.006
X-94.599 Y-17.036
X-94.606 Y-17.07
X-94.601 Y-17.104
X-94.585 Y-17.135
X-94.559 Y-17.159
X-94.549 Y-17.163
X-94.509 Y-17.177
X-94.437 Y-17.198
X-94.288 Y-17.191
X-94.151 Y-17.128
X-94.049 Y-17.018
X-94.037 Y-16.993
X-94.006 Y-16.855
X-94.042 Y-16.719
X-94.136 Y-16.614
X-94.292 Y-16.505
X-94.327 Y-16.491
X-94.364
X-94.399 Y-16.504
X-94.427 Y-16.53
X-94.443 Y-16.564
X-94.57 Y-17.059
X-94.573 Y-17.095
X-94.562 Y-17.129
X-94.54 Y-17.158
X-94.509 Y-17.177
X-94.295 Y-17.251
X-94.223 Y-17.272
X-94.073 Y-17.258
X-93.945 Y-17.18
X-93.856 Y-17.06
X-93.852 Y-17.046
X-93.845 Y-16.912
X-93.896 Y-16.788
X-93.997 Y-16.699
X-94.041 Y-16.675
X-94.136 Y-16.614
X-94.173 Y-16.6
X-94.213 Y-16.601
X-94.249 Y-16.617
X-94.276 Y-16.646
X-94.289 Y-16.683
X-94.358 Y-17.143
X-94.357 Y-17.177
X-94.345 Y-17.208
X-94.324 Y-17.234
X-94.295 Y-17.251
X-94.079 Y-17.326
X-94.007 Y-17.347
X-93.861 Y-17.314
X-93.741 Y-17.223
X-93.716 Y-17.177
X-93.679 Y-17.053
X-93.698 Y-16.925
X-93.768 Y-16.817
X-93.878 Y-16.749
X-93.956 Y-16.721
X-93.997 Y-16.699
X-94.029 Y-16.689
X-94.063 Y-16.691
X-94.094 Y-16.703
X-94.119 Y-16.725
X-94.136 Y-16.755
X-94.142 Y-16.788
X-94.143 Y-17.233
X-94.138 Y-17.262
X-94.125 Y-17.289
X-94.105 Y-17.311
X-94.079 Y-17.326
X-93.914 Y-17.384
X-93.893 Y-17.39
X-93.818 Y-17.396
X-93.744 Y-17.383
X-93.612 Y-17.313
X-93.523 Y-17.192
X-93.514 Y-17.159
X-93.507 Y-17.045
X-93.543 Y-16.937
X-93.617 Y-16.849
X-93.719 Y-16.796
X-93.878 Y-16.749
X-93.917 Y-16.744
X-93.955 Y-16.756
X-93.985 Y-16.78
X-94.004 Y-16.815
X-94.008 Y-16.854
X-93.962 Y-17.304
X-93.951 Y-17.341
X-93.927 Y-17.371
X-93.893 Y-17.39
X-93.656 Y-17.422
X-93.581 Y-17.429
X-93.444 Y-17.368
X-93.355 Y-17.248
X-93.344 Y-17.207
X-93.337 Y-17.084
X-93.379 Y-16.97
X-93.464 Y-16.881
X-93.577 Y-16.834
X-93.618 Y-16.827
X-93.719 Y-16.796
X-93.753 Y-16.794
X-93.786 Y-16.802
X-93.814 Y-16.822
X-93.834 Y-16.85
X-93.843 Y-16.883
X-93.841 Y-16.917
X-93.736 Y-17.347
X-93.72 Y-17.382
X-93.692 Y-17.409
X-93.656 Y-17.422
X-93.487 Y-17.446
X-93.412 Y-17.452
X-93.342 Y-17.426
X-93.222 Y-17.336
X-93.156 Y-17.201
X-93.155 Y-17.179
X-93.181 Y-17.036
X-93.271 Y-16.922
X-93.405 Y-16.864
X-93.577 Y-16.834
X-93.611 Y-16.835
X-93.642 Y-16.846
X-93.668 Y-16.867
X-93.685 Y-16.896
X-93.693 Y-16.928
X-93.689 Y-16.962
X-93.566 Y-17.375
X-93.549 Y-17.408
X-93.521 Y-17.433
X-93.487 Y-17.446
X-93.318 Y-17.469
X-93.243 Y-17.475
X-93.103 Y-17.421
X-93.007 Y-17.306
X-92.968 Y-17.161
X-92.97 Y-17.148
X-93.015 Y-17.021
X-93.111 Y-16.927
X-93.239 Y-16.884
X-93.28 Y-16.881
X-93.364 Y-16.87
X-93.405 Y-16.864
X-93.444 Y-16.866
X-93.479 Y-16.884
X-93.505 Y-16.914
X-93.517 Y-16.951
X-93.514 Y-16.99
X-93.397 Y-17.398
X-93.38 Y-17.431
X-93.352 Y-17.456
X-93.318 Y-17.469
X-93.148 Y-17.492
X-93.11 Y-17.497
X-93.036 Y-17.489
X-92.9 Y-17.425
X-92.812 Y-17.304
X-92.802 Y-17.254
X-92.805 Y-17.131
X-92.858 Y-17.019
X-92.951 Y-16.937
X-93.069 Y-16.901
X-93.239 Y-16.884
X-93.278 Y-16.89
X-93.312 Y-16.91
X-93.336 Y-16.942
X-93.345 Y-16.98
X-93.339 Y-17.019
X-93.187 Y-17.433
X-93.17 Y-17.463
X-93.143 Y-17.485
X-93.11 Y-17.497
X-93.026 Y-17.492
X-92.895 Y-17.481
X-92.82 Y-17.471
X-92.755 Y-17.434
X-92.657 Y-17.321
X-92.619 Y-17.176
X-92.622 Y-17.151
X-92.658 Y-17.04
X-92.734 Y-16.951
X-92.837 Y-16.898
X-92.953 Y-16.888
X-93.069 Y-16.901
X-93.103 Y-16.904
X-93.134 Y-16.919
X-93.158 Y-16.944
X-93.172 Y-16.975
X-93.175 Y-17.009
X-93.166 Y-17.042
X-92.99 Y-17.423
X-92.967 Y-17.455
X-92.933 Y-17.475
X-92.895 Y-17.481
X-92.725 Y-17.468
X-92.651 Y-17.458
X-92.524 Y-17.378
X-92.452 Y-17.247
X-92.44 Y-17.097
X-92.446 Y-17.079
X-92.516 Y-16.956
X-92.635 Y-16.879
X-92.776 Y-16.866
X-92.857 Y-16.877
X-92.953 Y-16.888
X-92.989 Y-16.901
X-93.018 Y-16.926
X-93.035 Y-16.96
X-93.038 Y-16.999
X-93.026 Y-17.035
X-92.818 Y-17.416
X-92.794 Y-17.444
X-92.762 Y-17.462
X-92.725 Y-17.468
X-92.556 Y-17.454
X-92.518 Y-17.451
X-92.445 Y-17.435
X-92.324 Y-17.346
X-92.26 Y-17.211
X-92.258 Y-17.061
X-92.266 Y-17.035
X-92.343 Y-16.911
X-92.468 Y-16.838
X-92.613 Y-16.832
X-92.776 Y-16.866
X-92.812 Y-16.88
X-92.84 Y-16.906
X-92.856 Y-16.941
X-92.857 Y-16.98
X-92.844 Y-17.016
X-92.608 Y-17.403
X-92.584 Y-17.43
X-92.553 Y-17.446
X-92.518 Y-17.451
X-92.434 Y-17.437
X-92.302 Y-17.411
X-92.23 Y-17.392
X-92.121 Y-17.289
X-92.07 Y-17.147
X-92.079 Y-16.998
X-92.091 Y-16.969
X-92.178 Y-16.849
X-92.312 Y-16.785
X-92.46 Y-16.793
X-92.518 Y-16.811
X-92.613 Y-16.832
X-92.648 Y-16.848
X-92.675 Y-16.877
X-92.688 Y-16.913
X-92.687 Y-16.952
X-92.671 Y-16.987
X-92.401 Y-17.37
X-92.374 Y-17.396
X-92.34 Y-17.41
X-92.302 Y-17.411
X-92.18 Y-17.385
X-92.133 Y-17.373
X-92.061 Y-17.352
X-92.002 Y-17.306
X-91.916 Y-17.183
X-91.887 Y-17.036
X-91.916 Y-16.889
X-91.926 Y-16.87
X-92.018 Y-16.772
X-92.143 Y-16.724
X-92.276 Y-16.735
X-92.46 Y-16.793
X-92.492 Y-16.811
X-92.515 Y-16.84
X-92.526 Y-16.875
X-92.524 Y-16.912
X-92.508 Y-16.945
X-92.235 Y-17.333
X-92.207 Y-17.36
X-92.172 Y-17.374
X-92.133 Y-17.373
X-91.964 Y-17.333
X-91.892 Y-17.311
X-91.774 Y-17.219
X-91.714 Y-17.082
X-91.704 Y-16.932
X-91.748 Y-16.789
X-91.769 Y-16.759
X-91.853 Y-16.681
X-91.96 Y-16.639
X-92.074 Y-16.641
X-92.18 Y-16.686
X-92.222 Y-16.711
X-92.264 Y-16.731
X-92.276 Y-16.735
X-92.307 Y-16.753
X-92.33 Y-16.78
X-92.341 Y-16.814
X-92.34 Y-16.85
X-92.327 Y-16.883
X-92.068 Y-17.288
X-92.049 Y-17.311
X-92.023 Y-17.327
X-91.994 Y-17.334
X-91.964 Y-17.333
X-91.82 Y-17.298
X-91.799 Y-17.288
X-91.697 Y-17.229
X-91.635 Y-17.188
X-91.547 Y-17.066
X-91.52 Y-16.919
X-91.541 Y-16.77
X-91.608 Y-16.636
X-91.632 Y-16.611
X-91.748 Y-16.539
X-91.885 Y-16.525
X-92.013 Y-16.574
X-92.18 Y-16.686
X-92.204 Y-16.71
X-92.218 Y-16.742
X-92.221 Y-16.776
X-92.212 Y-16.809
X-92.192 Y-16.838
X-91.815 Y-17.212
X-91.79 Y-17.23
X-91.759 Y-17.24
X-91.727 Y-17.239
X-91.697 Y-17.229
X-91.503 Y-17.114
X-91.44 Y-17.073
X-91.364 Y-16.944
X-91.346 Y-16.795
X-91.373 Y-16.647
X-91.447 Y-16.517
X-91.473 Y-16.492
X-91.6 Y-16.417
X-91.748 Y-16.412
X-91.88 Y-16.478
X-91.907 Y-16.501
X-92.013 Y-16.574
X-92.037 Y-16.599
X-92.051 Y-16.631
X-92.053 Y-16.666
X-92.043 Y-16.7
X-92.022 Y-16.728
X-91.618 Y-17.1
X-91.593 Y-17.117
X-91.563 Y-17.126
X-91.532 Y-17.125
X-91.503 Y-17.114
X-91.334 Y-17.014
X-91.322 Y-17.008
X-91.286 Y-16.986
X-91.23 Y-16.936
X-91.175 Y-16.796
X-91.174 Y-16.646
X-91.215 Y-16.502
X-91.299 Y-16.377
X-91.339 Y-16.342
X-91.471 Y-16.275
X-91.619 Y-16.279
X-91.748 Y-16.354
X-91.811 Y-16.416
X-91.841 Y-16.444
X-91.88 Y-16.478
X-91.901 Y-16.506
X-91.911 Y-16.539
X-91.909 Y-16.574
X-91.895 Y-16.607
X-91.871 Y-16.632
X-91.393 Y-16.979
X-91.359 Y-16.995
X-91.321 Y-16.997
X-91.286 Y-16.986
X-91.249 Y-16.956
X-91.137 Y-16.858
X-91.083 Y-16.806
X-91.017 Y-16.672
X-91.012 Y-16.522
X-91.052 Y-16.378
X-91.134 Y-16.252
X-91.244 Y-16.15
X-91.263 Y-16.142
X-91.382 Y-16.115
X-91.503 Y-16.137
X-91.604 Y-16.206
X-91.725 Y-16.332
X-91.748 Y-16.354
X-91.766 Y-16.382
X-91.775 Y-16.415
X-91.772 Y-16.448
X-91.758 Y-16.478
X-91.735 Y-16.503
X-91.26 Y-16.861
X-91.231 Y-16.876
X-91.198 Y-16.881
X-91.166 Y-16.875
X-91.137 Y-16.858
X-90.973 Y-16.715
X-90.919 Y-16.663
X-90.857 Y-16.526
Y-16.376
X-90.901 Y-16.233
X-90.978 Y-16.104
X-91.088 Y-16.003
X-91.126 Y-15.984
X-91.233 Y-15.952
X-91.345 Y-15.961
X-91.445 Y-16.011
