%
(n-076-080)
(T1  D=1 CR=0 - ZMIN=-2 - flat end mill)
G90 G94
G17
G21
G28 G91 Z0
G90

(Clear 15)
M9
T1 M6
S5000 M3
G54
M8
G0 X-116.053 Y-8.425
Z12
Z2
Z0.5
G3 X-115.568 Y-8.55 Z0.29 I0.242 J-0.062 F333.3
X-116.053 Y-8.425 Z0.079 I-0.242 J0.062
X-115.568 Y-8.55 Z-0.131 I0.242 J-0.062
X-116.053 Y-8.425 Z-0.342 I-0.242 J0.062
X-115.568 Y-8.55 Z-0.552 I0.242 J-0.062
X-116.053 Y-8.425 Z-0.763 I-0.242 J0.062
X-115.842 Y-8.735 Z-0.876 I0.242 J-0.062
X-115.56 Y-8.487 Z-0.99 I0.031 J0.248
X-116.06 I-0.25
X-115.56 I0.25
G1 X-115.523 Y-8.342 F1000
X-115.536 Y-8.268
X-115.573 Y-8.203
X-115.68 Y-8.098
X-115.825 Y-8.058
X-115.973 Y-8.079
X-116.104 Y-8.153
X-116.2 Y-8.268
X-116.253 Y-8.409
X-116.255 Y-8.559
X-116.207 Y-8.701
X-116.115 Y-8.82
X-115.989 Y-8.901
X-115.844 Y-8.937
X-115.694 Y-8.923
X-115.558 Y-8.861
X-115.449 Y-8.757
X-115.371 Y-8.629
X-115.321 Y-8.488
X-115.31 Y-8.338
X-115.345 Y-8.193
X-115.416 Y-8.06
X-115.524 Y-7.957
X-115.655 Y-7.883
X-115.802 Y-7.85
X-115.951 Y-7.857
X-116.096 Y-7.898
X-116.225 Y-7.974
X-116.332 Y-8.08
X-116.414 Y-8.205
X-116.463 Y-8.347
X-116.478 Y-8.496
X-116.461 Y-8.645
X-116.432 Y-8.728
X-116.417 Y-8.762
X-116.398 Y-8.793
X-116.376 Y-8.822
X-116.349 Y-8.86
X-116.265 Y-8.985
X-116.143 Y-9.071
X-116.005 Y-9.13
X-115.858 Y-9.158
X-115.708 Y-9.15
X-115.563 Y-9.111
X-115.43 Y-9.042
X-115.406 Y-9.021
X-115.394 Y-9.008
X-115.382 Y-8.994
X-115.36 Y-8.969
X-115.299 Y-8.899
X-115.276 Y-8.873
X-115.247 Y-8.841
X-115.154 Y-8.724
X-115.145 Y-8.7
X-115.135 Y-8.667
X-115.13 Y-8.633
X-115.128 Y-8.598
X-115.136 Y-8.562
X-115.156 Y-8.532
X-115.187 Y-8.511
X-115.223 Y-8.502
X-115.26 Y-8.507
X-115.292 Y-8.525
X-115.315 Y-8.554
X-115.408 Y-8.724
X-115.419 Y-8.758
X-115.418 Y-8.794
X-115.404 Y-8.827
X-115.379 Y-8.853
X-115.347 Y-8.868
X-115.311 Y-8.871
X-115.276 Y-8.862
X-115.247 Y-8.841
X-115.149 Y-8.73
X-115.142 Y-8.72
X-115.137 Y-8.709
X-115.133 Y-8.698
X-115.13 Y-8.688
X-115.128 Y-8.667
Y-8.561
Y-8.346
Y-8.308
Y-8.261
X-115.135 Y-8.112
X-115.202 Y-7.977
X-115.227 Y-7.946
X-115.292 Y-7.885
X-115.373 Y-7.845
X-115.462 Y-7.832
X-115.497 Y-7.839
X-115.527 Y-7.859
X-115.549 Y-7.887
X-115.558 Y-7.922
X-115.556 Y-7.957
X-115.54 Y-7.99
X-115.309 Y-8.316
X-115.284 Y-8.34
X-115.252 Y-8.355
X-115.216 Y-8.357
X-115.182 Y-8.347
X-115.154 Y-8.326
X-115.135 Y-8.296
X-115.128 Y-8.261
Y-7.97
Y-7.949
Y-7.938
X-115.132 Y-7.919
X-115.145 Y-7.893
X-115.169 Y-7.877
X-115.197 Y-7.871
X-115.225 Y-7.879
X-115.247 Y-7.897
X-115.258 Y-7.924
Y-7.952
X-115.245 Y-7.978
X-115.244 Y-7.979
X-115.218 Y-7.998
X-115.187 Y-8.003
X-115.157 Y-7.992
X-115.136 Y-7.969
X-115.128 Y-7.938
X-115.129 Y-7.928
X-115.132 Y-7.917
X-115.136 Y-7.907
X-115.141 Y-7.896
X-115.158 Y-7.872
X-115.17 Y-7.859
X-115.18 Y-7.85
X-115.191 Y-7.843
X-115.202 Y-7.839
X-115.212 Y-7.835
X-115.223 Y-7.833
X-115.233 Y-7.832
X-116.168
X-116.318 Y-7.839
X-116.447 Y-7.916
X-116.551 Y-8.024
X-116.63 Y-8.152
X-116.682 Y-8.292
X-116.698 Y-8.381
X-116.692 Y-8.499
X-116.638 Y-8.604
X-116.545 Y-8.677
X-116.467 Y-8.73
X-116.46 Y-8.736
X-116.376 Y-8.822
X-116.347 Y-8.844
X-116.312 Y-8.854
X-116.275 Y-8.851
X-116.243 Y-8.835
X-116.218 Y-8.809
X-116.204 Y-8.775
X-116.203 Y-8.739
X-116.232 Y-8.554
X-116.246 Y-8.464
X-116.259 Y-8.43
X-116.283 Y-8.402
X-116.316 Y-8.384
X-116.353 Y-8.38
X-116.388 Y-8.39
X-116.418 Y-8.412
X-116.438 Y-8.443
X-116.445 Y-8.479
G3 X-116.349 Y-8.86 I0.791 J-0.004
G1 X-116.327 Y-8.899
X-116.29 Y-8.984
X-116.278 Y-9.026
X-116.269 Y-9.068
X-116.254 Y-9.141
X-116.156 Y-9.255
X-116.027 Y-9.331
X-115.882 Y-9.371
X-115.85 Y-9.372
X-115.756 Y-9.362
X-115.669 Y-9.323
X-115.599 Y-9.258
X-115.512 Y-9.152
X-115.382 Y-8.994
X-115.366 Y-8.964
X-115.361 Y-8.93
X-115.368 Y-8.897
X-115.386 Y-8.868
X-115.412 Y-8.846
X-115.445 Y-8.835
X-115.479
X-115.556 Y-8.849
X-116.188 Y-8.965
X-116.221 Y-8.977
X-116.248 Y-9.001
X-116.265 Y-9.033
X-116.269 Y-9.068
X-116.262 Y-9.152
X-116.264 Y-9.195
X-116.266 Y-9.27
X-116.206 Y-9.407
X-116.093 Y-9.505
X-116.075 Y-9.512
X-115.949 Y-9.534
X-115.825 Y-9.502
X-115.726 Y-9.42
X-115.599 Y-9.258
X-115.583 Y-9.225
X-115.58 Y-9.189
X-115.591 Y-9.153
X-115.613 Y-9.124
X-115.645 Y-9.105
X-115.681 Y-9.099
X-116.166 Y-9.108
X-116.201 Y-9.115
X-116.231 Y-9.133
X-116.253 Y-9.161
X-116.264 Y-9.195
X-116.268 Y-9.237
X-116.288 Y-9.321
X-116.291 Y-9.331
X-116.302 Y-9.367
X-116.298 Y-9.442
X-116.273 Y-9.513
X-116.172 Y-9.602
X-116.041 Y-9.636
X-115.909 Y-9.607
X-115.805 Y-9.521
X-115.789 Y-9.486
X-115.787 Y-9.449
X-115.8 Y-9.413
X-115.825 Y-9.384
X-115.859 Y-9.367
X-116.172 Y-9.277
X-116.207 Y-9.273
X-116.242 Y-9.282
X-116.271 Y-9.302
X-116.291 Y-9.331
X-116.322 Y-9.406
X-116.346 Y-9.448
X-116.365 Y-9.48
X-116.36 Y-9.555
X-116.333 Y-9.625
X-116.232 Y-9.707
X-116.105 Y-9.735
X-115.979 Y-9.704
X-115.879 Y-9.62
X-115.781 Y-9.49
X-115.726 Y-9.42
X-115.711 Y-9.388
X-115.707 Y-9.353
X-115.717 Y-9.318
X-115.738 Y-9.289
X-115.767 Y-9.269
X-115.802 Y-9.261
X-115.837 Y-9.266
X-116.297 Y-9.413
X-116.324 Y-9.427
X-116.346 Y-9.448
X-116.376 Y-9.49
X-116.397 Y-9.516
X-116.419 Y-9.546
X-116.435 Y-9.619
X-116.418 Y-9.692
X-116.324 Y-9.79
X-116.194 Y-9.831
X-116.06 Y-9.806
X-115.954 Y-9.72
X-115.939 Y-9.686
X-115.937 Y-9.648
X-115.95 Y-9.612
X-115.975 Y-9.584
X-116.009 Y-9.567
X-116.295 Y-9.486
X-116.332 Y-9.483
X-116.367 Y-9.493
X-116.397 Y-9.516
X-116.46 Y-9.592
X-116.483 Y-9.621
X-116.507 Y-9.693
X-116.497 Y-9.767
X-116.431 Y-9.902
X-116.331 Y-9.947
X-116.222 Y-9.95
X-116.12 Y-9.911
X-116.04 Y-9.836
X-115.909 Y-9.659
X-115.879 Y-9.62
X-115.864 Y-9.584
X-115.863 Y-9.544
X-115.879 Y-9.507
X-115.907 Y-9.479
X-115.944 Y-9.465
X-115.984 Y-9.466
X-116.409 Y-9.562
X-116.437 Y-9.573
X-116.46 Y-9.592
X-116.545 Y-9.69
X-116.568 Y-9.72
X-116.589 Y-9.792
Y-9.867
X-116.525 Y-9.966
X-116.425 Y-10.03
X-116.308 Y-10.045
X-116.195 Y-10.01
X-116.107 Y-9.931
X-116.04 Y-9.836
X-116.026 Y-9.805
X-116.024 Y-9.77
X-116.034 Y-9.737
X-116.054 Y-9.709
X-116.083 Y-9.69
X-116.117 Y-9.681
X-116.465 Y-9.658
X-116.494 Y-9.661
X-116.522 Y-9.672
X-116.545 Y-9.69
X-116.629 Y-9.789
X-116.652 Y-9.818
X-116.672 Y-9.891
X-116.664 Y-9.965
X-116.606 Y-10.104
X-116.5 Y-10.156
X-116.382 Y-10.162
X-116.271 Y-10.122
X-116.185 Y-10.041
X-116.107 Y-9.931
X-116.093 Y-9.899
X-116.091 Y-9.864
X-116.101 Y-9.831
X-116.122 Y-9.803
X-116.151 Y-9.784
X-116.185 Y-9.776
X-116.551 Y-9.757
X-116.58 Y-9.759
X-116.607 Y-9.77
X-116.629 Y-9.789
X-116.714 Y-9.887
X-116.76 Y-9.946
X-116.772 Y-10.02
X-116.762 Y-10.095
X-116.697 Y-10.23
X-116.691 Y-10.233
X-116.584 Y-10.282
X-116.466 Y-10.286
X-116.356 Y-10.243
X-116.271 Y-10.162
X-116.185 Y-10.041
X-116.172 Y-10.01
X-116.169 Y-9.975
X-116.179 Y-9.942
X-116.199 Y-9.914
X-116.227 Y-9.895
X-116.26 Y-9.886
X-116.632 Y-9.855
X-116.662 Y-9.857
X-116.69 Y-9.868
X-116.714 Y-9.887
X-116.808 Y-9.997
X-116.853 Y-10.057
X-116.867 Y-10.131
X-116.86 Y-10.206
X-116.8 Y-10.343
X-116.789 Y-10.352
X-116.68 Y-10.406
X-116.558 Y-10.412
X-116.444 Y-10.37
X-116.357 Y-10.285
X-116.271 Y-10.162
X-116.257 Y-10.131
X-116.255 Y-10.098
X-116.264 Y-10.065
X-116.283 Y-10.038
X-116.311 Y-10.018
X-116.343 Y-10.008
X-116.721 Y-9.964
X-116.753 Y-9.965
X-116.783 Y-9.977
X-116.808 Y-9.997
X-116.902 Y-10.112
X-116.947 Y-10.172
X-116.964 Y-10.245
X-116.959 Y-10.32
X-116.902 Y-10.459
X-116.883 Y-10.475
X-116.773 Y-10.533
X-116.648 Y-10.542
X-116.531 Y-10.498
X-116.441 Y-10.411
X-116.357 Y-10.285
X-116.342 Y-10.248
X-116.344 Y-10.208
X-116.36 Y-10.172
X-116.39 Y-10.146
X-116.427 Y-10.133
X-116.814 Y-10.079
X-116.846 Y-10.08
X-116.877 Y-10.091
X-116.902 Y-10.112
X-117.016 Y-10.25
X-117.059 Y-10.312
X-117.068 Y-10.386
X-117.042 Y-10.534
X-116.947 Y-10.65
X-116.931 Y-10.659
X-116.789 Y-10.694
X-116.648 Y-10.658
X-116.54 Y-10.56
X-116.441 Y-10.411
X-116.428 Y-10.38
X-116.427 Y-10.347
X-116.436 Y-10.314
X-116.456 Y-10.287
X-116.484 Y-10.268
X-116.516 Y-10.259
X-116.93 Y-10.217
X-116.962 Y-10.219
X-116.991 Y-10.23
X-117.016 Y-10.25
X-117.119 Y-10.385
X-117.162 Y-10.446
X-117.175 Y-10.596
X-117.115 Y-10.733
X-117 Y-10.83
X-116.993 Y-10.833
X-116.862 Y-10.848
X-116.737 Y-10.806
X-116.642 Y-10.714
X-116.54 Y-10.56
X-116.527 Y-10.523
X-116.528 Y-10.484
X-116.545 Y-10.448
X-116.574 Y-10.422
X-116.611 Y-10.409
X-117.028 Y-10.35
X-117.062 Y-10.351
X-117.094 Y-10.363
X-117.119 Y-10.385
X-117.222 Y-10.517
X-117.264 Y-10.579
X-117.277 Y-10.653
X-117.258 Y-10.801
X-117.178 Y-10.928
X-117.152 Y-10.946
X-117.043 Y-10.989
X-116.926 Y-10.988
X-116.818 Y-10.942
X-116.736 Y-10.858
X-116.642 Y-10.714
X-116.629 Y-10.678
X-116.631 Y-10.64
X-116.646 Y-10.605
X-116.674 Y-10.578
X-116.709 Y-10.564
X-117.125 Y-10.483
X-117.161 Y-10.482
X-117.194 Y-10.494
X-117.222 Y-10.517
X-117.326 Y-10.652
X-117.368 Y-10.714
X-117.393 Y-10.862
X-117.343 Y-11.003
X-117.24 Y-11.112
X-117.215 Y-11.123
X-117.073 Y-11.152
X-116.935 Y-11.11
X-116.831 Y-11.009
X-116.78 Y-10.926
X-116.736 Y-10.858
X-116.723 Y-10.822
X-116.724 Y-10.784
X-116.739 Y-10.75
X-116.766 Y-10.723
X-116.801 Y-10.708
X-117.228 Y-10.618
X-117.264 Y-10.617
X-117.298 Y-10.629
X-117.326 Y-10.652
X-117.391 Y-10.739
X-117.444 Y-10.815
X-117.484 Y-10.879
X-117.503 Y-11.028
X-117.447 Y-11.167
X-117.337 Y-11.27
X-117.314 Y-11.281
X-117.172 Y-11.31
X-117.032 Y-11.269
X-116.929 Y-11.167
X-116.831 Y-11.009
X-116.819 Y-10.973
X-116.821 Y-10.936
X-116.837 Y-10.901
X-116.865 Y-10.875
X-116.9 Y-10.862
X-117.346 Y-10.777
X-117.382
X-117.417 Y-10.79
X-117.444 Y-10.815
X-117.475 Y-10.861
X-117.541 Y-10.96
X-117.58 Y-11.025
X-117.595 Y-11.098
X-117.578 Y-11.247
X-117.499 Y-11.375
X-117.377 Y-11.462
X-117.366 Y-11.465
X-117.238 Y-11.472
X-117.119 Y-11.425
X-117.03 Y-11.333
X-116.929 Y-11.167
X-116.917 Y-11.132
X-116.918 Y-11.095
X-116.933 Y-11.061
X-116.96 Y-11.035
X-116.994 Y-11.02
X-117.438 Y-10.921
X-117.477 Y-10.92
X-117.513 Y-10.934
X-117.541 Y-10.96
X-117.645 Y-11.116
X-117.683 Y-11.18
X-117.703 Y-11.329
X-117.649 Y-11.469
X-117.551 Y-11.582
X-117.52 Y-11.599
X-117.411 Y-11.632
X-117.298 Y-11.621
X-117.197 Y-11.57
X-117.122 Y-11.484
X-117.092 Y-11.433
X-117.03 Y-11.333
X-117.018 Y-11.298
X-117.02 Y-11.262
X-117.034 Y-11.228
X-117.06 Y-11.202
X-117.093 Y-11.187
X-117.539 Y-11.077
X-117.579 Y-11.075
X-117.616 Y-11.089
X-117.645 Y-11.116
X-117.743 Y-11.264
X-117.782 Y-11.329
X-117.813 Y-11.475
X-117.767 Y-11.618
X-117.667 Y-11.73
X-117.617 Y-11.758
X-117.504 Y-11.795
X-117.386 Y-11.785
X-117.281 Y-11.73
X-117.205 Y-11.638
X-117.137 Y-11.511
X-117.122 Y-11.484
X-117.111 Y-11.45
X-117.112 Y-11.414
X-117.127 Y-11.381
X-117.152 Y-11.355
X-117.185 Y-11.34
X-117.637 Y-11.225
X-117.677 Y-11.223
X-117.714 Y-11.237
X-117.743 Y-11.264
X-117.814 Y-11.37
X-117.853 Y-11.433
X-117.89 Y-11.499
X-117.904 Y-11.572
X-117.887 Y-11.721
X-117.809 Y-11.849
X-117.691 Y-11.942
X-117.66 Y-11.953
X-117.521 Y-11.967
X-117.39 Y-11.916
X-117.297 Y-11.811
X-117.205 Y-11.638
X-117.196 Y-11.604
X-117.199 Y-11.568
X-117.214 Y-11.536
X-117.24 Y-11.511
X-117.273 Y-11.497
X-117.749 Y-11.391
X-117.788
X-117.825 Y-11.405
X-117.853 Y-11.433
X-117.958 Y-11.602
X-117.994 Y-11.668
X-118.009 Y-11.817
X-117.953 Y-11.956
X-117.854 Y-12.069
X-117.723 Y-12.142
X-117.711 Y-12.144
X-117.586 Y-12.14
X-117.474 Y-12.085
X-117.393 Y-11.99
X-117.297 Y-11.811
X-117.288 Y-11.776
X-117.291 Y-11.74
X-117.306 Y-11.708
X-117.332 Y-11.683
X-117.365 Y-11.669
X-117.853 Y-11.56
X-117.883 Y-11.558
X-117.912 Y-11.565
X-117.938 Y-11.58
X-117.958 Y-11.602
X-118.061 Y-11.771
X-118.097 Y-11.837
X-118.111 Y-11.986
X-118.056 Y-12.126
X-117.959 Y-12.24
X-117.829 Y-12.315
X-117.819 Y-12.318
X-117.685
X-117.564 Y-12.261
X-117.48 Y-12.157
X-117.393 Y-11.99
X-117.383 Y-11.956
X-117.386 Y-11.92
X-117.401 Y-11.888
X-117.427 Y-11.863
X-117.459 Y-11.849
X-117.954 Y-11.729
X-117.985 Y-11.726
X-118.014 Y-11.733
X-118.041 Y-11.748
X-118.061 Y-11.771
X-118.152 Y-11.92
X-118.188 Y-11.985
X-118.22 Y-12.132
X-118.175 Y-12.275
X-118.084 Y-12.394
X-117.96 Y-12.479
X-117.927 Y-12.489
X-117.786 Y-12.499
X-117.657 Y-12.443
X-117.567 Y-12.335
X-117.559 Y-12.303
X-117.561 Y-12.27
X-117.574 Y-12.239
X-117.597 Y-12.215
X-118.007 Y-11.896
X-118.036 Y-11.88
X-118.069 Y-11.875
X-118.101 Y-11.88
X-118.13 Y-11.896
X-118.152 Y-11.92
X-118.216 Y-12.024
X-118.262 Y-12.109
X-118.295 Y-12.176
X-118.314 Y-12.325
X-118.261 Y-12.466
X-118.168 Y-12.583
X-118.04 Y-12.661
X-118.008 Y-12.671
X-117.869 Y-12.678
X-117.742 Y-12.622
X-117.654 Y-12.514
X-117.48 Y-12.157
X-117.472 Y-12.124
X-117.475 Y-12.09
X-117.49 Y-12.059
X-117.514 Y-12.035
X-117.545 Y-12.02
X-117.579 Y-12.017
X-118.183 Y-12.06
X-118.214 Y-12.067
X-118.241 Y-12.084
X-118.262 Y-12.109
X-118.321 Y-12.218
X-118.365 Y-12.303
X-118.396 Y-12.372
X-118.404 Y-12.521
X-118.345 Y-12.66
X-118.247 Y-12.773
X-118.117 Y-12.847
X-118.088 Y-12.855
X-117.952 Y-12.858
X-117.829 Y-12.801
X-117.743 Y-12.696
X-117.654 Y-12.514
X-117.646 Y-12.48
X-117.65 Y-12.445
X-117.666 Y-12.414
X-117.691 Y-12.39
X-117.723 Y-12.376
X-118.256 Y-12.254
X-118.288 Y-12.252
X-118.319 Y-12.26
X-118.346 Y-12.278
X-118.365 Y-12.303
X-118.452 Y-12.472
X-118.482 Y-12.541
X-118.5 Y-12.689
X-118.447 Y-12.83
X-118.351 Y-12.945
X-118.223 Y-13.024
X-118.18 Y-13.037
X-118.036 Y-13.043
X-117.906 Y-12.983
X-117.819 Y-12.868
X-117.745 Y-12.7
X-117.743 Y-12.696
X-117.735 Y-12.662
X-117.738 Y-12.628
X-117.753 Y-12.597
X-117.778 Y-12.573
X-117.81 Y-12.558
X-118.339 Y-12.424
X-118.372 Y-12.421
X-118.404 Y-12.429
X-118.431 Y-12.447
X-118.452 Y-12.472
X-118.548 Y-12.662
X-118.579 Y-12.73
X-118.59 Y-12.88
X-118.532 Y-13.018
X-118.434 Y-13.132
X-118.306 Y-13.209
X-118.255 Y-13.224
X-118.109 Y-13.23
X-117.978 Y-13.166
X-117.892 Y-13.048
X-117.886 Y-13.015
X-117.891 Y-12.982
X-117.907 Y-12.953
X-117.932 Y-12.93
X-118.407 Y-12.626
X-118.437 Y-12.613
X-118.469 Y-12.611
X-118.501 Y-12.619
X-118.528 Y-12.636
X-118.548 Y-12.662
X-118.635 Y-12.831
X-118.665 Y-12.899
X-118.686 Y-13.048
X-118.634 Y-13.188
X-118.539 Y-13.305
X-118.414 Y-13.387
X-118.272 Y-13.436
X-118.256 Y-13.437
X-118.138 Y-13.415
X-118.039 Y-13.349
X-117.973 Y-13.249
X-117.819 Y-12.868
X-117.812 Y-12.836
X-117.817 Y-12.802
X-117.832 Y-12.772
X-117.856 Y-12.749
X-117.886 Y-12.735
X-117.92 Y-12.732
X-118.555 Y-12.78
X-118.586 Y-12.788
X-118.614 Y-12.805
X-118.635 Y-12.831
X-118.74 Y-13.038
X-118.771 Y-13.106
Y-13.256
X-118.709 Y-13.393
X-118.609 Y-13.505
X-118.486 Y-13.59
X-118.343 Y-13.635
X-118.338
X-118.217 Y-13.613
X-118.114 Y-13.545
X-118.048 Y-13.44
X-118.024 Y-13.376
X-117.973 Y-13.249
X-117.967 Y-13.215
X-117.972 Y-13.182
X-117.989 Y-13.152
X-118.014 Y-13.13
X-118.045 Y-13.117
X-118.631 Y-12.989
X-118.663 Y-12.987
X-118.694 Y-12.995
X-118.72 Y-13.013
X-118.74 Y-13.038
X-118.826 Y-13.207
X-118.857 Y-13.275
X-118.867 Y-13.425
X-118.811 Y-13.564
X-118.719 Y-13.682
X-118.599 Y-13.772
X-118.46 Y-13.827
X-118.433 Y-13.83
X-118.302 Y-13.815
X-118.19 Y-13.745
X-118.119 Y-13.634
X-118.048 Y-13.44
X-118.043 Y-13.408
X-118.048 Y-13.376
X-118.064 Y-13.347
X-118.088 Y-13.325
X-118.118 Y-13.312
X-118.714 Y-13.158
X-118.747 Y-13.156
X-118.778 Y-13.163
X-118.806 Y-13.181
X-118.826 Y-13.207
X-118.911 Y-13.376
X-118.933 Y-13.424
X-118.96 Y-13.494
X-118.951 Y-13.644
X-118.887 Y-13.78
X-118.788 Y-13.893
X-118.667 Y-13.98
X-118.525 Y-14.029
X-118.498 Y-14.031
X-118.369 Y-14.013
X-118.26 Y-13.944
X-118.191 Y-13.834
X-118.119 Y-13.634
X-118.114 Y-13.601
X-118.12 Y-13.569
X-118.137 Y-13.54
X-118.162 Y-13.518
X-118.193 Y-13.506
X-118.822 Y-13.37
X-118.855 Y-13.369
X-118.887 Y-13.378
X-118.914 Y-13.397
X-118.933 Y-13.424
X-119.012 Y-13.604
X-119.039 Y-13.674
X-119.041 Y-13.824
X-118.983 Y-13.962
X-118.889 Y-14.079
X-118.769 Y-14.169
X-118.63 Y-14.225
X-118.585 Y-14.231
X-118.448 Y-14.218
X-118.331 Y-14.145
X-118.259 Y-14.027
X-118.237 Y-13.961
X-118.191 Y-13.834
X-118.186 Y-13.802
X-118.192 Y-13.77
X-118.208 Y-13.741
X-118.232 Y-13.719
X-118.262 Y-13.706
X-118.268 Y-13.705
X-118.898 Y-13.55
X-118.932 Y-13.548
X-118.965 Y-13.557
X-118.992 Y-13.576
X-119.012 Y-13.604
X-119.023 Y-13.629
X-119.092 Y-13.798
X-119.117 Y-13.869
X-119.124 Y-14.019
X-119.067 Y-14.158
X-118.974 Y-14.275
X-118.855 Y-14.367
X-118.716 Y-14.424
X-118.655 Y-14.434
X-118.513 Y-14.422
X-118.392 Y-14.347
X-118.32 Y-14.224
X-118.259 Y-14.027
X-118.255 Y-13.996
X-118.261 Y-13.964
X-118.277 Y-13.936
X-118.301 Y-13.915
X-118.331 Y-13.902
X-118.35 Y-13.898
X-118.977 Y-13.742
X-119.012 Y-13.739
X-119.045 Y-13.749
X-119.073 Y-13.769
X-119.092 Y-13.798
X-119.183 Y-14.021
X-119.207 Y-14.091
X-119.201 Y-14.241
X-119.137 Y-14.377
X-119.038 Y-14.49
X-118.917 Y-14.577
X-118.776 Y-14.631
X-118.713 Y-14.64
X-118.573 Y-14.627
X-118.454 Y-14.552
X-118.382 Y-14.43
X-118.379 Y-14.397
X-118.387 Y-14.366
X-118.404 Y-14.338
X-118.43 Y-14.317
X-118.502 Y-14.277
X-119.043 Y-13.974
X-119.074 Y-13.963
X-119.107
X-119.138 Y-13.973
X-119.164 Y-13.993
X-119.183 Y-14.021
X-119.264 Y-14.22
X-119.288 Y-14.291
X-119.282 Y-14.441
X-119.218 Y-14.577
X-119.12 Y-14.69
X-118.999 Y-14.779
X-118.86 Y-14.835
X-118.712 Y-14.861
X-118.697 Y-14.859
X-118.586 Y-14.822
X-118.497 Y-14.746
X-118.444 Y-14.642
X-118.442 Y-14.61
X-118.45 Y-14.579
X-118.467 Y-14.551
X-118.492 Y-14.531
X-118.585 Y-14.479
X-119.123 Y-14.174
X-119.154 Y-14.163
X-119.187 Y-14.162
X-119.219 Y-14.173
X-119.245 Y-14.193
X-119.264 Y-14.22
X-119.337 Y-14.4
X-119.361 Y-14.471
X-119.369 Y-14.621
X-119.311 Y-14.759
X-119.218 Y-14.877
X-119.101 Y-14.971
X-118.967 Y-15.038
X-118.822 Y-15.074
X-118.789
X-118.664 Y-15.045
X-118.562 Y-14.967
X-118.503 Y-14.853
X-118.501 Y-14.822
X-118.508 Y-14.791
X-118.525 Y-14.765
X-118.549 Y-14.744
X-118.666 Y-14.673
X-119.194 Y-14.355
X-119.225 Y-14.343
X-119.259 Y-14.342
X-119.291 Y-14.352
X-119.318 Y-14.372
X-119.337 Y-14.4
X-119.421 Y-14.609
X-119.446 Y-14.68
X-119.448 Y-14.829
X-119.389 Y-14.968
X-119.296 Y-15.085
X-119.179 Y-15.179
X-119.047 Y-15.25
X-118.901 Y-15.287
X-118.856
X-118.727 Y-15.261
X-118.622 Y-15.182
X-118.56 Y-15.065
X-118.558 Y-15.034
X-118.566 Y-15.003
X-118.583 Y-14.977
X-118.607 Y-14.957
X-118.747 Y-14.875
X-119.279 Y-14.563
X-119.311 Y-14.551
X-119.344 Y-14.55
X-119.376 Y-14.561
X-119.403 Y-14.581
X-119.421 Y-14.609
X-119.469 Y-14.727
X-119.5 Y-14.812
X-119.506 Y-14.834
X-119.538 Y-14.981
X-119.498 Y-15.125
X-119.417 Y-15.251
X-119.31 Y-15.357
X-119.183 Y-15.437
X-119.043 Y-15.49
X-118.894 Y-15.51
X-118.871 Y-15.507
X-118.758 Y-15.469
X-118.668 Y-15.39
X-118.617 Y-15.282
X-118.575 Y-15.121
X-118.491 Y-14.807
X-118.421 Y-14.558
X-118.32 Y-14.224
X-118.317 Y-14.19
X-118.326 Y-14.157
X-118.345 Y-14.128
X-118.373 Y-14.108
X-118.407 Y-14.099
X-118.441 Y-14.102
X-118.472 Y-14.115
X-118.87 Y-14.382
X-119.466 Y-14.781
X-119.49 Y-14.804
X-119.506 Y-14.834
X-119.569 Y-15.065
X-119.596 Y-15.213
X-119.556 Y-15.357
X-119.472 Y-15.481
X-119.362 Y-15.583
X-119.233 Y-15.66
X-119.093 Y-15.713
X-118.944 Y-15.73
X-118.926 Y-15.728
X-118.811 Y-15.689
X-118.721 Y-15.609
X-118.67 Y-15.499
X-118.647 Y-15.403
X-118.617 Y-15.282
X-118.616 Y-15.243
X-118.631 Y-15.207
X-118.658 Y-15.179
X-118.693 Y-15.163
X-118.83 Y-15.133
X-119.452 Y-14.997
X-119.489 Y-14.996
X-119.524 Y-15.008
X-119.552 Y-15.032
X-119.569 Y-15.065
X-119.629 Y-15.318
X-119.642 Y-15.392
X-119.625 Y-15.541
X-119.551 Y-15.672
X-119.447 Y-15.78
X-119.324 Y-15.865
X-119.186 Y-15.924
X-119.038 Y-15.951
X-118.998 Y-15.949
X-118.873 Y-15.915
X-118.775 Y-15.832
X-118.72 Y-15.716
X-118.67 Y-15.499
Y-15.459
X-118.685 Y-15.423
X-118.713 Y-15.395
X-118.75 Y-15.381
X-118.887 Y-15.357
X-119.515 Y-15.246
X-119.552 Y-15.247
X-119.586 Y-15.26
X-119.613 Y-15.285
X-119.629 Y-15.318
X-119.682 Y-15.546
X-119.696 Y-15.62
X-119.676 Y-15.768
X-119.602 Y-15.899
X-119.497 Y-16.006
X-119.372 Y-16.088
X-119.233 Y-16.147
X-119.085 Y-16.17
X-119.044 Y-16.168
X-118.92 Y-16.133
X-118.821 Y-16.049
X-118.768 Y-15.931
X-118.72 Y-15.716
Y-15.676
X-118.736 Y-15.64
X-118.765 Y-15.612
X-118.802 Y-15.598
X-118.939 Y-15.576
X-119.57 Y-15.473
X-119.606 Y-15.474
X-119.64 Y-15.488
X-119.667 Y-15.513
X-119.682 Y-15.546
X-119.739 Y-15.787
X-119.753 Y-15.861
X-119.724 Y-16.008
X-119.644 Y-16.135
X-119.536 Y-16.239
X-119.409 Y-16.318
X-119.269 Y-16.372
X-119.12 Y-16.392
X-119.079 Y-16.388
X-118.957 Y-16.35
X-118.861 Y-16.264
X-118.811 Y-16.146
X-118.781 Y-15.994
X-118.768 Y-15.931
X-118.767 Y-15.898
X-118.777 Y-15.868
X-118.796 Y-15.842
X-118.823 Y-15.823
X-118.854 Y-15.814
X-118.993 Y-15.796
X-119.63 Y-15.714
X-119.666 Y-15.716
X-119.698 Y-15.73
X-119.724 Y-15.755
X-119.739 Y-15.787
X-119.788 Y-15.994
X-119.802 Y-16.068
X-119.78 Y-16.216
X-119.704 Y-16.346
X-119.598 Y-16.452
X-119.472 Y-16.533
X-119.334 Y-16.59
X-119.185 Y-16.614
X-119.132 Y-16.611
X-119.005 Y-16.575
X-118.906 Y-16.489
X-118.854 Y-16.368
X-118.811 Y-16.146
X-118.812 Y-16.107
X-118.829 Y-16.071
X-118.858 Y-16.045
X-118.895 Y-16.032
X-119.043 Y-16.011
X-119.678 Y-15.921
X-119.714 Y-15.923
X-119.747 Y-15.937
X-119.773 Y-15.962
X-119.788 Y-15.994
X-119.828 Y-16.163
X-119.844 Y-16.243
X-119.853 Y-16.318
X-119.82 Y-16.464
X-119.738 Y-16.59
X-119.628 Y-16.691
X-119.499 Y-16.767
X-119.358 Y-16.819
X-119.209 Y-16.837
X-119.158 Y-16.832
X-119.03 Y-16.791
X-118.933 Y-16.697
X-118.887 Y-16.571
X-118.889 Y-16.539
X-118.902 Y-16.509
X-118.923 Y-16.485
X-118.95 Y-16.469
X-119.138 Y-16.396
X-119.711 Y-16.173
X-119.744 Y-16.167
X-119.778 Y-16.171
X-119.808 Y-16.187
X-119.831 Y-16.212
X-119.844 Y-16.243
X-119.881 Y-16.463
X-119.889 Y-16.537
X-119.863 Y-16.685
X-119.782 Y-16.812
X-119.672 Y-16.913
X-119.543 Y-16.99
X-119.402 Y-17.042
X-119.253 Y-17.061
X-119.188 Y-17.055
X-119.058 Y-17.014
X-118.96 Y-16.92
X-118.913 Y-16.792
X-118.889 Y-16.585
X-118.878 Y-16.501
X-118.854 Y-16.368
X-118.855 Y-16.331
X-118.87 Y-16.296
X-118.896 Y-16.27
X-118.93 Y-16.255
X-118.968 Y-16.254
X-119.143 Y-16.281
X-119.798 Y-16.384
X-119.827 Y-16.393
X-119.852 Y-16.41
X-119.871 Y-16.434
X-119.881 Y-16.463
X-119.887 Y-16.501
X-119.916 Y-16.716
X-119.923 Y-16.791
X-119.887 Y-16.937
X-119.801 Y-17.059
X-119.686 Y-17.157
X-119.648 Y-17.177
X-119.603 Y-17.197
X-119.555 Y-17.209
X-119.506 Y-17.213
X-119.47 Y-17.205
X-119.44 Y-17.184
X-119.419 Y-17.154
X-119.41 Y-17.119
X-119.415 Y-17.082
X-119.432 Y-17.05
X-119.74 Y-16.67
X-119.769 Y-16.646
X-119.805 Y-16.634
X-119.843 Y-16.636
X-119.877 Y-16.653
X-119.903 Y-16.681
X-119.916 Y-16.716
X-119.951 Y-16.97
X-119.956 Y-17.008
X-119.962 Y-17.054
X-119.964 Y-17.084
X-119.914 Y-17.152
X-119.843 Y-17.197
X-119.76 Y-17.213
X-119.714 Y-17.204
X-119.674 Y-17.18
X-119.643 Y-17.145
X-119.626 Y-17.102
X-119.623 Y-17.056
X-119.635 Y-17.011
G3 X-119.962 Y-17.054 I-0.157 J-0.072
G1 X-119.967 Y-17.092
X-119.968 Y-17.103
X-119.967 Y-17.113
X-119.965 Y-17.124
X-119.962 Y-17.134
X-119.958 Y-17.145
X-119.952 Y-17.156
X-119.944 Y-17.166
X-119.929 Y-17.181
X-119.908 Y-17.196
X-119.897 Y-17.202
X-119.887 Y-17.207
X-119.876 Y-17.21
X-119.865 Y-17.212
X-119.844 Y-17.213
X-119.205
X-119.167
X-119.121
X-119.032 Y-17.208
X-119.004 Y-17.191
X-118.986 Y-17.164
X-118.984 Y-17.131
X-118.997 Y-17.101
X-119.022 Y-17.08
X-119.054 Y-17.072
X-119.12 Y-17.074
X-119.149 Y-17.081
X-119.173 Y-17.1
X-119.186 Y-17.128
Y-17.158
X-119.174 Y-17.186
X-119.15 Y-17.205
X-119.121 Y-17.213
X-119.051 Y-17.212
X-119.04 Y-17.211
X-119.03 Y-17.208
X-119.019 Y-17.204
X-119.009 Y-17.198
X-118.998 Y-17.19
X-118.974 Y-17.166
X-118.966 Y-17.156
X-118.961 Y-17.145
X-118.956 Y-17.134
X-118.953 Y-17.124
X-118.949 Y-17.092
X-118.913 Y-16.792
X-118.918 Y-16.753
X-118.937 Y-16.719
X-118.967 Y-16.695
X-119.005 Y-16.684
X-119.043 Y-16.681 Z-0.982
X-119.075 Y-16.678 Z-0.961
X-119.097 Y-16.676 Z-0.928
X-119.104 Y-16.675 Z-0.89
G0 Z2
X-115.329 Y-8.104
Z-0.79
G1 Z-0.89 F1000
X-115.335 Y-8.1 Z-0.928
X-115.354 Y-8.089 Z-0.961
X-115.382 Y-8.073 Z-0.982
X-115.415 Y-8.053 Z-0.99
G3 X-116.168 Y-7.832 I-0.809 J-1.36
G1 X-116.422
X-116.572 Y-7.839
X-116.7 Y-7.918
X-116.8 Y-8.03
X-116.872 Y-8.161
X-116.913 Y-8.305
Y-8.328
X-116.886 Y-8.457
X-116.806 Y-8.562
X-116.689 Y-8.623
X-116.654 Y-8.624
X-116.621 Y-8.614
X-116.593 Y-8.592
X-116.575 Y-8.563
X-116.557 Y-8.519
X-116.333 Y-7.969
X-116.326 Y-7.932
X-116.333 Y-7.894
X-116.354 Y-7.862
X-116.385 Y-7.84
X-116.422 Y-7.832
X-116.676
X-116.751 Y-7.835
X-116.891 Y-7.889
X-117 Y-7.992
X-117.08 Y-8.119
X-117.116 Y-8.264
X-117.115 Y-8.317
X-117.091 Y-8.428
X-117.028 Y-8.523
X-116.934 Y-8.587
X-116.822 Y-8.611
X-116.799 Y-8.612
X-116.714 Y-8.616
X-116.629 Y-8.638
X-116.61 Y-8.646
X-116.545 Y-8.677
X-116.509 Y-8.685
X-116.472 Y-8.68
X-116.44 Y-8.661
X-116.416 Y-8.632
X-116.405 Y-8.597
X-116.408 Y-8.559
X-116.413 Y-8.541
X-116.583 Y-7.906
X-116.596 Y-7.877
X-116.617 Y-7.853
X-116.645 Y-7.838
X-116.676 Y-7.832
X-116.93
X-117.005 Y-7.835
X-117.14 Y-7.901
X-117.239 Y-8.013
X-117.303 Y-8.149
X-117.326 Y-8.297
X-117.318 Y-8.35
X-117.266 Y-8.481
X-117.16 Y-8.573
X-117.024 Y-8.607
X-116.883 Y-8.61
X-116.822 Y-8.611
X-116.788 Y-8.605
X-116.758 Y-8.587
X-116.736 Y-8.56
X-116.725 Y-8.527
Y-8.492
X-116.835 Y-7.913
X-116.847 Y-7.882
X-116.868 Y-7.856
X-116.897 Y-7.839
X-116.93 Y-7.832
X-117.137
X-117.212 Y-7.835
X-117.348 Y-7.898
X-117.448 Y-8.01
X-117.512 Y-8.146
X-117.53 Y-8.295
X-117.524 Y-8.345
X-117.472 Y-8.478
X-117.365 Y-8.573
X-117.226 Y-8.607
X-117.024
X-116.99 Y-8.6
X-116.96 Y-8.582
X-116.939 Y-8.555
X-116.928 Y-8.522
Y-8.488
X-117.042 Y-7.912
X-117.054 Y-7.881
X-117.076 Y-7.856
X-117.104 Y-7.838
X-117.137 Y-7.832
X-117.353
X-117.428 Y-7.835
X-117.563 Y-7.901
X-117.66 Y-8.015
X-117.72 Y-8.152
X-117.735 Y-8.302
X-117.728 Y-8.349
X-117.676 Y-8.481
X-117.569 Y-8.573
X-117.431 Y-8.607
X-117.226
X-117.192 Y-8.599
X-117.162 Y-8.581
X-117.141 Y-8.553
X-117.13 Y-8.52
X-117.132 Y-8.485
X-117.259 Y-7.91
X-117.271 Y-7.88
X-117.292 Y-7.855
X-117.321 Y-7.838
X-117.353 Y-7.832
X-117.56
X-117.635 Y-7.835
X-117.77 Y-7.9
X-117.867 Y-8.014
X-117.927 Y-8.152
X-117.942 Y-8.301
X-117.935 Y-8.35
X-117.882 Y-8.481
X-117.775 Y-8.573
X-117.638 Y-8.607
X-117.431
X-117.397 Y-8.599
X-117.368 Y-8.581
X-117.346 Y-8.553
X-117.336 Y-8.52
X-117.337 Y-8.485
X-117.466 Y-7.91
X-117.478 Y-7.88
X-117.5 Y-7.855
X-117.528 Y-7.838
X-117.56 Y-7.832
X-117.776
X-117.851 Y-7.835
X-117.984 Y-7.905
X-118.078 Y-8.021
X-118.135 Y-8.16
X-118.148 Y-8.31
X-118.14 Y-8.355
X-118.087 Y-8.484
X-117.98 Y-8.574
X-117.844 Y-8.607
X-117.638
X-117.603 Y-8.599
X-117.573 Y-8.58
X-117.552 Y-8.552
X-117.542 Y-8.519
X-117.544 Y-8.483
X-117.682 Y-7.908
X-117.695 Y-7.879
X-117.716 Y-7.854
X-117.744 Y-7.838
X-117.776 Y-7.832
X-117.983
X-118.058 Y-7.835
X-118.191 Y-7.905
X-118.285 Y-8.022
X-118.342 Y-8.16
X-118.355 Y-8.31
X-118.347 Y-8.355
X-118.293 Y-8.484
X-118.187 Y-8.574
X-118.051 Y-8.607
X-117.844
X-117.81 Y-8.599
X-117.78 Y-8.58
X-117.759 Y-8.552
X-117.748 Y-8.519
X-117.75 Y-8.483
X-117.889 Y-7.908
X-117.902 Y-7.878
X-117.923 Y-7.854
X-117.951 Y-7.838
X-117.983 Y-7.832
X-118.199
X-118.274 Y-7.835
X-118.404 Y-7.91
X-118.496 Y-8.028
X-118.551 Y-8.168
X-118.561 Y-8.317
X-118.554 Y-8.359
X-118.499 Y-8.486
X-118.393 Y-8.575
X-118.258 Y-8.607
X-118.051
X-118.016 Y-8.599
X-117.986 Y-8.58
X-117.965 Y-8.552
X-117.955 Y-8.517
X-117.958 Y-8.482
X-118.105 Y-7.907
X-118.118 Y-7.878
X-118.14 Y-7.854
X-118.167 Y-7.838
X-118.199 Y-7.832
X-118.368
X-118.443 Y-7.835
X-118.584 Y-7.886
X-118.687 Y-7.995
X-118.75 Y-8.131
X-118.771 Y-8.28
X-118.754 Y-8.43
X-118.688 Y-8.523
X-118.592 Y-8.585
X-118.48 Y-8.607
X-118.258
X-118.225 Y-8.6
X-118.195 Y-8.582
X-118.174 Y-8.555
X-118.163 Y-8.522
X-118.164 Y-8.488
X-118.273 Y-7.913
X-118.285 Y-7.882
X-118.306 Y-7.856
X-118.335 Y-7.839
X-118.368 Y-7.832
X-118.575
X-118.65 Y-7.835
X-118.791 Y-7.887
X-118.893 Y-7.997
X-118.957 Y-8.133
X-118.986 Y-8.28
X-118.979 Y-8.339
X-118.929 Y-8.475
X-118.821 Y-8.572
X-118.681 Y-8.607
X-118.48
X-118.447 Y-8.6
X-118.418 Y-8.582
X-118.397 Y-8.556
X-118.385 Y-8.524
Y-8.491
X-118.48 Y-7.915
X-118.491 Y-7.883
X-118.513 Y-7.857
X-118.542 Y-7.839
X-118.575 Y-7.832
X-118.791
X-118.866 Y-7.835
X-119.004 Y-7.893
X-119.105 Y-8.005
X-119.169 Y-8.14
X-119.189 Y-8.289
X-119.183 Y-8.341
X-119.133 Y-8.476
X-119.025 Y-8.572
X-118.885 Y-8.607
X-118.681
X-118.647 Y-8.6
X-118.618 Y-8.582
X-118.597 Y-8.555
X-118.586 Y-8.522
Y-8.488
X-118.696 Y-7.913
X-118.708 Y-7.881
X-118.729 Y-7.856
X-118.758 Y-7.839
X-118.791 Y-7.832
X-118.998
X-119.073 Y-7.835
X-119.212 Y-7.893
X-119.313 Y-8.004
X-119.376 Y-8.14
X-119.395 Y-8.288
X-119.388 Y-8.342
X-119.337 Y-8.477
X-119.23 Y-8.572
X-119.09 Y-8.607
X-118.885
X-118.851 Y-8.6
X-118.822 Y-8.582
X-118.801 Y-8.555
X-118.79 Y-8.522
Y-8.487
X-118.904 Y-7.912
X-118.915 Y-7.881
X-118.937 Y-7.856
X-118.965 Y-7.838
X-118.998 Y-7.832
X-119.214
X-119.289 Y-7.835
X-119.426 Y-7.897
X-119.524 Y-8.011
X-119.584 Y-8.148
X-119.6 Y-8.297
X-119.593 Y-8.347
X-119.541 Y-8.48
X-119.434 Y-8.573
X-119.296 Y-8.607
X-119.09
X-119.056 Y-8.599
X-119.027 Y-8.581
X-119.005 Y-8.554
X-118.995 Y-8.521
X-118.996 Y-8.486
X-119.12 Y-7.911
X-119.132 Y-7.88
X-119.153 Y-7.855
X-119.182 Y-7.838
X-119.214 Y-7.832
X-119.421
X-119.496 Y-7.835
X-119.633 Y-7.898
X-119.73 Y-8.011
X-119.79 Y-8.149
X-119.806 Y-8.298
X-119.799 Y-8.348
X-119.747 Y-8.48
X-119.64 Y-8.573
X-119.502 Y-8.607
X-119.296
X-119.262 Y-8.599
X-119.232 Y-8.581
X-119.211 Y-8.553
X-119.2 Y-8.52
X-119.202 Y-8.486
X-119.327 Y-7.91
X-119.339 Y-7.88
X-119.361 Y-7.855
X-119.389 Y-7.838
X-119.421 Y-7.832
X-119.637
X-119.712 Y-7.835
X-119.846 Y-7.903
X-119.941 Y-8.019
X-119.999 Y-8.157
X-120.012 Y-8.307
X-120.005 Y-8.353
X-119.951 Y-8.483
X-119.845 Y-8.574
X-119.708 Y-8.607
X-119.502
X-119.468 Y-8.599
X-119.438 Y-8.581
X-119.417 Y-8.553
X-119.406 Y-8.519
X-119.408 Y-8.484
X-119.543 Y-7.909
X-119.556 Y-7.879
X-119.577 Y-7.854
X-119.605 Y-7.838
X-119.637 Y-7.832
X-119.844
X-119.919 Y-7.835
X-120.053 Y-7.903
X-120.148 Y-8.019
X-120.206 Y-8.158
X-120.219 Y-8.307
X-120.212 Y-8.353
X-120.158 Y-8.483
X-120.052 Y-8.574
X-119.915 Y-8.607
X-119.708
X-119.674 Y-8.599
X-119.644 Y-8.581
X-119.623 Y-8.553
X-119.613 Y-8.519
X-119.615 Y-8.484
X-119.75 Y-7.909
X-119.763 Y-7.879
X-119.784 Y-7.854
X-119.812 Y-7.838
X-119.844 Y-7.832
X-120.06
X-120.135 Y-7.835
X-120.266 Y-7.908
X-120.359 Y-8.026
X-120.414 Y-8.165
X-120.425 Y-8.315
X-120.418 Y-8.358
X-120.363 Y-8.485
X-120.257 Y-8.575
X-120.122 Y-8.607
X-119.915
X-119.881 Y-8.599
X-119.851 Y-8.58
X-119.829 Y-8.552
X-119.819 Y-8.518
X-119.822 Y-8.482
X-119.966 Y-7.907
X-119.979 Y-7.878
X-120.001 Y-7.854
X-120.028 Y-7.838
X-120.06 Y-7.832
X-120.229
X-120.304 Y-7.835
X-120.446 Y-7.884
X-120.549 Y-7.993
X-120.613 Y-8.129
X-120.635 Y-8.277
X-120.619 Y-8.426
X-120.552 Y-8.522
X-120.456 Y-8.585
X-120.344 Y-8.607
X-120.122
X-120.089 Y-8.6
X-120.06 Y-8.582
X-120.038 Y-8.555
X-120.027 Y-8.523
Y-8.489
X-120.134 Y-7.913
X-120.146 Y-7.882
X-120.167 Y-7.856
X-120.196 Y-7.839
X-120.229 Y-7.832
X-120.483
X-120.558 Y-7.835
X-120.688 Y-7.911
X-120.778 Y-8.031
X-120.83 Y-8.171
X-120.85 Y-8.32
X-120.842 Y-8.361
X-120.787 Y-8.487
X-120.681 Y-8.575
X-120.547 Y-8.607
X-120.344
X-120.309 Y-8.599
X-120.28 Y-8.58
X-120.258 Y-8.552
X-120.248 Y-8.519
X-120.25 Y-8.483
X-120.389 Y-7.908
X-120.402 Y-7.878
X-120.423 Y-7.854
X-120.451 Y-7.838
X-120.483 Y-7.832
X-120.652
X-120.727 Y-7.835
X-120.867 Y-7.888
X-120.969 Y-7.999
X-121.035 Y-8.134
X-121.058 Y-8.282
X-121.051 Y-8.34
X-121.001 Y-8.475
X-120.893 Y-8.572
X-120.753 Y-8.607
X-120.547
X-120.514 Y-8.6
X-120.485 Y-8.582
X-120.463 Y-8.555
X-120.452 Y-8.523
Y-8.489
X-120.557 Y-7.914
X-120.569 Y-7.882
X-120.59 Y-7.856
X-120.619 Y-7.839
X-120.652 Y-7.832
X-120.859
X-120.934 Y-7.835
X-121.074 Y-7.889
X-121.177 Y-7.999
X-121.242 Y-8.134
X-121.262 Y-8.282
X-121.256 Y-8.339
X-121.207 Y-8.475
X-121.099 Y-8.572
X-120.958 Y-8.607
X-120.753
X-120.72 Y-8.6
X-120.69 Y-8.582
X-120.669 Y-8.555
X-120.658 Y-8.523
Y-8.489
X-120.765 Y-7.913
X-120.776 Y-7.882
X-120.798 Y-7.856
X-120.826 Y-7.839
X-120.859 Y-7.832
X-121.075
X-121.15 Y-7.835
X-121.288 Y-7.894
X-121.388 Y-8.006
X-121.45 Y-8.142
X-121.468 Y-8.291
X-121.461 Y-8.344
X-121.41 Y-8.478
X-121.303 Y-8.573
X-121.163 Y-8.607
X-120.958
X-120.924 Y-8.6
X-120.895 Y-8.581
X-120.874 Y-8.554
X-120.863 Y-8.521
X-120.864 Y-8.487
X-120.981 Y-7.912
X-120.993 Y-7.881
X-121.014 Y-7.855
X-121.043 Y-7.838
X-121.075 Y-7.832
X-121.282
X-121.329
X-121.367
X-121.41 Y-7.834
X-121.479 Y-7.899
X-121.523 Y-7.982
X-121.54 Y-8.075
G3 X-121.247 Y-8.22 I0.184 J0.004
X-121.367 Y-7.832 I-0.127 J0.173
G1 X-121.43
X-121.441 Y-7.833
X-121.452 Y-7.835
X-121.468 Y-7.842
X-121.484 Y-7.851
X-121.502 Y-7.868
X-121.517 Y-7.885
X-121.524 Y-7.896
X-121.53 Y-7.907
X-121.534 Y-7.917
X-121.536 Y-7.928
X-121.538 Y-7.97
X-121.545 Y-8.392
X-121.546 Y-8.439
Y-8.477
Y-8.482
X-121.537 Y-8.523
X-121.517 Y-8.561
X-121.487 Y-8.59
X-121.449 Y-8.602
X-121.41 Y-8.601
X-121.372 Y-8.588
X-121.339 Y-8.563
X-121.317 Y-8.528
X-121.308 Y-8.488
X-121.314 Y-8.447
X-121.333 Y-8.41
X-121.363 Y-8.382
X-121.401 Y-8.367
X-121.442 Y-8.365
X-121.482 Y-8.377
X-121.515 Y-8.402
X-121.537 Y-8.436
X-121.546 Y-8.477
Y-8.508
X-121.542 Y-8.524
X-121.536 Y-8.54
X-121.53 Y-8.551
X-121.522 Y-8.561
X-121.504 Y-8.577
X-121.487 Y-8.59
X-121.469 Y-8.6
X-121.452 Y-8.605
X-121.441 Y-8.606
X-121.163 Y-8.607
X-121.135 Y-8.602
X-121.11 Y-8.589
X-121.093 Y-8.56 Z-0.983
X-121.078 Y-8.535 Z-0.966
X-121.067 Y-8.516 Z-0.939
Y-8.507 Z-0.916
Y-8.503 Z-0.89
G0 Z2
X-112.665 Y-12.663
Z0.5
G3 X-112.181 Y-12.788 Z0.29 I0.242 J-0.062 F333.3
X-112.665 Y-12.663 Z0.079 I-0.242 J0.062
X-112.181 Y-12.788 Z-0.131 I0.242 J-0.062
X-112.665 Y-12.663 Z-0.342 I-0.242 J0.062
X-112.181 Y-12.788 Z-0.552 I0.242 J-0.062
X-112.665 Y-12.663 Z-0.763 I-0.242 J0.062
X-112.455 Y-12.973 Z-0.876 I0.242 J-0.062
X-112.173 Y-12.725 Z-0.99 I0.031 J0.248
X-112.673 I-0.25
X-112.173 I0.25
G1 X-112.136 Y-12.58 F1000
X-112.149 Y-12.506
X-112.186 Y-12.441
X-112.293 Y-12.336
X-112.438 Y-12.296
X-112.586 Y-12.317
X-112.717 Y-12.391
X-112.813 Y-12.506
X-112.865 Y-12.647
X-112.868 Y-12.797
X-112.82 Y-12.939
X-112.728 Y-13.057
X-112.602 Y-13.139
X-112.457 Y-13.175
X-112.307 Y-13.161
X-112.171 Y-13.099
X-112.062 Y-12.995
X-111.984 Y-12.867
X-111.934 Y-12.726
X-111.923 Y-12.576
X-111.958 Y-12.431
X-112.029 Y-12.298
X-112.137 Y-12.195
X-112.268 Y-12.121
X-112.414 Y-12.088
X-112.564 Y-12.095
X-112.709 Y-12.136
X-112.838 Y-12.212
X-112.945 Y-12.317
X-113.027 Y-12.443
X-113.076 Y-12.585
X-113.091 Y-12.734
X-113.074 Y-12.883
X-113.024 Y-13.024
X-112.941 Y-13.149
X-112.835 Y-13.255
X-112.707 Y-13.334
X-112.565 Y-13.38
X-112.415 Y-13.397
X-112.267 Y-13.379
X-112.126 Y-13.326
X-111.999 Y-13.246
X-111.891 Y-13.143
X-111.803 Y-13.021
X-111.74 Y-12.885
X-111.702 Y-12.739
X-111.694 Y-12.59
X-111.716 Y-12.441
X-111.724 Y-12.421
X-111.759 Y-12.35
X-111.812 Y-12.291
X-111.879 Y-12.248
X-111.892 Y-12.241
X-111.967 Y-12.193
X-111.976 Y-12.186
X-112.061 Y-12.102
X-112.089 Y-12.063
X-112.133 Y-12.003
X-112.26 Y-11.922
X-112.404 Y-11.88
X-112.554 Y-11.872
X-112.702 Y-11.897
X-112.842 Y-11.949
X-112.972 Y-12.025
X-113.013 Y-12.061
X-113.067 Y-12.122
X-113.102 Y-12.196
X-113.116 Y-12.277
X-113.122 Y-12.531
X-113.125 Y-12.784
Y-12.869
X-113.121 Y-13.038
X-113.111 Y-13.187
X-113.045 Y-13.322
X-112.946 Y-13.435
X-112.824 Y-13.522
X-112.687 Y-13.583
X-112.541 Y-13.618
X-112.391 Y-13.629
X-112.242 Y-13.613
X-112.185 Y-13.596
X-112.094 Y-13.552
X-112.023 Y-13.479
X-111.979 Y-13.387
X-111.976 Y-13.376
X-111.959 Y-13.333
X-111.939 Y-13.291
X-111.794 Y-13.038
X-111.723 Y-12.914
X-111.69 Y-12.869
X-111.638 Y-12.805
X-111.549 Y-12.684
X-111.542 Y-12.657
X-111.535 Y-12.539
X-111.574 Y-12.428
X-111.653 Y-12.34
X-111.76 Y-12.29
X-111.799 Y-12.289
X-111.835 Y-12.304
X-111.863 Y-12.331
X-111.878 Y-12.367
X-111.879 Y-12.406
X-111.812 Y-12.758
X-111.798 Y-12.792
X-111.773 Y-12.82
X-111.739 Y-12.836
X-111.702 Y-12.839
X-111.667 Y-12.828
X-111.638 Y-12.805
X-111.552 Y-12.7
X-111.494 Y-12.633
X-111.448 Y-12.573
X-111.453 Y-12.449
X-111.527 Y-12.349
X-111.643 Y-12.306
X-111.687 Y-12.31
X-111.729 Y-12.325
X-111.766 Y-12.349
X-111.797 Y-12.38
G3 X-111.494 Y-12.633 I0.158 J-0.119
G1 X-111.406 Y-12.531
X-111.384 Y-12.506
X-111.351 Y-12.473
X-111.333 Y-12.453
X-111.373 Y-12.362
X-111.454 Y-12.306
X-111.553 Y-12.299
X-111.582 Y-12.315
X-111.601 Y-12.341
X-111.606 Y-12.373
G3 X-111.351 Y-12.473 I0.152 J0.012
G1 X-111.324 Y-12.447
X-111.3 Y-12.424
X-111.286 Y-12.409
X-111.274 Y-12.383
X-111.272 Y-12.378
X-111.278 Y-12.37
X-111.303 Y-12.347
X-111.335 Y-12.333
X-111.369 Y-12.331
X-111.837 Y-12.385
X-111.875 Y-12.397
X-111.905 Y-12.423
X-111.923 Y-12.459
X-111.925 Y-12.498
X-111.912 Y-12.536
X-111.885 Y-12.565
X-111.849 Y-12.582
G3 X-111.286 Y-12.409 I0.136 J0.56
G1 X-111.278 Y-12.393
X-111.272 Y-12.378
X-111.269 Y-12.362
Y-12.352
Y-12.341
X-111.275 Y-12.317
X-111.278 Y-12.31
X-111.296 Y-12.289
X-111.323 Y-12.278
X-111.351 Y-12.279
X-111.379 Y-12.294
X-111.396 Y-12.321
X-111.398 Y-12.353
X-111.385 Y-12.382
X-111.36 Y-12.401
X-111.328 Y-12.406
X-111.298 Y-12.396
X-111.277 Y-12.372
X-111.269 Y-12.341
X-111.271 Y-12.331
X-111.274 Y-12.32
X-111.278 Y-12.31
X-111.283 Y-12.3
X-111.29 Y-12.289
X-111.301 Y-12.278
X-111.311 Y-12.269
X-111.322 Y-12.263
X-111.332 Y-12.258
X-111.342 Y-12.254
X-111.353 Y-12.252
X-111.363 Y-12.251
X-111.374
X-111.384 Y-12.252
X-111.403 Y-12.257
X-111.458 Y-12.278
X-112.183 Y-12.58
X-112.442 Y-12.689
X-113.06 Y-12.947
X-113.092 Y-12.968
X-113.114 Y-13
X-113.121 Y-13.038
X-113.12 Y-13.122
X-113.11 Y-13.338
X-113.096 Y-13.487
X-113.016 Y-13.614
X-112.904 Y-13.714
X-112.774 Y-13.788
X-112.633 Y-13.838
X-112.485 Y-13.863
X-112.335 Y-13.866
X-112.281 Y-13.857
X-112.172 Y-13.816
X-112.086 Y-13.735
X-112.038 Y-13.628
X-111.999 Y-13.46
X-111.979 Y-13.387
X-111.978 Y-13.352
X-111.988 Y-13.318
X-112.009 Y-13.29
X-112.039 Y-13.272
X-112.074 Y-13.264
X-112.383 Y-13.255
X-113.007 Y-13.237
X-113.039 Y-13.241
X-113.068 Y-13.255
X-113.091 Y-13.277
X-113.105 Y-13.306
X-113.11 Y-13.338
X-113.099 Y-13.591
X-113.085 Y-13.74
X-113.003 Y-13.866
X-112.888 Y-13.963
X-112.756 Y-14.033
X-112.613 Y-14.08
X-112.465 Y-14.103
X-112.315 Y-14.097
X-112.3 Y-14.093
X-112.198 Y-14.044
X-112.122 Y-13.96
X-112.082 Y-13.855
X-112.057 Y-13.714
X-112.038 Y-13.628
X-112.037 Y-13.594
X-112.049 Y-13.561
X-112.07 Y-13.534
X-112.1 Y-13.516
X-112.134 Y-13.509
X-112.372 Y-13.504
X-112.997 Y-13.49
X-113.036 Y-13.497
X-113.069 Y-13.519
X-113.091 Y-13.552
X-113.099 Y-13.591
X-113.093 Y-13.714
X-113.076 Y-13.883
X-113.065 Y-13.957
X-112.995 Y-14.089
X-112.885 Y-14.191
X-112.754 Y-14.265
X-112.612 Y-14.313
X-112.464 Y-14.336
X-112.313 Y-14.324
X-112.211 Y-14.266
X-112.14 Y-14.173
X-112.109 Y-14.061
X-112.101 Y-13.967
X-112.082 Y-13.855
X-112.083 Y-13.82
X-112.096 Y-13.788
X-112.12 Y-13.762
X-112.151 Y-13.746
X-112.185 Y-13.741
X-112.355 Y-13.749
X-112.981 Y-13.777
X-113.019 Y-13.786
X-113.051 Y-13.81
X-113.071 Y-13.843
X-113.076 Y-13.883
X-113.068 Y-13.967
X-113.046 Y-14.136
X-113.033 Y-14.21
X-112.96 Y-14.341
X-112.847 Y-14.44
X-112.715 Y-14.51
X-112.57 Y-14.551
X-112.421 Y-14.564
X-112.371 Y-14.555
X-112.246 Y-14.502
X-112.157 Y-14.4
X-112.122 Y-14.268
X-112.12 Y-14.22
X-112.109 Y-14.061
X-112.114 Y-14.027
X-112.129 Y-13.997
X-112.154 Y-13.974
X-112.185 Y-13.96
X-112.218 Y-13.957
X-112.331 Y-13.968
X-112.956 Y-14.027
X-112.993 Y-14.038
X-113.024 Y-14.063
X-113.042 Y-14.097
X-113.046 Y-14.136
X-113.013 Y-14.389
X-112.999 Y-14.463
X-112.922 Y-14.592
X-112.805 Y-14.686
X-112.669 Y-14.75
X-112.523 Y-14.782
X-112.41 Y-14.778
X-112.298 Y-14.752
X-112.204 Y-14.685
X-112.143 Y-14.587
X-112.124 Y-14.474
X-112.123 Y-14.305
X-112.122 Y-14.268
X-112.128 Y-14.235
X-112.145 Y-14.205
X-112.171 Y-14.183
X-112.203 Y-14.171
X-112.238 Y-14.17
X-112.302 Y-14.181
X-112.929 Y-14.281
X-112.964 Y-14.294
X-112.992 Y-14.319
X-113.009 Y-14.352
X-113.013 Y-14.389
X-112.992 Y-14.548
X-112.967 Y-14.643
X-112.921 Y-14.785
X-112.813 Y-14.89
X-112.68 Y-14.96
X-112.535 Y-14.995
X-112.385 Y-14.997
X-112.336 Y-14.984
X-112.214 Y-14.92
X-112.134 Y-14.807
X-112.113 Y-14.671
X-112.122 Y-14.558
X-112.124 Y-14.474
X-112.132 Y-14.44
X-112.15 Y-14.412
X-112.178 Y-14.391
X-112.21 Y-14.381
X-112.245 Y-14.382
X-112.278 Y-14.389
X-112.891 Y-14.522
X-112.927 Y-14.538
X-112.954 Y-14.567
X-112.968 Y-14.603
X-112.967 Y-14.643
X-112.921 Y-14.812
X-112.897 Y-14.896
X-112.872 Y-14.967
X-112.783 Y-15.088
X-112.655 Y-15.165
X-112.511 Y-15.207
X-112.361 Y-15.204
X-112.313 Y-15.191
X-112.184 Y-15.119
X-112.105 Y-14.995
X-112.095 Y-14.848
X-112.101 Y-14.812
X-112.113 Y-14.671
X-112.123 Y-14.637
X-112.144 Y-14.609
X-112.174 Y-14.59
X-112.208 Y-14.582
X-112.243 Y-14.587
X-112.831 Y-14.776
X-112.864 Y-14.794
X-112.888 Y-14.823
X-112.9 Y-14.859
X-112.897 Y-14.896
X-112.822 Y-15.145
X-112.796 Y-15.215
X-112.696 Y-15.327
X-112.561 Y-15.391
X-112.412 Y-15.414
X-112.264 Y-15.394
X-112.231 Y-15.38
X-112.125 Y-15.301
X-112.064 Y-15.184
X-112.058 Y-15.053
X-112.095 Y-14.848
X-112.108 Y-14.815
X-112.133 Y-14.789
X-112.165 Y-14.773
X-112.2 Y-14.769
X-112.235 Y-14.779
X-112.768 Y-15.028
X-112.796 Y-15.048
X-112.816 Y-15.077
X-112.825 Y-15.11
X-112.822 Y-15.145
X-112.752 Y-15.365
X-112.732 Y-15.419
X-112.633 Y-15.531
X-112.496 Y-15.593
X-112.347 Y-15.614
X-112.2 Y-15.587
X-112.175 Y-15.575
X-112.072 Y-15.49
X-112.015 Y-15.37
X-112.016 Y-15.236
X-112.056 Y-15.065
X-112.058 Y-15.053
X-112.072 Y-15.019
X-112.098 Y-14.992
X-112.131 Y-14.977
X-112.167 Y-14.974
X-112.202 Y-14.985
X-112.703 Y-15.25
X-112.73 Y-15.27
X-112.748 Y-15.298
X-112.756 Y-15.331
X-112.752 Y-15.365
X-112.738 Y-15.411
X-112.671 Y-15.572
X-112.639 Y-15.64
X-112.532 Y-15.745
X-112.391 Y-15.796
X-112.241 Y-15.803
X-112.097 Y-15.762
X-112.081 Y-15.751
X-111.987 Y-15.649
X-111.948 Y-15.515
X-111.975 Y-15.379
X-111.994 Y-15.352
X-112.021 Y-15.333
X-112.053 Y-15.324
X-112.086 Y-15.325
X-112.599 Y-15.439
X-112.63 Y-15.452
X-112.656 Y-15.475
X-112.672 Y-15.505
X-112.677 Y-15.538
X-112.671 Y-15.572
X-112.583 Y-15.783
X-112.551 Y-15.851
X-112.436 Y-15.948
X-112.292 Y-15.99
X-112.142 Y-15.989
X-112.002 Y-15.936
X-111.985 Y-15.923
X-111.899 Y-15.82
X-111.866 Y-15.691
X-111.893 Y-15.56
X-111.975 Y-15.379
X-111.996 Y-15.35
X-112.025 Y-15.331
X-112.059 Y-15.323
X-112.094 Y-15.327
X-112.125 Y-15.343
X-112.55 Y-15.668
X-112.572 Y-15.692
X-112.585 Y-15.72
X-112.589 Y-15.752
X-112.583 Y-15.783
X-112.506 Y-15.968
X-112.475 Y-16.033
X-112.364 Y-16.134
X-112.222 Y-16.18
X-112.072 Y-16.178
X-111.931 Y-16.127
X-111.903 Y-16.107
X-111.809 Y-15.997
X-111.777 Y-15.856
X-111.815 Y-15.717
X-111.849 Y-15.656
X-111.893 Y-15.56
X-111.913 Y-15.532
X-111.943 Y-15.513
X-111.977 Y-15.505
X-112.012 Y-15.509
X-112.043 Y-15.525
X-112.473 Y-15.853
X-112.495 Y-15.876
X-112.509 Y-15.905
X-112.512 Y-15.936
X-112.506 Y-15.968
X-112.459 Y-16.079
X-112.373 Y-16.189
X-112.347 Y-16.221
X-112.298 Y-16.277
X-112.166 Y-16.349
X-112.016 Y-16.36
X-111.872 Y-16.32
X-111.744 Y-16.241
X-111.739 Y-16.235
X-111.683 Y-16.125
X-111.675 Y-16.003
X-111.717 Y-15.887
X-111.815 Y-15.717
X-111.84 Y-15.69
X-111.872 Y-15.673
X-111.909 Y-15.669
X-111.944 Y-15.679
X-111.974 Y-15.7
X-112.34 Y-16.093
X-112.359 Y-16.122
X-112.367 Y-16.156
X-112.363 Y-16.19
X-112.347 Y-16.221
X-112.209 Y-16.395
X-112.159 Y-16.451
X-112.024 Y-16.515
X-111.874 Y-16.516
X-111.73 Y-16.475
X-111.691 Y-16.446
X-111.615 Y-16.364
X-111.575 Y-16.259
Y-16.147
X-111.617 Y-16.043
X-111.717 Y-15.887
X-111.743 Y-15.861
X-111.776 Y-15.846
X-111.813 Y-15.844
X-111.848 Y-15.855
X-111.877 Y-15.879
X-112.205 Y-16.271
X-112.222 Y-16.3
X-112.229 Y-16.332
X-112.224 Y-16.365
X-112.209 Y-16.395
X-112.081 Y-16.556
X-112.031 Y-16.612
X-111.895 Y-16.675
X-111.745 Y-16.678
X-111.652 Y-16.642
X-111.534 Y-16.561
X-111.467 Y-16.434
Y-16.291
X-111.532 Y-16.163
X-111.553 Y-16.138
X-111.594 Y-16.079
X-111.617 Y-16.043
X-111.644 Y-16.017
X-111.679 Y-16.002
X-111.716 Y-16.001
X-111.751 Y-16.014
X-111.779 Y-16.039
X-112.08 Y-16.436
X-112.095 Y-16.464
X-112.1 Y-16.495
X-112.096 Y-16.527
X-112.081 Y-16.556
X-111.99 Y-16.67
X-111.976 Y-16.685
X-111.898 Y-16.754
X-111.838 Y-16.799
X-111.691 Y-16.831
X-111.544 Y-16.8
X-111.419 Y-16.718
X-111.39 Y-16.684
X-111.335 Y-16.585
X-111.321 Y-16.474
X-111.349 Y-16.364
X-111.415 Y-16.273
X-111.532 Y-16.163
X-111.563 Y-16.145
X-111.598 Y-16.138
X-111.633 Y-16.145
X-111.664 Y-16.164
X-111.686 Y-16.192
X-111.918 Y-16.635
X-111.928 Y-16.666
Y-16.698
X-111.917 Y-16.729
X-111.898 Y-16.754
X-111.746 Y-16.881
X-111.686 Y-16.926
X-111.54 Y-16.962
X-111.394 Y-16.928
X-111.27 Y-16.844
X-111.24 Y-16.805
X-111.183 Y-16.671
X-111.196 Y-16.525
X-111.277 Y-16.402
X-111.415 Y-16.273
X-111.447 Y-16.254
X-111.484 Y-16.248
X-111.521 Y-16.257
X-111.551 Y-16.278
X-111.573 Y-16.309
X-111.771 Y-16.767
X-111.779 Y-16.797
X-111.777 Y-16.828
X-111.765 Y-16.857
X-111.746 Y-16.881
X-111.593 Y-17.008
X-111.533 Y-17.053
X-111.388 Y-17.089
X-111.242 Y-17.053
X-111.121 Y-16.964
X-111.031 Y-16.845
X-111.03 Y-16.84
X-111.017 Y-16.715
X-111.057 Y-16.595
X-111.143 Y-16.502
X-111.215 Y-16.451
X-111.261 Y-16.416
X-111.277 Y-16.402
X-111.309 Y-16.384
X-111.347 Y-16.378
X-111.383 Y-16.387
X-111.414 Y-16.409
X-111.434 Y-16.441
X-111.619 Y-16.896
X-111.626 Y-16.925
X-111.624 Y-16.956
X-111.613 Y-16.984
X-111.593 Y-17.008
X-111.469 Y-17.111
X-111.445 Y-17.128
X-111.426 Y-17.142
X-111.405 Y-17.153
X-111.261 Y-17.196
X-111.113 Y-17.175
X-110.982 Y-17.101
X-110.884 Y-16.987
X-110.878 Y-16.973
X-110.856 Y-16.835
X-110.898 Y-16.702
X-110.996 Y-16.602
X-111.046 Y-16.57
X-111.143 Y-16.502
X-111.177 Y-16.488
X-111.214 Y-16.487
X-111.249 Y-16.5
X-111.276 Y-16.525
X-111.293 Y-16.558
X-111.435 Y-17.042
X-111.439 Y-17.079
X-111.429 Y-17.115
X-111.406 Y-17.144
X-111.375 Y-17.164
X-111.168 Y-17.236
X-111.096 Y-17.257
X-110.946 Y-17.26
X-110.813 Y-17.192
X-110.719 Y-17.076
X-110.713 Y-17.06
X-110.696 Y-16.916
X-110.749 Y-16.78
X-110.859 Y-16.686
X-110.877 Y-16.677
X-110.996 Y-16.602
X-111.031 Y-16.59
X-111.069 Y-16.592
X-111.104 Y-16.607
X-111.13 Y-16.635
X-111.144 Y-16.67
X-111.23 Y-17.124
X-111.231 Y-17.158
X-111.22 Y-17.191
X-111.198 Y-17.218
X-111.168 Y-17.236
X-110.961 Y-17.308
X-110.889 Y-17.329
X-110.739 Y-17.32
X-110.613 Y-17.239
X-110.533 Y-17.112
X-110.527 Y-17.088
X-110.532 Y-16.943
X-110.604 Y-16.818
X-110.727 Y-16.74
X-110.792 Y-16.719
X-110.859 Y-16.686
X-110.897 Y-16.677
X-110.935 Y-16.683
X-110.968 Y-16.702
X-110.991 Y-16.733
X-111 Y-16.771
X-111.025 Y-17.209
X-111.022 Y-17.24
X-111.009 Y-17.269
X-110.988 Y-17.292
X-110.961 Y-17.308
X-110.771 Y-17.374
X-110.76 Y-17.377
X-110.75 Y-17.379
X-110.675 Y-17.386
X-110.527 Y-17.36
X-110.411 Y-17.265
X-110.346 Y-17.13
X-110.344 Y-17.112
X-110.361 Y-16.976
X-110.437 Y-16.861
X-110.556 Y-16.792
X-110.727 Y-16.74
X-110.765 Y-16.737
X-110.802 Y-16.748
X-110.831 Y-16.772
X-110.85 Y-16.805
X-110.855 Y-16.843
X-110.826 Y-17.288
X-110.819 Y-17.319
X-110.803 Y-17.347
X-110.779 Y-17.367
X-110.75 Y-17.379
X-110.538 Y-17.409
X-110.463 Y-17.415
X-110.39 Y-17.398
X-110.26 Y-17.323
X-110.182 Y-17.196
X-110.178 Y-17.176
X-110.179 Y-17.059
X-110.224 Y-16.951
X-110.308 Y-16.869
X-110.416 Y-16.825
X-110.454 Y-16.818
X-110.538 Y-16.798
X-110.556 Y-16.792
X-110.595 Y-16.79
X-110.632 Y-16.803
X-110.661 Y-16.829
X-110.678 Y-16.864
X-110.68 Y-16.903
X-110.62 Y-17.324
X-110.611 Y-17.354
X-110.593 Y-17.38
X-110.568 Y-17.399
X-110.538 Y-17.409
X-110.322 Y-17.438
X-110.248 Y-17.445
X-110.179 Y-17.415
X-110.059 Y-17.325
X-109.995 Y-17.189
X-109.994 Y-17.169
X-110.021 Y-17.027
X-110.112 Y-16.914
X-110.245 Y-16.857
X-110.284 Y-16.85
X-110.416 Y-16.825
X-110.45
X-110.481 Y-16.837
X-110.507 Y-16.858
X-110.525 Y-16.887
X-110.532 Y-16.92
X-110.527 Y-16.953
X-110.401 Y-17.369
X-110.384 Y-17.401
X-110.357 Y-17.426
X-110.322 Y-17.438
X-110.153 Y-17.462
X-110.078 Y-17.468
X-109.94 Y-17.411
X-109.845 Y-17.295
X-109.807 Y-17.15
X-109.809 Y-17.139
X-109.854 Y-17.015
X-109.948 Y-16.922
X-110.073 Y-16.878
X-110.2 Y-16.864
X-110.245 Y-16.857
X-110.284 Y-16.859
X-110.319 Y-16.877
X-110.345 Y-16.907
X-110.357 Y-16.945
X-110.353 Y-16.984
X-110.232 Y-17.392
X-110.215 Y-17.425
X-110.188 Y-17.449
X-110.153 Y-17.462
X-109.988 Y-17.484
X-109.967 Y-17.487
X-109.892 Y-17.481
X-109.822 Y-17.455
X-109.785 Y-17.427
X-109.696 Y-17.313
X-109.671 Y-17.17
X-109.715 Y-17.032
X-109.819 Y-16.931
X-109.959 Y-16.891
X-109.988 Y-16.888
X-110.073 Y-16.878
X-110.111 Y-16.883
X-110.145 Y-16.902
X-110.169 Y-16.932
X-110.18 Y-16.97
X-110.176 Y-17.008
X-110.047 Y-17.418
X-110.029 Y-17.451
X-110.002 Y-17.475
X-109.967 Y-17.487
X-109.946
X-109.777 Y-17.473
X-109.702 Y-17.463
X-109.637 Y-17.426
X-109.533 Y-17.318
X-109.495 Y-17.173
X-109.498 Y-17.145
X-109.533 Y-17.034
X-109.607 Y-16.944
X-109.71 Y-16.89
X-109.826 Y-16.878
X-109.959 Y-16.891
X-109.992 Y-16.896
X-110.021 Y-16.912
X-110.043 Y-16.937
X-110.056 Y-16.967
X-110.059 Y-17.001
X-110.05 Y-17.033
X-109.872 Y-17.415
X-109.849 Y-17.447
X-109.815 Y-17.467
X-109.777 Y-17.473
X-109.607 Y-17.46
X-109.533 Y-17.45
X-109.468 Y-17.412
X-109.414 Y-17.36
X-109.335 Y-17.233
X-109.322 Y-17.083
X-109.325 Y-17.072
X-109.398 Y-16.946
X-109.522 Y-16.87
X-109.667 Y-16.86
X-109.692 Y-16.865
X-109.826 Y-16.878
X-109.862 Y-16.89
X-109.891 Y-16.915
X-109.909 Y-16.949
X-109.912 Y-16.987
X-109.901 Y-17.024
X-109.701 Y-17.406
X-109.677 Y-17.436
X-109.645 Y-17.454
X-109.607 Y-17.46
X-109.438 Y-17.446
X-109.364 Y-17.434
X-109.298 Y-17.399
X-109.191 Y-17.294
X-109.139 Y-17.153
X-109.15 Y-17.003
X-109.155 Y-16.994
X-109.234 Y-16.891
X-109.35 Y-16.831
X-109.481 Y-16.826
X-109.667 Y-16.86
X-109.701 Y-16.875
X-109.727 Y-16.9
X-109.742 Y-16.933
X-109.745 Y-16.969
X-109.734 Y-17.004
X-109.531 Y-17.393
X-109.508 Y-17.422
X-109.475 Y-17.441
X-109.438 Y-17.446
X-109.354 Y-17.436
X-109.223 Y-17.412
X-109.15 Y-17.395
X-109.027 Y-17.309
X-108.963 Y-17.173
X-108.952 Y-17.023
X-108.962 Y-16.991
X-109.017 Y-16.887
X-109.107 Y-16.813
X-109.219 Y-16.778
X-109.336 Y-16.79
X-109.438 Y-16.818
X-109.481 Y-16.826
X-109.515 Y-16.841
X-109.541 Y-16.867
X-109.556 Y-16.901
X-109.558 Y-16.938
X-109.546 Y-16.973
X-109.324 Y-17.363
X-109.298 Y-17.393
X-109.262 Y-17.41
X-109.223 Y-17.412
X-109.1 Y-17.39
X-109.015 Y-17.369
X-108.943 Y-17.348
X-108.829 Y-17.252
X-108.77 Y-17.113
X-108.772 Y-16.963
X-108.789 Y-16.917
X-108.851 Y-16.816
X-108.948 Y-16.747
X-109.063 Y-16.721
X-109.18 Y-16.742
X-109.336 Y-16.79
X-109.368 Y-16.808
X-109.391 Y-16.836
X-109.403 Y-16.871
X-109.401 Y-16.908
X-109.386 Y-16.941
X-109.117 Y-17.328
X-109.09 Y-17.355
X-109.054 Y-17.37
X-109.015 Y-17.369
X-108.846 Y-17.329
X-108.774 Y-17.307
X-108.712 Y-17.266
X-108.619 Y-17.148
X-108.584 Y-17.002
X-108.604 Y-16.854
X-108.673 Y-16.72
X-108.784 Y-16.65
X-108.913 Y-16.634
X-109.037 Y-16.674
X-109.1 Y-16.711
X-109.18 Y-16.742
X-109.209 Y-16.761
X-109.23 Y-16.79
X-109.24 Y-16.824
X-109.237 Y-16.859
X-109.222 Y-16.891
X-108.948 Y-17.287
X-108.921 Y-17.314
X-108.885 Y-17.329
X-108.846
X-108.677 Y-17.287
X-108.652 Y-17.276
X-108.592 Y-17.241
X-108.53 Y-17.2
X-108.435 Y-17.084
X-108.4 Y-16.938
X-108.414 Y-16.788
X-108.476 Y-16.652
X-108.497 Y-16.628
X-108.614 Y-16.546
X-108.756 Y-16.528
X-108.89 Y-16.577
X-109.037 Y-16.674
X-109.062 Y-16.697
X-109.078 Y-16.727
X-109.083 Y-16.761
X-109.076 Y-16.794
X-109.059 Y-16.824
X-108.716 Y-17.219
X-108.689 Y-17.24
X-108.658 Y-17.252
X-108.624
X-108.592 Y-17.241
X-108.398 Y-17.126
X-108.335 Y-17.085
X-108.249 Y-16.962
X-108.224 Y-16.814
X-108.246 Y-16.666
X-108.316 Y-16.533
X-108.342 Y-16.505
X-108.435 Y-16.439
X-108.546 Y-16.412
X-108.659 Y-16.428
X-108.757 Y-16.485
X-108.778 Y-16.501
X-108.89 Y-16.577
X-108.914 Y-16.602
X-108.928 Y-16.633
X-108.931 Y-16.668
X-108.922 Y-16.701
X-108.902 Y-16.729
X-108.516 Y-17.11
X-108.49 Y-17.128
X-108.46 Y-17.138
X-108.428 Y-17.137
X-108.398 Y-17.126
X-108.222 Y-17.023
X-108.166 Y-16.986
X-108.075 Y-16.866
X-108.047 Y-16.719
X-108.068 Y-16.57
X-108.134 Y-16.435
X-108.234 Y-16.323
X-108.249 Y-16.314
X-108.374 Y-16.271
X-108.506 Y-16.286
X-108.618 Y-16.356
X-108.679 Y-16.416
X-108.757 Y-16.485
X-108.777 Y-16.511
X-108.788 Y-16.542
X-108.787 Y-16.575
X-108.776 Y-16.607
X-108.756 Y-16.632
X-108.337 Y-17.009
X-108.311 Y-17.026
X-108.282 Y-17.034
X-108.251 Y-17.033
X-108.222 Y-17.023
X-108.169 Y-16.992
X-108.127 Y-16.964
X-108 Y-16.853
X-107.946 Y-16.801
X-107.886 Y-16.664
X-107.888 Y-16.514
X-107.934 Y-16.371
X-108.014 Y-16.244
X-108.127 Y-16.146
X-108.135 Y-16.142
X-108.253 Y-16.117
X-108.37 Y-16.139
X-108.47 Y-16.206
X-108.618 Y-16.356
X-108.637 Y-16.385
X-108.645 Y-16.417
X-108.642 Y-16.451
X-108.628 Y-16.482
X-108.604 Y-16.506
X-108.122 Y-16.857
X-108.093 Y-16.871
X-108.061 Y-16.876
X-108.028 Y-16.87
X-108 Y-16.853
X-107.856 Y-16.728
X-107.802 Y-16.675
X-107.732 Y-16.543
X-107.728 Y-16.393
X-107.766 Y-16.248
X-107.841 Y-16.118
X-107.948 Y-16.012
X-107.985 Y-15.992
X-108.091 Y-15.957
X-108.203 Y-15.964
X-108.305 Y-16.012
X-108.382 Y-16.093
X-108.423 Y-16.158
X-108.427 Y-16.163
X-108.47 Y-16.206
X-108.488 Y-16.234
X-108.496 Y-16.265
X-108.493 Y-16.298
X-108.48 Y-16.328
X-108.458 Y-16.352
X-107.981 Y-16.728
X-107.952 Y-16.745
X-107.918 Y-16.75
X-107.885 Y-16.744
X-107.856 Y-16.728
X-107.693 Y-16.585
X-107.662 Y-16.558
X-107.647 Y-16.544
X-107.607 Y-16.48
X-107.567 Y-16.336
X-107.581 Y-16.186
X-107.637 Y-16.047
X-107.723 Y-15.925
X-107.839 Y-15.829
X-107.903 Y-15.801
X-108.046 Y-15.776
X-108.184 Y-15.822
X-108.284 Y-15.927
X-108.338 Y-16.022
X-108.382 Y-16.093
X-108.395 Y-16.131
X-108.392 Y-16.17
X-108.375 Y-16.206
X-108.345 Y-16.232
X-108.339 Y-16.235
X-107.764 Y-16.557
X-107.735 Y-16.568
X-107.704 Y-16.57
X-107.673 Y-16.561
X-107.647 Y-16.544
X-107.637 Y-16.529
X-107.492 Y-16.298
X-107.456 Y-16.232
X-107.438 Y-16.083
X-107.473 Y-15.938
X-107.547 Y-15.807
X-107.65 Y-15.698
X-107.778 Y-15.62
X-107.834 Y-15.601
X-107.975 Y-15.59
X-108.105 Y-15.645
X-108.196 Y-15.754
X-108.254 Y-15.87
X-108.284 Y-15.927
X-108.295 Y-15.958
X-108.294 Y-15.991
X-108.283 Y-16.022
X-108.263 Y-16.048
X-108.235 Y-16.065
X-108.209 Y-16.077
X-107.615 Y-16.333
X-107.582 Y-16.342
X-107.547 Y-16.338
X-107.516 Y-16.322
X-107.492 Y-16.298
X-107.372 Y-16.105
X-107.343 Y-16.053
X-107.318 Y-15.905
X-107.354 Y-15.759
X-107.427 Y-15.629
X-107.529 Y-15.518
X-107.655 Y-15.437
X-107.796 Y-15.386
X-107.815 Y-15.385
X-107.937 Y-15.403
X-108.041 Y-15.469
X-108.11 Y-15.571
X-108.148 Y-15.656
X-108.196 Y-15.754
X-108.204 Y-15.785
X-108.202 Y-15.817
X-108.19 Y-15.847
X-108.169 Y-15.871
X-108.141 Y-15.888
X-108.097 Y-15.905
X-107.491 Y-16.142
X-107.458 Y-16.149
X-107.425 Y-16.144
X-107.395 Y-16.129
X-107.372 Y-16.105
X-107.356 Y-16.079
X-107.323 Y-16.02
X-107.271 Y-15.91
X-107.253 Y-15.871
X-107.225 Y-15.801
X-107.221 Y-15.651
X-107.272 Y-15.51
X-107.36 Y-15.388
X-107.472 Y-15.289
X-107.602 Y-15.214
X-107.747 Y-15.177
X-107.753
X-107.868 Y-15.201
X-107.964 Y-15.268
X-108.028 Y-15.366
X-108.11 Y-15.571
X-108.116 Y-15.602
X-108.112 Y-15.634
X-108.098 Y-15.663
X-108.076 Y-15.686
X-108.047 Y-15.7
X-107.985 Y-15.721
X-107.374 Y-15.921
X-107.339 Y-15.926
X-107.304 Y-15.918
X-107.275 Y-15.899
X-107.253 Y-15.871
X-107.154 Y-15.656
X-107.126 Y-15.587
X-107.128 Y-15.437
X-107.185 Y-15.298
X-107.275 Y-15.178
X-107.388 Y-15.08
X-107.519 Y-15.006
X-107.664 Y-14.969
X-107.7
X-107.832 Y-15.001
X-107.936 Y-15.086
X-107.993 Y-15.209
X-108.021 Y-15.35
X-108.028 Y-15.366
X-108.034 Y-15.398
X-108.029 Y-15.429
X-108.015 Y-15.458
X-107.992 Y-15.481
X-107.963 Y-15.495
X-107.89 Y-15.518
X-107.273 Y-15.707
X-107.238 Y-15.711
X-107.204 Y-15.703
X-107.175 Y-15.684
X-107.154 Y-15.656
X-107.115 Y-15.572
X-107.079 Y-15.487
X-107.059 Y-15.403
X-107.034 Y-15.255
X-107.084 Y-15.114
X-107.169 Y-14.99
X-107.278 Y-14.887
X-107.407 Y-14.809
X-107.549 Y-14.762
X-107.699 Y-14.75
X-107.718 Y-14.754
X-107.83 Y-14.802
X-107.914 Y-14.891
X-107.955 Y-15.005
X-107.964 Y-15.065
X-107.993 Y-15.209
X-107.992 Y-15.248
X-107.976 Y-15.282
X-107.949 Y-15.309
X-107.914 Y-15.324
X-107.797 Y-15.348
X-107.176 Y-15.476
X-107.139
X-107.103 Y-15.463
X-107.076 Y-15.437
X-107.059 Y-15.403
X-107.003 Y-15.15
X-106.981 Y-15.001
X-107.035 Y-14.861
X-107.127 Y-14.743
X-107.244 Y-14.648
X-107.377 Y-14.579
X-107.52 Y-14.535
X-107.67 Y-14.53
X-107.688 Y-14.533
X-107.805 Y-14.586
X-107.89 Y-14.682
X-107.927 Y-14.805
X-107.955 Y-15.005
X-107.952 Y-15.043
X-107.935 Y-15.077
X-107.906 Y-15.102
X-107.87 Y-15.115
X-107.747 Y-15.133
X-107.114 Y-15.223
X-107.078 Y-15.222
X-107.045 Y-15.208
X-107.018 Y-15.182
X-107.003 Y-15.15
X-106.985 Y-15.058
X-106.955 Y-14.896
X-106.946 Y-14.822
X-106.975 Y-14.674
X-107.057 Y-14.549
X-107.167 Y-14.448
X-107.296 Y-14.37
X-107.437 Y-14.32
X-107.586 Y-14.303
X-107.648 Y-14.31
X-107.777 Y-14.357
X-107.872 Y-14.457
X-107.912 Y-14.588
X-107.927 Y-14.805
X-107.921 Y-14.843
X-107.902 Y-14.875
X-107.872 Y-14.899
X-107.835 Y-14.909
X-107.7 Y-14.92
X-107.06 Y-14.974
X-107.025 Y-14.971
X-106.993 Y-14.955
X-106.968 Y-14.929
X-106.955 Y-14.896
X-106.94 Y-14.812
X-106.924 Y-14.643
X-106.918 Y-14.493
X-106.987 Y-14.36
X-107.09 Y-14.251
X-107.214 Y-14.166
X-107.352 Y-14.108
X-107.499 Y-14.079
X-107.649 Y-14.083
X-107.695 Y-14.097
X-107.81 Y-14.159
X-107.887 Y-14.265
X-107.912 Y-14.393
X-107.91 Y-14.474
Y-14.558
X-107.912 Y-14.588
X-107.906 Y-14.626
X-107.885 Y-14.659
X-107.854 Y-14.682
X-107.817 Y-14.691
X-107.664 Y-14.699
X-107.028 Y-14.73
X-106.992 Y-14.725
X-106.959 Y-14.707
X-106.936 Y-14.678
X-106.924 Y-14.643
X-106.9 Y-14.389
X-106.897 Y-14.316
X-106.939 Y-14.172
X-107.031 Y-14.054
X-107.149 Y-13.962
X-107.284 Y-13.895
X-107.429 Y-13.857
X-107.578 Y-13.848
X-107.726 Y-13.873
X-107.747 Y-13.883
X-107.844 Y-13.954
X-107.906 Y-14.058
X-107.921 Y-14.177
X-107.915 Y-14.264
X-107.912 Y-14.393
X-107.902 Y-14.43
X-107.88 Y-14.46
X-107.848 Y-14.48
X-107.811 Y-14.487
X-107.641 Y-14.485
X-106.998 Y-14.476
X-106.963 Y-14.47
X-106.933 Y-14.451
X-106.911 Y-14.423
X-106.9 Y-14.389
X-106.892 Y-14.305
Y-14.263
X-106.908 Y-14.089
X-106.929 Y-13.941
X-107.019 Y-13.821
X-107.138 Y-13.73
X-107.274 Y-13.666
X-107.419 Y-13.628
X-107.569 Y-13.616
X-107.675 Y-13.632
X-107.785 Y-13.671
X-107.873 Y-13.747
X-107.927 Y-13.851
X-107.938 Y-13.967
X-107.93 Y-14.051
X-107.921 Y-14.177
X-107.91 Y-14.214
X-107.885 Y-14.244
X-107.851 Y-14.262
X-107.813 Y-14.266
X-107.628 Y-14.25
X-106.999 Y-14.195
X-106.962 Y-14.184
X-106.932 Y-14.161
X-106.913 Y-14.127
X-106.908 Y-14.089
X-106.919 Y-13.967
X-106.932 Y-13.836
X-106.955 Y-13.688
X-107.048 Y-13.57
X-107.17 Y-13.483
X-107.308 Y-13.424
X-107.455 Y-13.392
X-107.605 Y-13.39
X-107.752 Y-13.417
X-107.803 Y-13.439
X-107.909 Y-13.519
X-107.97 Y-13.636
X-107.975 Y-13.768
X-107.938 Y-13.967
X-107.924 Y-14.001
X-107.898 Y-14.027
X-107.865 Y-14.042
X-107.828 Y-14.044
X-107.649 Y-14.022
X-107.02 Y-13.942
X-106.984 Y-13.93
X-106.955 Y-13.906
X-106.937 Y-13.873
X-106.932 Y-13.836
X-106.945 Y-13.714
X-106.959 Y-13.629
X-106.979 Y-13.545
X-107.02 Y-13.4
X-107.126 Y-13.294
X-107.256 Y-13.22
X-107.399 Y-13.174
X-107.548 Y-13.157
X-107.698 Y-13.167
X-107.842 Y-13.21
X-107.875 Y-13.229
X-107.969 Y-13.314
X-108.02 Y-13.43
X-108.018 Y-13.557
X-108 Y-13.638
X-107.975 Y-13.768
X-107.959 Y-13.804
X-107.931 Y-13.831
X-107.894 Y-13.845
X-107.855 Y-13.844
X-107.67 Y-13.802
X-107.055 Y-13.661
X-107.02 Y-13.646
X-106.993 Y-13.618
X-106.979 Y-13.583
Y-13.545
X-107.038 Y-13.291
X-107.059 Y-13.219
X-107.143 Y-13.095
X-107.267 Y-13.01
X-107.407 Y-12.957
X-107.555 Y-12.932
X-107.705 Y-12.936
X-107.851 Y-12.97
X-107.986 Y-13.036
X-108.006 Y-13.053
X-108.08 Y-13.154
X-108.106 Y-13.277
X-108.08 Y-13.399
X-108.057 Y-13.43
X-108.024 Y-13.45
X-107.985 Y-13.455
X-107.744 Y-13.443
X-107.131 Y-13.41
X-107.098 Y-13.403
X-107.069 Y-13.385
X-107.048 Y-13.358
X-107.037 Y-13.325
X-107.038 Y-13.291
X-107.058 Y-13.207
X-107.069 Y-13.161
X-107.087 Y-13.122
X-107.154 Y-12.992
X-107.229 Y-12.862
X-107.352 Y-12.776
X-107.494 Y-12.727
X-107.643 Y-12.709
X-107.793 Y-12.72
X-107.938 Y-12.756
X-108.035 Y-12.807
X-108.123 Y-12.879
X-108.18 Y-12.978
X-108.196 Y-13.09
X-108.169 Y-13.201
X-108.151 Y-13.226
X-108.126 Y-13.245
X-108.096 Y-13.255
X-108.065 Y-13.256
X-107.823 Y-13.22
X-107.23 Y-13.133
X-107.195 Y-13.121
X-107.167 Y-13.097
X-107.149 Y-13.065
X-107.145 Y-13.028
X-107.154 Y-12.992
X-107.261 Y-12.784
X-107.287 Y-12.738
X-107.366 Y-12.611
X-107.496 Y-12.536
X-107.642 Y-12.499
X-107.791 Y-12.493
X-107.94 Y-12.517
X-108.08 Y-12.57
X-108.205 Y-12.653
X-108.226 Y-12.676
X-108.291 Y-12.785
X-108.305 Y-12.912
X-108.264 Y-13.033
X-108.211 Y-13.122
X-108.167 Y-13.207
X-108.053 Y-13.46
X-108.021 Y-13.545
X-108.018 Y-13.557
X-108.002 Y-13.591
X-107.975 Y-13.616
X-107.94 Y-13.63
X-107.903
X-107.868 Y-13.616
X-107.841 Y-13.59
X-107.693 Y-13.388
X-107.295 Y-12.842
X-107.279 Y-12.809
X-107.277 Y-12.773
X-107.287 Y-12.738
X-107.323 Y-12.672
X-107.358 Y-12.616
X-107.453 Y-12.485
X-107.546 Y-12.367
X-107.684 Y-12.308
X-107.833 Y-12.287
X-107.982 Y-12.299
X-108.126 Y-12.34
X-108.259 Y-12.41
X-108.373 Y-12.508
X-108.377 Y-12.515
X-108.422 Y-12.621
Y-12.737
X-108.38 Y-12.844
X-108.358 Y-12.867
X-108.329 Y-12.882
X-108.298 Y-12.887
X-108.267 Y-12.882
X-108.077 Y-12.82
X-107.505 Y-12.635
X-107.473 Y-12.618
X-107.449 Y-12.59
X-107.437 Y-12.555
X-107.438 Y-12.518
X-107.453 Y-12.485
X-107.602 Y-12.278
X-107.629 Y-12.239
X-107.644 Y-12.22
X-107.677 Y-12.189
X-107.684 Y-12.183
X-107.718 Y-12.166
X-107.757 Y-12.163
X-107.793 Y-12.176
X-107.823 Y-12.201
X-107.84 Y-12.235
X-107.843 Y-12.274
X-107.832 Y-12.31
X-107.807 Y-12.34
X-107.789 Y-12.355
X-107.757 Y-12.373
X-107.722 Y-12.378
X-107.687 Y-12.37
X-107.657 Y-12.351
X-107.636 Y-12.322
X-107.626 Y-12.288
X-107.629 Y-12.252
X-107.644 Y-12.22
X-107.662 Y-12.201
X-107.694 Y-12.175
X-107.754 Y-12.13
X-107.9 Y-12.095
X-108.05 Y-12.096
X-108.197 Y-12.127
X-108.334 Y-12.187
X-108.457 Y-12.274
X-108.483 Y-12.305
X-108.546 Y-12.431
X-108.545 Y-12.573
X-108.479 Y-12.697
X-108.452 Y-12.718
X-108.42 Y-12.728
X-108.387 Y-12.727
X-108.355 Y-12.715
X-108.223 Y-12.638
X-107.709 Y-12.336
X-107.681 Y-12.311
X-107.664 Y-12.278
X-107.66 Y-12.24
X-107.671 Y-12.204
X-107.694 Y-12.175
X-107.857 Y-12.042
X-107.978 Y-11.953
X-108.125 Y-11.923
X-108.274 Y-11.936
X-108.417 Y-11.982
X-108.545 Y-12.06
X-108.651 Y-12.166
X-108.672 Y-12.204
X-108.708 Y-12.335
X-108.683 Y-12.469
X-108.601 Y-12.577
X-108.557 Y-12.616
X-108.508 Y-12.664
X-108.476 Y-12.7
X-108.418 Y-12.784
X-108.338 Y-12.909
X-108.264 Y-13.033
X-108.238 Y-13.061
X-108.204 Y-13.076
X-108.166 Y-13.078
X-108.13 Y-13.066
X-108.102 Y-13.041
X-108.084 Y-13.008
X-108.019 Y-12.789
X-107.827 Y-12.146
X-107.823 Y-12.108
X-107.834 Y-12.072
X-107.857 Y-12.042
X-108 Y-11.925
X-108.105 Y-11.855
X-108.236 Y-11.781
X-108.386 Y-11.773
X-108.531 Y-11.809
X-108.665 Y-11.877
X-108.777 Y-11.977
X-108.861 Y-12.101
X-108.866 Y-12.115
X-108.878 Y-12.232
X-108.845 Y-12.346
X-108.77 Y-12.437
X-108.742 Y-12.452
X-108.71 Y-12.458
X-108.677 Y-12.452
X-108.649 Y-12.437
X-108.575 Y-12.381
X-108.101 Y-12.017
X-108.076 Y-11.989
X-108.064 Y-11.954
X-108.065 Y-11.916
X-108.079 Y-11.882
X-108.105 Y-11.855
X-108.239 Y-11.771
X-108.338 Y-11.713
X-108.472 Y-11.645
X-108.622 Y-11.649
X-108.763 Y-11.699
X-108.887 Y-11.783
X-108.99 Y-11.892
X-109.015 Y-11.941
X-109.048 Y-12.084
X-109.01 Y-12.226
X-108.909 Y-12.332
X-108.861 Y-12.362
X-108.626 Y-12.556
X-108.601 Y-12.577
X-108.572 Y-12.593
X-108.539 Y-12.599
X-108.506 Y-12.593
X-108.476 Y-12.576
X-108.454 Y-12.551
X-108.442 Y-12.519
X-108.431 Y-12.468
X-108.294 Y-11.819
X-108.292 Y-11.788
X-108.3 Y-11.759
X-108.316 Y-11.733
X-108.338 Y-11.713
X-108.423 Y-11.664
X-108.508 Y-11.617
X-108.52 Y-11.612
X-108.639 Y-11.58
X-108.786 Y-11.549
X-108.931 Y-11.587
X-109.06 Y-11.663
X-109.159 Y-11.776
X-109.228 Y-11.909
X-109.23 Y-11.916
X-109.226 Y-12.033
X-109.177 Y-12.14
X-109.091 Y-12.22
X-109.058 Y-12.232
X-109.023 Y-12.231
X-108.99 Y-12.219
X-108.964 Y-12.196
X-108.963 Y-12.195
X-108.59 Y-11.739
X-108.572 Y-11.704
X-108.568 Y-11.666
X-108.58 Y-11.628
X-108.604 Y-11.598
X-108.639 Y-11.58
X-108.761 Y-11.548
X-108.846 Y-11.527
X-108.931 Y-11.509
X-109.005 Y-11.497
X-109.151 Y-11.53
X-109.275 Y-11.614
X-109.372 Y-11.729
X-109.387 Y-11.768
X-109.407 Y-11.884
X-109.38 Y-11.999
X-109.311 Y-12.095
X-109.21 Y-12.157
X-109.175 Y-12.162
X-109.14 Y-12.154
X-109.11 Y-12.135
X-109.089 Y-12.106
X-108.865 Y-11.65
X-108.856 Y-11.616
X-108.858 Y-11.581
X-108.873 Y-11.548
X-108.898 Y-11.524
X-108.931 Y-11.509
X-109.1 Y-11.473
X-109.184 Y-11.464
X-109.259 Y-11.46
X-109.402 Y-11.506
X-109.513 Y-11.606
X-109.584 Y-11.739
X-109.589 Y-11.769
X-109.577 Y-11.912
X-109.499 Y-12.034
X-109.373 Y-12.105
X-109.337 Y-12.107
X-109.302 Y-12.095
X-109.273 Y-12.072
X-109.255 Y-12.04
X-109.104 Y-11.595
X-109.099 Y-11.56
X-109.106 Y-11.526
X-109.124 Y-11.496
X-109.151 Y-11.475
X-109.184 Y-11.464
X-109.354 Y-11.446
X-109.4 Y-11.442
X-109.475 Y-11.44
X-109.616 Y-11.491
X-109.722 Y-11.598
X-109.776 Y-11.738
X-109.777 Y-11.758
X-109.751 Y-11.893
X-109.668 Y-12.002
X-109.544 Y-12.062
X-109.507
X-109.473 Y-12.049
X-109.445 Y-12.024
X-109.429 Y-11.99
X-109.315 Y-11.568
X-109.312 Y-11.534
X-109.32 Y-11.5
X-109.339 Y-11.472
X-109.367 Y-11.452
X-109.4 Y-11.442
X-109.438 Y-11.439
X-109.607 Y-11.43
X-109.68 Y-11.432
X-109.822 Y-11.482
X-109.921 Y-11.594
X-109.964 Y-11.738
Y-11.744
X-109.926 Y-11.875
X-109.834 Y-11.977
X-109.706 Y-12.026
X-109.67 Y-12.023
X-109.637 Y-12.007
X-109.611 Y-11.981
X-109.598 Y-11.946
X-109.518 Y-11.55
X-109.517 Y-11.516
X-109.527 Y-11.484
X-109.547 Y-11.458
X-109.575 Y-11.439
X-109.607 Y-11.43
X-109.692 Y-11.427
X-109.861 Y-11.442
X-109.936 Y-11.452
X-110.06 Y-11.536
X-110.131 Y-11.668
X-110.132 Y-11.683
X-110.12 Y-11.796
X-110.066 Y-11.897
X-109.979 Y-11.97
X-109.871 Y-12.005
X-109.838 Y-12.003
X-109.808 Y-11.99
X-109.783 Y-11.968
X-109.768 Y-11.94
X-109.762 Y-11.907
X-109.756 Y-11.543
X-109.761 Y-11.511
X-109.776 Y-11.482
X-109.8 Y-11.459
X-109.829 Y-11.445
X-109.861 Y-11.442
X-109.946 Y-11.449
X-110.031 Y-11.463
X-110.077 Y-11.472
X-110.15 Y-11.491
X-110.207 Y-11.539
X-110.287 Y-11.666
Y-11.67
X-110.272 Y-11.789
X-110.212 Y-11.892
X-110.116 Y-11.964
X-110 Y-11.992
X-109.965 Y-11.986
X-109.935 Y-11.968
X-109.912 Y-11.941
X-109.901 Y-11.908
Y-11.873
X-109.962 Y-11.552
X-109.976 Y-11.517
X-110.003 Y-11.489
X-110.038 Y-11.473
X-110.077 Y-11.472
X-110.2 Y-11.498
X-110.246 Y-11.508
X-110.298 Y-11.523
X-110.359 Y-11.568
X-110.398 Y-11.632
X-110.403 Y-11.768
X-110.345 Y-11.891
X-110.237 Y-11.973
X-110.103 Y-11.996
X-110.068 Y-11.986
X-110.039 Y-11.963
X-110.02 Y-11.932
X-110.013 Y-11.896
X-110.02 Y-11.86
X-110.134 Y-11.57
X-110.152 Y-11.541
X-110.179 Y-11.519
X-110.212 Y-11.508
X-110.246
X-110.285 Y-11.517
X-110.369 Y-11.544
X-110.415 Y-11.56
X-110.45 Y-11.573
X-110.549 Y-11.686
X-110.531 Y-11.817
X-110.457 Y-11.928
X-110.343 Y-11.995
X-110.211 Y-12.007
X-110.175 Y-11.993
X-110.146 Y-11.966
X-110.13 Y-11.93
X-110.129 Y-11.891
X-110.143 Y-11.855
X-110.301 Y-11.602
X-110.323 Y-11.578
X-110.351 Y-11.561
X-110.383 Y-11.555
X-110.415 Y-11.56
X-110.454 Y-11.573
X-110.538 Y-11.605
X-110.564 Y-11.618
X-110.596 Y-11.634
X-110.623 Y-11.648
X-110.749 Y-11.729
X-110.855 Y-11.785
X-110.873 Y-11.796
G0 Z2
X-109.75 Y-11.514
Z-0.79
G1 Z-0.89 F1000
X-109.758 Z-0.928
X-109.779 Y-11.512 Z-0.961
X-109.812 Y-11.51 Z-0.982
X-109.85 Y-11.507 Z-0.99
G3 X-110.623 Y-11.648 I-0.112 J-1.579
G1 X-110.835 Y-11.771
X-110.877 Y-11.798
X-110.961 Y-11.869
X-111.046 Y-11.943
X-111.13 Y-12.028
X-111.208 Y-12.109
X-111.215 Y-12.119
X-111.223 Y-12.138
X-111.228 Y-12.156
X-111.229 Y-12.175
X-111.226 Y-12.193
X-111.222 Y-12.207
X-111.215 Y-12.221
X-111.195 Y-12.249
X-111.178 Y-12.267
X-111.161 Y-12.278
X-111.146 Y-12.284
X-111.13 Y-12.287
X-111.115 Y-12.289
X-111.101 Y-12.287
X-111.086 Y-12.284
X-111.071 Y-12.278
X-111.046 Y-12.262
X-110.877 Y-12.18
X-110.792 Y-12.139
X-110.707 Y-12.104
X-110.623 Y-12.08
X-110.538 Y-12.06
X-110.454 Y-12.044
X-110.284 Y-12.017
X-110.2 Y-12.005
X-110.115 Y-11.997
X-110.031 Y-11.991
X-109.988 Y-11.992
X-109.946 Y-11.996
X-109.692 Y-12.028
X-109.438 Y-12.086
X-109.307 Y-12.124
X-109.269 Y-12.135
X-109.184 Y-12.166
X-109.134 Y-12.193
X-108.909 Y-12.332
X-108.872 Y-12.345
X-108.833 Y-12.343
X-108.798 Y-12.325
X-108.772 Y-12.296
X-108.753 Y-12.263 Z-0.982
X-108.736 Y-12.235 Z-0.961
X-108.725 Y-12.216 Z-0.928
X-108.721 Y-12.21 Z-0.89
G0 Z2
X-111.751 Y-12.881
Z-0.79
G1 Z-0.89 F1000
X-111.753 Y-12.873 Z-0.928
X-111.759 Y-12.853 Z-0.961
X-111.769 Y-12.822 Z-0.982
X-111.78 Y-12.785 Z-0.99
G3 X-112.089 Y-12.063 I-3.486 J-1.067
G1 X-112.113 Y-12.024
X-112.131 Y-11.99
X-112.146 Y-11.956
X-112.151 Y-11.94
X-112.174 Y-11.869
X-112.27 Y-11.753
X-112.405 Y-11.688
X-112.553 Y-11.662
X-112.703 Y-11.668
X-112.849 Y-11.702
X-112.92 Y-11.731
X-113.013 Y-11.792
X-113.078 Y-11.883
X-113.105 Y-11.991
X-113.107 Y-12.024
X-113.116 Y-12.277
X-113.108 Y-12.315
X-113.086 Y-12.347
X-113.054 Y-12.369
X-113.016 Y-12.377
X-112.978 Y-12.369
X-112.807 Y-12.299
X-112.21 Y-12.055
X-112.181 Y-12.036
X-112.16 Y-12.008
X-112.149 Y-11.975
X-112.151 Y-11.94
X-112.174 Y-11.855
X-112.179 Y-11.813
X-112.183 Y-11.771
X-112.188 Y-11.696
X-112.272 Y-11.572
X-112.4 Y-11.493
X-112.544 Y-11.452
X-112.694 Y-11.442
X-112.843 Y-11.46
X-112.882 Y-11.473
X-112.984 Y-11.531
X-113.057 Y-11.624
X-113.088 Y-11.737
X-113.104 Y-11.968
X-113.105 Y-11.991
X-113.099 Y-12.029
X-113.079 Y-12.061
X-113.049 Y-12.083
X-113.012 Y-12.093
X-112.975 Y-12.089
X-112.887 Y-12.061
X-112.252 Y-11.859
X-112.217 Y-11.84
X-112.193 Y-11.809
X-112.183 Y-11.771
X-112.179 Y-11.686
X-112.172 Y-11.602
X-112.171 Y-11.564
X-112.223 Y-11.424
X-112.333 Y-11.322
X-112.468 Y-11.257
X-112.615 Y-11.224
X-112.764 Y-11.219
X-112.827 Y-11.231
X-112.945 Y-11.282
X-113.031 Y-11.378
X-113.069 Y-11.501
X-113.088 Y-11.737
X-113.083 Y-11.772
X-113.065 Y-11.804
X-113.038 Y-11.827
X-113.003 Y-11.839
X-112.967 Y-11.838
X-112.898 Y-11.824
X-112.251 Y-11.688
X-112.222 Y-11.677
X-112.198 Y-11.658
X-112.181 Y-11.632
X-112.172 Y-11.602
X-112.158 Y-11.433
X-112.155 Y-11.358
X-112.212 Y-11.219
X-112.32 Y-11.116
X-112.453 Y-11.045
X-112.596 Y-11.003
X-112.746 Y-10.995
X-112.797 Y-11.003
X-112.918 Y-11.052
X-113.007 Y-11.147
X-113.048 Y-11.27
X-113.066 Y-11.47
X-113.069 Y-11.501
X-113.065 Y-11.535
X-113.049 Y-11.566
X-113.024 Y-11.589
X-112.992 Y-11.603
X-112.957 Y-11.605
X-112.894 Y-11.597
X-112.245 Y-11.519
X-112.214 Y-11.51
X-112.187 Y-11.491
X-112.167 Y-11.465
X-112.158 Y-11.433
X-112.138 Y-11.218
X-112.134 Y-11.143
X-112.197 Y-11.006
X-112.305 Y-10.902
X-112.435 Y-10.828
X-112.578 Y-10.783
X-112.728 Y-10.774
X-112.768 Y-10.78
X-112.884 Y-10.824
X-112.973 Y-10.913
X-113.018 Y-11.029
X-113.028 Y-11.095
X-113.039 Y-11.18
X-113.048 Y-11.27
X-113.044 Y-11.305
X-113.029 Y-11.336
X-113.004 Y-11.359
X-112.972 Y-11.374
X-112.938 Y-11.376
X-112.875 Y-11.37
X-112.227 Y-11.304
X-112.195 Y-11.295
X-112.167 Y-11.276
X-112.147 Y-11.25
X-112.138 Y-11.218
X-112.134 Y-11.18
X-112.118 Y-11.049
X-112.112 Y-10.974
X-112.151 Y-10.829
X-112.247 Y-10.714
X-112.37 Y-10.628
X-112.509 Y-10.573
X-112.658 Y-10.551
X-112.71 Y-10.555
X-112.835 Y-10.594
X-112.931 Y-10.682
X-112.981 Y-10.803
X-113.001 Y-10.926
X-113.018 Y-11.029
X-113.016 Y-11.063
X-113.003 Y-11.095
X-112.98 Y-11.12
X-112.951 Y-11.136
X-112.917 Y-11.141
X-112.861
X-112.215 Y-11.133
X-112.181 Y-11.126
X-112.151 Y-11.108
X-112.129 Y-11.081
X-112.118 Y-11.049
X-112.102 Y-10.926
X-112.09 Y-10.842
X-112.082 Y-10.767
X-112.12 Y-10.622
X-112.213 Y-10.505
X-112.334 Y-10.417
X-112.472 Y-10.357
X-112.62 Y-10.334
X-112.667 Y-10.337
X-112.79 Y-10.372
X-112.886 Y-10.456
X-112.94 Y-10.572
X-112.944 Y-10.588
X-112.981 Y-10.803
X-112.98 Y-10.837
X-112.968 Y-10.868
X-112.945 Y-10.894
X-112.916 Y-10.91
X-112.883 Y-10.916
X-112.836 Y-10.917
X-112.189 Y-10.922
X-112.155 Y-10.917
X-112.125 Y-10.9
X-112.102 Y-10.874
X-112.09 Y-10.842
X-112.054 Y-10.622
X-112.045 Y-10.548
X-112.088 Y-10.404
X-112.182 Y-10.287
X-112.303 Y-10.199
X-112.441 Y-10.14
X-112.589 Y-10.118
X-112.619 Y-10.12
X-112.74 Y-10.155
X-112.835 Y-10.237
X-112.889 Y-10.35
X-112.933 Y-10.541
X-112.94 Y-10.572
Y-10.607
X-112.929 Y-10.639
X-112.907 Y-10.666
X-112.877 Y-10.683
X-112.843 Y-10.69
X-112.8 Y-10.691
X-112.153 Y-10.702
X-112.119 Y-10.697
X-112.089 Y-10.68
X-112.066 Y-10.654
X-112.054 Y-10.622
X-112.048 Y-10.588
X-112.02 Y-10.457
X-112.008 Y-10.383
X-112.024 Y-10.234
X-112.105 Y-10.108
X-112.218 Y-10.009
X-112.351 Y-9.94
X-112.497 Y-9.905
X-112.543
X-112.672 Y-9.933
X-112.775 Y-10.014
X-112.835 Y-10.131
X-112.885 Y-10.335
X-112.889 Y-10.35
X-112.89 Y-10.383
X-112.88 Y-10.415
X-112.86 Y-10.442
X-112.832 Y-10.461
X-112.8 Y-10.469
X-112.767 Y-10.472
X-112.127 Y-10.533
X-112.091 Y-10.53
X-112.059 Y-10.515
X-112.034 Y-10.49
X-112.02 Y-10.457
X-111.994 Y-10.335
X-111.973 Y-10.25
X-111.959 Y-10.177
X-111.977 Y-10.028
X-112.056 Y-9.901
X-112.168 Y-9.801
X-112.3 Y-9.729
X-112.445 Y-9.694
X-112.476 Y-9.693
X-112.595 Y-9.716
X-112.695 Y-9.785
X-112.759 Y-9.886
X-112.801 Y-9.997
X-112.835 Y-10.131
X-112.836 Y-10.165
X-112.827 Y-10.197
X-112.807 Y-10.224
X-112.78 Y-10.243
X-112.747 Y-10.252
X-112.722 Y-10.254
X-112.08 Y-10.322
X-112.045 Y-10.32
X-112.014 Y-10.306
X-111.989 Y-10.282
X-111.973 Y-10.25
X-111.919 Y-10.035
X-111.903 Y-9.962
X-111.927 Y-9.814
X-112.008 Y-9.687
X-112.121 Y-9.588
X-112.252 Y-9.516
X-112.399 Y-9.483
X-112.405
X-112.519 Y-9.508
X-112.615 Y-9.575
X-112.678 Y-9.674
X-112.759 Y-9.886
X-112.765 Y-9.921
X-112.758 Y-9.956
X-112.739 Y-9.986
X-112.712 Y-10.007
X-112.678 Y-10.018
X-112.666 Y-10.019
X-112.028 Y-10.105
X-111.993 Y-10.104
X-111.96 Y-10.09
X-111.935 Y-10.066
X-111.919 Y-10.035
X-111.862 Y-9.828
X-111.846 Y-9.755
X-111.871 Y-9.607
X-111.952 Y-9.48
X-112.063 Y-9.38
X-112.194 Y-9.308
X-112.255 Y-9.294
X-112.391 Y-9.296
X-112.513 Y-9.358
X-112.594 Y-9.468
X-112.604 Y-9.49
X-112.678 Y-9.674
X-112.683 Y-9.708
X-112.677 Y-9.743
X-112.658 Y-9.773
X-112.631 Y-9.795
X-112.598 Y-9.806
X-111.972 Y-9.897
X-111.937 Y-9.896
X-111.905 Y-9.883
X-111.879 Y-9.859
X-111.862 Y-9.828
X-111.839 Y-9.744
X-111.807 Y-9.674
X-111.779 Y-9.604
Y-9.454
X-111.845 Y-9.319
X-111.946 Y-9.208
X-112.073 Y-9.128
X-112.216 Y-9.083
X-112.221
X-112.333 Y-9.103
X-112.429 Y-9.163
X-112.496 Y-9.255
X-112.569 Y-9.408
X-112.594 Y-9.468
X-112.601 Y-9.502
X-112.596 Y-9.536
X-112.58 Y-9.566
X-112.554 Y-9.589
X-112.522 Y-9.602
X-111.916 Y-9.726
X-111.884 Y-9.727
X-111.853 Y-9.718
X-111.826 Y-9.7
X-111.807 Y-9.674
X-111.723 Y-9.494
X-111.692 Y-9.425
X-111.691 Y-9.275
X-111.752 Y-9.138
X-111.849 Y-9.024
X-111.971 Y-8.937
X-112.03 Y-8.917
X-112.165 Y-8.902
X-112.294 Y-8.948
X-112.388 Y-9.047
X-112.447 Y-9.152
X-112.496 Y-9.255
X-112.504 Y-9.288
X-112.5 Y-9.322
X-112.485 Y-9.353
X-112.46 Y-9.377
X-112.429 Y-9.391
X-111.834 Y-9.542
X-111.802 Y-9.545
X-111.77 Y-9.537
X-111.743 Y-9.519
X-111.723 Y-9.494
X-111.638 Y-9.328
X-111.607 Y-9.26
X-111.592 Y-9.111
X-111.645 Y-8.97
X-111.735 Y-8.85
X-111.856 Y-8.762
X-111.905 Y-8.742
X-112.037 Y-8.72
X-112.165 Y-8.758
X-112.264 Y-8.847
X-112.301 Y-8.899
X-112.388 Y-9.047
X-112.399 Y-9.08
X-112.398 Y-9.115
X-112.385 Y-9.148
X-112.362 Y-9.174
X-112.331 Y-9.19
X-111.756 Y-9.375
X-111.722 Y-9.38
X-111.689 Y-9.373
X-111.659 Y-9.355
X-111.638 Y-9.328
X-111.591 Y-9.237
X-111.553 Y-9.166
X-111.545 Y-9.152
X-111.506 Y-9.088
X-111.49 Y-8.939
X-111.538 Y-8.797
X-111.626 Y-8.676
X-111.746 Y-8.586
X-111.773 Y-8.574
X-111.902 Y-8.55
X-112.028 Y-8.584
X-112.128 Y-8.667
X-112.241 Y-8.815
X-112.264 Y-8.847
X-112.278 Y-8.88
X-112.279 Y-8.917
X-112.267 Y-8.951
X-112.244 Y-8.979
X-112.212 Y-8.996
X-111.656 Y-9.185
X-111.625 Y-9.191
X-111.595 Y-9.187
X-111.567 Y-9.173
X-111.545 Y-9.152
X-111.483 Y-9.068
X-111.439 Y-9.014
X-111.394 Y-8.953
X-111.364 Y-8.806
X-111.401 Y-8.661
X-111.48 Y-8.534
X-111.593 Y-8.434
X-111.623 Y-8.419
X-111.741 Y-8.388
X-111.862 Y-8.407
X-111.966 Y-8.472
X-111.976 Y-8.482
X-112.047 Y-8.561
X-112.128 Y-8.667
X-112.143 Y-8.7
X-112.146 Y-8.735
X-112.136 Y-8.77
X-112.115 Y-8.798
X-112.085 Y-8.818
X-111.552 Y-9.04
X-111.522 Y-9.047
X-111.491 Y-9.045
X-111.462 Y-9.033
X-111.439 Y-9.014
X-111.32 Y-8.869
X-111.275 Y-8.809
X-111.237 Y-8.664
X-111.267 Y-8.517
X-111.339 Y-8.385
X-111.448 Y-8.282
X-111.461 Y-8.275
X-111.582 Y-8.24
X-111.707 Y-8.257
X-111.813 Y-8.324
X-111.966 Y-8.472
X-111.986 Y-8.503
X-111.994 Y-8.539
X-111.988 Y-8.576
X-111.969 Y-8.607
X-111.94 Y-8.63
X-111.441 Y-8.891
X-111.41 Y-8.902
X-111.377 Y-8.901
X-111.346 Y-8.89
X-111.32 Y-8.869
X-111.203 Y-8.73
X-111.155 Y-8.673
X-111.104 Y-8.532
X-111.124 Y-8.383
X-111.191 Y-8.248
X-111.296 Y-8.141
X-111.407 Y-8.104
X-111.524 Y-8.112
X-111.628 Y-8.164
X-111.705 Y-8.223
X-111.723 Y-8.238
X-111.813 Y-8.324
X-111.833 Y-8.354
X-111.841 Y-8.39
X-111.836 Y-8.426
X-111.818 Y-8.457
X-111.79 Y-8.48
X-111.322 Y-8.745
X-111.292 Y-8.756
X-111.26 Y-8.757
X-111.229 Y-8.748
X-111.203 Y-8.73
X-111.13 Y-8.655
X-111.12 Y-8.646
X-111.079 Y-8.618
X-111.019 Y-8.572
X-110.956 Y-8.436
X-110.963 Y-8.286
X-111.017 Y-8.146
X-111.112 Y-8.029
X-111.226 Y-7.981
X-111.349 Y-7.983
X-111.461 Y-8.035
X-111.628 Y-8.164
X-111.652 Y-8.192
X-111.664 Y-8.227
X-111.662 Y-8.264
X-111.647 Y-8.298
X-111.621 Y-8.324
X-111.189 Y-8.616
X-111.153 Y-8.631
X-111.115 Y-8.632
X-111.079 Y-8.618
X-111.046 Y-8.595
X-110.961 Y-8.551
X-110.896 Y-8.514
X-110.807 Y-8.393
X-110.788 Y-8.245
X-110.82 Y-8.098
X-110.89 Y-7.965
X-110.897 Y-7.959
X-110.999 Y-7.894
X-111.12 Y-7.875
X-111.238 Y-7.905
X-111.384 Y-7.978
X-111.461 Y-8.035
X-111.484 Y-8.061
X-111.497 Y-8.094
X-111.498 Y-8.129
X-111.486 Y-8.161
X-111.465 Y-8.189
X-111.069 Y-8.535
X-111.036 Y-8.555
X-110.998 Y-8.56
X-110.961 Y-8.551
X-110.792 Y-8.466
X-110.727 Y-8.429
X-110.637 Y-8.309
X-110.613 Y-8.161
X-110.634 Y-8.012
X-110.662 Y-7.958
X-110.759 Y-7.848
X-110.896 Y-7.797
X-111.041 Y-7.816
X-111.13 Y-7.852
X-111.238 Y-7.905
X-111.266 Y-7.928
X-111.284 Y-7.96
X-111.29 Y-7.995
X-111.283 Y-8.031
X-111.263 Y-8.062
X-110.907 Y-8.444
X-110.882 Y-8.463
X-110.853 Y-8.473
X-110.822 Y-8.475
X-110.792 Y-8.466
X-110.623 Y-8.382
X-110.556 Y-8.348
X-110.463 Y-8.23
X-110.432 Y-8.083
X-110.457 Y-7.936
X-110.478 Y-7.893
X-110.572 Y-7.78
X-110.708 Y-7.726
X-110.854 Y-7.742
X-111.041 Y-7.816
X-111.071 Y-7.838
X-111.092 Y-7.869
X-111.1 Y-7.905
X-111.094 Y-7.942
X-111.075 Y-7.975
X-110.734 Y-8.355
X-110.711 Y-8.375
X-110.683 Y-8.386
X-110.652 Y-8.388
X-110.623 Y-8.382
X-110.538 Y-8.345
X-110.454 Y-8.322
X-110.417 Y-8.312
X-110.36 Y-8.263
X-110.277 Y-8.139
X-110.253 Y-7.99
X-110.285 Y-7.844
X-110.296 Y-7.822
X-110.376 Y-7.728
X-110.487 Y-7.673
X-110.611 Y-7.668
X-110.641 Y-7.68
X-110.666 Y-7.7
X-110.683 Y-7.728
X-110.69 Y-7.759
X-110.688 Y-7.791
X-110.569 Y-8.249
X-110.553 Y-8.283
X-110.525 Y-8.308
X-110.491 Y-8.322
X-110.454
X-110.322 Y-8.293
X-110.25 Y-8.273
X-110.135 Y-8.177
X-110.078 Y-8.038
X-110.07 Y-7.888
X-110.081 Y-7.851
X-110.152 Y-7.727
X-110.271 Y-7.651
X-110.413 Y-7.637
X-110.538 Y-7.656
X-110.623 Y-7.67
X-110.707 Y-7.688
X-110.826 Y-7.732
X-110.854 Y-7.742
X-110.883 Y-7.761
X-110.905 Y-7.789
X-110.915 Y-7.822
X-110.913 Y-7.857
X-110.9 Y-7.889
X-110.876 Y-7.914
X-110.401 Y-8.274
X-110.377 Y-8.288
X-110.35 Y-8.294
X-110.322 Y-8.293
X-110.153 Y-8.256
X-110.081 Y-8.236
X-109.957 Y-8.151
X-109.89 Y-8.017
X-109.882 Y-7.868
X-109.889 Y-7.838
X-109.954 Y-7.713
X-110.069 Y-7.631
X-110.209 Y-7.611
X-110.244 Y-7.623
X-110.273 Y-7.646
X-110.291 Y-7.679
X-110.296 Y-7.716
X-110.271 Y-8.163
X-110.263 Y-8.196
X-110.245 Y-8.224
X-110.219 Y-8.245
X-110.187 Y-8.256
X-110.153
X-109.946 Y-8.211
X-109.873 Y-8.195
X-109.757 Y-8.1
X-109.698 Y-7.961
X-109.699 Y-7.811
X-109.702 Y-7.803
X-109.767 Y-7.693
X-109.873 Y-7.62
X-110 Y-7.598
X-110.038 Y-7.609
X-110.068 Y-7.633
X-110.087 Y-7.668
X-110.091 Y-7.707
X-110.052 Y-8.12
X-110.041 Y-8.157
X-110.017 Y-8.187
X-109.984 Y-8.206
X-109.946 Y-8.211
X-109.904 Y-8.206
X-109.861 Y-8.205
X-109.815 Y-8.208
X-109.74 Y-8.209
X-109.674 Y-8.173
X-109.563 Y-8.072
X-109.507 Y-7.933
X-109.508 Y-7.895
X-109.548 Y-7.752
X-109.652 Y-7.646
X-109.794 Y-7.602
X-109.946 Y-7.595
X-110.031 Y-7.599
X-110.2 Y-7.61
X-110.284 Y-7.618
X-110.413 Y-7.637
X-110.45 Y-7.652
X-110.478 Y-7.68
X-110.493 Y-7.717
Y-7.756
X-110.477 Y-7.793
X-110.448 Y-7.82
X-109.858 Y-8.193
X-109.837 Y-8.203
X-109.815 Y-8.208
X-109.777 Y-8.21
X-109.692 Y-8.219
X-109.662 Y-8.223
X-109.587 Y-8.23
X-109.45 Y-8.169
X-109.356 Y-8.052
X-109.322 Y-7.906
X-109.324 Y-7.885
X-109.369 Y-7.752
X-109.469 Y-7.655
X-109.602 Y-7.613
X-109.639 Y-7.619
X-109.671 Y-7.638
X-109.695 Y-7.667
X-109.705 Y-7.703
X-109.745 Y-8.115
X-109.741 Y-8.152
X-109.725 Y-8.185
X-109.697 Y-8.21
X-109.662 Y-8.223
X-109.476 Y-8.248
X-109.402 Y-8.255
X-109.263 Y-8.196
X-109.172 Y-8.078
X-109.135 Y-7.932
X-109.136 Y-7.909
X-109.176 Y-7.775
X-109.273 Y-7.674
X-109.405 Y-7.628
X-109.438 Y-7.624
X-109.692 Y-7.607
X-109.794 Y-7.602
X-109.831 Y-7.609
X-109.862 Y-7.628
X-109.885 Y-7.657
X-109.895 Y-7.693
X-109.892 Y-7.729
X-109.875 Y-7.762
X-109.54 Y-8.21
X-109.512 Y-8.235
X-109.476 Y-8.248
X-109.438 Y-8.253
X-109.354 Y-8.275
X-109.307 Y-8.289
X-109.271 Y-8.298
X-109.198 Y-8.28
X-109.065 Y-8.21
X-108.978 Y-8.088
X-108.944 Y-7.942
X-108.945 Y-7.934
X-108.983 Y-7.809
X-109.071 Y-7.712
X-109.192 Y-7.662
X-109.231 Y-7.664
X-109.266 Y-7.68
X-109.292 Y-7.709
X-109.305 Y-7.745
X-109.374 Y-8.178
Y-8.213
X-109.361 Y-8.246
X-109.338 Y-8.272
X-109.307 Y-8.289
X-109.184 Y-8.325
X-109.112 Y-8.345
X-108.965 Y-8.316
X-108.85 Y-8.22
X-108.773 Y-8.091
X-108.765 Y-8.04
X-108.769 Y-7.926
X-108.815 Y-7.821
X-108.897 Y-7.741
X-109.004 Y-7.698
X-109.039 Y-7.699
X-109.073 Y-7.712
X-109.099 Y-7.736
X-109.115 Y-7.768
X-109.246 Y-8.203
X-109.249 Y-8.24
X-109.239 Y-8.276
X-109.217 Y-8.306
X-109.184 Y-8.325
X-109.1 Y-8.353
X-109.015 Y-8.392
X-108.981 Y-8.408
X-108.831 Y-8.403
X-108.704 Y-8.325
X-108.613 Y-8.205
X-108.565 Y-8.063
Y-8.045
X-108.587 Y-7.933
X-108.649 Y-7.837
X-108.742 Y-7.771
X-108.804 Y-7.743
X-108.825 Y-7.735
X-108.846 Y-7.729
X-109.1 Y-7.679
X-109.184 Y-7.663
X-109.362 Y-7.632
X-109.405 Y-7.628
X-109.443 Y-7.632
X-109.476 Y-7.651
X-109.5 Y-7.68
X-109.511 Y-7.717
X-109.508 Y-7.755
X-109.491 Y-7.789
X-109.043 Y-8.368
X-109.015 Y-8.392
X-108.931 Y-8.446
X-108.907 Y-8.463
X-108.875 Y-8.483
X-108.801 Y-8.496
X-108.652 Y-8.482
X-108.524 Y-8.403
X-108.429 Y-8.287
X-108.407 Y-8.232
X-108.388 Y-8.121
X-108.41 Y-8.01
X-108.472 Y-7.916
X-108.564 Y-7.851
X-108.6 Y-7.843
X-108.635 Y-7.849
X-108.667 Y-7.867
X-108.69 Y-7.895
X-108.934 Y-8.335
X-108.945 Y-8.368
X-108.944 Y-8.404
X-108.931 Y-8.437
X-108.907 Y-8.463
X-108.767 Y-8.561
X-108.704 Y-8.601
X-108.554 Y-8.609
X-108.416 Y-8.552
X-108.302 Y-8.454
X-108.223 Y-8.327
X-108.212 Y-8.285
X-108.209 Y-8.148
X-108.267 Y-8.025
X-108.374 Y-7.94
X-108.408 Y-7.932
X-108.443 Y-7.936
X-108.474 Y-7.952
X-108.498 Y-7.977
X-108.791 Y-8.427
X-108.805 Y-8.461
Y-8.499
X-108.792 Y-8.534
X-108.767 Y-8.561
X-108.677 Y-8.632
X-108.663 Y-8.646
X-108.608 Y-8.696
X-108.464 Y-8.737
X-108.318 Y-8.704
X-108.19 Y-8.624
X-108.088 Y-8.514
X-108.023 Y-8.379
X-108.025 Y-8.259
X-108.072 Y-8.151
X-108.157 Y-8.07
X-108.189 Y-8.058
X-108.223 Y-8.057
X-108.255 Y-8.068
X-108.282 Y-8.089
X-108.664 Y-8.511
X-108.683 Y-8.542
X-108.69 Y-8.578
X-108.683 Y-8.614
X-108.663 Y-8.646
X-108.559 Y-8.753
X-108.531 Y-8.782
X-108.476 Y-8.834
X-108.331 Y-8.873
X-108.184 Y-8.845
X-108.051 Y-8.776
X-107.941 Y-8.674
X-107.859 Y-8.548
X-107.853 Y-8.526
X-107.842 Y-8.399
X-107.885 Y-8.278
X-107.974 Y-8.187
X-108.005 Y-8.175
X-108.039 Y-8.173
X-108.071 Y-8.183
X-108.098 Y-8.203
X-108.528 Y-8.646
X-108.548 Y-8.677
X-108.556 Y-8.714
X-108.55 Y-8.751
X-108.531 Y-8.782
X-108.5 Y-8.815
X-108.423 Y-8.898
X-108.372 Y-8.953
X-108.235 Y-9.014
X-108.086 Y-9.005
X-107.946 Y-8.951
X-107.824 Y-8.863
X-107.724 Y-8.752
X-107.713 Y-8.729
X-107.683 Y-8.615
X-107.699 Y-8.498
X-107.759 Y-8.396
X-107.839 Y-8.308
X-107.915 Y-8.226
X-108 Y-8.17
X-108.315 Y-7.97
X-108.338 Y-7.957
X-108.508 Y-7.876
X-108.742 Y-7.771
X-108.781 Y-7.764
X-108.819 Y-7.772
X-108.852 Y-7.794
X-108.873 Y-7.827
X-108.88 Y-7.866
X-108.871 Y-7.905
X-108.746 Y-8.182
X-108.423 Y-8.898
X-108.363 Y-8.984
X-108.338 Y-9.025
X-108.298 Y-9.088
X-108.17 Y-9.167
X-108.021 Y-9.179
X-107.875 Y-9.144
X-107.741 Y-9.075
X-107.625 Y-8.981
X-107.595 Y-8.939
X-107.546 Y-8.829
X-107.544 Y-8.708
X-107.59 Y-8.596
X-107.616 Y-8.571
X-107.649 Y-8.557
X-107.685 Y-8.556
X-107.72 Y-8.567
X-107.749 Y-8.584
X-108.299 Y-8.891
X-108.328 Y-8.915
X-108.346 Y-8.95
X-108.35 Y-8.988
X-108.338 Y-9.025
X-108.314 Y-9.068
X-108.267 Y-9.152
X-108.254 Y-9.181
X-108.247 Y-9.195
X-108.239 Y-9.209
X-108.216 Y-9.238
X-108.189 Y-9.253
X-108.158 Y-9.258
X-108.127 Y-9.253
X-108.099 Y-9.238
X-108.075 Y-9.208
X-108.064 Y-9.172
X-108.069 Y-9.134
X-108.089 Y-9.101
X-108.12 Y-9.079
X-108.158 Y-9.072
X-108.195 Y-9.08
X-108.226 Y-9.102
X-108.245 Y-9.135
X-108.25 Y-9.173
X-108.239 Y-9.209
X-108.229 Y-9.223
X-108.218 Y-9.237
X-108.206 Y-9.247
X-108.194 Y-9.255
X-108.181 Y-9.26
X-108.169 Y-9.263
X-108.159 Y-9.265
X-108.127 Y-9.266
X-107.869
X-107.719 Y-9.258
X-107.58 Y-9.202
X-107.531 Y-9.161
X-107.447 Y-9.044
X-107.427 Y-8.9
X-107.476 Y-8.765
X-107.502 Y-8.74
X-107.535 Y-8.726
X-107.57 Y-8.724
X-107.604 Y-8.735
X-107.632 Y-8.756
X-107.94 Y-9.099
X-107.959 Y-9.131
X-107.965 Y-9.168
X-107.957 Y-9.205
X-107.937 Y-9.236
X-107.906 Y-9.258
X-107.869 Y-9.266
X-107.577
X-107.531
X-107.492
X-107.461 Y-9.264
X-107.375 Y-9.176
X-107.34 Y-9.061
X-107.36 Y-8.941
X-107.394 Y-8.905
X-107.437 Y-8.881
X-107.485 Y-8.871
X-107.535 Y-8.876
G3 X-107.492 Y-9.266 I0.049 J-0.192
G1 X-107.408
X-107.389 Y-9.265
X-107.369 Y-9.261
X-107.35 Y-9.252
X-107.33 Y-9.237
X-107.323 Y-9.229
X-107.31 Y-9.21
X-107.299 Y-9.191
X-107.293 Y-9.172
X-107.29 Y-9.152
X-107.291 Y-9.142
X-107.292 Y-9.131
X-107.299 Y-9.11
X-107.342 Y-8.984
X-107.36 Y-8.941
X-107.443 Y-8.815
X-107.613 Y-8.561
X-107.662 Y-8.505
X-107.759 Y-8.396
X-107.781 Y-8.379
X-107.808 Y-8.368
X-107.831 Y-8.366 Z-0.987
X-107.859 Y-8.377 Z-0.974
X-107.881 Y-8.386 Z-0.951
X-107.895 Y-8.392 Z-0.922
X-107.9 Y-8.394 Z-0.89
G0 Z2
X-90.915 Y-8.713
Z0.5
G3 X-90.431 Y-8.838 Z0.29 I0.242 J-0.062 F333.3
X-90.915 Y-8.713 Z0.079 I-0.242 J0.062
X-90.431 Y-8.838 Z-0.131 I0.242 J-0.062
X-90.915 Y-8.713 Z-0.342 I-0.242 J0.062
X-90.431 Y-8.838 Z-0.552 I0.242 J-0.062
X-90.915 Y-8.713 Z-0.763 I-0.242 J0.062
X-90.704 Y-9.024 Z-0.876 I0.242 J-0.062
X-90.423 Y-8.776 Z-0.99 I0.031 J0.248
X-90.923 I-0.25
X-90.423 I0.25
G1 X-90.386 Y-8.63 F1000
X-90.399 Y-8.556
X-90.436 Y-8.491
X-90.543 Y-8.386
X-90.687 Y-8.346
X-90.836 Y-8.367
X-90.966 Y-8.441
X-91.063 Y-8.556
X-91.115 Y-8.697
X-91.117 Y-8.847
X-91.069 Y-8.989
X-90.978 Y-9.108
X-90.852 Y-9.189
X-90.706 Y-9.225
X-90.557 Y-9.211
X-90.42 Y-9.149
X-90.312 Y-9.046
X-90.234 Y-8.917
X-90.183 Y-8.776
X-90.173 Y-8.626
X-90.208 Y-8.481
X-90.279 Y-8.348
X-90.387 Y-8.245
X-90.518 Y-8.171
X-90.664 Y-8.138
X-90.814 Y-8.145
X-90.958 Y-8.186
X-91.088 Y-8.262
X-91.194 Y-8.368
X-91.276 Y-8.493
X-91.326 Y-8.635
X-91.34 Y-8.784
X-91.324 Y-8.933
X-91.3 Y-9.001
X-91.286 Y-9.034
X-91.269 Y-9.067
X-91.249 Y-9.097
X-91.209 Y-9.152
X-91.121 Y-9.274
X-90.999 Y-9.361
X-90.861 Y-9.419
X-90.713 Y-9.446
X-90.563 Y-9.437
X-90.419 Y-9.396
X-90.287 Y-9.325
X-90.268 Y-9.309
X-90.256 Y-9.297
X-90.245 Y-9.284
X-90.206 Y-9.237
X-90.149 Y-9.173
X-90.131 Y-9.152
X-90.111 Y-9.13
X-90.017 Y-9.013
X-90.008 Y-8.988
X-89.998 Y-8.955
X-89.992 Y-8.921
X-89.99 Y-8.886
X-89.998 Y-8.85
X-90.019 Y-8.819
X-90.049 Y-8.798
X-90.085 Y-8.79
X-90.122 Y-8.795
X-90.154 Y-8.813
X-90.178 Y-8.842
X-90.271 Y-9.013
X-90.282 Y-9.047
X-90.281 Y-9.083
X-90.267 Y-9.116
X-90.242 Y-9.142
X-90.21 Y-9.157
X-90.174 Y-9.16
X-90.14 Y-9.151
X-90.111 Y-9.13
X-90.019 Y-9.026
X-90.003 Y-9.005
X-89.998 Y-8.994
X-89.994 Y-8.984
X-89.992 Y-8.973
X-89.99 Y-8.962
Y-8.646
Y-8.599
Y-8.561
X-89.998 Y-8.411
X-90.061 Y-8.276
X-90.088 Y-8.24
X-90.155 Y-8.175
X-90.237 Y-8.134
X-90.328 Y-8.12
X-90.363 Y-8.128
X-90.393 Y-8.147
X-90.414 Y-8.175
X-90.424 Y-8.209
X-90.422 Y-8.245
X-90.407 Y-8.277
X-90.172 Y-8.615
X-90.147 Y-8.64
X-90.115 Y-8.655
X-90.079 Y-8.657
X-90.045 Y-8.647
X-90.017 Y-8.626
X-89.998 Y-8.596
X-89.99 Y-8.561
Y-8.261
X-89.991 Y-8.223
X-89.992 Y-8.213
X-89.999 Y-8.194
X-90.018 Y-8.167
X-90.047 Y-8.151
X-90.081 Y-8.148
X-90.112 Y-8.16
X-90.136 Y-8.183
X-90.147 Y-8.215
X-90.145 Y-8.248
X-90.128 Y-8.277
X-90.101 Y-8.297
X-90.068 Y-8.303
X-90.036 Y-8.296
X-90.01 Y-8.275
X-89.994 Y-8.245
X-89.992 Y-8.213
X-89.995 Y-8.202
X-89.999 Y-8.192
X-90.005 Y-8.181
X-90.02 Y-8.16
X-90.031 Y-8.148
X-90.042 Y-8.139
X-90.053 Y-8.132
X-90.065 Y-8.127
X-90.075 Y-8.123
X-90.086 Y-8.121
X-90.107 Y-8.12
X-90.995
X-91.145 Y-8.128
X-91.281 Y-8.192
X-91.392 Y-8.292
X-91.478 Y-8.415
X-91.536 Y-8.553
X-91.555 Y-8.643
X-91.554 Y-8.766
X-91.504 Y-8.878
X-91.414 Y-8.961
X-91.376 Y-8.984
X-91.334 Y-9.015
X-91.276 Y-9.068
X-91.249 Y-9.097
X-91.221 Y-9.118
X-91.187 Y-9.128
X-91.152 Y-9.126
X-91.119 Y-9.112
X-91.094 Y-9.087
X-91.079 Y-9.055
X-91.076 Y-9.019
X-91.12 Y-8.57
X-91.13 Y-8.535
X-91.152 Y-8.505
X-91.184 Y-8.486
X-91.221 Y-8.48
X-91.257 Y-8.488
X-91.288 Y-8.508
X-91.31 Y-8.538
X-91.319 Y-8.574
G3 X-91.209 Y-9.152 I1.185 J-0.075
G1 X-91.164 Y-9.241
X-91.139 Y-9.321
X-91.131 Y-9.364
X-91.124 Y-9.4
X-91.038 Y-9.523
X-90.913 Y-9.606
X-90.77 Y-9.652
X-90.72 Y-9.656
X-90.623 Y-9.649
X-90.533 Y-9.611
X-90.46 Y-9.546
X-90.346 Y-9.406
X-90.245 Y-9.284
X-90.229 Y-9.253
X-90.224 Y-9.219
X-90.231 Y-9.186
X-90.249 Y-9.157
X-90.276 Y-9.135
X-90.308 Y-9.124
X-90.342
X-90.422 Y-9.139
X-91.05 Y-9.257
X-91.084 Y-9.27
X-91.111 Y-9.295
X-91.127 Y-9.327
X-91.131 Y-9.364
X-91.126 Y-9.406
X-91.127 Y-9.49
X-91.128 Y-9.565
X-91.063 Y-9.701
X-90.948 Y-9.797
X-90.932 Y-9.803
X-90.807 Y-9.822
X-90.685 Y-9.789
X-90.588 Y-9.708
X-90.46 Y-9.546
X-90.444 Y-9.512
X-90.441 Y-9.475
X-90.452 Y-9.439
X-90.475 Y-9.41
X-90.508 Y-9.391
X-90.545 Y-9.386
X-91.033 Y-9.409
X-91.066 Y-9.416
X-91.094 Y-9.433
X-91.115 Y-9.459
X-91.127 Y-9.49
X-91.14 Y-9.575
X-91.151 Y-9.612
X-91.173 Y-9.684
X-91.158 Y-9.758
X-91.093 Y-9.893
X-90.989 Y-9.94
X-90.875 Y-9.945
X-90.767 Y-9.905
X-90.682 Y-9.829
X-90.616 Y-9.744
X-90.588 Y-9.708
X-90.572 Y-9.675
X-90.57 Y-9.639
X-90.58 Y-9.604
X-90.602 Y-9.575
X-90.633 Y-9.556
X-90.669 Y-9.549
X-91.058
X-91.097 Y-9.557
X-91.13 Y-9.579
X-91.151 Y-9.612
X-91.164 Y-9.65
X-91.169 Y-9.659
X-91.213 Y-9.744
X-91.231 Y-9.777
X-91.239 Y-9.851
X-91.218 Y-9.923
X-91.122 Y-10.014
X-90.996 Y-10.05
X-90.867 Y-10.023
X-90.765 Y-9.94
X-90.75 Y-9.905
X-90.749 Y-9.867
X-90.762 Y-9.831
X-90.787 Y-9.803
X-90.822 Y-9.786
X-91.109 Y-9.709
X-91.147 Y-9.707
X-91.184 Y-9.719
X-91.213 Y-9.744
X-91.249 Y-9.792
X-91.278 Y-9.828
X-91.301 Y-9.858
X-91.312 Y-9.932
X-91.296 Y-10.005
X-91.201 Y-10.102
X-91.072 Y-10.142
X-90.938 Y-10.116
X-90.833 Y-10.031
X-90.682 Y-9.829
X-90.667 Y-9.797
X-90.665 Y-9.762
X-90.674 Y-9.729
X-90.694 Y-9.7
X-90.723 Y-9.68
X-90.757 Y-9.672
X-90.791 Y-9.675
X-91.232 Y-9.8
X-91.257 Y-9.811
X-91.278 Y-9.828
X-91.351 Y-9.913
X-91.374 Y-9.942
X-91.387 Y-10.016
X-91.373 Y-10.09
X-91.276 Y-10.192
X-91.141 Y-10.234
X-91.003 Y-10.207
X-90.896 Y-10.116
X-90.881 Y-10.081
Y-10.044
X-90.894 Y-10.008
X-90.919 Y-9.981
X-90.953 Y-9.964
X-91.251 Y-9.884
X-91.287 Y-9.881
X-91.322 Y-9.891
X-91.351 Y-9.913
X-91.418 Y-9.991
X-91.441 Y-10.021
X-91.462 Y-10.093
X-91.452 Y-10.167
X-91.386 Y-10.302
X-91.283 Y-10.35
X-91.17 Y-10.354
X-91.065 Y-10.314
X-90.982 Y-10.237
X-90.871 Y-10.082
X-90.833 Y-10.031
X-90.818 Y-9.995
X-90.817 Y-9.955
X-90.832 Y-9.919
X-90.859 Y-9.891
X-90.896 Y-9.876
X-90.935
X-91.364 Y-9.961
X-91.394 Y-9.972
X-91.418 Y-9.991
X-91.496 Y-10.082
X-91.542 Y-10.141
X-91.554 Y-10.215
X-91.545 Y-10.289
X-91.48 Y-10.424
X-91.373 Y-10.472
X-91.257 Y-10.475
X-91.149 Y-10.433
X-91.064 Y-10.353
X-90.982 Y-10.237
X-90.968 Y-10.206
X-90.966 Y-10.171
X-90.975 Y-10.138
X-90.995 Y-10.111
X-91.023 Y-10.091
X-91.056 Y-10.082
X-91.413 Y-10.05
X-91.444 Y-10.052
X-91.472 Y-10.063
X-91.496 Y-10.082
X-91.588 Y-10.188
X-91.633 Y-10.247
X-91.649 Y-10.321
X-91.644 Y-10.396
X-91.586 Y-10.534
X-91.578 Y-10.54
X-91.47 Y-10.593
X-91.349 Y-10.599
X-91.236 Y-10.557
X-91.148 Y-10.473
X-91.064 Y-10.353
X-91.051 Y-10.322
X-91.049 Y-10.288
X-91.058 Y-10.256
X-91.077 Y-10.228
X-91.104 Y-10.208
X-91.137 Y-10.199
X-91.503 Y-10.157
X-91.534 Y-10.158
X-91.563 Y-10.169
X-91.588 Y-10.188
X-91.695 Y-10.313
X-91.741 Y-10.372
X-91.753 Y-10.446
X-91.744 Y-10.521
X-91.681 Y-10.657
X-91.667 Y-10.668
X-91.558 Y-10.721
X-91.438 Y-10.727
X-91.324 Y-10.685
X-91.237 Y-10.601
X-91.148 Y-10.473
X-91.135 Y-10.442
X-91.133 Y-10.408
X-91.142 Y-10.376
X-91.162 Y-10.348
X-91.19 Y-10.329
X-91.223 Y-10.32
X-91.612 Y-10.281
X-91.642 Y-10.283
X-91.671 Y-10.294
X-91.695 Y-10.313
X-91.757 Y-10.387
X-91.801 Y-10.441
X-91.844 Y-10.502
X-91.853 Y-10.577
X-91.841 Y-10.651
X-91.775 Y-10.785
X-91.755 Y-10.801
X-91.645 Y-10.854
X-91.524 Y-10.858
X-91.41 Y-10.814
X-91.323 Y-10.729
X-91.237 Y-10.601
X-91.224 Y-10.57
X-91.222 Y-10.537
X-91.231 Y-10.504
X-91.251 Y-10.476
X-91.279 Y-10.457
X-91.311 Y-10.448
X-91.715 Y-10.407
X-91.747 Y-10.409
X-91.776 Y-10.421
X-91.801 Y-10.441
X-91.887 Y-10.55
X-91.93 Y-10.612
X-91.945 Y-10.685
X-91.939 Y-10.76
X-91.883 Y-10.899
X-91.86 Y-10.92
X-91.749 Y-10.982
X-91.622 Y-10.993
X-91.503 Y-10.95
X-91.411 Y-10.861
X-91.323 Y-10.729
X-91.309 Y-10.692
X-91.311 Y-10.653
X-91.327 Y-10.617
X-91.356 Y-10.591
X-91.393 Y-10.577
X-91.795 Y-10.516
X-91.829
X-91.861 Y-10.528
X-91.887 Y-10.55
X-91.982 Y-10.673
X-92.024 Y-10.734
X-92.042 Y-10.807
X-92.036 Y-10.882
X-91.982 Y-11.022
X-91.954 Y-11.048
X-91.843 Y-11.114
X-91.715 Y-11.127
X-91.593 Y-11.084
X-91.5 Y-10.995
X-91.411 Y-10.861
X-91.398 Y-10.825
X-91.399 Y-10.786
X-91.415 Y-10.751
X-91.443 Y-10.724
X-91.479 Y-10.71
X-91.887 Y-10.638
X-91.922
X-91.955 Y-10.65
X-91.982 Y-10.673
X-92.095 Y-10.82
X-92.137 Y-10.882
X-92.146 Y-10.957
X-92.119 Y-11.104
X-92.027 Y-11.223
X-92 Y-11.239
X-91.892 Y-11.277
X-91.778 Y-11.271
X-91.674 Y-11.223
X-91.596 Y-11.14
X-91.567 Y-11.095
X-91.5 Y-10.995
X-91.487 Y-10.958
X-91.488 Y-10.918
X-91.505 Y-10.883
X-91.535 Y-10.856
X-91.572 Y-10.843
X-92.005 Y-10.785
X-92.038 Y-10.786
X-92.07 Y-10.798
X-92.095 Y-10.82
X-92.18 Y-10.932
X-92.222 Y-10.995
X-92.241 Y-11.067
X-92.234 Y-11.217
X-92.155 Y-11.345
X-92.119 Y-11.37
X-92.007 Y-11.421
X-91.884 Y-11.423
X-91.771 Y-11.375
X-91.687 Y-11.285
X-91.596 Y-11.14
X-91.583 Y-11.105
X-91.585 Y-11.068
X-91.6 Y-11.033
X-91.626 Y-11.007
X-91.66 Y-10.992
X-92.08 Y-10.898
X-92.117 Y-10.897
X-92.152 Y-10.909
X-92.18 Y-10.932
X-92.302 Y-11.095
X-92.34 Y-11.16
X-92.356 Y-11.309
X-92.297 Y-11.447
X-92.19 Y-11.552
X-92.164 Y-11.563
X-92.024 Y-11.589
X-91.887 Y-11.547
X-91.786 Y-11.447
X-91.687 Y-11.285
X-91.674 Y-11.249
X-91.677 Y-11.211
X-91.693 Y-11.177
X-91.721 Y-11.151
X-91.756 Y-11.138
X-92.207 Y-11.059
X-92.242
X-92.275 Y-11.072
X-92.302 Y-11.095
X-92.414 Y-11.264
X-92.452 Y-11.329
X-92.459 Y-11.478
X-92.397 Y-11.615
X-92.284 Y-11.714
X-92.262 Y-11.724
X-92.122 Y-11.749
X-91.985 Y-11.707
X-91.884 Y-11.607
X-91.786 Y-11.447
X-91.774 Y-11.411
X-91.776 Y-11.372
X-91.793 Y-11.338
X-91.821 Y-11.312
X-91.857 Y-11.299
X-92.317 Y-11.224
X-92.354
X-92.388 Y-11.239
X-92.414 Y-11.264
X-92.518 Y-11.421
X-92.556 Y-11.485
X-92.566 Y-11.635
X-92.503 Y-11.771
X-92.391 Y-11.871
X-92.365 Y-11.883
X-92.223 Y-11.911
X-92.084 Y-11.869
X-91.982 Y-11.767
X-91.884 Y-11.607
X-91.872 Y-11.571
X-91.874 Y-11.533
X-91.891 Y-11.498
X-91.919 Y-11.472
X-91.955 Y-11.459
X-92.42 Y-11.38
X-92.457 Y-11.381
X-92.491 Y-11.395
X-92.518 Y-11.421
X-92.622 Y-11.578
X-92.661 Y-11.642
X-92.671 Y-11.792
X-92.608 Y-11.928
X-92.498 Y-12.029
X-92.458 Y-12.048
X-92.348 Y-12.077
X-92.235 Y-12.063
X-92.136 Y-12.008
X-92.064 Y-11.92
X-91.982 Y-11.767
X-91.97 Y-11.731
X-91.972 Y-11.693
X-91.989 Y-11.659
X-92.016 Y-11.633
X-92.052 Y-11.62
X-92.524 Y-11.537
X-92.561 Y-11.538
X-92.596 Y-11.552
X-92.622 Y-11.578
X-92.694 Y-11.686
X-92.729 Y-11.744
