%
(n-076-080)
(T1  D=1 CR=0 - ZMIN=-2 - flat end mill)
G90 G94
G17
G21
G28 G91 Z0
G90

(Clear)
M9
T1 M6
S5000 M3
G54
M8
G0 X-116.203 Y-8.425
Z12
Z2
Z0.5
G3 X-115.719 Y-8.55 Z0.29 I0.242 J-0.062 F333.3
X-116.203 Y-8.425 Z0.079 I-0.242 J0.062
X-115.719 Y-8.55 Z-0.131 I0.242 J-0.062
X-116.203 Y-8.425 Z-0.342 I-0.242 J0.062
X-115.719 Y-8.55 Z-0.552 I0.242 J-0.062
X-116.203 Y-8.425 Z-0.763 I-0.242 J0.062
X-115.992 Y-8.735 Z-0.876 I0.242 J-0.062
X-115.711 Y-8.487 Z-0.99 I0.031 J0.248
X-116.211 I-0.25
X-115.711 I0.25
G1 X-115.674 Y-8.342 F1000
X-115.687 Y-8.268
X-115.724 Y-8.203
X-115.831 Y-8.098
X-115.975 Y-8.058
X-116.124 Y-8.079
X-116.254 Y-8.153
X-116.351 Y-8.268
X-116.403 Y-8.409
X-116.405 Y-8.559
X-116.357 Y-8.701
X-116.266 Y-8.819
X-116.14 Y-8.901
X-115.994 Y-8.937
X-115.845 Y-8.923
X-115.708 Y-8.861
X-115.6 Y-8.757
X-115.522 Y-8.629
X-115.471 Y-8.488
X-115.461 Y-8.338
X-115.496 Y-8.193
X-115.567 Y-8.06
X-115.675 Y-7.957
X-115.806 Y-7.883
X-115.952 Y-7.85
X-116.102 Y-7.857
X-116.246 Y-7.898
X-116.376 Y-7.974
X-116.482 Y-8.079
X-116.564 Y-8.205
X-116.614 Y-8.347
X-116.628 Y-8.496
X-116.612 Y-8.645
X-116.583 Y-8.725
X-116.57 Y-8.756
X-116.554 Y-8.785
X-116.534 Y-8.812
X-116.502 Y-8.857
X-116.415 Y-8.979
X-116.294 Y-9.067
X-116.157 Y-9.128
X-116.01 Y-9.157
X-115.86 Y-9.15
X-115.715 Y-9.111
X-115.582 Y-9.042
X-115.557 Y-9.021
X-115.544 Y-9.008
X-115.532 Y-8.994
X-115.45 Y-8.899
X-115.445 Y-8.893
X-115.424 Y-8.87
X-115.33 Y-8.752
X-115.303 Y-8.69
X-115.289 Y-8.651
X-115.281 Y-8.611
X-115.278 Y-8.571
X-115.287 Y-8.534
X-115.308 Y-8.503
X-115.338 Y-8.482
X-115.375 Y-8.474
X-115.412 Y-8.48
X-115.444 Y-8.499
X-115.467 Y-8.528
X-115.585 Y-8.754
X-115.596 Y-8.788
X-115.594 Y-8.824
X-115.579 Y-8.857
X-115.554 Y-8.882
X-115.522 Y-8.897
X-115.487 Y-8.9
X-115.453 Y-8.891
X-115.424 Y-8.87
X-115.36 Y-8.798
X-115.302 Y-8.73
X-115.294 Y-8.72
X-115.288 Y-8.709
X-115.284 Y-8.698
X-115.281 Y-8.688
X-115.279 Y-8.677
X-115.278 Y-8.646
Y-8.346
Y-8.308
Y-8.261
X-115.286 Y-8.112
X-115.353 Y-7.977
X-115.377 Y-7.946
X-115.443 Y-7.885
X-115.524 Y-7.845
X-115.613 Y-7.832
X-115.648 Y-7.839
X-115.678 Y-7.859
X-115.699 Y-7.887
X-115.709 Y-7.922
X-115.706 Y-7.957
X-115.691 Y-7.99
X-115.46 Y-8.316
X-115.435 Y-8.34
X-115.402 Y-8.355
X-115.367 Y-8.357
X-115.333 Y-8.347
X-115.305 Y-8.326
X-115.286 Y-8.296
X-115.278 Y-8.261
Y-7.97
Y-7.949
X-115.279 Y-7.938
X-115.282 Y-7.919
X-115.296 Y-7.893
X-115.319 Y-7.877
X-115.348 Y-7.871
X-115.375 Y-7.879
X-115.397 Y-7.897
X-115.409 Y-7.924
Y-7.952
X-115.396 Y-7.978
X-115.395 Y-7.979
X-115.369 Y-7.998
X-115.338 Y-8.003
X-115.308 Y-7.992
X-115.286 Y-7.969
X-115.279 Y-7.938
X-115.28 Y-7.928
X-115.283 Y-7.917
X-115.287 Y-7.907
X-115.292 Y-7.896
X-115.299 Y-7.885
X-115.313 Y-7.869
X-115.33 Y-7.853
X-115.345 Y-7.843
X-115.36 Y-7.837
X-115.371 Y-7.834
X-115.382 Y-7.832
X-115.783
X-116.291
X-116.441 Y-7.839
X-116.575 Y-7.907
X-116.685 Y-8.008
X-116.77 Y-8.132
X-116.826 Y-8.271
X-116.843 Y-8.357
X-116.842 Y-8.481
X-116.79 Y-8.594
X-116.697 Y-8.676
X-116.66 Y-8.687
X-116.622 Y-8.683
X-116.588 Y-8.665
X-116.563 Y-8.635
X-116.485 Y-8.491
X-116.207 Y-7.979
X-116.196 Y-7.948
Y-7.914
X-116.208 Y-7.882
X-116.229 Y-7.856
X-116.258 Y-7.839
X-116.291 Y-7.832
X-116.591
X-116.666 Y-7.835
X-116.805 Y-7.893
X-116.915 Y-7.994
X-116.998 Y-8.119
X-117.049 Y-8.26
X-117.053 Y-8.305
X-117.034 Y-8.443
X-116.955 Y-8.557
X-116.832 Y-8.624
X-116.796 Y-8.625
X-116.762 Y-8.614
X-116.734 Y-8.591
X-116.716 Y-8.56
X-116.704 Y-8.527
X-116.501 Y-7.966
X-116.495 Y-7.929
X-116.503 Y-7.892
X-116.524 Y-7.861
X-116.555 Y-7.84
X-116.591 Y-7.832
X-116.845
X-116.92 Y-7.835
X-117.056 Y-7.9
X-117.16 Y-8.007
X-117.231 Y-8.139
X-117.254 Y-8.245
X-117.253 Y-8.376
X-117.197 Y-8.494
X-117.095 Y-8.577
X-116.968 Y-8.609
X-116.883 Y-8.614
X-116.841 Y-8.621
X-116.832 Y-8.624
X-116.795 Y-8.625
X-116.76 Y-8.613
X-116.732 Y-8.589
X-116.714 Y-8.556
X-116.71 Y-8.52
X-116.749 Y-7.925
X-116.758 Y-7.89
X-116.779 Y-7.86
X-116.809 Y-7.84
X-116.845 Y-7.832
X-117.052
X-117.127 Y-7.835
X-117.267 Y-7.891
X-117.371 Y-7.998
X-117.438 Y-8.133
X-117.468 Y-8.28
X-117.462 Y-8.335
X-117.414 Y-8.473
X-117.305 Y-8.571
X-117.164 Y-8.607
X-117.052
X-116.968 Y-8.609
X-116.935 Y-8.603
X-116.905 Y-8.586
X-116.883 Y-8.56
X-116.871 Y-8.528
X-116.87 Y-8.494
X-116.957 Y-7.917
X-116.968 Y-7.884
X-116.989 Y-7.857
X-117.019 Y-7.839
X-117.052 Y-7.832
X-117.268
X-117.343 Y-7.835
X-117.482 Y-7.892
X-117.584 Y-8.002
X-117.65 Y-8.137
X-117.671 Y-8.286
X-117.665 Y-8.339
X-117.615 Y-8.475
X-117.508 Y-8.572
X-117.367 Y-8.607
X-117.164
X-117.13 Y-8.6
X-117.101 Y-8.582
X-117.08 Y-8.555
X-117.069 Y-8.523
Y-8.489
X-117.173 Y-7.914
X-117.185 Y-7.882
X-117.206 Y-7.856
X-117.235 Y-7.839
X-117.268 Y-7.832
X-117.475
X-117.55 Y-7.835
X-117.69 Y-7.891
X-117.792 Y-8
X-117.856 Y-8.136
X-117.876 Y-8.285
X-117.87 Y-8.34
X-117.82 Y-8.475
X-117.712 Y-8.572
X-117.572 Y-8.607
X-117.367
X-117.333 Y-8.6
X-117.304 Y-8.582
X-117.283 Y-8.555
X-117.272 Y-8.523
Y-8.488
X-117.381 Y-7.913
X-117.392 Y-7.882
X-117.414 Y-7.856
X-117.442 Y-7.839
X-117.475 Y-7.832
X-117.691
X-117.766 Y-7.835
X-117.904 Y-7.895
X-118.003 Y-8.007
X-118.064 Y-8.144
X-118.081 Y-8.293
X-118.075 Y-8.345
X-118.023 Y-8.478
X-117.916 Y-8.573
X-117.777 Y-8.607
X-117.572
X-117.538 Y-8.6
X-117.509 Y-8.581
X-117.487 Y-8.554
X-117.476 Y-8.521
X-117.478 Y-8.487
X-117.597 Y-7.911
X-117.609 Y-7.881
X-117.63 Y-7.855
X-117.659 Y-7.838
X-117.691 Y-7.832
X-117.898
X-117.973 Y-7.835
X-118.111 Y-7.895
X-118.21 Y-8.008
X-118.271 Y-8.145
X-118.288 Y-8.294
X-118.281 Y-8.346
X-118.229 Y-8.479
X-118.122 Y-8.573
X-117.983 Y-8.607
X-117.777
X-117.743 Y-8.6
X-117.714 Y-8.581
X-117.693 Y-8.554
X-117.682 Y-8.521
X-117.683 Y-8.486
X-117.804 Y-7.911
X-117.816 Y-7.88
X-117.838 Y-7.855
X-117.866 Y-7.838
X-117.898 Y-7.832
X-118.114
X-118.189 Y-7.835
X-118.324 Y-7.901
X-118.42 Y-8.016
X-118.479 Y-8.154
X-118.493 Y-8.303
X-118.486 Y-8.351
X-118.433 Y-8.482
X-118.327 Y-8.574
X-118.189 Y-8.607
X-117.983
X-117.949 Y-8.599
X-117.919 Y-8.581
X-117.898 Y-8.553
X-117.888 Y-8.52
X-117.889 Y-8.485
X-118.02 Y-7.91
X-118.032 Y-7.879
X-118.054 Y-7.855
X-118.082 Y-7.838
X-118.114 Y-7.832
X-118.321
X-118.396 Y-7.835
X-118.531 Y-7.901
X-118.627 Y-8.016
X-118.686 Y-8.154
X-118.7 Y-8.304
X-118.693 Y-8.351
X-118.64 Y-8.482
X-118.533 Y-8.574
X-118.396 Y-8.607
X-118.189
X-118.155 Y-8.599
X-118.126 Y-8.581
X-118.104 Y-8.553
X-118.094 Y-8.519
X-118.095 Y-8.484
X-118.227 Y-7.909
X-118.24 Y-7.879
X-118.261 Y-7.855
X-118.289 Y-7.838
X-118.321 Y-7.832
X-118.537
X-118.612 Y-7.835
X-118.744 Y-7.906
X-118.838 Y-8.023
X-118.894 Y-8.162
X-118.906 Y-8.312
X-118.899 Y-8.356
X-118.844 Y-8.484
X-118.738 Y-8.574
X-118.603 Y-8.607
X-118.396
X-118.361 Y-8.599
X-118.332 Y-8.58
X-118.31 Y-8.552
X-118.3 Y-8.518
X-118.302 Y-8.483
X-118.443 Y-7.908
X-118.456 Y-7.878
X-118.478 Y-7.854
X-118.505 Y-7.838
X-118.537 Y-7.832
X-118.744
X-118.819 Y-7.835
X-118.951 Y-7.906
X-119.045 Y-8.024
X-119.101 Y-8.163
X-119.113 Y-8.312
X-119.106 Y-8.356
X-119.052 Y-8.485
X-118.945 Y-8.574
X-118.81 Y-8.607
X-118.603
X-118.568 Y-8.599
X-118.538 Y-8.58
X-118.517 Y-8.552
X-118.507 Y-8.518
X-118.509 Y-8.483
X-118.651 Y-7.908
X-118.663 Y-7.878
X-118.685 Y-7.854
X-118.713 Y-7.838
X-118.744 Y-7.832
X-118.96
X-119.035 Y-7.835
X-119.165 Y-7.911
X-119.256 Y-8.03
X-119.31 Y-8.17
X-119.32 Y-8.32
X-119.312 Y-8.361
X-119.257 Y-8.487
X-119.151 Y-8.575
X-119.017 Y-8.607
X-118.81
X-118.775 Y-8.599
X-118.745 Y-8.58
X-118.724 Y-8.551
X-118.714 Y-8.517
X-118.717 Y-8.482
X-118.867 Y-7.906
X-118.88 Y-7.877
X-118.901 Y-7.854
X-118.929 Y-7.838
X-118.96 Y-7.832
X-119.129
X-119.204 Y-7.835
X-119.345 Y-7.888
X-119.447 Y-7.998
X-119.509 Y-8.134
X-119.53 Y-8.282
X-119.523 Y-8.342
X-119.473 Y-8.477
X-119.365 Y-8.572
X-119.225 Y-8.607
X-119.017
X-118.984 Y-8.6
X-118.954 Y-8.582
X-118.933 Y-8.555
X-118.922 Y-8.522
X-118.923 Y-8.488
X-119.035 Y-7.913
X-119.046 Y-7.881
X-119.068 Y-7.856
X-119.097 Y-7.838
X-119.129 Y-7.832
X-119.337
X-119.412 Y-7.835
X-119.552 Y-7.888
X-119.653 Y-7.999
X-119.716 Y-8.135
X-119.736 Y-8.284
X-119.729 Y-8.34
X-119.679 Y-8.476
X-119.572 Y-8.572
X-119.431 Y-8.607
X-119.225
X-119.192 Y-8.6
X-119.162 Y-8.582
X-119.141 Y-8.555
X-119.13 Y-8.522
X-119.131 Y-8.488
X-119.242 Y-7.913
X-119.254 Y-7.881
X-119.275 Y-7.856
X-119.304 Y-7.838
X-119.337 Y-7.832
X-119.552
X-119.627 Y-7.835
X-119.765 Y-7.895
X-119.864 Y-8.008
X-119.924 Y-8.145
X-119.941 Y-8.294
X-119.935 Y-8.346
X-119.883 Y-8.479
X-119.776 Y-8.573
X-119.637 Y-8.607
X-119.431
X-119.397 Y-8.6
X-119.368 Y-8.581
X-119.347 Y-8.554
X-119.336 Y-8.521
X-119.337 Y-8.486
X-119.458 Y-7.911
X-119.47 Y-7.88
X-119.491 Y-7.855
X-119.52 Y-7.838
X-119.552 Y-7.832
X-119.76
X-119.835 Y-7.835
X-119.972 Y-7.896
X-120.07 Y-8.009
X-120.131 Y-8.146
X-120.147 Y-8.295
X-120.141 Y-8.346
X-120.089 Y-8.479
X-119.982 Y-8.573
X-119.843 Y-8.607
X-119.637
X-119.603 Y-8.6
X-119.574 Y-8.581
X-119.552 Y-8.554
X-119.541 Y-8.521
X-119.543 Y-8.486
X-119.665 Y-7.911
X-119.677 Y-7.88
X-119.699 Y-7.855
X-119.727 Y-7.838
X-119.76 Y-7.832
X-119.975
X-120.05 Y-7.835
X-120.185 Y-7.901
X-120.281 Y-8.017
X-120.339 Y-8.155
X-120.353 Y-8.304
X-120.346 Y-8.352
X-120.293 Y-8.482
X-120.186 Y-8.574
X-120.049 Y-8.607
X-119.843
X-119.809 Y-8.599
X-119.779 Y-8.581
X-119.758 Y-8.553
X-119.747 Y-8.519
X-119.749 Y-8.484
X-119.881 Y-7.909
X-119.894 Y-7.879
X-119.915 Y-7.855
X-119.943 Y-7.838
X-119.975 Y-7.832
X-120.183
X-120.258 Y-7.835
X-120.392 Y-7.902
X-120.488 Y-8.017
X-120.546 Y-8.156
X-120.56 Y-8.305
X-120.553 Y-8.352
X-120.499 Y-8.482
X-120.393 Y-8.574
X-120.256 Y-8.607
X-120.049
X-120.015 Y-8.599
X-119.985 Y-8.581
X-119.964 Y-8.553
X-119.954 Y-8.519
X-119.955 Y-8.484
X-120.089 Y-7.909
X-120.101 Y-7.879
X-120.123 Y-7.854
X-120.151 Y-7.838
X-120.183 Y-7.832
X-120.398
X-120.473 Y-7.835
X-120.605 Y-7.907
X-120.698 Y-8.024
X-120.754 Y-8.163
X-120.766 Y-8.313
X-120.759 Y-8.357
X-120.704 Y-8.485
X-120.598 Y-8.575
X-120.463 Y-8.607
X-120.256
X-120.221 Y-8.599
X-120.192 Y-8.58
X-120.17 Y-8.552
X-120.16 Y-8.518
X-120.162 Y-8.483
X-120.305 Y-7.908
X-120.317 Y-7.878
X-120.339 Y-7.854
X-120.367 Y-7.838
X-120.398 Y-7.832
X-120.568
X-120.642 Y-7.835
X-120.785 Y-7.883
X-120.889 Y-7.991
X-120.953 Y-8.126
X-120.976 Y-8.275
X-120.96 Y-8.424
X-120.959 Y-8.427
X-120.893 Y-8.522
X-120.797 Y-8.585
X-120.684 Y-8.607
X-120.463
X-120.429 Y-8.6
X-120.4 Y-8.582
X-120.379 Y-8.555
X-120.368 Y-8.523
Y-8.489
X-120.473 Y-7.914
X-120.484 Y-7.882
X-120.506 Y-7.856
X-120.535 Y-7.839
X-120.568 Y-7.832
X-120.821
X-120.896 Y-7.835
X-121.027 Y-7.91
X-121.117 Y-8.029
X-121.171 Y-8.169
X-121.19 Y-8.318
X-121.183 Y-8.36
X-121.128 Y-8.487
X-121.022 Y-8.575
X-120.888 Y-8.607
X-120.684
X-120.65 Y-8.599
X-120.62 Y-8.58
X-120.599 Y-8.552
X-120.588 Y-8.519
X-120.59 Y-8.484
X-120.728 Y-7.908
X-120.74 Y-7.879
X-120.762 Y-7.854
X-120.79 Y-7.838
X-120.821 Y-7.832
X-120.991
X-121.065 Y-7.835
X-121.206 Y-7.887
X-121.308 Y-7.997
X-121.374 Y-8.132
X-121.398 Y-8.28
X-121.392 Y-8.339
X-121.342 Y-8.475
X-121.234 Y-8.572
X-121.094 Y-8.607
X-120.888
X-120.854 Y-8.6
X-120.825 Y-8.582
X-120.804 Y-8.555
X-120.792 Y-8.523
X-120.793 Y-8.489
X-120.896 Y-7.914
X-120.907 Y-7.882
X-120.929 Y-7.856
X-120.957 Y-7.839
X-120.991 Y-7.832
X-121.198
X-121.273 Y-7.835
X-121.413 Y-7.888
X-121.516 Y-7.997
X-121.582 Y-8.132
X-121.603 Y-8.28
X-121.597 Y-8.337
X-121.548 Y-8.474
X-121.44 Y-8.572
X-121.299 Y-8.607
X-121.094
X-121.06 Y-8.6
X-121.031 Y-8.582
X-121.01 Y-8.555
X-120.998 Y-8.523
X-120.999 Y-8.489
X-121.103 Y-7.914
X-121.114 Y-7.882
X-121.136 Y-7.856
X-121.165 Y-7.839
X-121.198 Y-7.832
X-121.414
X-121.452
X-121.498
X-121.526 Y-7.833
X-121.544 Y-7.844
X-121.621 Y-7.909
X-121.672 Y-7.997
X-121.691 Y-8.097
G3 X-121.371 Y-8.259 I0.203 J0.004
X-121.498 Y-7.832 I-0.135 J0.193
G1 X-121.589
X-121.6 Y-7.834
X-121.61 Y-7.837
X-121.621 Y-7.841
X-121.633 Y-7.848
X-121.644 Y-7.857
X-121.658 Y-7.871
X-121.675 Y-7.896
X-121.68 Y-7.907
X-121.684 Y-7.917
X-121.687 Y-7.928
X-121.689 Y-7.97
X-121.696 Y-8.392
Y-8.439
X-121.697 Y-8.477
X-121.69 Y-8.519
X-121.673 Y-8.555
X-121.647 Y-8.586
X-121.608 Y-8.601
X-121.566 Y-8.604
X-121.526 Y-8.593
X-121.491 Y-8.569
X-121.466 Y-8.534
X-121.455 Y-8.493
X-121.459 Y-8.45
X-121.478 Y-8.412
X-121.508 Y-8.383
X-121.547 Y-8.365
X-121.589 Y-8.363
X-121.63 Y-8.375
X-121.664 Y-8.4
X-121.687 Y-8.435
X-121.697 Y-8.477
Y-8.498
X-121.696 Y-8.508
X-121.695 Y-8.519
X-121.691 Y-8.529
X-121.687 Y-8.54
X-121.681 Y-8.551
X-121.673 Y-8.561
X-121.647 Y-8.586
X-121.634 Y-8.594
X-121.621 Y-8.6
X-121.61 Y-8.604
X-121.6 Y-8.606
X-121.579 Y-8.607
X-121.299
X-121.273 Y-8.603
X-121.249 Y-8.593
X-121.23 Y-8.585
X-121.211 Y-8.581
X-120.523 Y-8.498
X-116.913 Y-8.061
X-116.878 Y-8.063
X-116.846 Y-8.077
X-116.82 Y-8.101
X-116.805 Y-8.132
G3 X-116.502 Y-8.857 I3.496 J1.033
G1 X-116.477 Y-8.899
X-116.46 Y-8.933
X-116.441 Y-8.984
X-116.429 Y-9.026
X-116.42 Y-9.068
X-116.405 Y-9.141
X-116.306 Y-9.254
X-116.176 Y-9.33
X-116.032 Y-9.37
X-116.002 Y-9.371
X-115.909 Y-9.362
X-115.824 Y-9.325
X-115.754 Y-9.263
X-115.532 Y-8.994
X-115.516 Y-8.964
X-115.511 Y-8.93
X-115.518 Y-8.896
X-115.536 Y-8.867
X-115.563 Y-8.845
X-115.595 Y-8.834
X-115.629 Y-8.835
X-115.707 Y-8.849
X-116.338 Y-8.965
X-116.372 Y-8.977
X-116.399 Y-9.001
X-116.416 Y-9.033
X-116.42 Y-9.068
X-116.413 Y-9.152
X-116.414 Y-9.195
X-116.417 Y-9.27
X-116.356 Y-9.407
X-116.243 Y-9.505
X-116.226 Y-9.511
X-116.099 Y-9.533
X-115.975 Y-9.5
X-115.876 Y-9.417
X-115.802 Y-9.321
X-115.754 Y-9.263
X-115.737 Y-9.23
X-115.734 Y-9.193
X-115.744 Y-9.157
X-115.766 Y-9.128
X-115.798 Y-9.108
X-115.835 Y-9.102
X-116.316 Y-9.108
X-116.351 Y-9.114
X-116.382 Y-9.133
X-116.404 Y-9.161
X-116.414 Y-9.195
X-116.418 Y-9.237
X-116.439 Y-9.321
X-116.45 Y-9.353
X-116.462 Y-9.388
X-116.449 Y-9.462
X-116.388 Y-9.599
X-116.281 Y-9.65
X-116.165 Y-9.655
X-116.055 Y-9.616
X-115.969 Y-9.538
X-115.876 Y-9.417
X-115.86 Y-9.383
X-115.858 Y-9.345
X-115.87 Y-9.309
X-115.894 Y-9.281
X-115.928 Y-9.263
X-115.965 Y-9.259
X-116.366 Y-9.292
X-116.401 Y-9.301
X-116.431 Y-9.322
X-116.45 Y-9.353
X-116.46 Y-9.378
X-116.473 Y-9.406
X-116.498 Y-9.448
X-116.517 Y-9.48
X-116.529 Y-9.554
X-116.51 Y-9.627
X-116.432 Y-9.755
X-116.305 Y-9.791
X-116.176 Y-9.763
X-116.075 Y-9.68
X-116.06 Y-9.648
X-116.057 Y-9.613
X-116.067 Y-9.579
X-116.087 Y-9.551
X-116.116 Y-9.531
X-116.376 Y-9.415
X-116.409 Y-9.407
X-116.443 Y-9.41
X-116.474 Y-9.424
X-116.498 Y-9.448
X-116.526 Y-9.49
X-116.574 Y-9.547
X-116.597 Y-9.576
X-116.61 Y-9.65
X-116.603 Y-9.725
X-116.573 Y-9.794
X-116.477 Y-9.867
X-116.359 Y-9.89
X-116.242 Y-9.86
X-116.15 Y-9.781
X-115.969 Y-9.538
X-115.954 Y-9.506
X-115.951 Y-9.472
X-115.961 Y-9.438
X-115.981 Y-9.409
X-116.01 Y-9.39
X-116.044 Y-9.381
X-116.079 Y-9.385
X-116.528 Y-9.518
X-116.553 Y-9.529
X-116.574 Y-9.547
X-116.651 Y-9.638
X-116.674 Y-9.668
X-116.698 Y-9.739
X-116.689 Y-9.813
X-116.661 Y-9.883
X-116.56 Y-9.962
X-116.435 Y-9.988
X-116.311 Y-9.955
X-116.215 Y-9.871
X-116.15 Y-9.781
X-116.136 Y-9.749
X-116.133 Y-9.714
X-116.143 Y-9.68
X-116.164 Y-9.652
X-116.193 Y-9.633
X-116.227 Y-9.625
X-116.572 Y-9.605
X-116.601 Y-9.608
X-116.628 Y-9.619
X-116.651 Y-9.638
X-116.742 Y-9.744
X-116.764 Y-9.773
X-116.783 Y-9.846
X-116.77 Y-9.92
X-116.707 Y-10.056
X-116.604 Y-10.104
X-116.49 Y-10.108
X-116.383 Y-10.068
X-116.299 Y-9.99
X-116.215 Y-9.871
X-116.201 Y-9.838
X-116.199 Y-9.802
X-116.21 Y-9.769
X-116.232 Y-9.741
X-116.262 Y-9.722
X-116.297 Y-9.716
X-116.667 Y-9.711
X-116.694 Y-9.715
X-116.72 Y-9.726
X-116.742 Y-9.744
X-116.813 Y-9.828
X-116.858 Y-9.888
X-116.873 Y-9.962
X-116.867 Y-10.037
X-116.804 Y-10.174
X-116.696 Y-10.224
X-116.577 Y-10.228
X-116.466 Y-10.185
X-116.38 Y-10.103
X-116.299 Y-9.99
X-116.286 Y-9.959
X-116.283 Y-9.925
X-116.292 Y-9.892
X-116.312 Y-9.864
X-116.339 Y-9.845
X-116.372 Y-9.835
X-116.727 Y-9.795
X-116.759 Y-9.796
X-116.789 Y-9.808
X-116.813 Y-9.828
X-116.93 Y-9.971
X-116.953 Y-10.001
X-116.969 Y-10.074
X-116.964 Y-10.149
X-116.905 Y-10.287
X-116.896 Y-10.294
X-116.787 Y-10.347
X-116.667 Y-10.353
X-116.553 Y-10.311
X-116.466 Y-10.228
X-116.38 Y-10.103
X-116.366 Y-10.071
X-116.365 Y-10.036
X-116.375 Y-10.002
X-116.397 Y-9.975
X-116.426 Y-9.956
X-116.461 Y-9.949
X-116.852 Y-9.937
X-116.881 Y-9.94
X-116.908 Y-9.952
X-116.93 Y-9.971
X-117.021 Y-10.082
X-117.043 Y-10.112
X-117.063 Y-10.184
X-117.061 Y-10.259
X-117.008 Y-10.399
X-116.993 Y-10.411
X-116.883 Y-10.471
X-116.758 Y-10.48
X-116.64 Y-10.437
X-116.551 Y-10.35
X-116.466 Y-10.228
X-116.453 Y-10.196
X-116.451 Y-10.161
X-116.461 Y-10.128
X-116.481 Y-10.101
X-116.51 Y-10.082
X-116.544 Y-10.074
X-116.939 Y-10.048
X-116.97 Y-10.05
X-116.998 Y-10.062
X-117.021 Y-10.082
X-117.116 Y-10.198
X-117.16 Y-10.258
X-117.17 Y-10.332
X-117.156 Y-10.406
X-117.089 Y-10.54
X-117.068 Y-10.556
X-116.959 Y-10.607
X-116.838 Y-10.611
X-116.725 Y-10.567
X-116.639 Y-10.482
X-116.551 Y-10.35
X-116.538 Y-10.318
X-116.536 Y-10.285
X-116.546 Y-10.252
X-116.566 Y-10.225
X-116.594 Y-10.206
X-116.627 Y-10.197
X-117.032 Y-10.164
X-117.063 Y-10.166
X-117.092 Y-10.178
X-117.116 Y-10.198
X-117.222 Y-10.329
X-117.244 Y-10.359
X-117.259 Y-10.432
X-117.256 Y-10.507
X-117.204 Y-10.648
X-117.18 Y-10.67
X-117.069 Y-10.734
X-116.941 Y-10.747
X-116.82 Y-10.704
X-116.727 Y-10.614
X-116.639 Y-10.482
X-116.626 Y-10.45
X-116.625 Y-10.417
X-116.635 Y-10.384
X-116.655 Y-10.357
X-116.683 Y-10.338
X-116.716 Y-10.33
X-117.137 Y-10.294
X-117.169 Y-10.296
X-117.198 Y-10.308
X-117.222 Y-10.329
X-117.294 Y-10.419
X-117.338 Y-10.48
X-117.358 Y-10.553
X-117.355 Y-10.628
X-117.305 Y-10.769
X-117.197 Y-10.874
X-117.059 Y-10.899
X-116.926 Y-10.859
X-116.826 Y-10.764
X-116.813 Y-10.729
Y-10.693
X-116.827 Y-10.658
X-116.852 Y-10.631
X-117.159 Y-10.404
X-117.193 Y-10.388
X-117.23 Y-10.385
X-117.265 Y-10.396
X-117.294 Y-10.419
X-117.362 Y-10.504
X-117.41 Y-10.567
X-117.452 Y-10.63
X-117.473 Y-10.778
X-117.418 Y-10.918
X-117.309 Y-11.021
X-117.299 Y-11.025
X-117.16 Y-11.051
X-117.025 Y-11.011
X-116.923 Y-10.914
X-116.799 Y-10.723
X-116.727 Y-10.614
X-116.714 Y-10.58
Y-10.542
X-116.728 Y-10.508
X-116.754 Y-10.481
X-116.788 Y-10.465
X-116.825 Y-10.463
X-117.345 Y-10.531
X-117.381 Y-10.543
X-117.41 Y-10.567
X-117.532 Y-10.731
X-117.553 Y-10.762
X-117.571 Y-10.835
X-117.559 Y-10.984
X-117.484 Y-11.114
X-117.363 Y-11.203
X-117.357 Y-11.205
X-117.229 Y-11.212
X-117.11 Y-11.165
X-117.021 Y-11.073
X-116.923 Y-10.914
X-116.91 Y-10.877
X-116.912 Y-10.839
X-116.929 Y-10.803
X-116.957 Y-10.777
X-116.994 Y-10.764
X-117.439 Y-10.695
X-117.474
X-117.506 Y-10.708
X-117.532 Y-10.731
X-117.56 Y-10.768
X-117.613 Y-10.842
X-117.63 Y-10.868
X-117.669 Y-10.933
X-117.684 Y-11.082
X-117.626 Y-11.22
X-117.525 Y-11.331
X-117.504 Y-11.341
X-117.361 Y-11.371
X-117.221 Y-11.33
X-117.117 Y-11.228
X-117.021 Y-11.073
X-117.009 Y-11.037
X-117.011 Y-11
X-117.026 Y-10.966
X-117.053 Y-10.94
X-117.087 Y-10.926
X-117.527 Y-10.829
X-117.566 Y-10.828
X-117.602 Y-10.842
X-117.63 Y-10.868
X-117.724 Y-11.011
X-117.763 Y-11.075
X-117.778 Y-11.149
X-117.764 Y-11.298
X-117.69 Y-11.429
X-117.57 Y-11.519
X-117.559 Y-11.522
X-117.429 Y-11.531
X-117.307 Y-11.485
X-117.217 Y-11.391
X-117.117 Y-11.228
X-117.105 Y-11.194
X-117.106 Y-11.157
X-117.121 Y-11.123
X-117.146 Y-11.097
X-117.18 Y-11.082
X-117.619 Y-10.972
X-117.658 Y-10.97
X-117.696 Y-10.984
X-117.724 Y-11.011
X-117.78 Y-11.095
X-117.834 Y-11.18
X-117.871 Y-11.245
X-117.889 Y-11.394
X-117.833 Y-11.533
X-117.734 Y-11.645
X-117.702 Y-11.661
X-117.591 Y-11.693
X-117.476 Y-11.68
X-117.374 Y-11.625
X-117.301 Y-11.535
X-117.291 Y-11.517
X-117.243 Y-11.433
X-117.217 Y-11.391
X-117.205 Y-11.356
X-117.207 Y-11.319
X-117.222 Y-11.286
X-117.248 Y-11.26
X-117.281 Y-11.245
X-117.729 Y-11.139
X-117.769 Y-11.138
X-117.806 Y-11.152
X-117.834 Y-11.18
X-117.942 Y-11.349
X-117.979 Y-11.414
X-117.992 Y-11.563
X-117.936 Y-11.702
X-117.83 Y-11.808
X-117.783 Y-11.83
X-117.673 Y-11.859
X-117.56 Y-11.844
X-117.461 Y-11.789
X-117.389 Y-11.701
X-117.301 Y-11.535
X-117.291 Y-11.5
X-117.295 Y-11.463
X-117.311 Y-11.43
X-117.338 Y-11.406
X-117.373 Y-11.393
X-117.842 Y-11.307
X-117.88
X-117.915 Y-11.322
X-117.942 Y-11.349
X-118.05 Y-11.517
X-118.087 Y-11.583
X-118.097 Y-11.732
X-118.036 Y-11.869
X-117.928 Y-11.973
X-117.876 Y-11.999
X-117.766 Y-12.028
X-117.652 Y-12.014
X-117.552 Y-11.959
X-117.48 Y-11.87
X-117.389 Y-11.701
X-117.379 Y-11.665
X-117.383 Y-11.628
X-117.4 Y-11.595
X-117.428 Y-11.571
X-117.462 Y-11.558
X-117.951 Y-11.476
X-117.989
X-118.024 Y-11.491
X-118.05 Y-11.517
X-118.152 Y-11.677
X-118.189 Y-11.742
X-118.202 Y-11.892
X-118.142 Y-12.029
X-118.035 Y-12.135
X-117.903 Y-12.205
X-117.897 Y-12.206
X-117.769 Y-12.203
X-117.655 Y-12.146
X-117.574 Y-12.047
X-117.48 Y-11.87
X-117.47 Y-11.835
X-117.474 Y-11.798
X-117.49 Y-11.766
X-117.517 Y-11.741
X-117.551 Y-11.728
X-118.052 Y-11.635
X-118.09 Y-11.636
X-118.125 Y-11.65
X-118.152 Y-11.677
X-118.212 Y-11.771
X-118.252 Y-11.836
X-118.287 Y-11.901
X-118.304 Y-12.05
X-118.247 Y-12.189
X-118.148 Y-12.302
X-118.019 Y-12.378
X-118.002 Y-12.382
X-117.869 Y-12.384
X-117.747 Y-12.327
X-117.663 Y-12.224
X-117.574 Y-12.047
X-117.565 Y-12.013
X-117.568 Y-11.978
X-117.584 Y-11.946
X-117.61 Y-11.922
X-117.642 Y-11.908
X-118.146 Y-11.793
X-118.176 Y-11.791
X-118.205 Y-11.798
X-118.231 Y-11.813
X-118.252 Y-11.836
X-118.321 Y-11.95
X-118.363 Y-12.024
X-118.397 Y-12.091
X-118.396 Y-12.241
X-118.334 Y-12.378
X-118.234 Y-12.489
X-118.102 Y-12.561
X-118.084 Y-12.564
X-117.952 Y-12.563
X-117.833 Y-12.506
X-117.751 Y-12.403
X-117.663 Y-12.224
X-117.654 Y-12.19
X-117.658 Y-12.154
X-117.674 Y-12.122
X-117.701 Y-12.098
X-117.734 Y-12.085
X-118.258 Y-11.978
X-118.288 Y-11.977
X-118.318 Y-11.985
X-118.343 Y-12.001
X-118.363 Y-12.024
X-118.458 Y-12.193
X-118.491 Y-12.261
X-118.496 Y-12.411
X-118.438 Y-12.549
X-118.339 Y-12.662
X-118.209 Y-12.737
X-118.183 Y-12.743
X-118.047 Y-12.746
X-117.924 Y-12.689
X-117.838 Y-12.583
X-117.751 Y-12.403
X-117.742 Y-12.368
X-117.746 Y-12.333
X-117.762 Y-12.302
X-117.788 Y-12.278
X-117.821 Y-12.264
X-118.351 Y-12.148
X-118.382 Y-12.146
X-118.412 Y-12.153
X-118.438 Y-12.17
X-118.458 Y-12.193
X-118.503 Y-12.278
X-118.546 Y-12.362
X-118.577 Y-12.431
X-118.593 Y-12.58
X-118.539 Y-12.719
X-118.443 Y-12.835
X-118.315 Y-12.913
X-118.277 Y-12.924
X-118.136 Y-12.93
X-118.007 Y-12.871
X-117.92 Y-12.76
X-117.854 Y-12.616
X-117.838 Y-12.583
X-117.83 Y-12.549
X-117.834 Y-12.515
X-117.849 Y-12.484
X-117.874 Y-12.46
X-117.906 Y-12.446
X-118.435 Y-12.314
X-118.467 Y-12.311
X-118.499 Y-12.319
X-118.526 Y-12.337
X-118.546 Y-12.362
X-118.647 Y-12.561
X-118.678 Y-12.629
X-118.681 Y-12.779
X-118.619 Y-12.916
X-118.519 Y-13.027
X-118.388 Y-13.101
X-118.35 Y-13.111
X-118.207 Y-13.113
X-118.08 Y-13.049
X-117.996 Y-12.933
X-117.97 Y-12.869
X-117.92 Y-12.76
X-117.913 Y-12.726
X-117.917 Y-12.691
X-117.934 Y-12.66
X-117.96 Y-12.637
X-117.992 Y-12.624
X-118.54 Y-12.511
X-118.571 Y-12.51
X-118.602 Y-12.518
X-118.628 Y-12.536
X-118.647 Y-12.561
X-118.733 Y-12.728
X-118.763 Y-12.796
X-118.777 Y-12.946
X-118.722 Y-13.085
X-118.625 Y-13.199
X-118.497 Y-13.279
X-118.354 Y-13.323
X-118.35
X-118.236 Y-13.298
X-118.141 Y-13.232
X-118.077 Y-13.134
X-117.996 Y-12.933
X-117.99 Y-12.9
X-117.996 Y-12.866
X-118.012 Y-12.837
X-118.037 Y-12.814
X-118.069 Y-12.801
X-118.624 Y-12.679
X-118.656 Y-12.677
X-118.686 Y-12.685
X-118.713 Y-12.703
X-118.733 Y-12.728
X-118.829 Y-12.917
X-118.86 Y-12.985
X-118.867 Y-13.135
X-118.808 Y-13.273
X-118.711 Y-13.387
X-118.588 Y-13.473
X-118.445 Y-13.519
X-118.325 Y-13.499
X-118.222 Y-13.432
X-118.155 Y-13.33
X-118.077 Y-13.134
X-118.071 Y-13.101
X-118.077 Y-13.068
X-118.093 Y-13.039
X-118.118 Y-13.016
X-118.148 Y-13.003
X-118.718 Y-12.868
X-118.751 Y-12.866
X-118.782 Y-12.874
X-118.809 Y-12.891
X-118.829 Y-12.917
X-118.914 Y-13.083
X-118.944 Y-13.151
X-118.965 Y-13.3
X-118.913 Y-13.44
X-118.823 Y-13.56
X-118.704 Y-13.652
X-118.566 Y-13.709
X-118.543 Y-13.712
X-118.411 Y-13.698
X-118.298 Y-13.628
X-118.227 Y-13.516
X-118.206 Y-13.46
X-118.155 Y-13.33
X-118.15 Y-13.298
X-118.154 Y-13.266
X-118.169 Y-13.237
X-118.193 Y-13.214
X-118.222 Y-13.2
X-118.799 Y-13.035
X-118.832 Y-13.031
X-118.864 Y-13.039
X-118.893 Y-13.056
X-118.914 Y-13.083
X-119.02 Y-13.291
X-119.051 Y-13.36
X-119.052 Y-13.51
X-118.994 Y-13.648
X-118.899 Y-13.764
X-118.78 Y-13.855
X-118.639 Y-13.907
X-118.611 Y-13.91
X-118.48 Y-13.894
X-118.369 Y-13.825
X-118.298 Y-13.714
X-118.227 Y-13.516
X-118.222 Y-13.484
X-118.228 Y-13.451
X-118.244 Y-13.423
X-118.268 Y-13.401
X-118.299 Y-13.388
X-118.909 Y-13.242
X-118.942 Y-13.24
X-118.973 Y-13.248
X-119 Y-13.266
X-119.02 Y-13.291
X-119.063 Y-13.376
X-119.111 Y-13.486
X-119.138 Y-13.556
X-119.139 Y-13.706
X-119.081 Y-13.844
X-118.987 Y-13.961
X-118.867 Y-14.051
X-118.727 Y-14.105
X-118.69 Y-14.109
X-118.557 Y-14.096
X-118.443 Y-14.026
X-118.371 Y-13.914
X-118.298 Y-13.714
X-118.293 Y-13.681
X-118.299 Y-13.649
X-118.315 Y-13.621
X-118.339 Y-13.599
X-118.37 Y-13.586
X-118.997 Y-13.432
X-119.031 Y-13.43
X-119.064 Y-13.439
X-119.092 Y-13.458
X-119.111 Y-13.486
X-119.174 Y-13.629
X-119.193 Y-13.676
X-119.218 Y-13.746
X-119.226 Y-13.896
X-119.17 Y-14.035
X-119.077 Y-14.153
X-118.958 Y-14.245
X-118.82 Y-14.302
X-118.766 Y-14.31
X-118.625 Y-14.298
X-118.505 Y-14.223
X-118.433 Y-14.101
X-118.406 Y-14.013
X-118.371 Y-13.914
X-118.366 Y-13.882
X-118.372 Y-13.85
X-118.387 Y-13.821
X-118.411 Y-13.799
X-118.441 Y-13.786
X-118.452 Y-13.783
X-119.077 Y-13.62
X-119.112 Y-13.617
X-119.145 Y-13.627
X-119.174 Y-13.647
X-119.193 Y-13.676
X-119.277 Y-13.883
X-119.302 Y-13.953
X-119.306 Y-14.103
X-119.248 Y-14.242
X-119.153 Y-14.357
X-119.033 Y-14.448
X-118.894 Y-14.504
X-118.744 Y-14.528
X-118.637 Y-14.491
X-118.551 Y-14.418
X-118.499 Y-14.318
X-118.496 Y-14.286
X-118.503 Y-14.255
X-118.519 Y-14.228
X-118.543 Y-14.207
X-118.612 Y-14.164
X-119.133 Y-13.838
X-119.165 Y-13.826
X-119.199 Y-13.824
X-119.231 Y-13.834
X-119.259 Y-13.854
X-119.277 Y-13.883
X-119.356 Y-14.077
X-119.381 Y-14.148
X-119.389 Y-14.298
X-119.332 Y-14.436
X-119.238 Y-14.554
X-119.12 Y-14.646
X-118.985 Y-14.711
X-118.838 Y-14.741
X-118.831
X-118.715 Y-14.709
X-118.62 Y-14.634
X-118.563 Y-14.528
X-118.559 Y-14.497
X-118.566 Y-14.466
X-118.582 Y-14.439
X-118.606 Y-14.418
X-118.693 Y-14.362
X-119.211 Y-14.033
X-119.243 Y-14.02
X-119.277 Y-14.019
X-119.31 Y-14.028
X-119.337 Y-14.049
X-119.356 Y-14.077
X-119.449 Y-14.305
X-119.473 Y-14.376
X-119.464 Y-14.525
X-119.399 Y-14.661
X-119.301 Y-14.774
X-119.181 Y-14.863
X-119.045 Y-14.928
X-118.898 Y-14.954
X-118.887 Y-14.953
X-118.77 Y-14.919
X-118.676 Y-14.841
X-118.621 Y-14.733
X-118.619 Y-14.701
X-118.627 Y-14.67
X-118.644 Y-14.643
X-118.669 Y-14.623
X-118.771 Y-14.565
X-119.308 Y-14.259
X-119.339 Y-14.247
X-119.372
X-119.404 Y-14.257
X-119.43 Y-14.277
X-119.449 Y-14.305
X-119.528 Y-14.499
X-119.552 Y-14.57
X-119.547 Y-14.72
X-119.485 Y-14.857
X-119.39 Y-14.972
X-119.273 Y-15.066
X-119.139 Y-15.134
X-118.992 Y-15.167
X-118.962 Y-15.166
X-118.838 Y-15.136
X-118.737 Y-15.058
X-118.678 Y-14.944
X-118.676 Y-14.912
X-118.684 Y-14.882
X-118.701 Y-14.855
X-118.726 Y-14.835
X-118.851 Y-14.763
X-119.386 Y-14.453
X-119.417 Y-14.442
X-119.451 Y-14.441
X-119.482 Y-14.451
X-119.509 Y-14.472
X-119.528 Y-14.499
X-119.607 Y-14.695
X-119.631 Y-14.765
Y-14.915
X-119.572 Y-15.054
X-119.48 Y-15.172
X-119.365 Y-15.268
X-119.233 Y-15.34
X-119.088 Y-15.378
X-119.036 Y-15.38
X-118.904 Y-15.355
X-118.796 Y-15.274
X-118.735 Y-15.155
X-118.733 Y-15.123
X-118.741 Y-15.093
X-118.758 Y-15.067
X-118.782 Y-15.047
X-118.931 Y-14.96
X-119.465 Y-14.649
X-119.496 Y-14.637
X-119.53 Y-14.636
X-119.561 Y-14.647
X-119.588 Y-14.667
X-119.607 Y-14.695
X-119.62 Y-14.727
X-119.65 Y-14.812
X-119.687 Y-14.945
X-119.703 Y-15.019
X-119.691 Y-15.168
X-119.624 Y-15.302
X-119.525 Y-15.415
X-119.404 Y-15.504
X-119.268 Y-15.567
X-119.121 Y-15.598
X-119.077 Y-15.597
X-118.95 Y-15.567
X-118.848 Y-15.487
X-118.79 Y-15.371
X-118.733 Y-15.15
X-118.597 Y-14.643
X-118.444 Y-14.136
X-118.433 Y-14.101
X-118.43 Y-14.066
X-118.44 Y-14.031
X-118.462 Y-14.002
X-118.492 Y-13.983
X-118.527 Y-13.976
X-118.563 Y-13.981
X-118.594 Y-13.999
X-119 Y-14.343
X-119.1 Y-14.428
X-119.656 Y-14.899
X-119.675 Y-14.92
X-119.687 Y-14.945
X-119.72 Y-15.065
X-119.751 Y-15.196
X-119.764 Y-15.269
X-119.742 Y-15.418
X-119.668 Y-15.548
X-119.563 Y-15.655
X-119.437 Y-15.737
X-119.299 Y-15.795
X-119.151 Y-15.818
X-119.113 Y-15.816
X-118.992 Y-15.781
X-118.895 Y-15.699
X-118.841 Y-15.585
X-118.798 Y-15.403
X-118.79 Y-15.371
X-118.788 Y-15.339
X-118.797 Y-15.308
X-118.815 Y-15.281
X-118.84 Y-15.261
X-118.871 Y-15.251
X-119.008 Y-15.228
X-119.638 Y-15.123
X-119.674 Y-15.124
X-119.708 Y-15.138
X-119.735 Y-15.163
X-119.751 Y-15.196
X-119.8 Y-15.403
X-119.827 Y-15.55
X-119.779 Y-15.693
X-119.69 Y-15.814
X-119.576 Y-15.911
X-119.445 Y-15.983
X-119.302 Y-16.029
X-119.152 Y-16.04
X-119.135 Y-16.037
X-119.024 Y-15.995
X-118.939 Y-15.914
X-118.891 Y-15.806
X-118.857 Y-15.656
X-118.841 Y-15.585
Y-15.545
X-118.856 Y-15.509
X-118.884 Y-15.481
X-118.921 Y-15.467
X-119.058 Y-15.442
X-119.686 Y-15.331
X-119.722
X-119.757 Y-15.345
X-119.784 Y-15.37
X-119.8 Y-15.403
X-119.859 Y-15.656
X-119.873 Y-15.73
X-119.846 Y-15.878
X-119.767 Y-16.005
X-119.659 Y-16.109
X-119.532 Y-16.189
X-119.392 Y-16.243
X-119.244 Y-16.265
X-119.206 Y-16.262
X-119.083 Y-16.224
X-118.988 Y-16.138
X-118.937 Y-16.02
X-118.914 Y-15.907
X-118.891 Y-15.806
Y-15.774
X-118.9 Y-15.743
X-118.919 Y-15.717
X-118.945 Y-15.698
X-118.976 Y-15.689
X-119.114 Y-15.67
X-119.749 Y-15.584
X-119.785 Y-15.585
X-119.818 Y-15.599
X-119.844 Y-15.624
X-119.859 Y-15.656
X-119.91 Y-15.872
X-119.924 Y-15.945
X-119.899 Y-16.093
X-119.822 Y-16.222
X-119.715 Y-16.327
X-119.588 Y-16.407
X-119.449 Y-16.464
X-119.301 Y-16.486
X-119.254 Y-16.483
X-119.129 Y-16.446
X-119.031 Y-16.36
X-118.98 Y-16.24
X-118.937 Y-16.02
X-118.939 Y-15.98
X-118.956 Y-15.945
X-118.985 Y-15.918
X-119.022 Y-15.905
X-119.165 Y-15.886
X-119.8 Y-15.799
X-119.836 Y-15.801
X-119.869 Y-15.815
X-119.895 Y-15.839
X-119.91 Y-15.872
X-119.959 Y-16.079
X-119.972 Y-16.152
X-119.955 Y-16.301
X-119.882 Y-16.432
X-119.777 Y-16.539
X-119.652 Y-16.623
X-119.514 Y-16.681
X-119.367 Y-16.708
X-119.305 Y-16.705
X-119.176 Y-16.671
X-119.074 Y-16.584
X-119.021 Y-16.461
Y-16.429
X-119.032 Y-16.398
X-119.051 Y-16.373
X-119.078 Y-16.355
X-119.265 Y-16.269
X-119.821 Y-16.014
X-119.854 Y-16.005
X-119.888 Y-16.008
X-119.92 Y-16.023
X-119.944 Y-16.047
X-119.959 Y-16.079
X-119.979 Y-16.163
X-119.996 Y-16.248
X-120.01 Y-16.332
X-120.019 Y-16.407
X-119.991 Y-16.554
X-119.911 Y-16.681
X-119.801 Y-16.783
X-119.672 Y-16.86
X-119.532 Y-16.912
X-119.383 Y-16.931
X-119.323 Y-16.926
X-119.194 Y-16.885
X-119.095 Y-16.791
X-119.049 Y-16.663
X-119.051 Y-16.631
X-119.064 Y-16.602
X-119.085 Y-16.578
X-119.112 Y-16.561
X-119.307 Y-16.484
X-119.875 Y-16.259
X-119.909 Y-16.252
X-119.944 Y-16.257
X-119.974 Y-16.274
X-119.997 Y-16.3
X-120.01 Y-16.332
X-120.038 Y-16.501
X-120.049 Y-16.585
X-120.056 Y-16.66
X-120.019 Y-16.806
X-119.933 Y-16.928
X-119.818 Y-17.026
X-119.686 Y-17.097
X-119.544 Y-17.142
X-119.394 Y-17.155
X-119.339 Y-17.149
X-119.214 Y-17.105
X-119.12 Y-17.011
X-119.076 Y-16.886
X-119.04 Y-16.585
X-119.028 Y-16.501
X-118.98 Y-16.24
Y-16.205
X-118.993 Y-16.172
X-119.017 Y-16.146
X-119.049 Y-16.129
X-119.084 Y-16.125
X-119.118 Y-16.133
X-119.361 Y-16.238
X-119.991 Y-16.51
X-120.018 Y-16.528
X-120.039 Y-16.554
X-120.049 Y-16.585
X-120.079 Y-16.801
X-120.084 Y-16.839
X-120.09 Y-16.885
X-120.093 Y-16.923
X-120.042 Y-17.064
X-120.01 Y-17.102
X-119.945 Y-17.162
X-119.865 Y-17.2
X-119.778 Y-17.213
X-119.74 Y-17.204
X-119.709 Y-17.182
X-119.688 Y-17.149
X-119.681 Y-17.112
X-119.689 Y-17.074
X-119.71 Y-17.042
X-119.921 Y-16.831
X-119.95 Y-16.811
X-119.986 Y-16.802
X-120.022 Y-16.807
X-120.054 Y-16.824
X-120.077 Y-16.851
X-120.09 Y-16.885
X-120.113 Y-17.054
X-120.118 Y-17.092
Y-17.11
X-120.111 Y-17.137
X-120.109 Y-17.145
X-120.091 Y-17.162
X-120.068 Y-17.171
X-120.043 Y-17.17
X-120.018 Y-17.156
X-120.003 Y-17.132
X-120 Y-17.103
X-120.012 Y-17.076
X-120.034 Y-17.058
X-120.062 Y-17.053
X-120.09 Y-17.062
X-120.11 Y-17.082
X-120.118 Y-17.11
X-120.115 Y-17.127
X-120.109 Y-17.145
X-120.098 Y-17.162
X-120.085 Y-17.177
X-120.067 Y-17.19
X-120.049 Y-17.202
X-120.031 Y-17.209
X-120.013 Y-17.212
X-119.252 Y-17.213
X-119.21
X-119.199 Y-17.212
X-119.182 Y-17.206
X-119.166 Y-17.2
X-119.151 Y-17.191
X-119.135 Y-17.167
X-119.129 Y-17.138
X-119.135 Y-17.109
X-119.153 Y-17.083
X-119.181 Y-17.068
X-119.213 Y-17.065
X-119.243 Y-17.076
X-119.265 Y-17.099
X-119.276 Y-17.129
X-119.273 Y-17.161
X-119.257 Y-17.188
X-119.231 Y-17.206
X-119.199 Y-17.212
X-119.189 Y-17.21
X-119.178 Y-17.206
X-119.167 Y-17.202
X-119.151 Y-17.191
X-119.135 Y-17.177
X-119.125 Y-17.166
X-119.117 Y-17.156
X-119.111 Y-17.145
X-119.107 Y-17.134
X-119.104 Y-17.124
X-119.1 Y-17.092
X-119.076 Y-16.886
X-119.077 Y-16.858
X-119.087 Y-16.831
X-119.114 Y-16.811 Z-0.983
X-119.137 Y-16.793 Z-0.966
X-119.154 Y-16.78 Z-0.939
X-119.164 Y-16.779 Z-0.915
X-119.167 Y-16.778 Z-0.89
G0 Z2
X-112.815 Y-12.663
Z0.5
G3 X-112.331 Y-12.788 Z0.29 I0.242 J-0.062 F333.3
X-112.815 Y-12.663 Z0.079 I-0.242 J0.062
X-112.331 Y-12.788 Z-0.131 I0.242 J-0.062
X-112.815 Y-12.663 Z-0.342 I-0.242 J0.062
X-112.331 Y-12.788 Z-0.552 I0.242 J-0.062
X-112.815 Y-12.663 Z-0.763 I-0.242 J0.062
X-112.605 Y-12.973 Z-0.876 I0.242 J-0.062
X-112.323 Y-12.725 Z-0.99 I0.031 J0.248
X-112.823 I-0.25
X-112.323 I0.25
G1 X-112.286 Y-12.58 F1000
X-112.299 Y-12.506
X-112.336 Y-12.441
X-112.443 Y-12.336
X-112.588 Y-12.296
X-112.736 Y-12.317
X-112.867 Y-12.391
X-112.963 Y-12.506
X-113.015 Y-12.647
X-113.018 Y-12.797
X-112.97 Y-12.939
X-112.878 Y-13.057
X-112.752 Y-13.139
X-112.607 Y-13.175
X-112.457 Y-13.161
X-112.321 Y-13.099
X-112.212 Y-12.995
X-112.134 Y-12.867
X-112.084 Y-12.726
X-112.073 Y-12.576
X-112.108 Y-12.431
X-112.179 Y-12.298
X-112.287 Y-12.195
X-112.418 Y-12.121
X-112.565 Y-12.088
X-112.714 Y-12.095
X-112.859 Y-12.136
X-112.988 Y-12.212
X-113.095 Y-12.317
X-113.177 Y-12.443
X-113.226 Y-12.585
X-113.241 Y-12.734
X-113.224 Y-12.883
X-113.174 Y-13.024
X-113.091 Y-13.149
X-112.985 Y-13.255
X-112.857 Y-13.334
X-112.715 Y-13.38
X-112.565 Y-13.397
X-112.417 Y-13.379
X-112.276 Y-13.326
X-112.149 Y-13.246
X-112.041 Y-13.143
X-111.953 Y-13.021
X-111.89 Y-12.885
X-111.852 Y-12.739
X-111.844 Y-12.59
X-111.866 Y-12.441
X-111.874 Y-12.42
X-111.91 Y-12.349
X-111.963 Y-12.289
X-112.03 Y-12.246
X-112.061 Y-12.232
X-112.118 Y-12.193
X-112.146 Y-12.171
X-112.177 Y-12.14
X-112.206 Y-12.109
X-112.23 Y-12.077
X-112.321 Y-11.958
X-112.459 Y-11.898
X-112.607 Y-11.872
X-112.757 Y-11.875
X-112.903 Y-11.91
X-113.039 Y-11.972
X-113.162 Y-12.058
X-113.211 Y-12.118
X-113.242 Y-12.186
X-113.255 Y-12.26
X-113.268 Y-12.531
X-113.275 Y-12.784
X-113.276 Y-12.869
X-113.272 Y-13.038
X-113.262 Y-13.187
X-113.195 Y-13.322
X-113.096 Y-13.435
X-112.974 Y-13.522
X-112.837 Y-13.583
X-112.692 Y-13.618
X-112.542 Y-13.629
X-112.393 Y-13.613
X-112.336 Y-13.597
X-112.246 Y-13.554
X-112.176 Y-13.483
X-112.132 Y-13.394
X-112.123 Y-13.365
X-112.119 Y-13.355
X-112.041 Y-13.207
X-111.976 Y-13.091
X-111.87 Y-12.906
X-111.843 Y-12.869
X-111.788 Y-12.803
X-111.697 Y-12.684
X-111.69 Y-12.657
X-111.684 Y-12.538
X-111.725 Y-12.426
X-111.806 Y-12.339
X-111.914 Y-12.29
X-111.953
X-111.989 Y-12.306
X-112.016 Y-12.333
X-112.031 Y-12.369
Y-12.408
X-111.96 Y-12.756
X-111.946 Y-12.79
X-111.921 Y-12.817
X-111.889 Y-12.833
X-111.852 Y-12.836
X-111.817 Y-12.825
X-111.788 Y-12.803
X-111.638 Y-12.625
X-111.63 Y-12.616
X-111.608 Y-12.59
X-111.585 Y-12.56
X-111.601 Y-12.437
X-111.682 Y-12.342
X-111.801 Y-12.306
X-111.84 Y-12.313
X-111.876 Y-12.331
X-111.905 Y-12.358
X-111.925 Y-12.393
G3 X-111.608 Y-12.59 I0.177 J-0.068
G1 X-111.558 Y-12.531
X-111.553 Y-12.526
X-111.531 Y-12.502
X-111.501 Y-12.465
X-111.532 Y-12.372
X-111.608 Y-12.31
X-111.706 Y-12.299
X-111.732 Y-12.31
X-111.753 Y-12.328
X-111.767 Y-12.353
G3 X-111.531 Y-12.502 I0.134 J-0.049
G1 X-111.48 Y-12.447
X-111.474 Y-12.436
X-111.469 Y-12.426
X-111.462 Y-12.4
Y-12.394
X-111.469 Y-12.368
X-111.486 Y-12.348
X-111.51 Y-12.336
X-111.541 Y-12.337
X-111.567 Y-12.352
X-111.583 Y-12.378
X-111.585 Y-12.408
X-111.572 Y-12.436
X-111.548 Y-12.454
X-111.518 Y-12.459
X-111.489 Y-12.448
X-111.469 Y-12.426
X-111.464 Y-12.41
X-111.462 Y-12.394
Y-12.378
X-111.465 Y-12.362
X-111.469 Y-12.35
X-111.475 Y-12.338
X-111.483 Y-12.325
X-111.506 Y-12.3
X-111.524 Y-12.286
X-111.543 Y-12.278
X-111.553 Y-12.275
X-111.567 Y-12.273
X-111.58
X-111.594 Y-12.274
X-111.638 Y-12.287
X-112.362 Y-12.591
X-112.594 Y-12.688
X-113.211 Y-12.947
X-113.243 Y-12.968
X-113.264 Y-13
X-113.272 Y-13.038
X-113.271 Y-13.122
X-113.26 Y-13.338
X-113.246 Y-13.487
X-113.166 Y-13.614
X-113.054 Y-13.714
X-112.924 Y-13.788
X-112.782 Y-13.838
X-112.634 Y-13.863
X-112.484 Y-13.866
X-112.432 Y-13.857
X-112.322 Y-13.816
X-112.237 Y-13.736
X-112.189 Y-13.629
X-112.146 Y-13.44
X-112.132 Y-13.394
X-112.129 Y-13.359
X-112.139 Y-13.324
X-112.16 Y-13.296
X-112.19 Y-13.277
X-112.225 Y-13.269
X-112.534 Y-13.258
X-113.157 Y-13.236
X-113.189 Y-13.241
X-113.218 Y-13.255
X-113.241 Y-13.277
X-113.255 Y-13.306
X-113.26 Y-13.338
X-113.258 Y-13.376
X-113.252 Y-13.46
X-113.237 Y-13.629
X-113.227 Y-13.703
X-113.161 Y-13.838
X-113.054 Y-13.943
X-112.925 Y-14.019
X-112.784 Y-14.071
X-112.637 Y-14.099
X-112.487 Y-14.098
X-112.463 Y-14.093
X-112.355 Y-14.046
X-112.274 Y-13.961
X-112.232 Y-13.851
X-112.208 Y-13.714
X-112.189 Y-13.629
X-112.188 Y-13.593
X-112.2 Y-13.56
X-112.223 Y-13.533
X-112.254 Y-13.515
X-112.289 Y-13.51
X-112.515 Y-13.513
X-113.139 Y-13.524
X-113.171 Y-13.529
X-113.199 Y-13.545
X-113.221 Y-13.568
X-113.234 Y-13.597
X-113.237 Y-13.629
X-113.215 Y-13.883
X-113.205 Y-13.957
X-113.135 Y-14.09
X-113.025 Y-14.192
X-112.894 Y-14.266
X-112.752 Y-14.312
X-112.603 Y-14.333
X-112.529 Y-14.326
X-112.398 Y-14.282
X-112.301 Y-14.183
X-112.259 Y-14.051
X-112.252 Y-13.967
X-112.232 Y-13.851
X-112.233 Y-13.816
X-112.246 Y-13.784
X-112.27 Y-13.758
X-112.301 Y-13.742
X-112.336 Y-13.738
X-112.493 Y-13.745
X-113.12 Y-13.777
X-113.158 Y-13.787
X-113.189 Y-13.81
X-113.209 Y-13.844
X-113.215 Y-13.883
X-113.195 Y-14.098
X-113.174 Y-14.246
X-113.086 Y-14.368
X-112.966 Y-14.459
X-112.83 Y-14.521
X-112.684 Y-14.554
X-112.534 Y-14.553
X-112.497 Y-14.543
X-112.383 Y-14.486
X-112.303 Y-14.386
X-112.273 Y-14.262
X-112.271 Y-14.22
X-112.259 Y-14.051
X-112.264 Y-14.019
X-112.278 Y-13.989
X-112.302 Y-13.966
X-112.332 Y-13.952
X-112.365 Y-13.948
X-112.474 Y-13.955
X-113.101 Y-13.992
X-113.139 Y-14.002
X-113.17 Y-14.026
X-113.19 Y-14.059
X-113.195 Y-14.098
X-113.184 Y-14.22
X-113.174 Y-14.305
X-113.168 Y-14.351
X-113.141 Y-14.499
X-113.049 Y-14.618
X-112.926 Y-14.703
X-112.786 Y-14.756
X-112.638 Y-14.78
X-112.545 Y-14.771
X-112.408 Y-14.722
X-112.31 Y-14.614
X-112.274 Y-14.473
Y-14.305
X-112.273 Y-14.262
X-112.278 Y-14.229
X-112.295 Y-14.2
X-112.32 Y-14.178
X-112.35 Y-14.165
X-112.384 Y-14.163
X-112.454 Y-14.171
X-113.08 Y-14.242
X-113.117 Y-14.254
X-113.146 Y-14.279
X-113.164 Y-14.313
X-113.168 Y-14.351
X-113.152 Y-14.474
X-113.14 Y-14.558
X-113.117 Y-14.643
X-113.071 Y-14.786
X-112.963 Y-14.89
X-112.831 Y-14.959
X-112.684 Y-14.993
X-112.534 Y-14.991
X-112.482 Y-14.976
X-112.363 Y-14.911
X-112.285 Y-14.799
X-112.264 Y-14.664
X-112.272 Y-14.558
X-112.274 Y-14.473
X-112.282 Y-14.439
X-112.3 Y-14.409
X-112.328 Y-14.388
X-112.361 Y-14.377
X-112.396 Y-14.379
X-112.429 Y-14.386
X-113.042 Y-14.523
X-113.077 Y-14.539
X-113.104 Y-14.567
X-113.118 Y-14.604
X-113.117 Y-14.643
X-113.072 Y-14.812
X-113.048 Y-14.896
X-113.023 Y-14.967
X-112.933 Y-15.087
X-112.804 Y-15.164
X-112.659 Y-15.203
X-112.509 Y-15.198
X-112.462 Y-15.185
X-112.334 Y-15.113
X-112.256 Y-14.989
X-112.246 Y-14.843
X-112.252 Y-14.812
X-112.264 Y-14.664
X-112.274 Y-14.631
X-112.296 Y-14.602
X-112.326 Y-14.583
X-112.36 Y-14.576
X-112.395 Y-14.581
X-112.983 Y-14.777
X-113.015 Y-14.795
X-113.039 Y-14.824
X-113.05 Y-14.859
X-113.048 Y-14.896
X-112.981 Y-15.12
X-112.955 Y-15.191
X-112.862 Y-15.309
X-112.73 Y-15.379
X-112.583 Y-15.408
X-112.434 Y-15.392
X-112.397 Y-15.378
X-112.284 Y-15.301
X-112.217 Y-15.182
X-112.21 Y-15.045
X-112.246 Y-14.843
X-112.26 Y-14.811
X-112.283 Y-14.785
X-112.314 Y-14.769
X-112.349 Y-14.764
X-112.383 Y-14.772
X-112.923 Y-15.002
X-112.953 Y-15.022
X-112.974 Y-15.05
X-112.983 Y-15.085
X-112.981 Y-15.12
X-112.907 Y-15.353
X-112.881 Y-15.421
X-112.779 Y-15.53
X-112.641 Y-15.59
X-112.492 Y-15.607
X-112.345 Y-15.578
X-112.32 Y-15.565
X-112.22 Y-15.48
X-112.166 Y-15.361
X-112.168 Y-15.23
X-112.206 Y-15.065
X-112.21 Y-15.045
X-112.224 Y-15.011
X-112.249 Y-14.985
X-112.282 Y-14.97
X-112.319 Y-14.967
X-112.354 Y-14.977
X-112.857 Y-15.237
X-112.884 Y-15.258
X-112.902 Y-15.286
X-112.91 Y-15.319
X-112.907 Y-15.353
X-112.891 Y-15.403
X-112.822 Y-15.57
X-112.79 Y-15.638
X-112.681 Y-15.741
X-112.54 Y-15.791
X-112.39 Y-15.797
X-112.246 Y-15.754
X-112.234 Y-15.746
X-112.14 Y-15.645
X-112.102 Y-15.512
X-112.127 Y-15.377
X-112.147 Y-15.349
X-112.174 Y-15.33
X-112.206 Y-15.321
X-112.239 Y-15.323
X-112.751 Y-15.438
X-112.782 Y-15.451
X-112.807 Y-15.473
X-112.824 Y-15.503
X-112.829 Y-15.537
X-112.822 Y-15.57
X-112.738 Y-15.774
X-112.705 Y-15.841
X-112.592 Y-15.94
X-112.449 Y-15.984
X-112.299
X-112.158 Y-15.932
X-112.14 Y-15.919
X-112.053 Y-15.816
X-112.02 Y-15.685
X-112.047 Y-15.553
X-112.127 Y-15.377
X-112.148 Y-15.348
X-112.177 Y-15.329
X-112.211 Y-15.32
X-112.246 Y-15.324
X-112.277 Y-15.34
X-112.704 Y-15.658
X-112.726 Y-15.681
X-112.74 Y-15.71
X-112.744 Y-15.742
X-112.738 Y-15.774
X-112.666 Y-15.947
X-112.633 Y-16.014
X-112.53 Y-16.123
X-112.389 Y-16.174
X-112.239 Y-16.175
X-112.096 Y-16.128
X-112.061 Y-16.104
X-111.963 Y-15.994
X-111.929 Y-15.852
X-111.966 Y-15.71
X-111.996 Y-15.656
X-112.038 Y-15.572
X-112.047 Y-15.553
X-112.067 Y-15.526
X-112.096 Y-15.507
X-112.129 Y-15.498
X-112.164 Y-15.502
X-112.195 Y-15.517
X-112.63 Y-15.83
X-112.653 Y-15.853
X-112.668 Y-15.882
X-112.672 Y-15.915
X-112.666 Y-15.947
X-112.646 Y-15.994
X-112.609 Y-16.079
X-112.601 Y-16.092
X-112.503 Y-16.215
X-112.453 Y-16.271
X-112.322 Y-16.343
X-112.172 Y-16.355
X-112.028 Y-16.315
X-111.899 Y-16.237
X-111.894 Y-16.231
X-111.837 Y-16.124
X-111.827 Y-16.004
X-111.866 Y-15.889
X-111.902 Y-15.825
X-111.966 Y-15.71
X-111.99 Y-15.682
X-112.023 Y-15.666
X-112.06 Y-15.662
X-112.095 Y-15.671
X-112.125 Y-15.693
X-112.495 Y-16.087
X-112.514 Y-16.116
X-112.522 Y-16.15
X-112.518 Y-16.184
X-112.503 Y-16.215
X-112.358 Y-16.394
X-112.308 Y-16.449
X-112.171 Y-16.51
X-112.021 Y-16.509
X-111.877 Y-16.466
X-111.841 Y-16.438
X-111.765 Y-16.355
X-111.726 Y-16.249
X-111.728 Y-16.136
X-111.772 Y-16.032
X-111.854 Y-15.91
X-111.866 Y-15.889
X-111.891 Y-15.862
X-111.925 Y-15.846
X-111.962 Y-15.843
X-111.998 Y-15.854
X-112.027 Y-15.878
X-112.355 Y-16.269
X-112.372 Y-16.298
X-112.379 Y-16.331
X-112.374 Y-16.364
X-112.358 Y-16.394
X-112.23 Y-16.548
X-112.179 Y-16.603
X-112.044 Y-16.667
X-111.894 Y-16.67
X-111.815 Y-16.639
X-111.698 Y-16.558
X-111.63 Y-16.434
X-111.624 Y-16.292
X-111.683 Y-16.163
X-111.694 Y-16.149
X-111.772 Y-16.032
X-111.799 Y-16.006
X-111.834 Y-15.992
X-111.871
X-111.906 Y-16.005
X-111.933 Y-16.03
X-112.231 Y-16.426
X-112.246 Y-16.455
X-112.251 Y-16.487
X-112.246 Y-16.519
X-112.23 Y-16.548
X-112.097 Y-16.707
X-112.081 Y-16.725
X-112.023 Y-16.774
X-111.882 Y-16.823
X-111.733 Y-16.803
X-111.602 Y-16.73
X-111.498 Y-16.621
X-111.47 Y-16.5
X-111.494 Y-16.378
X-111.566 Y-16.276
X-111.638 Y-16.207
X-111.683 Y-16.163
X-111.713 Y-16.144
X-111.747 Y-16.137
X-111.782 Y-16.143
X-111.813 Y-16.16
X-111.836 Y-16.186
X-112.089 Y-16.611
X-112.1 Y-16.639
X-112.103 Y-16.67
X-112.096 Y-16.699
X-112.081 Y-16.725
X-112.061 Y-16.744
X-111.917 Y-16.864
X-111.857 Y-16.909
X-111.713 Y-16.952
X-111.566 Y-16.923
X-111.434 Y-16.85
X-111.404 Y-16.813
X-111.348 Y-16.714
X-111.334 Y-16.601
X-111.363 Y-16.491
X-111.431 Y-16.399
X-111.566 Y-16.276
X-111.597 Y-16.257
X-111.633 Y-16.251
X-111.668 Y-16.258
X-111.699 Y-16.278
X-111.721 Y-16.307
X-111.939 Y-16.745
X-111.949 Y-16.776
X-111.948 Y-16.808
X-111.937 Y-16.839
X-111.917 Y-16.864
X-111.772 Y-16.984
X-111.712 Y-17.029
X-111.572 Y-17.081
X-111.423 Y-17.059
X-111.296 Y-16.98
X-111.255 Y-16.93
X-111.198 Y-16.824
X-111.188 Y-16.705
X-111.225 Y-16.59
X-111.305 Y-16.5
X-111.384 Y-16.44
X-111.412 Y-16.416
X-111.431 Y-16.399
X-111.462 Y-16.381
X-111.498 Y-16.375
X-111.534 Y-16.383
X-111.564 Y-16.402
X-111.586 Y-16.432
X-111.796 Y-16.866
X-111.805 Y-16.897
X-111.804 Y-16.929
X-111.793 Y-16.959
X-111.772 Y-16.984
X-111.615 Y-17.115
X-111.596 Y-17.131
X-111.585 Y-17.139
X-111.545 Y-17.157
X-111.536 Y-17.16
X-111.497 Y-17.164
X-111.46 Y-17.153
X-111.429 Y-17.128
X-111.411 Y-17.094
X-111.407 Y-17.055
X-111.418 Y-17.018
X-111.443 Y-16.987
X-111.477 Y-16.969
X-111.496 Y-16.963
X-111.535 Y-16.959
X-111.573 Y-16.971
X-111.603 Y-16.997
X-111.621 Y-17.032
X-111.624 Y-17.072
X-111.611 Y-17.109
X-111.585 Y-17.139
X-111.553 Y-17.154
X-111.518 Y-17.166
X-111.446 Y-17.188
X-111.296 Y-17.181
X-111.164 Y-17.109
X-111.062 Y-16.999
X-111.049 Y-16.972
X-111.022 Y-16.833
X-111.062 Y-16.697
X-111.159 Y-16.595
X-111.305 Y-16.5
X-111.34 Y-16.484
X-111.379 Y-16.483
X-111.415 Y-16.497
X-111.443 Y-16.523
X-111.459 Y-16.558
X-111.578 Y-17.05
X-111.581 Y-17.085
X-111.57 Y-17.119
X-111.548 Y-17.148
X-111.518 Y-17.166
X-111.3 Y-17.242
X-111.228 Y-17.264
X-111.079 Y-17.241
X-110.953 Y-17.159
X-110.867 Y-17.036
X-110.865 Y-17.027
X-110.86 Y-16.893
X-110.915 Y-16.77
X-111.017 Y-16.684
X-111.046 Y-16.668
X-111.159 Y-16.595
X-111.196 Y-16.582
X-111.236 Y-16.584
X-111.271 Y-16.602
X-111.297 Y-16.632
X-111.31 Y-16.669
X-111.363 Y-17.138
X-111.361 Y-17.171
X-111.349 Y-17.201
X-111.328 Y-17.226
X-111.3 Y-17.242
X-111.13 Y-17.301
X-111.058 Y-17.322
X-110.908 Y-17.317
X-110.781 Y-17.238
X-110.699 Y-17.113
X-110.694 Y-17.095
Y-16.948
X-110.764 Y-16.819
X-110.887 Y-16.738
X-110.961 Y-16.712
X-111.017 Y-16.684
X-111.054 Y-16.674
X-111.092 Y-16.679
X-111.126 Y-16.699
X-111.149 Y-16.729
X-111.16 Y-16.766
X-111.194 Y-17.2
X-111.191 Y-17.232
X-111.179 Y-17.261
X-111.158 Y-17.285
X-111.13 Y-17.301
X-111.003 Y-17.346
X-110.961 Y-17.359
X-110.915 Y-17.372
X-110.877 Y-17.382
X-110.802 Y-17.389
X-110.661 Y-17.338
X-110.556 Y-17.231
X-110.5 Y-17.092
Y-17.079
X-110.526 Y-16.952
X-110.605 Y-16.848
X-110.72 Y-16.787
X-110.792 Y-16.767
X-110.887 Y-16.738
X-110.92 Y-16.734
X-110.953 Y-16.741
X-110.982 Y-16.758
X-111.003 Y-16.784
X-111.015 Y-16.815
Y-16.849
X-110.947 Y-17.301
X-110.934 Y-17.336
X-110.91 Y-17.364
X-110.877 Y-17.382
X-110.792 Y-17.395
X-110.707 Y-17.406
X-110.633 Y-17.413
X-110.559 Y-17.397
X-110.429 Y-17.323
X-110.342 Y-17.201
X-110.338 Y-17.183
X-110.336 Y-17.07
X-110.376 Y-16.964
X-110.452 Y-16.881
X-110.553 Y-16.832
X-110.72 Y-16.787
X-110.758 Y-16.785
X-110.794 Y-16.798
X-110.823 Y-16.824
X-110.84 Y-16.858
X-110.842 Y-16.896
X-110.789 Y-17.32
X-110.781 Y-17.351
X-110.763 Y-17.377
X-110.737 Y-17.396
X-110.707 Y-17.406
X-110.49 Y-17.436
X-110.415 Y-17.443
X-110.345 Y-17.415
X-110.222 Y-17.329
X-110.156 Y-17.195
X-110.155 Y-17.176
X-110.168 Y-17.063
X-110.222 Y-16.964
X-110.309 Y-16.891
X-110.416 Y-16.856
X-110.454 Y-16.851
X-110.527 Y-16.839
X-110.553 Y-16.832
X-110.587 Y-16.83
X-110.62 Y-16.839
X-110.648 Y-16.859
X-110.667 Y-16.887
X-110.676 Y-16.92
X-110.673 Y-16.954
X-110.57 Y-17.362
X-110.553 Y-17.397
X-110.526 Y-17.423
X-110.49 Y-17.436
X-110.322 Y-17.459
X-110.248 Y-17.466
X-110.106 Y-17.415
X-110.008 Y-17.302
X-109.967 Y-17.158
X-109.968 Y-17.151
X-110.01 Y-17.022
X-110.105 Y-16.924
X-110.233 Y-16.879
X-110.416 Y-16.856
X-110.455 Y-16.86
X-110.489 Y-16.879
X-110.513 Y-16.909
X-110.525 Y-16.946
X-110.521 Y-16.984
X-110.401 Y-17.389
X-110.384 Y-17.422
X-110.357 Y-17.446
X-110.322 Y-17.459
X-110.2 Y-17.476
X-110.153 Y-17.482
X-110.115 Y-17.486
X-110.041 Y-17.478
X-110.012 Y-17.466
X-109.906 Y-17.389
X-109.843 Y-17.273
X-109.835 Y-17.143
X-109.884 Y-17.021
X-109.98 Y-16.931
X-110.105 Y-16.891
X-110.2 Y-16.882
X-110.233 Y-16.879
X-110.272 Y-16.883
X-110.306 Y-16.903
X-110.33 Y-16.934
X-110.34 Y-16.972
X-110.335 Y-17.011
X-110.194 Y-17.42
X-110.177 Y-17.451
X-110.149 Y-17.475
X-110.115 Y-17.486
X-110.031 Y-17.481
X-109.899 Y-17.471
X-109.862 Y-17.466
X-109.797 Y-17.43
X-109.695 Y-17.319
X-109.656 Y-17.174
X-109.658 Y-17.151
X-109.692 Y-17.039
X-109.766 Y-16.948
X-109.869 Y-16.893
X-109.985 Y-16.881
X-110.094 Y-16.891
X-110.105
X-110.142 Y-16.901
X-110.173 Y-16.926
X-110.193 Y-16.96
X-110.197 Y-16.999
X-110.187 Y-17.036
X-109.993 Y-17.416
X-109.97 Y-17.446
X-109.937 Y-17.465
X-109.899 Y-17.471
X-109.73 Y-17.457
X-109.693 Y-17.453
X-109.564 Y-17.376
X-109.49 Y-17.246
X-109.476 Y-17.096
X-109.481 Y-17.078
X-109.55 Y-16.955
X-109.667 Y-16.877
X-109.806 Y-16.86
X-109.946 Y-16.877
X-109.985 Y-16.881
X-110.023 Y-16.894
X-110.053 Y-16.921
X-110.07 Y-16.957
X-110.071 Y-16.996
X-110.057 Y-17.034
X-109.819 Y-17.411
X-109.796 Y-17.437
X-109.765 Y-17.453
X-109.73 Y-17.457
X-109.607 Y-17.446
X-109.561 Y-17.441
X-109.487 Y-17.429
X-109.364 Y-17.343
X-109.298 Y-17.209
X-109.295 Y-17.059
X-109.301 Y-17.038
X-109.356 Y-16.937
X-109.444 Y-16.864
X-109.554 Y-16.83
X-109.668 Y-16.839
X-109.699 Y-16.855
X-109.723 Y-16.882
X-109.736 Y-16.915
Y-16.951
X-109.667 Y-17.358
X-109.654 Y-17.393
X-109.63 Y-17.42
X-109.597 Y-17.437
X-109.561 Y-17.441
X-109.438 Y-17.428
X-109.354 Y-17.415
X-109.282 Y-17.394
X-109.166 Y-17.299
X-109.109 Y-17.16
X-109.111 Y-17.01
X-109.126 Y-16.971
X-109.21 Y-16.851
X-109.34 Y-16.785
X-109.487 Y-16.789
X-109.668 Y-16.839
X-109.701 Y-16.857
X-109.725 Y-16.885
X-109.737 Y-16.921
X-109.735 Y-16.958
X-109.719 Y-16.992
X-109.447 Y-17.374
X-109.421 Y-17.398
X-109.389 Y-17.413
X-109.354 Y-17.415
X-109.138 Y-17.363
X-109.102 Y-17.352
X-109.042 Y-17.307
X-108.954 Y-17.186
X-108.923 Y-17.039
X-108.95 Y-16.892
X-108.961 Y-16.872
X-109.055 Y-16.772
X-109.184 Y-16.724
X-109.32 Y-16.739
X-109.368 Y-16.754
X-109.465 Y-16.783
X-109.487 Y-16.789
X-109.52 Y-16.807
X-109.545 Y-16.837
X-109.556 Y-16.873
X-109.553 Y-16.912
X-109.535 Y-16.946
X-109.237 Y-17.326
X-109.209 Y-17.351
X-109.175 Y-17.363
X-109.138
X-108.969 Y-17.322
X-108.897 Y-17.3
X-108.79 Y-17.195
X-108.742 Y-17.053
X-108.744 Y-16.903
X-108.796 Y-16.763
X-108.811 Y-16.745
X-108.92 Y-16.663
X-109.054 Y-16.638
X-109.186 Y-16.675
X-109.269 Y-16.721
X-109.32 Y-16.739
X-109.352 Y-16.758
X-109.374 Y-16.787
X-109.384 Y-16.822
X-109.38 Y-16.859
X-109.364 Y-16.892
X-109.069 Y-17.284
X-109.041 Y-17.309
X-109.006 Y-17.322
X-108.969
X-108.846 Y-17.292
X-108.812 Y-17.281
X-108.736 Y-17.237
X-108.673 Y-17.196
X-108.586 Y-17.074
X-108.556 Y-16.927
X-108.572 Y-16.778
X-108.639 Y-16.644
X-108.661 Y-16.621
X-108.778 Y-16.546
X-108.916 Y-16.531
X-109.046 Y-16.581
X-109.186 Y-16.675
X-109.212 Y-16.698
X-109.229 Y-16.729
X-109.234 Y-16.763
X-109.227 Y-16.798
X-109.209 Y-16.828
X-108.858 Y-17.216
X-108.832 Y-17.237
X-108.8 Y-17.248
X-108.767
X-108.736 Y-17.237
X-108.567 Y-17.137
X-108.504 Y-17.096
X-108.409 Y-16.98
X-108.377 Y-16.833
X-108.394 Y-16.684
X-108.46 Y-16.549
X-108.489 Y-16.516
X-108.611 Y-16.433
X-108.757 Y-16.418
X-108.893 Y-16.475
X-108.931 Y-16.502
X-109.046 Y-16.581
X-109.07 Y-16.605
X-109.084 Y-16.636
X-109.087 Y-16.67
X-109.078 Y-16.703
X-109.059 Y-16.731
X-108.687 Y-17.119
X-108.661 Y-17.138
X-108.63 Y-17.148
X-108.597
X-108.567 Y-17.137
X-108.381 Y-17.028
X-108.319 Y-16.987
X-108.229 Y-16.867
X-108.203 Y-16.719
X-108.224 Y-16.571
X-108.292 Y-16.437
X-108.391 Y-16.325
X-108.411 Y-16.314
X-108.534 Y-16.275
X-108.662 Y-16.291
X-108.771 Y-16.359
X-108.846 Y-16.433
X-108.887 Y-16.47
X-108.893 Y-16.475
X-108.916 Y-16.5
X-108.928 Y-16.531
X-108.93 Y-16.565
X-108.92 Y-16.597
X-108.9 Y-16.625
X-108.499 Y-17.012
X-108.473 Y-17.03
X-108.443 Y-17.039
X-108.411 Y-17.038
X-108.381 Y-17.028
X-108.296 Y-16.977
X-108.254 Y-16.943
X-108.169 Y-16.869
X-108.115 Y-16.817
X-108.047 Y-16.684
X-108.044 Y-16.534
X-108.085 Y-16.39
X-108.16 Y-16.26
X-108.271 Y-16.159
X-108.28 Y-16.155
X-108.401 Y-16.124
X-108.525 Y-16.147
X-108.628 Y-16.217
X-108.657 Y-16.248
X-108.771 Y-16.359
X-108.789 Y-16.387
X-108.798 Y-16.419
X-108.795 Y-16.452
X-108.782 Y-16.482
X-108.76 Y-16.507
X-108.294 Y-16.871
X-108.264 Y-16.887
X-108.231 Y-16.892
X-108.198 Y-16.886
X-108.169 Y-16.869
X-108 Y-16.722
X-107.946 Y-16.67
X-107.888 Y-16.531
X-107.889 Y-16.381
X-107.932 Y-16.238
X-108.009 Y-16.109
X-108.121 Y-16.009
X-108.153 Y-15.993
X-108.298 Y-15.962
X-108.439 Y-16.003
X-108.544 Y-16.107
X-108.556 Y-16.145
X-108.553 Y-16.184
X-108.535 Y-16.219
X-108.141 Y-16.707
X-108.111 Y-16.732
X-108.074 Y-16.744
X-108.035 Y-16.74
X-108 Y-16.722
X-107.844 Y-16.585
X-107.831 Y-16.574
X-107.811 Y-16.554
X-107.787 Y-16.525
X-107.779 Y-16.514
X-107.765 Y-16.479
X-107.766 Y-16.441
X-107.78 Y-16.406
X-107.806 Y-16.379
X-107.841 Y-16.363
X-107.878 Y-16.362
X-107.914 Y-16.374
X-107.942 Y-16.399
X-107.959 Y-16.419
X-107.976 Y-16.452
X-107.98 Y-16.489
X-107.97 Y-16.525
X-107.947 Y-16.555
X-107.916 Y-16.575
X-107.879 Y-16.581
X-107.842 Y-16.574
X-107.811 Y-16.554
X-107.795 Y-16.537
X-107.77 Y-16.501
X-107.734 Y-16.435
X-107.72 Y-16.286
X-107.751 Y-16.139
X-107.82 Y-16.006
X-107.918 Y-15.892
X-108.043 Y-15.81
X-108.084 Y-15.796
X-108.218 Y-15.784
X-108.343 Y-15.83
X-108.436 Y-15.927
X-108.544 Y-16.107
X-108.555 Y-16.138
X-108.556 Y-16.171
X-108.546 Y-16.202
X-108.526 Y-16.228
X-108.499 Y-16.246
X-108.479 Y-16.256
X-107.894 Y-16.532
X-107.861 Y-16.542
X-107.826 Y-16.539
X-107.795 Y-16.525
X-107.77 Y-16.501
X-107.718 Y-16.416
X-107.662 Y-16.323
X-107.593 Y-16.189
X-107.597 Y-16.039
X-107.648 Y-15.898
X-107.733 Y-15.775
X-107.844 Y-15.674
X-107.978 Y-15.605
X-108.01 Y-15.598
X-108.142 Y-15.599
X-108.261 Y-15.655
X-108.344 Y-15.758
X-108.377 Y-15.825
X-108.436 Y-15.927
X-108.447 Y-15.957
X-108.448 Y-15.99
X-108.438 Y-16.02
X-108.419 Y-16.047
X-108.392 Y-16.065
X-108.365 Y-16.078
X-107.79 Y-16.358
X-107.755 Y-16.368
X-107.719 Y-16.365
X-107.686 Y-16.349
X-107.662 Y-16.323
X-107.618 Y-16.248
X-107.527 Y-16.079
X-107.495 Y-16.011
X-107.487 Y-15.861
X-107.534 Y-15.719
X-107.617 Y-15.594
X-107.726 Y-15.491
X-107.858 Y-15.42
X-107.912 Y-15.406
X-108.054 Y-15.403
X-108.18 Y-15.466
X-108.264 Y-15.579
X-108.297 Y-15.656
X-108.344 Y-15.758
X-108.352 Y-15.789
X-108.35 Y-15.822
X-108.337 Y-15.853
X-108.315 Y-15.877
X-108.286 Y-15.893
X-108.256 Y-15.904
X-107.647 Y-16.122
X-107.613 Y-16.128
X-107.579 Y-16.122
X-107.549 Y-16.105
X-107.527 Y-16.079
X-107.436 Y-15.91
X-107.404 Y-15.842
X-107.379 Y-15.694
X-107.418 Y-15.549
X-107.496 Y-15.421
X-107.601 Y-15.314
X-107.73 Y-15.237
X-107.873 Y-15.191
X-107.898 Y-15.19
X-108.017 Y-15.212
X-108.117 Y-15.278
X-108.184 Y-15.378
X-108.264 Y-15.579
X-108.271 Y-15.618
X-108.262 Y-15.656
X-108.239 Y-15.688
X-108.206 Y-15.708
X-108.161 Y-15.725
X-107.558 Y-15.953
X-107.523 Y-15.959
X-107.489 Y-15.954
X-107.458 Y-15.936
X-107.436 Y-15.91
X-107.345 Y-15.741
X-107.323 Y-15.695
X-107.295 Y-15.626
X-107.281 Y-15.477
X-107.326 Y-15.334
X-107.41 Y-15.209
X-107.52 Y-15.107
X-107.647 Y-15.028
X-107.791 Y-14.985
X-107.838 Y-14.983
X-107.976 Y-15.009
X-108.087 Y-15.096
X-108.146 Y-15.223
X-108.169 Y-15.337
X-108.174 Y-15.353
X-108.184 Y-15.378
X-108.189 Y-15.417
X-108.18 Y-15.455
X-108.156 Y-15.487
X-108.122 Y-15.507
X-108.052 Y-15.531
X-107.445 Y-15.743
X-107.41 Y-15.749
X-107.375 Y-15.742
X-107.345 Y-15.723
X-107.323 Y-15.695
X-107.239 Y-15.512
X-107.23 Y-15.487
X-107.219 Y-15.441
X-107.193 Y-15.293
X-107.231 Y-15.148
X-107.31 Y-15.021
X-107.415 Y-14.914
X-107.541 Y-14.832
X-107.682 Y-14.781
X-107.831 Y-14.763
X-107.858 Y-14.768
X-107.971 Y-14.811
X-108.058 Y-14.897
X-108.104 Y-15.01
X-108.114 Y-15.065
X-108.146 Y-15.223
X-108.145 Y-15.26
X-108.131 Y-15.295
X-108.105 Y-15.321
X-108.071 Y-15.337
X-107.952 Y-15.365
X-107.339 Y-15.512
X-107.301 Y-15.514
X-107.264 Y-15.501
X-107.236 Y-15.475
X-107.219 Y-15.441
X-107.21 Y-15.403
X-107.16 Y-15.15
X-107.15 Y-15.075
X-107.176 Y-14.928
X-107.253 Y-14.799
X-107.36 Y-14.694
X-107.488 Y-14.615
X-107.627 Y-14.561
X-107.777 Y-14.544
X-107.815 Y-14.548
X-107.941 Y-14.594
X-108.035 Y-14.689
X-108.078 Y-14.816
X-108.086 Y-14.896
X-108.099 Y-14.981
X-108.104 Y-15.01
X-108.102 Y-15.049
X-108.085 Y-15.084
X-108.056 Y-15.111
X-108.019 Y-15.123
X-107.903 Y-15.139
X-107.271 Y-15.226
X-107.235 Y-15.224
X-107.201 Y-15.209
X-107.175 Y-15.183
X-107.16 Y-15.15
X-107.154 Y-15.118
X-107.119 Y-14.896
X-107.111 Y-14.822
X-107.144 Y-14.675
X-107.228 Y-14.551
X-107.341 Y-14.451
X-107.472 Y-14.379
X-107.615 Y-14.333
X-107.765 Y-14.324
X-107.812 Y-14.331
X-107.936 Y-14.381
X-108.026 Y-14.48
X-108.064 Y-14.608
X-108.078 Y-14.816
X-108.073 Y-14.855
X-108.054 Y-14.888
X-108.023 Y-14.912
X-107.985 Y-14.922
X-107.863 Y-14.931
X-107.224 Y-14.977
X-107.189 Y-14.973
X-107.156 Y-14.957
X-107.132 Y-14.93
X-107.119 Y-14.896
X-107.086 Y-14.681
X-107.071 Y-14.531
X-107.131 Y-14.394
X-107.229 Y-14.281
X-107.351 Y-14.193
X-107.489 Y-14.133
X-107.635 Y-14.101
X-107.785 Y-14.103
X-107.833 Y-14.114
X-107.954 Y-14.175
X-108.035 Y-14.282
X-108.062 Y-14.414
X-108.06 Y-14.474
X-108.061 Y-14.558
X-108.064 Y-14.608
X-108.058 Y-14.646
X-108.038 Y-14.678
X-108.007 Y-14.701
X-107.971 Y-14.711
X-107.83 Y-14.72
X-107.191 Y-14.762
X-107.155 Y-14.758
X-107.123 Y-14.741
X-107.099 Y-14.714
X-107.086 Y-14.681
X-107.068 Y-14.558
X-107.055 Y-14.427
X-107.048 Y-14.277
X-107.115 Y-14.143
X-107.219 Y-14.035
X-107.345 Y-13.954
X-107.485 Y-13.9
X-107.632 Y-13.871
X-107.782 Y-13.876
X-107.843 Y-13.891
X-107.966 Y-13.955
X-108.048 Y-14.067
X-108.07 Y-14.204
X-108.065 Y-14.305
X-108.062 Y-14.414
X-108.053 Y-14.45
X-108.031 Y-14.481
X-108 Y-14.501
X-107.963 Y-14.508
X-107.795 Y-14.509
X-107.155 Y-14.514
X-107.119 Y-14.508
X-107.088 Y-14.49
X-107.066 Y-14.462
X-107.055 Y-14.427
X-107.043 Y-14.305
Y-14.263
X-107.061 Y-14.089
X-107.072 Y-14.015
X-107.141 Y-13.882
X-107.25 Y-13.779
X-107.38 Y-13.705
X-107.523 Y-13.659
X-107.672 Y-13.64
X-107.821 Y-13.655
X-107.876 Y-13.672
X-107.995 Y-13.741
X-108.07 Y-13.856
X-108.086 Y-13.993
X-108.07 Y-14.204
X-108.058 Y-14.241
X-108.033 Y-14.271
X-107.998 Y-14.289
X-107.959 Y-14.293
X-107.777 Y-14.271
X-107.148 Y-14.196
X-107.112 Y-14.184
X-107.083 Y-14.16
X-107.065 Y-14.127
X-107.061 Y-14.089
X-107.073 Y-13.967
X-107.094 Y-13.836
X-107.125 Y-13.689
X-107.224 Y-13.576
X-107.349 Y-13.494
X-107.489 Y-13.44
X-107.637 Y-13.413
X-107.787 Y-13.417
X-107.932 Y-13.452
X-107.97 Y-13.472
X-108.065 Y-13.553
X-108.118 Y-13.666
X-108.122 Y-13.791
X-108.089 Y-13.967
X-108.086 Y-13.993
X-108.072 Y-14.03
X-108.046 Y-14.059
X-108.01 Y-14.075
X-107.971 Y-14.076
X-107.801 Y-14.049
X-107.177 Y-13.947
X-107.141 Y-13.934
X-107.113 Y-13.908
X-107.096 Y-13.874
X-107.094 Y-13.836
X-107.135 Y-13.583
X-107.15 Y-13.509
X-107.226 Y-13.38
X-107.343 Y-13.286
X-107.48 Y-13.224
X-107.626 Y-13.19
X-107.776 Y-13.185
X-107.923 Y-13.21
X-107.988 Y-13.238
X-108.099 Y-13.319
X-108.162 Y-13.441
X-108.164 Y-13.578
X-108.153 Y-13.629
X-108.122 Y-13.791
X-108.106 Y-13.827
X-108.078 Y-13.854
X-108.041 Y-13.868
X-108.002 Y-13.867
X-107.835 Y-13.83
X-107.212 Y-13.693
X-107.179 Y-13.679
X-107.152 Y-13.653
X-107.137 Y-13.619
X-107.135 Y-13.583
X-107.169 Y-13.376
X-107.18 Y-13.329
X-107.201 Y-13.257
X-107.282 Y-13.131
X-107.403 Y-13.043
X-107.542 Y-12.986
X-107.69 Y-12.96
X-107.84 Y-12.961
X-107.986 Y-12.995
X-108.123 Y-13.057
X-108.141 Y-13.073
X-108.218 Y-13.174
X-108.246 Y-13.298
X-108.221 Y-13.423
X-108.198 Y-13.453
X-108.165 Y-13.473
X-108.127 Y-13.479
X-107.887 Y-13.47
X-107.275 Y-13.448
X-107.241 Y-13.441
X-107.212 Y-13.423
X-107.19 Y-13.396
X-107.179 Y-13.364
X-107.18 Y-13.329
X-107.219 Y-13.165
X-107.227 Y-13.143
X-107.281 Y-13.038
X-107.356 Y-12.908
X-107.475 Y-12.816
X-107.614 Y-12.761
X-107.762 Y-12.738
X-107.912 Y-12.744
X-108.059 Y-12.774
X-108.194 Y-12.84
X-108.225 Y-12.866
X-108.307 Y-12.968
X-108.337 Y-13.094
X-108.311 Y-13.222
X-108.204 Y-13.46
X-108.172 Y-13.545
X-108.169 Y-13.554
X-108.164 Y-13.578
X-108.147 Y-13.613
X-108.119 Y-13.639
X-108.084 Y-13.652
X-108.046 Y-13.651
X-108.011 Y-13.636
X-107.848 Y-13.525
X-107.315 Y-13.163
X-107.29 Y-13.139
X-107.275 Y-13.107
X-107.272 Y-13.072
X-107.281 Y-13.038
X-107.408 Y-12.792
X-107.428 Y-12.759
X-107.515 Y-12.636
X-107.646 Y-12.564
X-107.792 Y-12.528
X-107.942 Y-12.522
X-108.09 Y-12.546
X-108.23 Y-12.599
X-108.354 Y-12.683
X-108.37 Y-12.701
X-108.43 Y-12.811
X-108.44 Y-12.936
X-108.398 Y-13.053
X-108.356 Y-13.122
X-108.311 Y-13.222
X-108.286 Y-13.253
X-108.252 Y-13.273
X-108.213 Y-13.277
X-108.174 Y-13.266
X-108.021 Y-13.187
X-107.469 Y-12.898
X-107.443 Y-12.879
X-107.424 Y-12.852
X-107.416 Y-12.821
X-107.417 Y-12.789
X-107.428 Y-12.759
X-107.572 Y-12.531
X-107.659 Y-12.408
X-107.793 Y-12.341
X-107.94 Y-12.313
X-108.09 Y-12.319
X-108.236 Y-12.355
X-108.372 Y-12.416
X-108.49 Y-12.51
X-108.501 Y-12.525
X-108.554 Y-12.636
X-108.558 Y-12.759
X-108.512 Y-12.873
X-108.398 Y-13.053
X-108.371 Y-13.081
X-108.336 Y-13.096
X-108.297 Y-13.097
X-108.261 Y-13.083
X-108.139 Y-13.005
X-107.605 Y-12.666
X-107.578 Y-12.64
X-107.562 Y-12.605
X-107.56 Y-12.567
X-107.572 Y-12.531
X-107.631 Y-12.447
X-107.746 Y-12.286
X-107.752 Y-12.278
X-107.769 Y-12.254
X-107.804 Y-12.211
X-107.819 Y-12.196
X-107.836 Y-12.182
X-107.868 Y-12.166
X-107.905 Y-12.162
X-107.94 Y-12.172
X-107.97 Y-12.194
X-107.989 Y-12.225
X-107.996 Y-12.262
X-107.989 Y-12.298
X-107.97 Y-12.329
X-107.926 Y-12.377
X-107.897 Y-12.4
X-107.861 Y-12.41
X-107.824 Y-12.406
X-107.791 Y-12.389
X-107.766 Y-12.361
X-107.753 Y-12.326
X-107.755 Y-12.289
X-107.769 Y-12.254
X-107.783 Y-12.235
X-107.799 Y-12.214
X-107.811 Y-12.203
X-107.856 Y-12.165
X-107.917 Y-12.121
X-108.066 Y-12.103
X-108.215 Y-12.116
X-108.36 Y-12.156
X-108.495 Y-12.221
X-108.565 Y-12.279
X-108.64 Y-12.368
X-108.677 Y-12.478
X-108.673 Y-12.593
X-108.627 Y-12.7
X-108.6 Y-12.726
X-108.565 Y-12.74
X-108.527
X-108.492 Y-12.726
X-108.373 Y-12.649
X-107.868 Y-12.324
X-107.841 Y-12.299
X-107.826 Y-12.266
X-107.823 Y-12.229
X-107.834 Y-12.194
X-107.856 Y-12.165
X-108 Y-12.048
X-108.121 Y-11.959
X-108.269 Y-11.936
X-108.418 Y-11.953
X-108.559 Y-12.005
X-108.685 Y-12.086
X-108.786 Y-12.197
X-108.802 Y-12.227
X-108.836 Y-12.356
X-108.812 Y-12.486
X-108.733 Y-12.594
X-108.708 Y-12.616
X-108.677 Y-12.645
X-108.627 Y-12.7
X-108.512 Y-12.873
X-108.488 Y-12.897
X-108.458 Y-12.911
X-108.424 Y-12.914
X-108.391 Y-12.906
X-108.363 Y-12.888
X-108.342 Y-12.861
X-108.282 Y-12.746
X-107.977 Y-12.17
X-107.967 Y-12.138
X-107.968 Y-12.105
X-107.979 Y-12.074
X-108 Y-12.048
X-108.169 Y-11.91
X-108.211 Y-11.88
X-108.245 Y-11.855
X-108.379 Y-11.786
X-108.529 Y-11.788
X-108.673 Y-11.828
X-108.804 Y-11.901
X-108.914 Y-12.004
X-108.952 Y-12.063
X-108.999 Y-12.197
X-108.978 Y-12.337
X-108.896 Y-12.453
X-108.866 Y-12.469
X-108.832 Y-12.475
X-108.799 Y-12.469
X-108.769 Y-12.451
X-108.708 Y-12.4
X-108.242 Y-12.011
X-108.22 Y-11.984
X-108.208 Y-11.95
X-108.209 Y-11.915
X-108.222 Y-11.882
X-108.245 Y-11.855
X-108.481 Y-11.718
X-108.548 Y-11.684
X-108.696 Y-11.664
X-108.842 Y-11.699
X-108.974 Y-11.771
X-109.081 Y-11.875
X-109.162 Y-12.002
X-109.165 Y-12.013
X-109.172 Y-12.14
X-109.126 Y-12.258
X-109.035 Y-12.347
X-109.011 Y-12.362
X-108.903 Y-12.447
X-108.733 Y-12.594
X-108.703 Y-12.61
X-108.67 Y-12.616
X-108.636 Y-12.61
X-108.606 Y-12.593
X-108.584 Y-12.567
X-108.572 Y-12.535
X-108.561 Y-12.475
X-108.436 Y-11.822
X-108.437 Y-11.782
X-108.452 Y-11.746
X-108.481 Y-11.718
X-108.635 Y-11.629
X-108.656 Y-11.618
X-108.677 Y-11.61
X-108.736 Y-11.594
X-108.883 Y-11.563
X-109.03 Y-11.594
X-109.161 Y-11.668
X-109.271 Y-11.77
X-109.344 Y-11.9
X-109.346 Y-11.911
X-109.35 Y-12.036
X-109.302 Y-12.151
X-109.211 Y-12.237
X-109.179 Y-12.249
X-109.145
X-109.113 Y-12.237
X-109.086 Y-12.216
X-109.072 Y-12.199
X-108.69 Y-11.755
X-108.67 Y-11.72
X-108.666 Y-11.681
X-108.677 Y-11.643
X-108.702 Y-11.613
X-108.736 Y-11.594
X-109.015 Y-11.521
X-109.087 Y-11.505
X-109.236 Y-11.523
X-109.367 Y-11.597
X-109.436 Y-11.667
X-109.51 Y-11.79
X-109.52 Y-11.933
X-109.464 Y-12.066
X-109.354 Y-12.158
X-109.318 Y-12.167
X-109.282 Y-12.163
X-109.25 Y-12.146
X-109.226 Y-12.118
X-108.958 Y-11.667
X-108.946 Y-11.634
Y-11.597
X-108.959 Y-11.564
X-108.983 Y-11.537
X-109.015 Y-11.521
X-109.1 Y-11.499
X-109.269 Y-11.475
X-109.344 Y-11.468
X-109.491 Y-11.498
X-109.611 Y-11.588
X-109.687 Y-11.717
X-109.697 Y-11.761
X-109.701 Y-11.873
X-109.663 Y-11.979
X-109.589 Y-12.064
X-109.489 Y-12.115
X-109.453 Y-12.117
X-109.419 Y-12.107
X-109.39 Y-12.085
X-109.371 Y-12.055
X-109.194 Y-11.61
X-109.187 Y-11.576
X-109.192 Y-11.541
X-109.209 Y-11.51
X-109.236 Y-11.487
X-109.269 Y-11.475
X-109.354 Y-11.463
X-109.485 Y-11.448
X-109.523 Y-11.444
X-109.598 Y-11.44
X-109.737 Y-11.496
X-109.838 Y-11.607
X-109.894 Y-11.746
Y-11.758
X-109.871 Y-11.888
X-109.794 Y-11.995
X-109.678 Y-12.059
X-109.64 Y-12.062
X-109.604 Y-12.049
X-109.575 Y-12.024
X-109.558 Y-11.989
X-109.441 Y-11.57
X-109.437 Y-11.536
X-109.445 Y-11.503
X-109.464 Y-11.475
X-109.491 Y-11.454
X-109.523 Y-11.444
X-109.624 Y-11.433
X-109.692 Y-11.428
X-109.739 Y-11.427
X-109.814 Y-11.43
X-109.949 Y-11.495
X-110.043 Y-11.612
X-110.083 Y-11.756
Y-11.764
X-110.042 Y-11.89
X-109.952 Y-11.985
X-109.829 Y-12.033
X-109.792 Y-12.031
X-109.758 Y-12.014
X-109.733 Y-11.987
X-109.719 Y-11.952
X-109.645 Y-11.545
X-109.644 Y-11.511
X-109.655 Y-11.479
X-109.677 Y-11.452
X-109.705 Y-11.434
X-109.739 Y-11.427
X-109.777
X-109.861 Y-11.429
X-109.946 Y-11.436
X-110.02 Y-11.448
X-110.156 Y-11.511
X-110.242 Y-11.634
X-110.247 Y-11.663
X-110.243 Y-11.782
X-110.192 Y-11.89
X-110.104 Y-11.97
X-109.991 Y-12.009
X-109.952 Y-12.006
X-109.918 Y-11.988
X-109.893 Y-11.958
X-109.882 Y-11.921
X-109.842 Y-11.547
X-109.844 Y-11.512
X-109.858 Y-11.481
X-109.881 Y-11.456
X-109.912 Y-11.44
X-109.946 Y-11.436
X-110.031 Y-11.445
X-110.162 Y-11.461
X-110.236 Y-11.474
X-110.3 Y-11.512
X-110.357 Y-11.624
X-110.363 Y-11.75
X-110.316 Y-11.867
X-110.224 Y-11.954
X-110.106 Y-11.995
X-110.069 Y-11.992
X-110.037 Y-11.975
X-110.012 Y-11.949
X-109.999 Y-11.915
X-109.998 Y-11.879
X-110.054 Y-11.545
X-110.067 Y-11.51
X-110.092 Y-11.482
X-110.125 Y-11.465
X-110.162 Y-11.461
X-110.2 Y-11.466
X-110.284 Y-11.48
X-110.331 Y-11.493
X-110.402 Y-11.517
X-110.453 Y-11.571
X-110.524 Y-11.704
X-110.498 Y-11.82
X-110.428 Y-11.917
X-110.325 Y-11.978
X-110.206 Y-11.993
X-110.173 Y-11.983
X-110.145 Y-11.962
X-110.126 Y-11.933
X-110.118 Y-11.899
X-110.122 Y-11.865
X-110.211 Y-11.562
X-110.229 Y-11.528
X-110.257 Y-11.503
X-110.293 Y-11.491
X-110.331 Y-11.493
X-110.5 Y-11.54
X-110.536 Y-11.552
X-110.596 Y-11.597
X-110.632 Y-11.663
X-110.633 Y-11.793
X-110.573 Y-11.91
X-110.467 Y-11.986
X-110.337 Y-12.004
X-110.302 Y-11.992
X-110.273 Y-11.968
X-110.255 Y-11.936
X-110.251 Y-11.899
X-110.26 Y-11.862
X-110.386 Y-11.595
X-110.406 Y-11.567
X-110.433 Y-11.547
X-110.466 Y-11.538
X-110.5 Y-11.54
X-110.538 Y-11.551
X-110.623 Y-11.577
X-110.691 Y-11.609
X-110.783 Y-11.727
X-110.76 Y-11.846
X-110.689 Y-11.945
X-110.584 Y-12.006
X-110.463 Y-12.017
X-110.428 Y-12.004
X-110.4 Y-11.98
X-110.383 Y-11.947
X-110.379 Y-11.91
X-110.388 Y-11.875
X-110.507 Y-11.63
X-110.527 Y-11.602
X-110.555 Y-11.582
X-110.588 Y-11.574
X-110.623 Y-11.577
X-110.684 Y-11.602
X-110.707 Y-11.613
X-110.792 Y-11.658
X-110.82 Y-11.673
X-110.843 Y-11.686
X-110.969 Y-11.768
X-111.003 Y-11.785
X-111.018 Y-11.794
X-111.033 Y-11.804
X-111.034 Y-11.813
X-111.032 Y-11.851
X-111.015 Y-11.886
X-110.986 Y-11.912
X-110.949 Y-11.925
X-110.911 Y-11.923
X-110.348 Y-11.779
X-110.055 Y-11.704
X-110.023 Y-11.689
X-109.998 Y-11.664
X-109.983 Y-11.631
X-109.981 Y-11.596
X-109.991 Y-11.561
X-110.013 Y-11.533
X-110.043 Y-11.514
X-110.078 Y-11.507
G3 X-110.843 Y-11.686 I-0.032 J-1.582
G1 X-110.987 Y-11.771
X-111.046 Y-11.812
X-111.099 Y-11.855
X-111.215 Y-11.965
X-111.3 Y-12.046
X-111.359 Y-12.109
X-111.367 Y-12.119
X-111.373 Y-12.13
X-111.378 Y-12.14
X-111.381 Y-12.151
X-111.383 Y-12.162
Y-12.172
Y-12.183
X-111.381 Y-12.193
X-111.379 Y-12.204
X-111.375 Y-12.214
X-111.362 Y-12.235
X-111.347 Y-12.257
X-111.335 Y-12.269
X-111.322 Y-12.278
X-111.311 Y-12.283
X-111.3 Y-12.287
X-111.28 Y-12.291
X-111.26
X-111.24 Y-12.287
X-111.221 Y-12.278
X-111.13 Y-12.226
X-111.046 Y-12.187
X-110.863 Y-12.109
X-110.792 Y-12.083
X-110.523 Y-12.024
X-110.454 Y-12.016
X-110.284 Y-11.999
X-110.2 Y-11.992
X-110.115 Y-11.994
X-110.031 Y-12.004
X-109.946 Y-12.016
X-109.777 Y-12.041
X-109.692 Y-12.055
X-109.438 Y-12.13
X-109.354 Y-12.158
X-109.284 Y-12.193
X-109.1 Y-12.306
X-109.035 Y-12.347
X-108.998 Y-12.359
X-108.959 Y-12.357
X-108.924 Y-12.34
X-108.898 Y-12.31
X-108.879 Y-12.277 Z-0.982
X-108.863 Y-12.249 Z-0.961
X-108.852 Y-12.23 Z-0.928
X-108.848 Y-12.224 Z-0.89
G0 Z2
X-111.875 Y-12.888
Z-0.79
G1 Z-0.89 F1000
X-111.878 Y-12.88 Z-0.928
X-111.884 Y-12.86 Z-0.961
X-111.894 Y-12.829 Z-0.982
X-111.906 Y-12.793 Z-0.99
G3 X-112.23 Y-12.077 I-3.464 J-1.136
G1 X-112.264 Y-12.024
X-112.285 Y-11.982
X-112.302 Y-11.94
X-112.315 Y-11.9
X-112.326 Y-11.865
X-112.425 Y-11.751
X-112.56 Y-11.687
X-112.708 Y-11.662
X-112.858 Y-11.67
X-113.004 Y-11.704
X-113.056 Y-11.725
X-113.15 Y-11.786
X-113.215 Y-11.878
X-113.241 Y-11.987
X-113.255 Y-12.26
X-113.25 Y-12.293
X-113.235 Y-12.323
X-113.21 Y-12.345
X-113.179 Y-12.359
X-113.146 Y-12.361
X-113.113 Y-12.352
X-112.965 Y-12.283
X-112.371 Y-12.009
X-112.344 Y-11.99
X-112.325 Y-11.964
X-112.314 Y-11.933
X-112.315 Y-11.9
X-112.324 Y-11.855
X-112.33 Y-11.813
X-112.333 Y-11.771
X-112.339 Y-11.696
X-112.423 Y-11.572
X-112.551 Y-11.494
X-112.695 Y-11.453
X-112.845 Y-11.443
X-112.994 Y-11.462
X-113.026 Y-11.473
X-113.128 Y-11.533
X-113.199 Y-11.627
X-113.228 Y-11.741
X-113.241 Y-11.987
X-113.235 Y-12.024
X-113.215 Y-12.056
X-113.185 Y-12.079
X-113.148 Y-12.088
X-113.111 Y-12.084
X-113.038 Y-12.061
X-112.403 Y-11.859
X-112.368 Y-11.84
X-112.344 Y-11.809
X-112.333 Y-11.771
X-112.33 Y-11.686
X-112.326 Y-11.64
X-112.324 Y-11.565
X-112.375 Y-11.424
X-112.485 Y-11.323
X-112.621 Y-11.258
X-112.767 Y-11.225
X-112.917 Y-11.221
X-112.976 Y-11.233
X-113.095 Y-11.286
X-113.18 Y-11.384
X-113.215 Y-11.509
X-113.228 Y-11.741
X-113.223 Y-11.775
X-113.206 Y-11.806
X-113.18 Y-11.829
X-113.147 Y-11.841
X-113.112 Y-11.842
X-113.057 Y-11.833
X-112.409 Y-11.727
X-112.379 Y-11.717
X-112.353 Y-11.697
X-112.335 Y-11.671
X-112.326 Y-11.64
X-112.309 Y-11.433
X-112.305 Y-11.358
X-112.363 Y-11.22
X-112.472 Y-11.116
X-112.604 Y-11.046
X-112.748 Y-11.004
X-112.898 Y-10.997
X-112.949 Y-11.006
X-113.07 Y-11.056
X-113.158 Y-11.152
X-113.197 Y-11.276
X-113.211 Y-11.433
X-113.215 Y-11.509
X-113.21 Y-11.543
X-113.194 Y-11.573
X-113.168 Y-11.596
X-113.137 Y-11.609
X-113.102 Y-11.61
X-113.044 Y-11.603
X-112.395 Y-11.519
X-112.364 Y-11.51
X-112.337 Y-11.491
X-112.318 Y-11.464
X-112.309 Y-11.433
X-112.293 Y-11.264
X-112.289 Y-11.189
X-112.324 Y-11.043
X-112.421 Y-10.929
X-112.545 Y-10.845
X-112.686 Y-10.793
X-112.835 Y-10.773
X-112.901 Y-10.779
X-113.027 Y-10.82
X-113.122 Y-10.911
X-113.17 Y-11.033
X-113.179 Y-11.095
X-113.189 Y-11.18
X-113.197 Y-11.276
X-113.194 Y-11.309
X-113.179 Y-11.339
X-113.156 Y-11.362
X-113.126 Y-11.377
X-113.093 Y-11.381
X-113.033 Y-11.379
X-112.388 Y-11.351
X-112.354 Y-11.344
X-112.324 Y-11.325
X-112.303 Y-11.297
X-112.293 Y-11.264
X-112.285 Y-11.18
X-112.269 Y-11.049
X-112.263 Y-10.974
X-112.304 Y-10.83
X-112.4 Y-10.714
X-112.524 Y-10.63
X-112.663 Y-10.574
X-112.812 Y-10.554
X-112.859 Y-10.558
X-112.982 Y-10.595
X-113.077 Y-10.68
X-113.129 Y-10.797
X-113.138 Y-10.842
X-113.161 Y-10.972
X-113.17 Y-11.033
X-113.168 Y-11.067
X-113.155 Y-11.098
X-113.132 Y-11.123
X-113.102 Y-11.14
X-113.069 Y-11.145
X-113.012 Y-11.144
X-112.366 Y-11.133
X-112.332 Y-11.126
X-112.302 Y-11.108
X-112.28 Y-11.081
X-112.269 Y-11.049
X-112.253 Y-10.926
X-112.241 Y-10.842
X-112.233 Y-10.767
X-112.272 Y-10.622
X-112.366 Y-10.505
X-112.488 Y-10.418
X-112.626 Y-10.359
X-112.774 Y-10.337
X-112.812 Y-10.34
X-112.935 Y-10.376
X-113.032 Y-10.461
X-113.084 Y-10.578
X-113.129 Y-10.797
Y-10.831
X-113.117 Y-10.863
X-113.095 Y-10.89
X-113.066 Y-10.907
X-113.032 Y-10.913
X-112.987 Y-10.914
X-112.34 Y-10.922
X-112.306 Y-10.917
X-112.276 Y-10.9
X-112.253 Y-10.874
X-112.241 Y-10.842
X-112.205 Y-10.626
X-112.196 Y-10.552
X-112.239 Y-10.408
X-112.333 Y-10.291
X-112.454 Y-10.203
X-112.592 Y-10.143
X-112.74 Y-10.121
X-112.77 Y-10.124
X-112.892 Y-10.161
X-112.987 Y-10.245
X-113.039 Y-10.361
X-113.084 Y-10.578
Y-10.612
X-113.072 Y-10.644
X-113.05 Y-10.671
X-113.021 Y-10.688
X-112.987 Y-10.695
X-112.952
X-112.305 Y-10.706
X-112.271 Y-10.701
X-112.241 Y-10.684
X-112.218 Y-10.658
X-112.205 Y-10.626
X-112.199 Y-10.588
X-112.171 Y-10.457
X-112.159 Y-10.383
X-112.177 Y-10.234
X-112.259 Y-10.109
X-112.372 Y-10.01
X-112.506 Y-9.942
X-112.652 Y-9.908
X-112.698
X-112.825 Y-9.938
X-112.928 Y-10.019
X-112.986 Y-10.136
X-113.014 Y-10.25
X-113.039 Y-10.361
Y-10.394
X-113.028 Y-10.425
X-113.008 Y-10.452
X-112.98 Y-10.47
X-112.948 Y-10.478
X-112.919 Y-10.48
X-112.276 Y-10.533
X-112.241 Y-10.53
X-112.21 Y-10.515
X-112.185 Y-10.489
X-112.171 Y-10.457
X-112.126 Y-10.25
X-112.112 Y-10.177
X-112.131 Y-10.028
X-112.211 Y-9.901
X-112.323 Y-9.802
X-112.455 Y-9.731
X-112.601 Y-9.697
X-112.631
X-112.749 Y-9.721
X-112.847 Y-9.789
X-112.912 Y-9.89
X-112.952 Y-9.997
X-112.986 Y-10.136
X-112.987 Y-10.17
X-112.978 Y-10.202
X-112.958 Y-10.229
X-112.93 Y-10.248
X-112.898 Y-10.257
X-112.875 Y-10.259
X-112.232 Y-10.323
X-112.198 Y-10.32
X-112.166 Y-10.306
X-112.142 Y-10.282
X-112.126 Y-10.25
X-112.106 Y-10.166
X-112.071 Y-10.038
X-112.055 Y-9.965
X-112.079 Y-9.817
X-112.16 Y-9.691
X-112.272 Y-9.591
X-112.404 Y-9.52
X-112.55 Y-9.486
X-112.554
X-112.665 Y-9.51
X-112.76 Y-9.575
X-112.824 Y-9.67
X-112.855 Y-9.744
X-112.912 Y-9.89
X-112.917 Y-9.925
X-112.91 Y-9.959
X-112.891 Y-9.989
X-112.864 Y-10.011
X-112.83 Y-10.021
X-112.819 Y-10.023
X-112.179 Y-10.108
X-112.144 Y-10.106
X-112.112 Y-10.093
X-112.087 Y-10.069
X-112.071 Y-10.038
X-112.013 Y-9.828
X-111.996 Y-9.755
X-112.024 Y-9.608
X-112.105 Y-9.481
X-112.217 Y-9.382
X-112.349 Y-9.31
X-112.401 Y-9.299
X-112.538 Y-9.301
X-112.659 Y-9.364
X-112.74 Y-9.474
X-112.824 Y-9.67
X-112.83 Y-9.705
X-112.824 Y-9.74
X-112.806 Y-9.77
X-112.778 Y-9.793
X-112.745 Y-9.804
X-112.123 Y-9.896
X-112.088 Y-9.895
X-112.056 Y-9.882
X-112.03 Y-9.859
X-112.013 Y-9.828
X-111.989 Y-9.744
X-111.976 Y-9.703
X-111.957 Y-9.659
X-111.927 Y-9.591
X-111.938 Y-9.441
X-112.009 Y-9.309
X-112.112 Y-9.2
X-112.242 Y-9.126
X-112.298 Y-9.11
X-112.439 Y-9.105
X-112.567 Y-9.165
X-112.653 Y-9.277
X-112.711 Y-9.406
X-112.74 Y-9.474
X-112.747 Y-9.509
X-112.741 Y-9.544
X-112.724 Y-9.574
X-112.696 Y-9.597
X-112.663 Y-9.609
X-112.062 Y-9.71
X-112.031 Y-9.711
X-112.001 Y-9.701
X-111.976 Y-9.684
X-111.957 Y-9.659
X-111.892 Y-9.529
X-111.872 Y-9.49
X-111.841 Y-9.422
X-111.844 Y-9.272
X-111.907 Y-9.136
X-112.006 Y-9.023
X-112.133 Y-8.943
X-112.275 Y-8.896
X-112.279
X-112.386 Y-8.914
X-112.479 Y-8.969
X-112.547 Y-9.054
X-112.569 Y-9.094
X-112.598 Y-9.152
X-112.653 Y-9.277
X-112.66 Y-9.311
X-112.655 Y-9.345
X-112.639 Y-9.376
X-112.613 Y-9.399
X-112.581 Y-9.412
X-111.98 Y-9.539
X-111.948 Y-9.541
X-111.918 Y-9.533
X-111.891 Y-9.515
X-111.872 Y-9.49
X-111.785 Y-9.321
X-111.754 Y-9.253
X-111.747 Y-9.103
X-111.803 Y-8.964
X-111.898 Y-8.848
X-112.018 Y-8.758
X-112.059 Y-8.742
X-112.189 Y-8.722
X-112.315 Y-8.759
X-112.413 Y-8.847
X-112.484 Y-8.947
X-112.509 Y-8.984
X-112.547 Y-9.054
X-112.557 Y-9.088
X-112.555 Y-9.122
X-112.541 Y-9.154
X-112.517 Y-9.179
X-112.486 Y-9.194
X-111.901 Y-9.369
X-111.868 Y-9.373
X-111.835 Y-9.365
X-111.806 Y-9.348
X-111.785 Y-9.321
X-111.742 Y-9.237
X-111.694 Y-9.152
X-111.656 Y-9.087
X-111.643 Y-8.938
X-111.694 Y-8.797
X-111.781 Y-8.675
X-111.902 Y-8.586
X-111.927 Y-8.575
X-112.056 Y-8.553
X-112.181 Y-8.587
X-112.281 Y-8.671
X-112.399 Y-8.828
X-112.413 Y-8.847
X-112.427 Y-8.88
X-112.428 Y-8.916
X-112.417 Y-8.951
X-112.394 Y-8.979
X-112.362 Y-8.997
X-111.808 Y-9.189
X-111.777 Y-9.194
X-111.745 Y-9.19
X-111.716 Y-9.175
X-111.694 Y-9.152
X-111.638 Y-9.068
X-111.602 Y-9.022
X-111.559 Y-8.96
X-111.521 Y-8.815
X-111.554 Y-8.669
X-111.631 Y-8.54
X-111.742 Y-8.439
X-111.773 Y-8.424
X-111.896 Y-8.391
X-112.021 Y-8.413
X-112.126 Y-8.484
X-112.197 Y-8.561
X-112.281 Y-8.671
X-112.296 Y-8.703
X-112.299 Y-8.738
X-112.289 Y-8.772
X-112.269 Y-8.801
X-112.239 Y-8.82
X-111.719 Y-9.049
X-111.688 Y-9.057
X-111.656 Y-9.055
X-111.626 Y-9.043
X-111.602 Y-9.022
X-111.572 Y-8.984
X-111.484 Y-8.877
X-111.439 Y-8.817
X-111.393 Y-8.674
X-111.419 Y-8.527
X-111.489 Y-8.394
X-111.597 Y-8.29
X-111.614 Y-8.28
X-111.728 Y-8.244
X-111.847 Y-8.255
X-111.953 Y-8.312
X-111.976 Y-8.332
X-112.039 Y-8.392
X-112.126 Y-8.484
X-112.145 Y-8.515
X-112.152 Y-8.55
X-112.145 Y-8.586
X-112.126 Y-8.617
X-112.098 Y-8.639
X-111.605 Y-8.899
X-111.573 Y-8.909
X-111.541
X-111.509 Y-8.898
X-111.484 Y-8.877
X-111.431 Y-8.815
X-111.356 Y-8.73
X-111.308 Y-8.673
X-111.26 Y-8.531
X-111.282 Y-8.382
X-111.348 Y-8.248
X-111.394 Y-8.202
X-111.519 Y-8.127
X-111.665 Y-8.12
X-111.797 Y-8.182
X-111.819 Y-8.212
X-111.83 Y-8.247
X-111.827 Y-8.284
X-111.81 Y-8.318
X-111.507 Y-8.72
X-111.482 Y-8.743
X-111.451 Y-8.757
X-111.417 Y-8.759
X-111.384 Y-8.75
X-111.356 Y-8.73
X-111.3 Y-8.669
X-111.27 Y-8.646
X-111.24 Y-8.622
X-111.182 Y-8.574
X-111.115 Y-8.44
X-111.12 Y-8.29
X-111.177 Y-8.152
X-111.273 Y-8.036
X-111.285 Y-8.028
X-111.397 Y-7.987
X-111.517 Y-7.993
X-111.625 Y-8.045
X-111.744 Y-8.139
X-111.953 Y-8.312
X-111.975 Y-8.34
X-111.985 Y-8.374
X-111.983 Y-8.41
X-111.969 Y-8.442
X-111.944 Y-8.468
X-111.911 Y-8.483
X-111.323 Y-8.638
X-111.294 Y-8.641
X-111.266 Y-8.636
X-111.24 Y-8.622
X-111.215 Y-8.604
X-111.147 Y-8.561
X-111.105 Y-8.538
X-111.04 Y-8.5
X-110.959 Y-8.374
X-110.949 Y-8.224
X-110.989 Y-8.08
X-111.019 Y-8.03
X-111.122 Y-7.927
X-111.261 Y-7.886
X-111.404 Y-7.914
X-111.519 Y-7.97
X-111.536 Y-7.979
X-111.553 Y-7.99
X-111.625 Y-8.045
X-111.648 Y-8.072
X-111.66 Y-8.105
Y-8.14
X-111.647 Y-8.174
X-111.623 Y-8.2
X-111.211 Y-8.527
X-111.178 Y-8.544
X-111.141 Y-8.548
X-111.105 Y-8.538
X-111.046 Y-8.507
X-110.961 Y-8.466
X-110.896 Y-8.429
X-110.8 Y-8.314
X-110.774 Y-8.166
X-110.802 Y-8.018
X-110.87 Y-7.885
X-110.97 Y-7.821
X-111.085 Y-7.8
X-111.199 Y-7.825
X-111.384 Y-7.905
X-111.404 Y-7.914
X-111.433 Y-7.937
X-111.452 Y-7.969
X-111.458 Y-8.005
X-111.45 Y-8.041
X-111.43 Y-8.072
X-111.074 Y-8.443
X-111.05 Y-8.462
X-111.021 Y-8.472
X-110.991 Y-8.474
X-110.961 Y-8.466
X-110.877 Y-8.424
X-110.804 Y-8.392
X-110.736 Y-8.359
X-110.684 Y-8.305
X-110.617 Y-8.171
X-110.608 Y-8.021
X-110.642 Y-7.876
X-110.653 Y-7.86
X-110.751 Y-7.767
X-110.881 Y-7.726
X-111.016 Y-7.747
X-111.174 Y-7.814
X-111.199 Y-7.825
X-111.228 Y-7.846
X-111.248 Y-7.876
X-111.256 Y-7.911
X-111.25 Y-7.947
X-111.233 Y-7.979
X-110.917 Y-8.363
X-110.894 Y-8.383
X-110.865 Y-8.396
X-110.834 Y-8.399
X-110.804 Y-8.392
X-110.707 Y-8.355
X-110.623 Y-8.326
X-110.587 Y-8.314
X-110.477 Y-8.212
X-110.427 Y-8.071
X-110.422 Y-7.921
X-110.442 Y-7.866
X-110.516 Y-7.751
X-110.633 Y-7.681
X-110.769 Y-7.67
X-110.792 Y-7.673
X-110.834 Y-7.681
X-110.877 Y-7.695
X-110.961 Y-7.725
X-111.016 Y-7.747
X-111.046 Y-7.769
X-111.067 Y-7.799
X-111.075 Y-7.835
X-111.069 Y-7.872
X-111.051 Y-7.904
X-110.717 Y-8.293
X-110.69 Y-8.315
X-110.657 Y-8.326
X-110.623
X-110.492 Y-8.297
X-110.419 Y-8.277
X-110.3 Y-8.185
X-110.238 Y-8.049
X-110.231 Y-7.899
X-110.241 Y-7.863
X-110.31 Y-7.737
X-110.429 Y-7.657
X-110.572 Y-7.642
X-110.607 Y-7.655
X-110.635 Y-7.68
X-110.651 Y-7.713
X-110.654 Y-7.751
X-110.609 Y-8.208
X-110.601 Y-8.24
X-110.582 Y-8.267
X-110.556 Y-8.287
X-110.525 Y-8.297
X-110.492
X-110.284 Y-8.251
X-110.212 Y-8.231
X-110.101 Y-8.13
X-110.046 Y-7.991
X-110.048 Y-7.841
X-110.054 Y-7.822
X-110.125 Y-7.706
X-110.239 Y-7.633
X-110.374 Y-7.618
X-110.41 Y-7.631
X-110.439 Y-7.657
X-110.456 Y-7.692
X-110.458 Y-7.73
X-110.401 Y-8.165
X-110.392 Y-8.196
X-110.373 Y-8.223
X-110.347 Y-8.242
X-110.317 Y-8.251
X-110.284
X-110.115 Y-8.215
X-110.042 Y-8.2
X-109.921 Y-8.11
X-109.861 Y-7.973
X-109.859 Y-7.823
X-109.862 Y-7.811
X-109.928 Y-7.695
X-110.038 Y-7.619
X-110.17 Y-7.598
X-110.207 Y-7.61
X-110.237 Y-7.634
X-110.255 Y-7.668
X-110.259 Y-7.706
X-110.224 Y-8.124
X-110.213 Y-8.162
X-110.188 Y-8.192
X-110.154 Y-8.211
X-110.115 Y-8.215
X-110.031 Y-8.204
X-109.988 Y-8.205
X-109.946 Y-8.208
X-109.908 Y-8.21
X-109.841 Y-8.177
X-109.728 Y-8.079
X-109.67 Y-7.941
X-109.671 Y-7.895
X-109.707 Y-7.755
X-109.805 Y-7.649
X-109.941 Y-7.6
X-110.031 Y-7.596
X-110.115 Y-7.595
X-110.2 Y-7.6
X-110.284 Y-7.608
X-110.538 Y-7.638
X-110.741 Y-7.666
X-110.769 Y-7.67
X-110.803 Y-7.683
X-110.83 Y-7.707
X-110.846 Y-7.74
X-110.85 Y-7.776
X-110.841 Y-7.811
X-110.82 Y-7.841
X-110.789 Y-7.861
X-110.672 Y-7.909
X-109.946 Y-8.208
X-109.832 Y-8.221
X-109.757 Y-8.225
X-109.617 Y-8.172
X-109.521 Y-8.057
X-109.484 Y-7.911
X-109.485 Y-7.894
X-109.528 Y-7.762
X-109.624 Y-7.663
X-109.755 Y-7.618
X-109.941 Y-7.6
X-109.98 Y-7.605
X-110.013 Y-7.624
X-110.037 Y-7.654
X-110.047 Y-7.691
X-110.043 Y-7.729
X-109.913 Y-8.151
X-109.896 Y-8.184
X-109.867 Y-8.208
X-109.832 Y-8.221
X-109.692 Y-8.237
X-109.646 Y-8.247
X-109.609 Y-8.254
X-109.535 Y-8.238
X-109.405 Y-8.164
X-109.322 Y-8.039
X-109.297 Y-7.891
Y-7.889
X-109.344 Y-7.772
X-109.435 Y-7.684
X-109.553 Y-7.642
X-109.591 Y-7.646
X-109.625 Y-7.663
X-109.65 Y-7.692
X-109.662 Y-7.728
X-109.719 Y-8.137
X-109.717 Y-8.173
X-109.703 Y-8.206
X-109.678 Y-8.232
X-109.646 Y-8.247
X-109.476 Y-8.286
X-109.439 Y-8.293
X-109.294 Y-8.257
X-109.184 Y-8.154
X-109.117 Y-8.02
X-109.114 Y-7.986
X-109.127 Y-7.874
X-109.18 Y-7.774
X-109.267 Y-7.701
X-109.374 Y-7.666
X-109.411 Y-7.669
X-109.445 Y-7.686
X-109.47 Y-7.714
X-109.483 Y-7.75
X-109.549 Y-8.174
X-109.548 Y-8.21
X-109.534 Y-8.244
X-109.509 Y-8.27
X-109.476 Y-8.286
X-109.438 Y-8.295
X-109.354 Y-8.319
X-109.281 Y-8.337
X-109.207 Y-8.327
X-109.07 Y-8.265
X-108.972 Y-8.152
X-108.924 Y-8.01
Y-7.985
X-108.959 Y-7.852
X-109.05 Y-7.749
X-109.177 Y-7.697
X-109.212 Y-7.698
X-109.244 Y-7.712
X-109.269 Y-7.736
X-109.285 Y-7.767
X-109.416 Y-8.195
X-109.42 Y-8.233
X-109.41 Y-8.27
X-109.387 Y-8.3
X-109.354 Y-8.319
X-109.269 Y-8.345
X-109.223 Y-8.365
X-109.152 Y-8.39
X-109.077 Y-8.391
X-108.932 Y-8.353
X-108.821 Y-8.252
X-108.749 Y-8.12
X-108.743 Y-8.078
X-108.752 Y-7.95
X-108.813 Y-7.837
X-108.917 Y-7.76
X-108.973 Y-7.736
X-108.984 Y-7.732
X-109.1 Y-7.709
X-109.354 Y-7.668
X-109.628 Y-7.632
X-109.727 Y-7.621
X-109.755 Y-7.618
X-109.79 Y-7.622
X-109.821 Y-7.638
X-109.845 Y-7.663
X-109.859 Y-7.694
X-109.861 Y-7.729
X-109.851 Y-7.762
X-109.831 Y-7.79
X-109.793 Y-7.826
X-109.25 Y-8.346
X-109.223 Y-8.365
X-109.184 Y-8.381
X-109.162 Y-8.392
X-109.1 Y-8.433
X-109.037 Y-8.473
X-108.962 Y-8.484
X-108.814 Y-8.463
X-108.688 Y-8.381
X-108.595 Y-8.263
X-108.578 Y-8.214
X-108.565 Y-8.067
X-108.623 Y-7.932
X-108.738 Y-7.841
X-108.772 Y-7.833
X-108.806 Y-7.838
X-108.837 Y-7.854
X-108.86 Y-7.88
X-109.124 Y-8.3
X-109.138 Y-8.334
Y-8.371
X-109.125 Y-8.405
X-109.1 Y-8.433
X-108.969 Y-8.525
X-108.905 Y-8.566
X-108.758 Y-8.595
X-108.615 Y-8.55
X-108.495 Y-8.461
X-108.411 Y-8.336
X-108.396 Y-8.292
X-108.384 Y-8.146
X-108.443 Y-8.012
X-108.557 Y-7.922
X-108.589 Y-7.915
X-108.622 Y-7.918
X-108.652 Y-7.932
X-108.676 Y-7.956
X-108.989 Y-8.387
X-109.005 Y-8.422
X-109.007 Y-8.46
X-108.994 Y-8.497
X-108.969 Y-8.525
X-108.918 Y-8.561
X-108.846 Y-8.616
X-108.814 Y-8.646
X-108.786 Y-8.671
X-108.644 Y-8.72
X-108.497 Y-8.691
X-108.369 Y-8.613
X-108.267 Y-8.503
X-108.201 Y-8.369
X-108.199 Y-8.36
X-108.202 Y-8.242
X-108.249 Y-8.135
X-108.334 Y-8.054
X-108.367 Y-8.041
X-108.402
X-108.435 Y-8.054
X-108.462 Y-8.077
X-108.818 Y-8.515
X-108.835 Y-8.546
X-108.84 Y-8.581
X-108.833 Y-8.616
X-108.814 Y-8.646
X-108.731 Y-8.73
X-108.701 Y-8.761
X-108.647 Y-8.813
X-108.503 Y-8.855
X-108.356 Y-8.827
X-108.223 Y-8.757
X-108.114 Y-8.654
X-108.034 Y-8.527
X-108.027 Y-8.507
X-108.018 Y-8.378
X-108.063 Y-8.258
X-108.154 Y-8.168
X-108.185 Y-8.156
X-108.219 Y-8.155
X-108.25 Y-8.165
X-108.277 Y-8.185
X-108.699 Y-8.626
X-108.719 Y-8.657
X-108.727 Y-8.693
X-108.721 Y-8.73
X-108.701 Y-8.761
X-108.592 Y-8.877
X-108.572 Y-8.899
X-108.547 Y-8.927
X-108.412 Y-8.994
X-108.263 Y-8.987
X-108.122 Y-8.934
X-108 Y-8.846
X-107.9 Y-8.735
X-107.886 Y-8.706
X-107.856 Y-8.594
X-107.872 Y-8.478
X-107.93 Y-8.377
X-108 Y-8.297
X-108.069 Y-8.223
X-108.085 Y-8.212
X-108.466 Y-7.97
X-108.508 Y-7.944
X-108.917 Y-7.76
X-108.956 Y-7.753
X-108.994 Y-7.761
X-109.027 Y-7.784
X-109.048 Y-7.818
X-109.054 Y-7.857
X-109.045 Y-7.896
X-108.907 Y-8.189
X-108.572 Y-8.899
X-108.514 Y-8.984
X-108.484 Y-9.035
X-108.463 Y-9.066
X-108.337 Y-9.147
X-108.187 Y-9.157
X-108.041 Y-9.121
X-107.909 Y-9.051
X-107.794 Y-8.955
X-107.772 Y-8.924
X-107.723 Y-8.808
X-107.726 Y-8.682
X-107.78 Y-8.568
X-107.808 Y-8.545
X-107.842 Y-8.533
X-107.879 Y-8.534
X-107.912 Y-8.549
X-107.919 Y-8.553
X-108.451 Y-8.904
X-108.478 Y-8.929
X-108.493 Y-8.963
X-108.495 Y-9
X-108.484 Y-9.035
X-108.464 Y-9.068
X-108.423 Y-9.142
X-108.418 Y-9.152
X-108.398 Y-9.195
X-108.392 Y-9.205
X-108.368 Y-9.233
X-108.352 Y-9.248
X-108.32 Y-9.259
X-108.286 Y-9.26
X-108.253 Y-9.251
X-108.225 Y-9.231
X-108.202 Y-9.199
X-108.192 Y-9.161
X-108.197 Y-9.122
X-108.215 Y-9.088
X-108.245 Y-9.062
X-108.282 Y-9.049
X-108.322 Y-9.05
X-108.358 Y-9.065
X-108.386 Y-9.093
X-108.402 Y-9.129
X-108.404 Y-9.168
X-108.392 Y-9.205
X-108.384 Y-9.216
X-108.365 Y-9.237
X-108.352 Y-9.248
X-108.338 Y-9.256
X-108.328 Y-9.26
X-108.317 Y-9.263
X-108.307 Y-9.265
X-108.296 Y-9.266
X-108.085
X-107.935 Y-9.258
X-107.792 Y-9.212
X-107.671 Y-9.123
X-107.656 Y-9.103
X-107.599 Y-8.988
X-107.596 Y-8.859
X-107.648 Y-8.74
X-107.673 Y-8.718
X-107.704 Y-8.704
X-107.738 Y-8.703
X-107.771 Y-8.712
X-107.798 Y-8.732
X-108.153 Y-9.096
X-108.174 Y-9.128
X-108.181 Y-9.166
X-108.174 Y-9.203
X-108.153 Y-9.235
X-108.122 Y-9.257
X-108.085 Y-9.266
X-107.746
X-107.7
X-107.662
X-107.626 Y-9.264
X-107.533 Y-9.156
X-107.504 Y-9.016
X-107.55 Y-8.881
X-107.574 Y-8.857
X-107.605 Y-8.842
X-107.639 Y-8.839
X-107.672 Y-8.847
X-107.701 Y-8.866
X-107.721 Y-8.894
X-107.731 Y-8.927
X-107.757 Y-9.154
X-107.756 Y-9.187
X-107.744 Y-9.218
X-107.722 Y-9.243
X-107.694 Y-9.259
X-107.662 Y-9.266
X-107.577
X-107.556
X-107.545 Y-9.265
X-107.521 Y-9.259
X-107.514 Y-9.256
X-107.493 Y-9.237
X-107.483 Y-9.21
X-107.485 Y-9.182
X-107.501 Y-9.155
X-107.528 Y-9.138
X-107.56 Y-9.137
X-107.589 Y-9.15
X-107.608 Y-9.176
X-107.612 Y-9.208
X-107.601 Y-9.237
X-107.576 Y-9.258
X-107.545 Y-9.265
X-107.535 Y-9.263
X-107.524 Y-9.26
X-107.514 Y-9.256
X-107.503 Y-9.25
X-107.492 Y-9.242
X-107.487 Y-9.237
X-107.467 Y-9.216
X-107.459 Y-9.205
X-107.453 Y-9.195
X-107.448 Y-9.184
X-107.445 Y-9.174
X-107.443 Y-9.163
X-107.442 Y-9.152
Y-9.142
X-107.443 Y-9.131
X-107.449 Y-9.11
X-107.5 Y-8.962
X-107.504 Y-8.952
X-107.51 Y-8.941
X-107.577 Y-8.839
X-107.594 Y-8.815
X-107.662 Y-8.722
X-107.916 Y-8.392
X-107.93 Y-8.377
X-107.952 Y-8.359
X-107.978 Y-8.348
X-108.003 Y-8.345 Z-0.987
X-108.03 Y-8.356 Z-0.973
X-108.052 Y-8.365 Z-0.951
X-108.066 Y-8.371 Z-0.922
X-108.071 Y-8.372 Z-0.89
G0 Z2
X-90.928 Y-8.713
Z0.5
G3 X-90.444 Y-8.838 Z0.29 I0.242 J-0.062 F333.3
X-90.928 Y-8.713 Z0.079 I-0.242 J0.062
X-90.444 Y-8.838 Z-0.131 I0.242 J-0.062
X-90.928 Y-8.713 Z-0.342 I-0.242 J0.062
X-90.444 Y-8.838 Z-0.552 I0.242 J-0.062
X-90.928 Y-8.713 Z-0.763 I-0.242 J0.062
X-90.717 Y-9.024 Z-0.876 I0.242 J-0.062
X-90.436 Y-8.776 Z-0.99 I0.031 J0.248
X-90.936 I-0.25
X-90.436 I0.25
G1 X-90.398 Y-8.63 F1000
X-90.411 Y-8.557
X-90.448 Y-8.491
X-90.555 Y-8.386
X-90.7 Y-8.346
X-90.849 Y-8.368
X-90.979 Y-8.442
X-91.076 Y-8.556
X-91.128 Y-8.697
X-91.13 Y-8.847
X-91.082 Y-8.989
X-90.99 Y-9.108
X-90.865 Y-9.189
X-90.719 Y-9.225
X-90.57 Y-9.211
X-90.433 Y-9.149
X-90.324 Y-9.046
X-90.246 Y-8.918
X-90.196 Y-8.776
X-90.185 Y-8.627
X-90.221 Y-8.481
X-90.291 Y-8.349
X-90.4 Y-8.245
X-90.531 Y-8.171
X-90.677 Y-8.138
X-90.827 Y-8.145
X-90.971 Y-8.186
X-91.1 Y-8.262
X-91.207 Y-8.368
X-91.289 Y-8.493
X-91.339 Y-8.635
X-91.353 Y-8.784
X-91.337 Y-8.933
X-91.307 Y-9.016
X-91.294 Y-9.047
X-91.277 Y-9.077
X-91.257 Y-9.105
X-91.249 Y-9.114
X-91.222 Y-9.152
X-91.136 Y-9.275
X-91.013 Y-9.361
X-90.874 Y-9.419
X-90.727 Y-9.446
X-90.577 Y-9.437
X-90.433 Y-9.397
X-90.3 Y-9.326
X-90.282 Y-9.31
X-90.27 Y-9.298
X-90.259 Y-9.285
X-90.219 Y-9.237
X-90.181 Y-9.194
X-90.149 Y-9.158
X-90.144 Y-9.152
X-90.05 Y-9.036
X-90.026 Y-8.979
X-90.013 Y-8.941
X-90.006 Y-8.903
X-90.003 Y-8.863
X-90.011 Y-8.827
X-90.032 Y-8.796
X-90.063 Y-8.775
X-90.099 Y-8.767
X-90.136 Y-8.772
X-90.169 Y-8.791
X-90.192 Y-8.82
X-90.305 Y-9.037
X-90.316 Y-9.071
X-90.314 Y-9.107
X-90.299 Y-9.139
X-90.275 Y-9.165
X-90.242 Y-9.18
X-90.207 Y-9.183
X-90.173 Y-9.173
X-90.144 Y-9.152
X-90.03 Y-9.023
X-90.018 Y-9.003
X-90.008 Y-8.984
X-90.005 Y-8.973
X-90.004 Y-8.962
X-90.003 Y-8.899
Y-8.646
Y-8.599
Y-8.561
X-90.011 Y-8.411
X-90.074 Y-8.276
X-90.101 Y-8.24
X-90.168 Y-8.175
X-90.25 Y-8.134
X-90.341 Y-8.12
X-90.376 Y-8.128
X-90.406 Y-8.147
X-90.427 Y-8.175
X-90.437 Y-8.209
X-90.435 Y-8.245
X-90.42 Y-8.277
X-90.185 Y-8.615
X-90.16 Y-8.64
X-90.128 Y-8.655
X-90.092 Y-8.657
X-90.058 Y-8.647
X-90.03 Y-8.626
X-90.011 Y-8.596
X-90.003 Y-8.561
Y-8.261
X-90.004 Y-8.223
X-90.005 Y-8.213
X-90.012 Y-8.195
X-90.019 Y-8.181
X-90.028 Y-8.168
X-90.052 Y-8.154
X-90.081 Y-8.15
X-90.109 Y-8.158
X-90.133 Y-8.177
X-90.146 Y-8.205
X-90.147 Y-8.236
X-90.134 Y-8.265
X-90.11 Y-8.285
X-90.08 Y-8.293
X-90.05 Y-8.288
X-90.024 Y-8.271
X-90.008 Y-8.244
X-90.005 Y-8.213
X-90.008 Y-8.202
X-90.012 Y-8.192
X-90.018 Y-8.181
X-90.028 Y-8.168
X-90.041 Y-8.156
X-90.065 Y-8.138
X-90.075 Y-8.131
X-90.086 Y-8.127
X-90.096 Y-8.123
X-90.107 Y-8.121
X-90.149 Y-8.12
X-91.042
X-91.192 Y-8.128
X-91.321 Y-8.204
X-91.425 Y-8.312
X-91.504 Y-8.439
X-91.557 Y-8.579
X-91.572 Y-8.666
X-91.567 Y-8.785
X-91.512 Y-8.892
X-91.418 Y-8.965
X-91.389 Y-8.984
X-91.334 Y-9.025
X-91.31 Y-9.045
X-91.287 Y-9.068
X-91.257 Y-9.105
X-91.229 Y-9.129
X-91.194 Y-9.14
X-91.158 Y-9.139
X-91.124 Y-9.125
X-91.098 Y-9.1
X-91.083 Y-9.067
X-91.08 Y-9.031
X-91.099 Y-8.849
X-91.109 Y-8.762
X-91.12 Y-8.726
X-91.143 Y-8.697
X-91.175 Y-8.678
X-91.212 Y-8.672
X-91.249 Y-8.681
X-91.279 Y-8.702
X-91.3 Y-8.733
X-91.308 Y-8.769
G3 X-91.222 Y-9.152 I0.791 J-0.023
G1 X-91.199 Y-9.195
X-91.179 Y-9.237
X-91.164 Y-9.274
X-91.152 Y-9.321
X-91.133 Y-9.394
X-91.051 Y-9.52
X-90.927 Y-9.604
X-90.784 Y-9.651
X-90.733 Y-9.656
X-90.636 Y-9.648
X-90.545 Y-9.61
X-90.472 Y-9.545
X-90.403 Y-9.459
X-90.259 Y-9.285
X-90.241 Y-9.25
X-90.239 Y-9.211
X-90.251 Y-9.175
X-90.276 Y-9.145
X-90.311 Y-9.128
X-90.349 Y-9.124
X-90.444 Y-9.135
X-91.065 Y-9.207
X-91.095 Y-9.216
X-91.122 Y-9.234
X-91.141 Y-9.259
X-91.152 Y-9.289
Y-9.321
X-91.144 Y-9.364
X-91.139 Y-9.406
X-91.14 Y-9.49
Y-9.565
X-91.075 Y-9.7
X-90.959 Y-9.796
X-90.944 Y-9.802
X-90.82 Y-9.821
X-90.698 Y-9.788
X-90.601 Y-9.707
X-90.472 Y-9.545
X-90.456 Y-9.511
X-90.453 Y-9.474
X-90.464 Y-9.438
X-90.487 Y-9.409
X-90.52 Y-9.39
X-90.557 Y-9.385
X-91.045 Y-9.406
X-91.078 Y-9.413
X-91.107 Y-9.431
X-91.129 Y-9.458
X-91.14 Y-9.49
X-91.145 Y-9.533
X-91.153 Y-9.575
X-91.164 Y-9.616
X-91.184 Y-9.688
X-91.168 Y-9.762
X-91.101 Y-9.896
X-90.998 Y-9.941
X-90.885 Y-9.945
X-90.779 Y-9.906
X-90.696 Y-9.83
X-90.629 Y-9.744
X-90.601 Y-9.707
X-90.585 Y-9.674
X-90.582 Y-9.638
X-90.593 Y-9.602
X-90.615 Y-9.573
X-90.647 Y-9.554
X-90.683 Y-9.548
X-91.074 Y-9.555
X-91.112 Y-9.563
X-91.143 Y-9.585
X-91.164 Y-9.616
X-91.181 Y-9.659
X-91.226 Y-9.744
X-91.244 Y-9.777
X-91.251 Y-9.851
X-91.23 Y-9.924
X-91.135 Y-10.014
X-91.009 Y-10.05
X-90.88 Y-10.023
X-90.778 Y-9.94
X-90.763 Y-9.905
X-90.762 Y-9.867
X-90.775 Y-9.831
X-90.8 Y-9.803
X-90.834 Y-9.786
X-91.121 Y-9.708
X-91.16 Y-9.706
X-91.197 Y-9.718
X-91.226 Y-9.744
X-91.249 Y-9.776
X-91.291 Y-9.828
X-91.314 Y-9.858
X-91.325 Y-9.932
X-91.309 Y-10.005
X-91.214 Y-10.102
X-91.084 Y-10.142
X-90.951 Y-10.116
X-90.846 Y-10.031
X-90.696 Y-9.83
X-90.681 Y-9.798
X-90.678 Y-9.763
X-90.688 Y-9.73
X-90.708 Y-9.701
X-90.737 Y-9.682
X-90.77 Y-9.673
X-90.805 Y-9.676
X-91.245 Y-9.8
X-91.27 Y-9.811
X-91.291 Y-9.828
X-91.364 Y-9.913
X-91.387 Y-9.942
X-91.399 Y-10.016
X-91.386 Y-10.09
X-91.289 Y-10.192
X-91.154 Y-10.234
X-91.016 Y-10.206
X-90.909 Y-10.116
X-90.894 Y-10.081
Y-10.043
X-90.907 Y-10.008
X-90.932 Y-9.98
X-90.966 Y-9.964
X-91.264 Y-9.884
X-91.3 Y-9.881
X-91.335 Y-9.891
X-91.364 Y-9.913
X-91.436 Y-9.997
X-91.459 Y-10.027
X-91.474 Y-10.1
X-91.462 Y-10.174
X-91.364 Y-10.281
X-91.227 Y-10.327
X-91.085 Y-10.3
X-90.974 Y-10.207
X-90.959 Y-10.173
Y-10.135
X-90.972 Y-10.1
X-90.996 Y-10.072
X-91.03 Y-10.056
X-91.335 Y-9.969
X-91.372 Y-9.965
X-91.407 Y-9.975
X-91.436 Y-9.997
X-91.503 Y-10.076
X-91.525 Y-10.106
X-91.549 Y-10.178
X-91.54 Y-10.252
X-91.478 Y-10.389
X-91.372 Y-10.44
X-91.255 Y-10.447
X-91.144 Y-10.406
X-91.058 Y-10.326
X-90.884 Y-10.082
X-90.846 Y-10.031
X-90.831 Y-9.998
X-90.829 Y-9.963
X-90.839 Y-9.928
X-90.86 Y-9.9
X-90.89 Y-9.881
X-90.925 Y-9.874
X-90.96 Y-9.879
X-91.461 Y-10.049
X-91.484 Y-10.06
X-91.503 Y-10.076
X-91.578 Y-10.166
X-91.623 Y-10.226
X-91.639 Y-10.299
X-91.632 Y-10.374
X-91.57 Y-10.51
X-91.566 Y-10.514
X-91.457 Y-10.564
X-91.338 Y-10.569
X-91.227 Y-10.526
X-91.141 Y-10.444
X-91.058 Y-10.326
X-91.045 Y-10.295
X-91.042 Y-10.261
X-91.051 Y-10.228
X-91.071 Y-10.2
X-91.099 Y-10.181
X-91.131 Y-10.171
X-91.493 Y-10.133
X-91.524 Y-10.135
X-91.554 Y-10.146
X-91.578 Y-10.166
X-91.672 Y-10.28
X-91.717 Y-10.34
X-91.733 Y-10.413
X-91.728 Y-10.488
X-91.669 Y-10.626
X-91.658 Y-10.634
X-91.55 Y-10.688
X-91.429 Y-10.694
X-91.315 Y-10.652
X-91.227 Y-10.569
X-91.141 Y-10.444
X-91.127 Y-10.413
X-91.125 Y-10.379
X-91.134 Y-10.347
X-91.153 Y-10.319
X-91.181 Y-10.3
X-91.213 Y-10.29
X-91.585 Y-10.246
X-91.617 Y-10.248
X-91.647 Y-10.259
X-91.672 Y-10.28
X-91.786 Y-10.419
X-91.809 Y-10.45
X-91.828 Y-10.522
X-91.826 Y-10.597
X-91.773 Y-10.737
X-91.757 Y-10.752
X-91.646 Y-10.812
X-91.52 Y-10.822
X-91.401 Y-10.779
X-91.311 Y-10.691
X-91.227 Y-10.569
X-91.214 Y-10.537
X-91.212 Y-10.503
X-91.222 Y-10.47
X-91.242 Y-10.442
X-91.271 Y-10.423
X-91.304 Y-10.415
X-91.704 Y-10.386
X-91.734 Y-10.388
X-91.763 Y-10.4
X-91.786 Y-10.419
X-91.876 Y-10.529
X-91.921 Y-10.59
X-91.933 Y-10.664
X-91.922 Y-10.738
X-91.859 Y-10.874
X-91.835 Y-10.892
X-91.725 Y-10.948
X-91.602 Y-10.954
X-91.487 Y-10.91
X-91.399 Y-10.824
X-91.311 Y-10.691
X-91.298 Y-10.66
X-91.297 Y-10.627
X-91.306 Y-10.595
X-91.326 Y-10.567
X-91.353 Y-10.548
X-91.385 Y-10.539
X-91.79 Y-10.496
X-91.822 Y-10.498
X-91.852 Y-10.509
X-91.876 Y-10.529
X-91.963 Y-10.636
X-92.007 Y-10.696
X-92.024 Y-10.769
X-92.021 Y-10.844
X-91.97 Y-10.985
X-91.944 Y-11.009
X-91.833 Y-11.076
X-91.704 Y-11.089
X-91.582 Y-11.047
X-91.488 Y-10.958
X-91.399 Y-10.824
X-91.386 Y-10.787
X-91.387 Y-10.749
X-91.403 Y-10.713
X-91.431 Y-10.687
X-91.467 Y-10.673
X-91.871 Y-10.603
X-91.905
X-91.937 Y-10.614
X-91.963 Y-10.636
X-92.011 Y-10.694
X-92.06 Y-10.757
X-92.103 Y-10.819
X-92.123 Y-10.891
X-92.12 Y-10.966
X-92.07 Y-11.108
X-91.964 Y-11.214
X-91.96 Y-11.215
X-91.822 Y-11.241
X-91.687 Y-11.201
X-91.585 Y-11.103
X-91.488 Y-10.958
X-91.475 Y-10.922
X-91.476 Y-10.884
X-91.491 Y-10.849
X-91.518 Y-10.822
X-91.554 Y-10.807
X-91.963 Y-10.723
X-91.999
X-92.032 Y-10.734
X-92.06 Y-10.757
X-92.18 Y-10.915
X-92.222 Y-10.977
X-92.236 Y-11.126
X-92.179 Y-11.265
X-92.068 Y-11.366
X-92.055 Y-11.371
X-91.916 Y-11.396
X-91.781 Y-11.353
X-91.68 Y-11.254
X-91.668 Y-11.218
X-91.67 Y-11.181
X-91.685 Y-11.147
X-91.711 Y-11.121
X-92.046 Y-10.895
X-92.08 Y-10.88
X-92.117 Y-10.879
