%
(n-071-075)
(T1  D=1 CR=0 - ZMIN=-2 - flat end mill)
G90 G94
G17
G21
G28 G91 Z0
G90

(Clear 17)
M9
T1 M6
S5000 M3
G54
M8
G0 X-114.967 Y-8.713
Z12
Z2
Z0.5
G3 X-114.482 Y-8.837 Z0.29 I0.242 J-0.062 F333.3
X-114.967 Y-8.713 Z0.079 I-0.242 J0.062
X-114.482 Y-8.837 Z-0.131 I0.242 J-0.062
X-114.967 Y-8.713 Z-0.342 I-0.242 J0.062
X-114.482 Y-8.837 Z-0.552 I0.242 J-0.062
X-114.967 Y-8.713 Z-0.763 I-0.242 J0.062
X-114.756 Y-9.023 Z-0.876 I0.242 J-0.062
X-114.475 Y-8.775 Z-0.99 I0.031 J0.248
X-114.975 I-0.25
X-114.475 I0.25
G1 X-114.437 Y-8.63 F1000
X-114.45 Y-8.556
X-114.487 Y-8.491
X-114.594 Y-8.386
X-114.739 Y-8.346
X-114.887 Y-8.367
X-115.018 Y-8.441
X-115.115 Y-8.556
X-115.167 Y-8.696
X-115.169 Y-8.846
X-115.121 Y-8.989
X-115.029 Y-9.107
X-114.903 Y-9.189
X-114.758 Y-9.225
X-114.608 Y-9.211
X-114.472 Y-9.149
X-114.363 Y-9.045
X-114.285 Y-8.917
X-114.235 Y-8.776
X-114.224 Y-8.626
X-114.26 Y-8.48
X-114.33 Y-8.348
X-114.439 Y-8.244
X-114.569 Y-8.171
X-114.716 Y-8.138
X-114.866 Y-8.145
X-115.01 Y-8.186
X-115.139 Y-8.262
X-115.246 Y-8.367
X-115.328 Y-8.493
X-115.378 Y-8.634
X-115.392 Y-8.784
X-115.376 Y-8.933
X-115.346 Y-9.015
X-115.334 Y-9.045
X-115.318 Y-9.073
X-115.3 Y-9.1
X-115.276 Y-9.131
X-115.262 Y-9.152
X-115.18 Y-9.278
X-115.056 Y-9.362
X-114.917 Y-9.42
X-114.77 Y-9.447
X-114.62 Y-9.438
X-114.476 Y-9.398
X-114.343 Y-9.329
X-114.323 Y-9.311
X-114.31 Y-9.298
X-114.299 Y-9.285
X-114.259 Y-9.237
X-114.217 Y-9.19
X-114.199 Y-9.17
X-114.184 Y-9.152
X-114.09 Y-9.035
X-114.066 Y-8.98
X-114.053 Y-8.942
X-114.046 Y-8.903
X-114.043 Y-8.864
X-114.051 Y-8.827
X-114.072 Y-8.796
X-114.103 Y-8.775
X-114.139 Y-8.767
X-114.176 Y-8.773
X-114.208 Y-8.791
X-114.231 Y-8.821
X-114.345 Y-9.037
X-114.355 Y-9.071
X-114.353 Y-9.107
X-114.339 Y-9.139
X-114.314 Y-9.165
X-114.282 Y-9.18
X-114.247 Y-9.183
X-114.212 Y-9.173
X-114.184 Y-9.152
X-114.091 Y-9.049
X-114.064 Y-9.016
X-114.056 Y-9
X-114.049 Y-8.984
X-114.046 Y-8.973
X-114.044 Y-8.962
X-114.043 Y-8.941
Y-8.646
Y-8.599
Y-8.561
X-114.05 Y-8.411
X-114.114 Y-8.275
X-114.14 Y-8.24
X-114.206 Y-8.176
X-114.289 Y-8.134
X-114.38 Y-8.12
X-114.415 Y-8.128
X-114.445 Y-8.147
X-114.466 Y-8.175
X-114.476 Y-8.209
X-114.474 Y-8.245
X-114.459 Y-8.277
X-114.225 Y-8.615
X-114.2 Y-8.64
X-114.168 Y-8.655
X-114.132 Y-8.657
X-114.098 Y-8.647
X-114.07 Y-8.626
X-114.05 Y-8.596
X-114.043 Y-8.561
Y-8.261
Y-8.223
X-114.045 Y-8.213
X-114.051 Y-8.194
X-114.068 Y-8.171
X-114.093 Y-8.158
X-114.122 Y-8.156
X-114.148 Y-8.167
X-114.167 Y-8.188
X-114.175 Y-8.216
X-114.171 Y-8.244
X-114.154 Y-8.267
X-114.153 Y-8.269
X-114.126 Y-8.284
X-114.094
X-114.067 Y-8.27
X-114.049 Y-8.244
X-114.045 Y-8.213
X-114.048 Y-8.203
X-114.052 Y-8.193
X-114.057 Y-8.182
X-114.072 Y-8.162
X-114.08 Y-8.152
X-114.095 Y-8.139
X-114.105 Y-8.132
X-114.115 Y-8.128
X-114.125 Y-8.124
X-114.135 Y-8.122
X-114.146 Y-8.12
X-115.068
X-115.218 Y-8.128
X-115.35 Y-8.2
X-115.457 Y-8.305
X-115.539 Y-8.43
X-115.593 Y-8.57
X-115.608 Y-8.65
X-115.605 Y-8.774
X-115.551 Y-8.887
X-115.456 Y-8.967
X-115.419 Y-8.978
X-115.38 Y-8.973
X-115.347 Y-8.954
X-115.323 Y-8.924
X-115.251 Y-8.785
X-114.983 Y-8.266
X-114.973 Y-8.234
X-114.974 Y-8.201
X-114.986 Y-8.169
X-115.007 Y-8.144
X-115.036 Y-8.127
X-115.068 Y-8.12
X-115.322
X-115.472 Y-8.128
X-115.603 Y-8.201
X-115.706 Y-8.31
X-115.78 Y-8.44
X-115.823 Y-8.584
Y-8.615
X-115.798 Y-8.741
X-115.723 Y-8.845
X-115.61 Y-8.908
X-115.575 Y-8.911
X-115.541 Y-8.902
X-115.513 Y-8.881
X-115.493 Y-8.852
X-115.471 Y-8.801
X-115.234 Y-8.26
X-115.226 Y-8.222
X-115.232 Y-8.184
X-115.253 Y-8.151
X-115.285 Y-8.129
X-115.322 Y-8.12
X-115.576
X-115.726 Y-8.128
X-115.853 Y-8.208
X-115.949 Y-8.323
X-116.011 Y-8.459
X-116.034 Y-8.608
X-116.029 Y-8.641
X-115.977 Y-8.77
X-115.872 Y-8.861
X-115.738 Y-8.896
X-115.699 Y-8.897
X-115.665 Y-8.899
X-115.614 Y-8.907
X-115.53 Y-8.933
X-115.487 Y-8.95
X-115.456 Y-8.967
X-115.42 Y-8.978
X-115.382 Y-8.973
X-115.349 Y-8.956
X-115.324 Y-8.927
X-115.312 Y-8.891
X-115.315 Y-8.853
X-115.32 Y-8.832
X-115.483 Y-8.195
X-115.495 Y-8.166
X-115.517 Y-8.142
X-115.545 Y-8.126
X-115.576 Y-8.12
X-115.83
X-115.905 Y-8.124
X-116.043 Y-8.182
X-116.147 Y-8.291
X-116.215 Y-8.424
X-116.239 Y-8.572
X-116.234 Y-8.625
X-116.184 Y-8.762
X-116.076 Y-8.86
X-115.935 Y-8.895
X-115.783
X-115.738 Y-8.896
X-115.704 Y-8.89
X-115.675 Y-8.872
X-115.653 Y-8.846
X-115.641 Y-8.814
Y-8.78
X-115.735 Y-8.204
X-115.746 Y-8.172
X-115.767 Y-8.145
X-115.796 Y-8.127
X-115.83 Y-8.12
X-116.037
X-116.112 Y-8.124
X-116.252 Y-8.178
X-116.356 Y-8.286
X-116.422 Y-8.421
X-116.444 Y-8.569
X-116.438 Y-8.625
X-116.389 Y-8.762
X-116.281 Y-8.86
X-116.139 Y-8.895
X-115.935
X-115.902 Y-8.888
X-115.873 Y-8.87
X-115.851 Y-8.844
X-115.84 Y-8.812
Y-8.778
X-115.942 Y-8.203
X-115.954 Y-8.171
X-115.975 Y-8.144
X-116.004 Y-8.127
X-116.037 Y-8.12
X-116.253
X-116.328 Y-8.124
X-116.467 Y-8.181
X-116.567 Y-8.292
X-116.63 Y-8.428
X-116.649 Y-8.577
X-116.642 Y-8.63
X-116.592 Y-8.765
X-116.484 Y-8.861
X-116.344 Y-8.895
X-116.139
X-116.106 Y-8.888
X-116.076 Y-8.87
X-116.055 Y-8.843
X-116.044 Y-8.81
X-116.045 Y-8.776
X-116.158 Y-8.201
X-116.17 Y-8.169
X-116.192 Y-8.144
X-116.22 Y-8.127
X-116.253 Y-8.12
X-116.46
X-116.535 Y-8.124
X-116.674 Y-8.181
X-116.774 Y-8.292
X-116.836 Y-8.429
X-116.854 Y-8.578
X-116.848 Y-8.631
X-116.797 Y-8.766
X-116.69 Y-8.861
X-116.55 Y-8.895
X-116.344
X-116.311 Y-8.888
X-116.281 Y-8.87
X-116.26 Y-8.843
X-116.249 Y-8.81
X-116.25 Y-8.775
X-116.366 Y-8.2
X-116.378 Y-8.169
X-116.399 Y-8.144
X-116.428 Y-8.127
X-116.46 Y-8.12
X-116.676
X-116.751 Y-8.124
X-116.887 Y-8.186
X-116.985 Y-8.3
X-117.044 Y-8.438
X-117.06 Y-8.587
X-117.053 Y-8.637
X-117.001 Y-8.768
X-116.894 Y-8.862
X-116.756 Y-8.895
X-116.55
X-116.516 Y-8.888
X-116.487 Y-8.869
X-116.465 Y-8.842
X-116.455 Y-8.809
X-116.456 Y-8.774
X-116.582 Y-8.199
X-116.594 Y-8.168
X-116.615 Y-8.143
X-116.644 Y-8.127
X-116.676 Y-8.12
X-116.883
X-116.958 Y-8.124
X-117.094 Y-8.187
X-117.192 Y-8.301
X-117.251 Y-8.439
X-117.266 Y-8.588
X-117.259 Y-8.637
X-117.207 Y-8.769
X-117.1 Y-8.862
X-116.962 Y-8.895
X-116.756
X-116.722 Y-8.888
X-116.692 Y-8.869
X-116.671 Y-8.842
X-116.66 Y-8.808
X-116.662 Y-8.774
X-116.789 Y-8.198
X-116.801 Y-8.168
X-116.823 Y-8.143
X-116.851 Y-8.127
X-116.883 Y-8.12
X-117.099
X-117.174 Y-8.124
X-117.307 Y-8.192
X-117.402 Y-8.308
X-117.459 Y-8.447
X-117.472 Y-8.596
X-117.465 Y-8.642
X-117.411 Y-8.772
X-117.305 Y-8.862
X-117.169 Y-8.895
X-116.962
X-116.928 Y-8.888
X-116.898 Y-8.869
X-116.877 Y-8.841
X-116.867 Y-8.807
X-116.869 Y-8.772
X-117.005 Y-8.197
X-117.018 Y-8.167
X-117.039 Y-8.143
X-117.067 Y-8.126
X-117.099 Y-8.12
X-117.306
X-117.381 Y-8.124
X-117.514 Y-8.193
X-117.609 Y-8.309
X-117.666 Y-8.447
X-117.679 Y-8.597
X-117.672 Y-8.643
X-117.618 Y-8.772
X-117.512 Y-8.862
X-117.376 Y-8.895
X-117.169
X-117.134 Y-8.888
X-117.105 Y-8.869
X-117.083 Y-8.841
X-117.073 Y-8.807
X-117.075 Y-8.772
X-117.212 Y-8.197
X-117.225 Y-8.167
X-117.246 Y-8.143
X-117.274 Y-8.126
X-117.306 Y-8.12
X-117.522
X-117.597 Y-8.124
X-117.728 Y-8.197
X-117.82 Y-8.316
X-117.875 Y-8.455
X-117.886 Y-8.605
X-117.878 Y-8.647
X-117.823 Y-8.774
X-117.717 Y-8.863
X-117.583 Y-8.895
X-117.376
X-117.341 Y-8.888
X-117.311 Y-8.868
X-117.29 Y-8.84
X-117.28 Y-8.806
X-117.282 Y-8.77
X-117.428 Y-8.195
X-117.441 Y-8.166
X-117.463 Y-8.142
X-117.49 Y-8.126
X-117.522 Y-8.12
X-117.691
X-117.766 Y-8.124
X-117.908 Y-8.174
X-118.01 Y-8.283
X-118.074 Y-8.419
X-118.096 Y-8.567
X-118.079 Y-8.718
X-118.013 Y-8.811
X-117.917 Y-8.873
X-117.805 Y-8.895
X-117.583
X-117.549 Y-8.888
X-117.52 Y-8.87
X-117.499 Y-8.843
X-117.487 Y-8.811
X-117.488 Y-8.777
X-117.596 Y-8.201
X-117.608 Y-8.17
X-117.629 Y-8.144
X-117.658 Y-8.127
X-117.691 Y-8.12
X-117.898
X-117.973 Y-8.124
X-118.115 Y-8.174
X-118.217 Y-8.284
X-118.281 Y-8.42
X-118.31 Y-8.567
X-118.304 Y-8.627
X-118.254 Y-8.763
X-118.146 Y-8.86
X-118.005 Y-8.895
X-117.805
X-117.772 Y-8.888
X-117.743 Y-8.871
X-117.721 Y-8.845
X-117.71 Y-8.813
X-117.709 Y-8.779
X-117.803 Y-8.204
X-117.814 Y-8.172
X-117.836 Y-8.145
X-117.865 Y-8.127
X-117.898 Y-8.12
X-118.114
X-118.189 Y-8.124
X-118.328 Y-8.181
X-118.429 Y-8.292
X-118.493 Y-8.427
X-118.513 Y-8.576
X-118.507 Y-8.629
X-118.457 Y-8.764
X-118.349 Y-8.86
X-118.209 Y-8.895
X-118.005
X-117.972 Y-8.888
X-117.942 Y-8.87
X-117.921 Y-8.843
X-117.91 Y-8.811
Y-8.777
X-118.019 Y-8.201
X-118.031 Y-8.17
X-118.052 Y-8.144
X-118.081 Y-8.127
X-118.114 Y-8.12
X-118.321
X-118.396 Y-8.124
X-118.535 Y-8.18
X-118.636 Y-8.291
X-118.7 Y-8.427
X-118.719 Y-8.576
X-118.713 Y-8.63
X-118.662 Y-8.765
X-118.554 Y-8.86
X-118.415 Y-8.895
X-118.209
X-118.176 Y-8.888
X-118.146 Y-8.87
X-118.125 Y-8.843
X-118.114 Y-8.81
X-118.115 Y-8.776
X-118.227 Y-8.201
X-118.239 Y-8.17
X-118.26 Y-8.144
X-118.289 Y-8.127
X-118.321 Y-8.12
X-118.537
X-118.612 Y-8.124
X-118.749 Y-8.185
X-118.847 Y-8.298
X-118.908 Y-8.435
X-118.924 Y-8.585
X-118.918 Y-8.635
X-118.866 Y-8.768
X-118.758 Y-8.861
X-118.62 Y-8.895
X-118.415
X-118.381 Y-8.888
X-118.351 Y-8.869
X-118.33 Y-8.842
X-118.319 Y-8.809
X-118.32 Y-8.774
X-118.443 Y-8.199
X-118.455 Y-8.168
X-118.476 Y-8.143
X-118.505 Y-8.127
X-118.537 Y-8.12
X-118.744
X-118.819 Y-8.124
X-118.956 Y-8.185
X-119.054 Y-8.299
X-119.114 Y-8.436
X-119.13 Y-8.585
X-119.124 Y-8.636
X-119.071 Y-8.768
X-118.964 Y-8.861
X-118.826 Y-8.895
X-118.62
X-118.586 Y-8.888
X-118.557 Y-8.869
X-118.535 Y-8.842
X-118.525 Y-8.809
X-118.526 Y-8.774
X-118.65 Y-8.199
X-118.662 Y-8.168
X-118.684 Y-8.143
X-118.712 Y-8.127
X-118.744 Y-8.12
X-118.96
X-119.035 Y-8.124
X-119.169 Y-8.191
X-119.265 Y-8.306
X-119.323 Y-8.445
X-119.336 Y-8.594
X-119.329 Y-8.641
X-119.276 Y-8.771
X-119.169 Y-8.862
X-119.033 Y-8.895
X-118.826
X-118.792 Y-8.888
X-118.762 Y-8.869
X-118.741 Y-8.841
X-118.731 Y-8.808
X-118.732 Y-8.772
X-118.866 Y-8.197
X-118.879 Y-8.167
X-118.9 Y-8.143
X-118.928 Y-8.126
X-118.96 Y-8.12
X-119.167
X-119.242 Y-8.124
X-119.376 Y-8.191
X-119.472 Y-8.307
X-119.53 Y-8.445
X-119.543 Y-8.595
X-119.536 Y-8.641
X-119.482 Y-8.771
X-119.376 Y-8.862
X-119.239 Y-8.895
X-119.033
X-118.998 Y-8.888
X-118.969 Y-8.869
X-118.947 Y-8.841
X-118.937 Y-8.807
X-118.939 Y-8.772
X-119.074 Y-8.197
X-119.086 Y-8.167
X-119.107 Y-8.143
X-119.136 Y-8.126
X-119.167 Y-8.12
X-119.383
X-119.458 Y-8.124
X-119.59 Y-8.196
X-119.682 Y-8.314
X-119.738 Y-8.453
X-119.749 Y-8.603
X-119.742 Y-8.646
X-119.687 Y-8.773
X-119.581 Y-8.863
X-119.446 Y-8.895
X-119.239
X-119.205 Y-8.888
X-119.175 Y-8.868
X-119.154 Y-8.84
X-119.143 Y-8.806
X-119.146 Y-8.771
X-119.29 Y-8.196
X-119.302 Y-8.166
X-119.324 Y-8.142
X-119.352 Y-8.126
X-119.383 Y-8.12
X-119.552
X-119.627 Y-8.124
X-119.769 Y-8.172
X-119.873 Y-8.281
X-119.937 Y-8.416
X-119.959 Y-8.565
X-119.943 Y-8.714
X-119.942 Y-8.716
X-119.877 Y-8.81
X-119.78 Y-8.873
X-119.668 Y-8.895
X-119.446
X-119.413 Y-8.888
X-119.384 Y-8.87
X-119.362 Y-8.843
X-119.351 Y-8.811
Y-8.777
X-119.457 Y-8.202
X-119.469 Y-8.17
X-119.491 Y-8.144
X-119.519 Y-8.127
X-119.552 Y-8.12
X-119.806
X-119.881 Y-8.124
X-120.011 Y-8.199
X-120.101 Y-8.318
X-120.154 Y-8.459
X-120.174 Y-8.608
X-120.166 Y-8.649
X-120.111 Y-8.775
X-120.005 Y-8.863
X-119.871 Y-8.895
X-119.668
X-119.633 Y-8.888
X-119.604 Y-8.869
X-119.582 Y-8.841
X-119.572 Y-8.807
X-119.574 Y-8.772
X-119.712 Y-8.197
X-119.725 Y-8.167
X-119.746 Y-8.143
X-119.774 Y-8.126
X-119.806 Y-8.12
X-119.975
X-120.05 Y-8.124
X-120.191 Y-8.176
X-120.292 Y-8.287
X-120.358 Y-8.421
X-120.382 Y-8.57
X-120.375 Y-8.628
X-120.325 Y-8.763
X-120.218 Y-8.86
X-120.077 Y-8.895
X-119.871
X-119.838 Y-8.888
X-119.809 Y-8.87
X-119.787 Y-8.844
X-119.776 Y-8.811
Y-8.777
X-119.88 Y-8.202
X-119.892 Y-8.17
X-119.913 Y-8.144
X-119.942 Y-8.127
X-119.975 Y-8.12
X-120.183
X-120.229
X-120.267
X-120.294 Y-8.122
X-120.301 Y-8.126
X-120.382 Y-8.192
X-120.436 Y-8.281
X-120.456 Y-8.383
G3 X-120.139 Y-8.541 I0.2 J0.004
X-120.267 Y-8.12 I-0.137 J0.188
G1 X-120.352 Y-8.121
X-120.363 Y-8.123
X-120.374 Y-8.127
X-120.385 Y-8.132
X-120.396 Y-8.139
X-120.416 Y-8.156
X-120.428 Y-8.167
X-120.436 Y-8.178
X-120.443 Y-8.19
X-120.448 Y-8.201
X-120.451 Y-8.212
X-120.453 Y-8.223
X-120.46 Y-8.692
X-120.461 Y-8.73
X-120.462 Y-8.772
X-120.459 Y-8.801
X-120.455 Y-8.817
X-120.449 Y-8.832
X-120.421 Y-8.858
X-120.385 Y-8.871
X-120.347 Y-8.87
X-120.312 Y-8.855
X-120.286 Y-8.827
X-120.273 Y-8.791
X-120.275 Y-8.753
X-120.291 Y-8.719
X-120.321 Y-8.694
X-120.357 Y-8.682
X-120.395 Y-8.686
X-120.429 Y-8.705
X-120.452 Y-8.735
X-120.462 Y-8.772
X-120.461 Y-8.793
X-120.46 Y-8.804
X-120.457 Y-8.815
X-120.449 Y-8.832
X-120.436 Y-8.85
X-120.426 Y-8.86
X-120.394 Y-8.882
X-120.384 Y-8.887
X-120.373 Y-8.891
X-120.362 Y-8.893
X-120.352 Y-8.895
X-120.077
X-120.051 Y-8.892
X-120.027 Y-8.882
X-120.009 Y-8.873
X-119.989 Y-8.869
X-119.301 Y-8.786
X-115.658 Y-8.349
X-115.623 Y-8.351
X-115.591 Y-8.365
X-115.565 Y-8.39
X-115.55 Y-8.422
G3 X-115.262 Y-9.152 I3.516 J0.963
G1 X-115.238 Y-9.195
X-115.219 Y-9.237
X-115.191 Y-9.324
X-115.172 Y-9.396
X-115.09 Y-9.522
X-114.966 Y-9.606
X-114.823 Y-9.652
X-114.774 Y-9.656
X-114.677 Y-9.649
X-114.587 Y-9.611
X-114.514 Y-9.547
X-114.299 Y-9.285
X-114.281 Y-9.25
X-114.279 Y-9.212
X-114.291 Y-9.175
X-114.316 Y-9.145
X-114.351 Y-9.128
X-114.39 Y-9.125
X-114.483 Y-9.136
X-115.104 Y-9.21
X-115.142 Y-9.222
X-115.172 Y-9.248
X-115.189 Y-9.284
X-115.191 Y-9.324
X-115.184 Y-9.365
X-115.179 Y-9.406
X-115.18 Y-9.49
Y-9.565
X-115.116 Y-9.701
X-115 Y-9.797
X-114.986 Y-9.802
X-114.862 Y-9.822
X-114.741 Y-9.789
X-114.644 Y-9.709
X-114.514 Y-9.547
X-114.498 Y-9.513
X-114.495 Y-9.476
X-114.506 Y-9.44
X-114.53 Y-9.411
X-114.562 Y-9.393
X-114.599 Y-9.387
X-115.086 Y-9.409
X-115.118 Y-9.416
X-115.147 Y-9.433
X-115.168 Y-9.459
X-115.18 Y-9.49
X-115.192 Y-9.575
X-115.205 Y-9.617
X-115.227 Y-9.689
X-115.211 Y-9.762
X-115.144 Y-9.896
X-115.04 Y-9.942
X-114.926 Y-9.945
X-114.82 Y-9.906
X-114.736 Y-9.83
X-114.671 Y-9.744
X-114.644 Y-9.709
X-114.628 Y-9.676
X-114.625 Y-9.639
X-114.635 Y-9.604
X-114.658 Y-9.575
X-114.689 Y-9.556
X-114.726 Y-9.55
X-115.115 Y-9.556
X-115.152 Y-9.564
X-115.184 Y-9.585
X-115.205 Y-9.617
X-115.221 Y-9.659
X-115.241 Y-9.701
X-115.265 Y-9.744
X-115.284 Y-9.776
X-115.292 Y-9.851
X-115.272 Y-9.923
X-115.177 Y-10.014
X-115.05 Y-10.051
X-114.921 Y-10.024
X-114.818 Y-9.94
X-114.803 Y-9.906
X-114.802 Y-9.868
X-114.815 Y-9.832
X-114.84 Y-9.804
X-114.874 Y-9.787
X-115.159 Y-9.708
X-115.199 Y-9.705
X-115.236 Y-9.718
X-115.265 Y-9.744
X-115.276 Y-9.758
X-115.331 Y-9.828
X-115.354 Y-9.858
X-115.366 Y-9.932
X-115.35 Y-10.005
X-115.255 Y-10.102
X-115.125 Y-10.143
X-114.992 Y-10.117
X-114.886 Y-10.031
X-114.736 Y-9.83
X-114.721 Y-9.798
X-114.718 Y-9.763
X-114.727 Y-9.73
X-114.748 Y-9.701
X-114.776 Y-9.682
X-114.81 Y-9.673
X-114.845 Y-9.676
X-115.284 Y-9.799
X-115.31 Y-9.811
X-115.331 Y-9.828
X-115.403 Y-9.913
X-115.426 Y-9.942
X-115.44 Y-10.016
X-115.426 Y-10.09
X-115.329 Y-10.192
X-115.195 Y-10.235
X-115.057 Y-10.207
X-114.949 Y-10.117
X-114.935 Y-10.082
X-114.934 Y-10.044
X-114.947 Y-10.009
X-114.973 Y-9.981
X-115.006 Y-9.965
X-115.304 Y-9.884
X-115.34 Y-9.881
X-115.374 Y-9.891
X-115.403 Y-9.913
X-115.476 Y-9.997
X-115.499 Y-10.027
X-115.514 Y-10.1
X-115.503 Y-10.174
X-115.405 Y-10.281
X-115.267 Y-10.327
X-115.125 Y-10.3
X-115.014 Y-10.207
X-114.999 Y-10.173
Y-10.135
X-115.012 Y-10.1
X-115.037 Y-10.073
X-115.07 Y-10.056
X-115.375 Y-9.969
X-115.411 Y-9.965
X-115.447 Y-9.975
X-115.476 Y-9.997
X-115.549 Y-10.082
X-115.572 Y-10.111
X-115.589 Y-10.184
X-115.579 Y-10.258
X-115.513 Y-10.393
X-115.408 Y-10.443
X-115.292 Y-10.448
X-115.184 Y-10.407
X-115.1 Y-10.328
X-114.924 Y-10.082
X-114.886 Y-10.031
X-114.872 Y-9.999
X-114.869 Y-9.963
X-114.879 Y-9.929
X-114.901 Y-9.9
X-114.931 Y-9.881
X-114.966 Y-9.874
X-115.001 Y-9.88
X-115.508 Y-10.055
X-115.53 Y-10.066
X-115.549 Y-10.082
X-115.621 Y-10.166
X-115.667 Y-10.225
X-115.681 Y-10.299
X-115.674 Y-10.374
X-115.612 Y-10.51
X-115.608 Y-10.513
X-115.501 Y-10.564
X-115.382 Y-10.569
X-115.27 Y-10.528
X-115.184 Y-10.446
X-115.1 Y-10.328
X-115.086 Y-10.297
X-115.084 Y-10.263
X-115.093 Y-10.23
X-115.112 Y-10.202
X-115.14 Y-10.183
X-115.172 Y-10.174
X-115.537 Y-10.134
X-115.568 Y-10.136
X-115.597 Y-10.147
X-115.621 Y-10.166
X-115.718 Y-10.281
X-115.763 Y-10.341
X-115.778 Y-10.414
X-115.772 Y-10.489
X-115.712 Y-10.626
X-115.7 Y-10.636
X-115.591 Y-10.689
X-115.469 Y-10.695
X-115.355 Y-10.652
X-115.268 Y-10.567
X-115.224 Y-10.504
X-115.184 Y-10.446
X-115.17 Y-10.416
X-115.168 Y-10.382
X-115.177 Y-10.349
X-115.196 Y-10.322
X-115.223 Y-10.302
X-115.255 Y-10.292
X-115.632 Y-10.248
X-115.664 Y-10.249
X-115.694 Y-10.26
X-115.718 Y-10.281
X-115.811 Y-10.392
X-115.856 Y-10.452
X-115.873 Y-10.525
X-115.87 Y-10.6
X-115.815 Y-10.74
X-115.797 Y-10.755
X-115.686 Y-10.815
X-115.561 Y-10.825
X-115.443 Y-10.781
X-115.352 Y-10.694
X-115.268 Y-10.567
X-115.253 Y-10.53
X-115.255 Y-10.491
X-115.271 Y-10.455
X-115.301 Y-10.428
X-115.338 Y-10.415
X-115.722 Y-10.36
X-115.754
X-115.785 Y-10.372
X-115.811 Y-10.392
X-115.903 Y-10.504
X-115.93 Y-10.538
X-115.974 Y-10.6
X-115.981 Y-10.674
X-115.952 Y-10.821
X-115.855 Y-10.936
X-115.84 Y-10.943
X-115.699 Y-10.977
X-115.559 Y-10.941
X-115.452 Y-10.843
X-115.352 Y-10.694
X-115.34 Y-10.662
X-115.338 Y-10.629
X-115.348 Y-10.597
X-115.368 Y-10.569
X-115.396 Y-10.55
X-115.428 Y-10.542
X-115.845 Y-10.504
X-115.877 Y-10.506
X-115.906 Y-10.518
X-115.93 Y-10.538
X-116.034 Y-10.673
X-116.056 Y-10.704
X-116.076 Y-10.776
X-116.067 Y-10.925
X-115.987 Y-11.052
X-115.966 Y-11.067
X-115.857 Y-11.113
X-115.738 Y-11.114
X-115.628 Y-11.068
X-115.545 Y-10.984
X-115.452 Y-10.843
X-115.438 Y-10.806
X-115.44 Y-10.767
X-115.457 Y-10.731
X-115.487 Y-10.704
X-115.525 Y-10.692
X-115.945 Y-10.637
X-115.978 Y-10.639
X-116.009 Y-10.651
X-116.034 Y-10.673
X-116.122 Y-10.786
X-116.165 Y-10.848
X-116.179 Y-10.921
X-116.175 Y-10.996
X-116.13 Y-11.139
X-116.024 Y-11.245
X-116.016 Y-11.249
X-115.879 Y-11.273
X-115.747 Y-11.233
X-115.646 Y-11.138
X-115.633 Y-11.104
Y-11.067
X-115.647 Y-11.033
X-115.671 Y-11.006
X-115.985 Y-10.77
X-116.019 Y-10.753
X-116.056 Y-10.75
X-116.093 Y-10.762
X-116.122 Y-10.786
X-116.23 Y-10.926
X-116.272 Y-10.989
X-116.286 Y-11.062
X-116.27 Y-11.211
X-116.195 Y-11.341
X-116.163 Y-11.364
X-116.051 Y-11.413
X-115.93
X-115.818 Y-11.365
X-115.734 Y-11.277
X-115.673 Y-11.18
X-115.545 Y-10.984
X-115.532 Y-10.949
X-115.533 Y-10.912
X-115.546 Y-10.878
X-115.572 Y-10.851
X-115.605 Y-10.835
X-115.642 Y-10.833
X-116.164 Y-10.891
X-116.201 Y-10.902
X-116.23 Y-10.926
X-116.355 Y-11.095
X-116.393 Y-11.16
X-116.402 Y-11.309
X-116.339 Y-11.445
X-116.229 Y-11.548
X-116.207 Y-11.558
X-116.068 Y-11.581
X-115.934 Y-11.538
X-115.834 Y-11.439
X-115.734 Y-11.277
X-115.722 Y-11.24
X-115.724 Y-11.202
X-115.741 Y-11.167
X-115.769 Y-11.141
X-115.806 Y-11.128
X-116.261 Y-11.058
X-116.296 Y-11.059
X-116.329 Y-11.072
X-116.355 Y-11.095
X-116.46 Y-11.254
X-116.498 Y-11.318
X-116.507 Y-11.468
X-116.445 Y-11.605
X-116.333 Y-11.705
X-116.311 Y-11.715
X-116.17 Y-11.741
X-116.034 Y-11.699
X-115.932 Y-11.599
X-115.834 Y-11.439
X-115.822 Y-11.403
X-115.824 Y-11.364
X-115.84 Y-11.33
X-115.868 Y-11.304
X-115.904 Y-11.291
X-116.362 Y-11.214
X-116.399
X-116.433 Y-11.228
X-116.46 Y-11.254
X-116.564 Y-11.41
X-116.602 Y-11.474
X-116.614 Y-11.624
X-116.552 Y-11.76
X-116.441 Y-11.861
X-116.414 Y-11.874
X-116.271 Y-11.902
X-116.133 Y-11.86
X-116.029 Y-11.758
X-115.932 Y-11.599
X-115.92 Y-11.562
X-115.922 Y-11.525
X-115.938 Y-11.49
X-115.966 Y-11.464
X-116.002 Y-11.451
X-116.465 Y-11.369
X-116.502 Y-11.37
X-116.537 Y-11.384
X-116.564 Y-11.41
X-116.674 Y-11.575
X-116.712 Y-11.64
X-116.717 Y-11.79
X-116.652 Y-11.925
X-116.539 Y-12.024
X-116.502 Y-12.042
X-116.393 Y-12.069
X-116.281 Y-12.054
X-116.183 Y-11.998
X-116.112 Y-11.91
X-116.037 Y-11.771
X-116.029 Y-11.758
X-116.017 Y-11.722
X-116.02 Y-11.684
X-116.037 Y-11.649
X-116.065 Y-11.624
X-116.101 Y-11.611
X-116.577 Y-11.535
X-116.613 Y-11.536
X-116.647 Y-11.55
X-116.674 Y-11.575
X-116.747 Y-11.686
X-116.762 Y-11.711
X-116.799 Y-11.777
X-116.812 Y-11.851
X-116.791 Y-11.999
X-116.711 Y-12.126
X-116.592 Y-12.217
X-116.562 Y-12.227
X-116.424 Y-12.238
X-116.296 Y-12.187
X-116.204 Y-12.083
X-116.194 Y-12.049
X-116.197 Y-12.014
X-116.212 Y-11.982
X-116.236 Y-11.957
X-116.622 Y-11.686
X-116.658 Y-11.67
X-116.698 Y-11.669
X-116.734 Y-11.684
X-116.762 Y-11.711
X-116.8 Y-11.771
X-116.869 Y-11.884
X-116.905 Y-11.949
X-116.914 Y-12.099
X-116.854 Y-12.237
X-116.753 Y-12.347
X-116.62 Y-12.417
X-116.612 Y-12.419
X-116.489 Y-12.413
X-116.379 Y-12.358
X-116.3 Y-12.264
X-116.112 Y-11.91
X-116.102 Y-11.876
X-116.105 Y-11.841
X-116.12 Y-11.808
X-116.146 Y-11.784
X-116.178 Y-11.769
X-116.214 Y-11.767
X-116.798 Y-11.839
X-116.826 Y-11.847
X-116.85 Y-11.862
X-116.869 Y-11.884
X-116.968 Y-12.045
X-117.004 Y-12.111
X-117.018 Y-12.26
X-116.963 Y-12.4
X-116.865 Y-12.513
X-116.735 Y-12.589
X-116.725 Y-12.591
X-116.592 Y-12.592
X-116.472 Y-12.536
X-116.388 Y-12.433
X-116.353 Y-12.362
X-116.3 Y-12.264
X-116.291 Y-12.229
X-116.294 Y-12.194
X-116.309 Y-12.162
X-116.334 Y-12.137
X-116.367 Y-12.122
X-116.861 Y-12.003
X-116.891 Y-12
X-116.921 Y-12.007
X-116.947 Y-12.022
X-116.968 Y-12.045
X-117.074 Y-12.219
X-117.108 Y-12.285
X-117.119 Y-12.435
X-117.063 Y-12.574
X-116.966 Y-12.689
X-116.837 Y-12.764
X-116.817 Y-12.769
X-116.683 Y-12.771
X-116.561 Y-12.715
X-116.476 Y-12.611
X-116.388 Y-12.433
X-116.379 Y-12.399
X-116.383 Y-12.364
X-116.398 Y-12.332
X-116.424 Y-12.308
X-116.456 Y-12.294
X-116.967 Y-12.175
X-116.997 Y-12.173
X-117.027 Y-12.18
X-117.053 Y-12.196
X-117.074 Y-12.219
X-117.108 Y-12.278
X-117.17 Y-12.388
X-117.204 Y-12.455
X-117.22 Y-12.604
X-117.167 Y-12.744
X-117.072 Y-12.86
X-116.943 Y-12.938
X-116.914 Y-12.947
X-116.776 Y-12.952
X-116.65 Y-12.896
X-116.563 Y-12.789
X-116.555 Y-12.756
X-116.558 Y-12.722
X-116.572 Y-12.692
X-116.596 Y-12.667
X-117.026 Y-12.358
X-117.056 Y-12.344
X-117.088 Y-12.34
X-117.12 Y-12.346
X-117.149 Y-12.363
X-117.17 Y-12.388
X-117.222 Y-12.479
X-117.25 Y-12.531
X-117.279 Y-12.589
X-117.31 Y-12.657
X-117.309 Y-12.807
X-117.246 Y-12.944
X-117.146 Y-13.055
X-117.014 Y-13.127
X-116.988 Y-13.133
X-116.852
X-116.73 Y-13.072
X-116.647 Y-12.964
X-116.629 Y-12.925
X-116.476 Y-12.611
X-116.468 Y-12.577
X-116.471 Y-12.542
X-116.486 Y-12.511
X-116.511 Y-12.486
X-116.543 Y-12.472
X-116.578 Y-12.47
X-117.203 Y-12.538
X-117.233 Y-12.547
X-117.26 Y-12.564
X-117.279 Y-12.589
X-117.36 Y-12.746
X-117.39 Y-12.815
X-117.409 Y-12.964
X-117.356 Y-13.104
X-117.26 Y-13.219
X-117.133 Y-13.299
X-117.09 Y-13.312
X-116.945 Y-13.319
X-116.814 Y-13.258
X-116.727 Y-13.143
X-116.721 Y-13.11
X-116.725 Y-13.077
X-116.74 Y-13.047
X-116.764 Y-13.024
X-117.215 Y-12.713
X-117.246 Y-12.699
X-117.279 Y-12.695
X-117.311 Y-12.703
X-117.339 Y-12.72
X-117.36 Y-12.746
X-117.465 Y-12.953
X-117.496 Y-13.022
X-117.495 Y-13.172
X-117.431 Y-13.307
X-117.329 Y-13.418
X-117.198 Y-13.491
X-117.155 Y-13.502
X-117.012 Y-13.504
X-116.885 Y-13.44
X-116.802 Y-13.324
X-116.796 Y-13.29
X-116.802 Y-13.256
X-116.819 Y-13.226
X-116.845 Y-13.204
X-117.326 Y-12.916
X-117.356 Y-12.904
X-117.388 Y-12.902
X-117.419 Y-12.911
X-117.445 Y-12.928
X-117.465 Y-12.953
X-117.551 Y-13.122
X-117.582 Y-13.191
X-117.59 Y-13.341
X-117.532 Y-13.479
X-117.433 Y-13.592
X-117.306 Y-13.671
X-117.162 Y-13.715
X-117.157
X-117.043 Y-13.69
X-116.947 Y-13.624
X-116.884 Y-13.527
X-116.755 Y-13.207
X-116.714 Y-13.112
X-116.647 Y-12.964
X-116.64 Y-12.927
X-116.646 Y-12.89
X-116.667 Y-12.858
X-116.697 Y-12.836
X-116.734 Y-12.826
X-116.772 Y-12.832
X-116.822 Y-12.848
X-117.496 Y-13.076
X-117.528 Y-13.094
X-117.551 Y-13.122
X-117.638 Y-13.291
X-117.668 Y-13.36
X-117.687 Y-13.509
X-117.634 Y-13.649
X-117.539 Y-13.765
X-117.419 Y-13.854
X-117.279 Y-13.908
X-117.265 Y-13.909
X-117.137 Y-13.892
X-117.028 Y-13.823
X-116.958 Y-13.715
X-116.884 Y-13.527
X-116.878 Y-13.494
X-116.883 Y-13.462
X-116.898 Y-13.432
X-116.922 Y-13.41
X-116.952 Y-13.396
X-117.524 Y-13.243
X-117.557 Y-13.24
X-117.589 Y-13.248
X-117.617 Y-13.265
X-117.638 Y-13.291
X-117.729 Y-13.471
X-117.76 Y-13.539
X-117.78 Y-13.688
X-117.728 Y-13.829
X-117.638 Y-13.949
X-117.521 Y-14.043
X-117.382 Y-14.1
X-117.35 Y-14.104
X-117.216 Y-14.091
X-117.102 Y-14.021
X-117.029 Y-13.909
X-116.958 Y-13.715
X-116.953 Y-13.683
X-116.959 Y-13.651
X-116.974 Y-13.623
X-116.997 Y-13.601
X-117.026 Y-13.587
X-117.615 Y-13.423
X-117.648 Y-13.42
X-117.68 Y-13.427
X-117.708 Y-13.445
X-117.729 Y-13.471
X-117.814 Y-13.637
X-117.833 Y-13.679
X-117.86 Y-13.749
X-117.865 Y-13.899
X-117.808 Y-14.038
X-117.714 Y-14.154
X-117.595 Y-14.245
X-117.455 Y-14.299
X-117.419 Y-14.303
X-117.286 Y-14.289
X-117.173 Y-14.22
X-117.101 Y-14.108
X-117.029 Y-13.909
X-117.024 Y-13.876
X-117.03 Y-13.844
X-117.046 Y-13.816
X-117.07 Y-13.794
X-117.1 Y-13.781
X-117.719 Y-13.626
X-117.753 Y-13.624
X-117.785 Y-13.633
X-117.813 Y-13.652
X-117.833 Y-13.679
X-117.924 Y-13.883
X-117.949 Y-13.953
Y-14.103
X-117.889 Y-14.241
X-117.794 Y-14.356
X-117.673 Y-14.446
X-117.533 Y-14.499
X-117.494 Y-14.504
X-117.359 Y-14.49
X-117.244 Y-14.419
X-117.172 Y-14.305
X-117.101 Y-14.108
X-117.096 Y-14.075
X-117.102 Y-14.043
X-117.118 Y-14.014
X-117.143 Y-13.992
X-117.173 Y-13.979
X-117.178 Y-13.978
X-117.811 Y-13.829
X-117.845 Y-13.827
X-117.877 Y-13.836
X-117.904 Y-13.855
X-117.924 Y-13.883
X-117.983 Y-14.025
X-118.004 Y-14.077
X-118.029 Y-14.148
X-118.032 Y-14.298
X-117.974 Y-14.436
X-117.879 Y-14.552
X-117.76 Y-14.643
X-117.62 Y-14.698
X-117.562 Y-14.707
X-117.421 Y-14.694
X-117.302 Y-14.618
X-117.23 Y-14.497
X-117.183 Y-14.343
X-117.172 Y-14.305
X-117.169 Y-14.265
X-117.182 Y-14.228
X-117.208 Y-14.198
X-117.244 Y-14.181
X-117.262 Y-14.177
X-117.888 Y-14.021
X-117.923 Y-14.018
X-117.956 Y-14.028
X-117.985 Y-14.048
X-118.004 Y-14.077
X-118.083 Y-14.273
X-118.108 Y-14.344
X-118.115 Y-14.494
X-118.057 Y-14.632
X-117.963 Y-14.749
X-117.845 Y-14.841
X-117.707 Y-14.899
X-117.559 Y-14.926
X-117.547 Y-14.924
X-117.438 Y-14.889
X-117.35 Y-14.815
X-117.296 Y-14.713
X-117.293 Y-14.682
X-117.3 Y-14.651
X-117.316 Y-14.623
X-117.34 Y-14.603
X-117.418 Y-14.554
X-117.939 Y-14.229
X-117.971 Y-14.216
X-118.005 Y-14.215
X-118.037 Y-14.224
X-118.064 Y-14.245
X-118.083 Y-14.273
X-118.165 Y-14.474
X-118.19 Y-14.545
X-118.196 Y-14.694
X-118.138 Y-14.833
X-118.044 Y-14.95
X-117.926 Y-15.042
X-117.791 Y-15.108
X-117.644 Y-15.138
X-117.63
X-117.51 Y-15.106
X-117.414 Y-15.029
X-117.356 Y-14.919
X-117.354 Y-14.888
X-117.361 Y-14.857
X-117.377 Y-14.831
X-117.401 Y-14.81
X-117.497 Y-14.751
X-118.021 Y-14.429
X-118.053 Y-14.417
X-118.086 Y-14.415
X-118.119 Y-14.425
X-118.146 Y-14.446
X-118.165 Y-14.474
X-118.254 Y-14.693
X-118.278 Y-14.764
X-118.273 Y-14.914
X-118.21 Y-15.05
X-118.113 Y-15.165
X-117.994 Y-15.256
X-117.86 Y-15.322
X-117.713 Y-15.351
X-117.691 Y-15.35
X-117.57 Y-15.319
X-117.473 Y-15.241
X-117.415 Y-15.13
X-117.413 Y-15.099
X-117.421 Y-15.068
X-117.438 Y-15.041
X-117.463 Y-15.02
X-117.577 Y-14.955
X-118.113 Y-14.647
X-118.144 Y-14.636
X-118.177 Y-14.635
X-118.209 Y-14.645
X-118.235 Y-14.665
X-118.254 Y-14.693
X-118.336 Y-14.896
X-118.361 Y-14.967
X-118.354 Y-15.117
X-118.292 Y-15.253
X-118.196 Y-15.369
X-118.079 Y-15.463
X-117.946 Y-15.531
X-117.799 Y-15.564
X-117.761
X-117.635 Y-15.536
X-117.532 Y-15.457
X-117.473 Y-15.342
X-117.47 Y-15.31
X-117.478 Y-15.279
X-117.496 Y-15.253
X-117.521 Y-15.233
X-117.657 Y-15.155
X-118.196 Y-14.85
X-118.227 Y-14.839
X-118.26 Y-14.838
X-118.291 Y-14.848
X-118.318 Y-14.868
X-118.336 Y-14.896
X-118.404 Y-15.065
X-118.418 Y-15.114
X-118.451 Y-15.26
X-118.408 Y-15.404
X-118.327 Y-15.53
X-118.219 Y-15.634
X-118.091 Y-15.714
X-117.951 Y-15.767
X-117.802 Y-15.786
X-117.782 Y-15.783
X-117.669 Y-15.745
X-117.58 Y-15.667
X-117.529 Y-15.56
X-117.475 Y-15.353
X-117.397 Y-15.065
X-117.326 Y-14.812
X-117.23 Y-14.497
X-117.228 Y-14.462
X-117.236 Y-14.429
X-117.256 Y-14.401
X-117.284 Y-14.381
X-117.317 Y-14.372
X-117.352 Y-14.374
X-117.383 Y-14.388
X-117.784 Y-14.659
X-118.379 Y-15.061
X-118.403 Y-15.084
X-118.418 Y-15.114
X-118.475 Y-15.318
X-118.483 Y-15.352
X-118.514 Y-15.499
X-118.468 Y-15.642
X-118.381 Y-15.764
X-118.269 Y-15.864
X-118.14 Y-15.94
X-117.999 Y-15.991
X-117.85 Y-16.007
X-117.835 Y-16.005
X-117.722 Y-15.966
X-117.633 Y-15.885
X-117.582 Y-15.776
X-117.554 Y-15.656
X-117.529 Y-15.56
X-117.528 Y-15.521
X-117.543 Y-15.484
X-117.57 Y-15.456
X-117.606 Y-15.441
X-117.744 Y-15.412
X-118.367 Y-15.282
X-118.404
X-118.439 Y-15.295
X-118.467 Y-15.319
X-118.483 Y-15.352
X-118.496 Y-15.403
X-118.547 Y-15.618
X-118.56 Y-15.692
X-118.53 Y-15.839
X-118.451 Y-15.966
X-118.343 Y-16.07
X-118.217 Y-16.152
X-118.077 Y-16.207
X-117.968 Y-16.223
X-117.822 Y-16.207
X-117.7 Y-16.124
X-117.633 Y-15.993
X-117.582 Y-15.776
X-117.581 Y-15.744
X-117.59 Y-15.713
X-117.609 Y-15.686
X-117.635 Y-15.667
X-117.666 Y-15.657
X-117.802 Y-15.638
X-118.436 Y-15.546
X-118.472 Y-15.547
X-118.505 Y-15.561
X-118.531 Y-15.586
X-118.547 Y-15.618
X-118.596 Y-15.825
X-118.609 Y-15.899
X-118.587 Y-16.047
X-118.512 Y-16.177
X-118.407 Y-16.284
X-118.282 Y-16.367
X-118.142 Y-16.422
X-117.994 Y-16.448
X-117.948 Y-16.444
X-117.828 Y-16.407
X-117.734 Y-16.324
X-117.681 Y-16.21
X-117.633 Y-15.993
X-117.632 Y-15.961
X-117.641 Y-15.931
X-117.659 Y-15.905
X-117.685 Y-15.885
X-117.715 Y-15.875
X-117.852 Y-15.854
X-118.483 Y-15.753
X-118.52 Y-15.754
X-118.553 Y-15.768
X-118.58 Y-15.792
X-118.596 Y-15.825
X-118.646 Y-16.041
X-118.66 Y-16.114
X-118.642 Y-16.263
X-118.569 Y-16.394
X-118.464 Y-16.501
X-118.338 Y-16.584
X-118.201 Y-16.643
X-118.053 Y-16.668
X-118.003 Y-16.665
X-117.876 Y-16.629
X-117.776 Y-16.543
X-117.724 Y-16.422
X-117.69 Y-16.248
X-117.681 Y-16.21
X-117.682 Y-16.17
X-117.698 Y-16.134
X-117.727 Y-16.107
X-117.764 Y-16.093
X-117.903 Y-16.07
X-118.534 Y-15.968
X-118.57 Y-15.969
X-118.604 Y-15.983
X-118.631 Y-16.008
X-118.646 Y-16.041
X-118.706 Y-16.294
X-118.72 Y-16.368
X-118.686 Y-16.514
X-118.605 Y-16.64
X-118.495 Y-16.742
X-118.366 Y-16.819
X-118.226 Y-16.871
X-118.077 Y-16.89
X-118.034 Y-16.886
X-117.911 Y-16.847
X-117.816 Y-16.761
X-117.766 Y-16.642
Y-16.609
X-117.777 Y-16.578
X-117.798 Y-16.553
X-117.826 Y-16.535
X-118.002 Y-16.463
X-118.572 Y-16.228
X-118.605 Y-16.22
X-118.638 Y-16.224
X-118.668 Y-16.239
X-118.692 Y-16.263
X-118.706 Y-16.294
X-118.744 Y-16.456
X-118.754 Y-16.501
X-118.774 Y-16.65
X-118.717 Y-16.788
X-118.622 Y-16.905
X-118.504 Y-16.997
X-118.37 Y-17.064
X-118.226 Y-17.106
X-118.076 Y-17.114
X-118.047 Y-17.108
X-117.929 Y-17.06
X-117.842 Y-16.968
X-117.801 Y-16.848
X-117.803 Y-16.817
X-117.815 Y-16.788
X-117.836 Y-16.764
X-117.862 Y-16.748
X-118.052 Y-16.669
X-118.619 Y-16.433
X-118.652 Y-16.426
X-118.686 Y-16.43
X-118.717 Y-16.445
X-118.74 Y-16.47
X-118.754 Y-16.501
X-118.785 Y-16.67
X-118.798 Y-16.754
X-118.804 Y-16.829
X-118.773 Y-16.976
X-118.689 Y-17.1
X-118.576 Y-17.199
X-118.447 Y-17.275
X-118.305 Y-17.324
X-118.156 Y-17.342
X-118.095 Y-17.336
X-117.968 Y-17.293
X-117.873 Y-17.199
X-117.828 Y-17.073
X-117.8 Y-16.839
X-117.787 Y-16.754
X-117.724 Y-16.422
Y-16.387
X-117.737 Y-16.354
X-117.761 Y-16.328
X-117.792 Y-16.312
X-117.826 Y-16.307
X-117.861 Y-16.314
X-118.105 Y-16.416
X-118.738 Y-16.68
X-118.766 Y-16.698
X-118.787 Y-16.723
X-118.798 Y-16.754
X-118.829 Y-16.985
X-118.835 Y-17.06
X-118.804 Y-17.206
X-118.72 Y-17.331
X-118.607 Y-17.43
X-118.547 Y-17.463
X-118.501 Y-17.484
X-118.452 Y-17.497
X-118.401 Y-17.501
X-118.365 Y-17.493
X-118.335 Y-17.473
X-118.314 Y-17.442
X-118.305 Y-17.407
X-118.31 Y-17.37
X-118.327 Y-17.338
X-118.653 Y-16.939
X-118.682 Y-16.914
X-118.718 Y-16.903
X-118.756 Y-16.905
X-118.79 Y-16.922
X-118.816 Y-16.95
X-118.829 Y-16.985
X-118.861 Y-17.223
X-118.866 Y-17.261
X-118.873 Y-17.308
X-118.877 Y-17.357
X-118.822 Y-17.433
X-118.744 Y-17.483
X-118.652 Y-17.501
G3 X-118.497 Y-17.279 I-0.006 J0.169
X-118.873 Y-17.308 I-0.184 J-0.061
G1 X-118.883 Y-17.388
X-118.882 Y-17.398
X-118.88 Y-17.409
X-118.878 Y-17.42
X-118.874 Y-17.43
X-118.866 Y-17.443
X-118.856 Y-17.456
X-118.843 Y-17.47
X-118.829 Y-17.482
X-118.818 Y-17.489
X-118.808 Y-17.494
X-118.797 Y-17.497
X-118.787 Y-17.5
X-118.744 Y-17.501
X-118.106
X-118.068
X-118.021
X-118.003 Y-17.5
X-117.966 Y-17.495
X-117.93 Y-17.482
X-117.898 Y-17.462
X-117.88 Y-17.429
X-117.876 Y-17.391
X-117.886 Y-17.354
X-117.91 Y-17.323
X-117.943 Y-17.304
X-117.981 Y-17.299
X-118.023 Y-17.301
X-118.06 Y-17.31
X-118.09 Y-17.333
X-118.111 Y-17.365
X-118.118 Y-17.402
X-118.11 Y-17.439
X-118.089 Y-17.471
X-118.058 Y-17.493
X-118.021 Y-17.501
X-117.972 Y-17.5
X-117.962 Y-17.499
X-117.951 Y-17.496
X-117.941 Y-17.491
X-117.92 Y-17.478
X-117.898 Y-17.462
X-117.884 Y-17.446
X-117.875 Y-17.43
X-117.871 Y-17.42
X-117.868 Y-17.409
X-117.828 Y-17.073
X-117.829 Y-17.044
X-117.839 Y-17.017
X-117.866 Y-16.997 Z-0.983
X-117.889 Y-16.98 Z-0.966
X-117.906 Y-16.967 Z-0.939
X-117.916 Y-16.965 Z-0.915
X-117.919 Z-0.89
G0 Z2
X-108.975 Y-9.574
Z0.5
G3 X-108.491 Y-9.698 Z0.29 I0.242 J-0.062 F333.3
X-108.975 Y-9.574 Z0.079 I-0.242 J0.062
X-108.491 Y-9.698 Z-0.131 I0.242 J-0.062
X-108.975 Y-9.574 Z-0.342 I-0.242 J0.062
X-108.491 Y-9.698 Z-0.552 I0.242 J-0.062
X-108.975 Y-9.574 Z-0.763 I-0.242 J0.062
X-108.764 Y-9.884 Z-0.876 I0.242 J-0.062
X-108.483 Y-9.636 Z-0.99 I0.031 J0.248
X-108.983 I-0.25
X-108.483 I0.25
G1 X-108.446 Y-9.491 F1000
X-108.459 Y-9.417
X-108.496 Y-9.351
X-108.603 Y-9.246
X-108.747 Y-9.206
X-108.896 Y-9.228
X-109.026 Y-9.302
X-109.123 Y-9.416
X-109.175 Y-9.557
X-109.177 Y-9.707
X-109.129 Y-9.849
X-109.037 Y-9.968
X-108.912 Y-10.05
X-108.766 Y-10.085
X-108.617 Y-10.072
X-108.48 Y-10.009
X-108.372 Y-9.906
X-108.293 Y-9.778
X-108.243 Y-9.636
X-108.233 Y-9.487
X-108.268 Y-9.341
X-108.338 Y-9.209
X-108.447 Y-9.105
X-108.578 Y-9.032
X-108.724 Y-8.998
X-108.874 Y-9.006
X-109.018 Y-9.046
X-109.147 Y-9.122
X-109.254 Y-9.228
X-109.336 Y-9.354
X-109.386 Y-9.495
X-109.4 Y-9.644
X-109.384 Y-9.793
X-109.333 Y-9.935
X-109.251 Y-10.06
X-109.144 Y-10.166
X-109.017 Y-10.245
X-108.874 Y-10.291
X-108.725 Y-10.307
X-108.576 Y-10.289
X-108.436 Y-10.237
X-108.309 Y-10.156
X-108.2 Y-10.053
X-108.112 Y-9.931
X-108.05 Y-9.795
X-108.012 Y-9.65
X-108.003 Y-9.5
X-108.026 Y-9.352
X-108.075 Y-9.21
X-108.151 Y-9.081
X-108.252 Y-8.97
X-108.373 Y-8.881
X-108.507 Y-8.815
X-108.652 Y-8.777
X-108.802 Y-8.768
X-108.951 Y-8.785
X-108.98 Y-8.793
X-109.037 Y-8.817
X-109.088 Y-8.851
X-109.131 Y-8.896
X-109.184 Y-8.964
X-109.204 Y-8.984
X-109.295 Y-9.068
X-109.354 Y-9.121
X-109.391 Y-9.152
X-109.5 Y-9.255
X-109.572 Y-9.387
X-109.612 Y-9.531
X-109.625 Y-9.681
X-109.611 Y-9.83
X-109.569 Y-9.974
X-109.524 Y-10.065
X-109.481 Y-10.127
X-109.423 Y-10.175
X-109.354 Y-10.204
X-109.316 Y-10.211
X-109.278 Y-10.202
X-109.246 Y-10.18
X-109.225 Y-10.148
X-109.218 Y-10.109
X-109.222 Y-9.792
X-109.229 Y-9.23
X-109.236 Y-9.193
X-109.256 Y-9.162
X-109.286 Y-9.14
X-109.321 Y-9.131
X-109.358 Y-9.135
X-109.391 Y-9.152
X-109.438 Y-9.193
X-109.496 Y-9.237
X-109.616 Y-9.321
X-109.734 Y-9.414
X-109.803 Y-9.547
X-109.835 Y-9.693
X-109.836 Y-9.843
X-109.819 Y-9.933
X-109.764 Y-10.058
X-109.659 Y-10.145
X-109.526 Y-10.177
X-109.488 Y-10.168
X-109.456 Y-10.145
X-109.435 Y-10.112
X-109.429 Y-10.073
X-109.434 Y-9.975
X-109.461 Y-9.4
X-109.469 Y-9.366
X-109.488 Y-9.337
X-109.515 Y-9.316
X-109.549 Y-9.306
X-109.584 Y-9.308
X-109.616 Y-9.321
X-109.692 Y-9.375
X-109.777 Y-9.431
X-109.835 Y-9.463
X-109.899 Y-9.503
X-109.989 Y-9.622
X-110.033 Y-9.766
X-110.035 Y-9.916
X-110.027 Y-9.948
X-109.968 Y-10.066
X-109.864 Y-10.148
X-109.735 Y-10.177
X-109.704 Y-10.17
X-109.675 Y-10.154
X-109.654 Y-10.13
X-109.642 Y-10.1
X-109.639 Y-10.067
X-109.69 Y-9.543
X-109.701 Y-9.506
X-109.725 Y-9.476
X-109.759 Y-9.457
X-109.798 Y-9.453
X-109.835 Y-9.463
X-109.861 Y-9.478
X-109.971 Y-9.524
X-110.004 Y-9.538
X-110.072 Y-9.569
X-110.176 Y-9.677
X-110.226 Y-9.819
X-110.224 Y-9.969
X-110.223 Y-9.973
X-110.16 Y-10.079
X-110.06 Y-10.151
X-109.939 Y-10.177
X-109.9 Y-10.168
X-109.868 Y-10.144
X-109.848 Y-10.11
X-109.842 Y-10.071
X-109.87 Y-9.625
X-109.879 Y-9.589
X-109.9 Y-9.559
X-109.931 Y-9.539
X-109.967 Y-9.531
X-110.004 Y-9.538
X-110.031 Y-9.548
X-110.2 Y-9.612
X-110.269 Y-9.641
X-110.37 Y-9.751
X-110.415 Y-9.894
X-110.414 Y-9.908
X-110.364 Y-10.045
X-110.256 Y-10.142
X-110.115 Y-10.177
X-110.083 Y-10.17
X-110.054 Y-10.153
X-110.033 Y-10.128
X-110.021 Y-10.097
X-110.02 Y-10.064
X-110.07 Y-9.693
X-110.08 Y-9.66
X-110.102 Y-9.633
X-110.131 Y-9.614
X-110.165 Y-9.607
X-110.2 Y-9.612
X-110.284 Y-9.643
X-110.369 Y-9.667
X-110.44 Y-9.69
X-110.495 Y-9.741
X-110.57 Y-9.872
X-110.548 Y-9.988
X-110.483 Y-10.087
X-110.386 Y-10.154
X-110.27 Y-10.177
X-110.235 Y-10.169
X-110.206 Y-10.151
X-110.184 Y-10.123
X-110.174 Y-10.089
X-110.176 Y-10.054
X-110.248 Y-9.741
X-110.264 Y-9.705
X-110.293 Y-9.679
X-110.33 Y-9.665
X-110.369 Y-9.667
X-110.538 Y-9.714
X-110.574 Y-9.725
X-110.636 Y-9.766
X-110.675 Y-9.831
X-110.681 Y-9.955
X-110.631 Y-10.069
X-110.535 Y-10.148
X-110.414 Y-10.177
X-110.376 Y-10.168
X-110.345 Y-10.146
X-110.324 Y-10.114
X-110.317 Y-10.076
X-110.325 Y-10.039
X-110.433 Y-9.775
X-110.45 Y-9.748
X-110.475 Y-9.727
X-110.506 Y-9.716
X-110.538 Y-9.714
X-110.669 Y-9.735
X-110.706 Y-9.743
X-110.761 Y-9.793
X-110.798 Y-9.858
X-110.797 Y-9.975
X-110.746 Y-10.079
X-110.655 Y-10.151
X-110.542 Y-10.177
X-110.504 Y-10.168
X-110.472 Y-10.145
X-110.451 Y-10.112
X-110.445 Y-10.073
X-110.454 Y-10.035
X-110.567 Y-9.792
X-110.584 Y-9.766
X-110.609 Y-9.747
X-110.638 Y-9.736
X-110.669 Y-9.735
X-110.762 Y-9.749
X-110.799 Y-9.757
X-110.864 Y-9.794
X-110.907 Y-9.855
X-110.912 Y-9.971
X-110.865 Y-10.077
X-110.775 Y-10.15
X-110.663 Y-10.177
X-110.626 Y-10.168
X-110.595 Y-10.147
X-110.574 Y-10.116
X-110.566 Y-10.079
X-110.572 Y-10.042
X-110.657 Y-9.814
X-110.674 Y-9.785
X-110.699 Y-9.763
X-110.729 Y-9.751
X-110.762 Y-9.749
X-110.877 Y-9.765
X-110.913 Y-9.772
X-110.977 Y-9.812
X-111.019 Y-9.874
X-111.022 Y-9.983
X-110.976 Y-10.083
X-110.891 Y-10.152
X-110.784 Y-10.177
X-110.747 Y-10.168
X-110.716 Y-10.147
X-110.695 Y-10.116
X-110.688 Y-10.079
X-110.694 Y-10.042
X-110.774 Y-9.829
X-110.79 Y-9.801
X-110.814 Y-9.78
X-110.844 Y-9.767
X-110.877 Y-9.765
X-111.008 Y-9.782
X-111.045 Y-9.788
X-111.101 Y-9.838
X-111.136 Y-9.904
X-111.133 Y-10.004
X-111.087 Y-10.093
X-111.008 Y-10.155
X-110.91 Y-10.177
X-110.872 Y-10.168
X-110.841 Y-10.146
X-110.82 Y-10.113
X-110.813 Y-10.075
X-110.822 Y-10.037
X-110.907 Y-9.841
X-110.924 Y-9.815
X-110.948 Y-9.795
X-110.977 Y-9.784
X-111.008 Y-9.782
X-111.092 Y-9.792
X-111.129 Y-9.798
X-111.197 Y-9.83
X-111.24 Y-9.891
X-111.244 Y-9.994
X-111.201 Y-10.088
X-111.122 Y-10.153
X-111.022 Y-10.177
X-110.998 Y-10.173
X-110.976 Y-10.164
G3 X-111.092 Y-9.792 I-0.1 J0.173
G1 X-111.215 Y-9.804
X-111.252 Y-9.81
X-111.313 Y-9.853
X-111.352 Y-9.918
X-111.35 Y-10.012
X-111.308 Y-10.097
X-111.234 Y-10.156
X-111.141 Y-10.177
X-111.115 Y-10.172
X-111.091 Y-10.16
G3 X-111.215 Y-9.804 I-0.112 J0.16
G1 X-111.346 Y-9.817
X-111.384 Y-9.821
X-111.396 Y-9.824
X-111.413 Y-9.831
X-111.432 Y-9.842
X-111.446 Y-9.865
X-111.45 Y-9.892
X-111.443 Y-9.918
X-111.422 Y-9.942
X-111.392 Y-9.953
X-111.36 Y-9.949
X-111.335 Y-9.93
X-111.321 Y-9.902
X-111.322 Y-9.87
X-111.338 Y-9.843
X-111.365 Y-9.826
X-111.396 Y-9.824
X-111.408 Y-9.828
X-111.42 Y-9.834
X-111.432 Y-9.842
X-111.446 Y-9.856
X-111.455 Y-9.87
X-111.461 Y-9.88
X-111.469 Y-9.911
X-111.463 Y-9.919
G3 X-111.218 Y-10.16 I0.813 J0.583
G1 X-111.202 Y-10.165
X-111.186 Y-10.161
X-111.175 Y-10.149
G3 X-111.461 Y-9.88 I-0.178 J0.098
G1 X-111.465 Y-9.891
X-111.469 Y-9.913
X-111.471 Y-9.997
X-111.47 Y-10.044
X-111.469 Y-10.082
X-111.466 Y-10.098
X-111.451 Y-10.13
X-111.425 Y-10.154
X-111.391 Y-10.165
X-111.356 Y-10.162
X-111.325 Y-10.145
X-111.303 Y-10.117
X-111.295 Y-10.083
X-111.3 Y-10.048
X-111.319 Y-10.018
X-111.349 Y-9.998
X-111.383 Y-9.992
X-111.418 Y-10
X-111.446 Y-10.021
X-111.464 Y-10.051
X-111.469 Y-10.082
X-111.465 Y-10.105
X-111.461 Y-10.115
X-111.456 Y-10.126
X-111.448 Y-10.139
X-111.435 Y-10.152
X-111.425 Y-10.16
X-111.414 Y-10.166
X-111.399 Y-10.172
X-111.384 Y-10.176
X-111.3 Y-10.177
X-109.607
X-109.523
X-109.438 Y-10.184
X-109.396 Y-10.193
X-109.354 Y-10.204
X-109.269 Y-10.24
X-109.25 Y-10.25
X-109.184 Y-10.294
X-109.161 Y-10.314
X-109.138 Y-10.335
X-109.027 Y-10.436
X-108.89 Y-10.497
X-108.743 Y-10.525
X-108.593 Y-10.521
X-108.446 Y-10.489
X-108.307 Y-10.432
X-108.179 Y-10.355
X-108.064 Y-10.258
X-108.007 Y-10.193
X-107.968 Y-10.134
X-107.943 Y-10.067
X-107.934 Y-9.997
Y-9.237
X-107.942 Y-9.087
X-107.999 Y-8.948
X-108.086 Y-8.826
X-108.196 Y-8.724
X-108.322 Y-8.642
X-108.459 Y-8.582
X-108.604 Y-8.543
X-108.685 Y-8.534
X-108.793 Y-8.541
X-108.892 Y-8.586
X-108.968 Y-8.664
X-108.982 Y-8.7
X-108.98 Y-8.74
X-108.964 Y-8.776
X-108.935 Y-8.802
X-108.579 Y-9.019
X-108.086 Y-9.319
X-108.054 Y-9.331
X-108.02 Y-9.332
X-107.987 Y-9.321
X-107.96 Y-9.3
X-107.942 Y-9.271
X-107.934 Y-9.237
Y-8.899
X-107.942 Y-8.749
X-108.018 Y-8.62
X-108.123 Y-8.513
X-108.246 Y-8.426
X-108.38 Y-8.36
X-108.524 Y-8.317
X-108.56 Y-8.313
X-108.682 Y-8.325
X-108.789 Y-8.385
X-108.863 Y-8.483
X-108.871 Y-8.52
X-108.865 Y-8.557
X-108.846 Y-8.589
X-108.817 Y-8.612
X-108.602 Y-8.721
X-108.08 Y-8.985
X-108.048 Y-8.995
X-108.015 Y-8.994
X-107.984 Y-8.982
X-107.958 Y-8.96
X-107.941 Y-8.932
X-107.934 Y-8.899
Y-8.646
X-107.942 Y-8.496
X-108.014 Y-8.364
X-108.119 Y-8.257
X-108.244 Y-8.174
X-108.382 Y-8.117
X-108.442 Y-8.106
X-108.577 Y-8.113
X-108.695 Y-8.178
X-108.773 Y-8.289
X-108.779 Y-8.325
X-108.771 Y-8.36
X-108.752 Y-8.391
X-108.723 Y-8.413
X-108.604 Y-8.472
X-108.079 Y-8.732
X-108.04 Y-8.742
X-108.001 Y-8.736
X-107.967 Y-8.716
X-107.944 Y-8.684
X-107.934 Y-8.646
Y-8.392
Y-8.346
Y-8.308
X-107.938 Y-8.233
X-108.015 Y-8.104
X-108.061 Y-8.061
X-108.122 Y-8.017
X-108.191 Y-7.99
X-108.265 Y-7.981
X-108.303 Y-7.99
X-108.334 Y-8.012
X-108.355 Y-8.045
X-108.362 Y-8.083
X-108.354 Y-8.12
X-108.332 Y-8.152
X-108.105 Y-8.376
X-108.073 Y-8.397
X-108.035 Y-8.404
X-107.997 Y-8.397
X-107.965 Y-8.376
X-107.943 Y-8.345
X-107.934 Y-8.308
Y-8.139
Y-8.097
X-107.935 Y-8.086
X-107.94 Y-8.068
X-107.945 Y-8.053
X-107.952 Y-8.039
X-107.976 Y-8.022
X-108.004 Y-8.015
X-108.032 Y-8.02
X-108.058 Y-8.037
X-108.075 Y-8.063
X-108.078 Y-8.094
X-108.069 Y-8.124
X-108.047 Y-8.147
X-108.018 Y-8.158
X-107.987 Y-8.156
X-107.96 Y-8.142
X-107.941 Y-8.117
X-107.935 Y-8.086
X-107.937 Y-8.075
X-107.94 Y-8.065
X-107.944 Y-8.054
X-107.952 Y-8.039
X-107.965 Y-8.024
X-107.983 Y-8.006
X-108 Y-7.994
X-108.011 Y-7.989
X-108.021 Y-7.985
X-108.032 Y-7.982
X-108.042 Y-7.981
X-108.508
X-108.554 Y-7.982
X-108.592
X-108.603 Y-7.984
X-108.613 Y-7.988
X-108.624 Y-7.992
X-108.635 Y-7.999
X-108.668 Y-8.026
X-108.677 Y-8.037
X-108.687 Y-8.054
X-108.761 Y-8.262
X-108.78 Y-8.308
X-108.9 Y-8.561
X-108.931 Y-8.609
X-109.07 Y-8.815
X-109.1 Y-8.856
X-109.131 Y-8.896
X-109.146 Y-8.924
X-109.151 Y-8.954
X-109.155 Y-9.555
X-109.161 Y-10.27
X-109.155 Y-10.304
X-109.138 Y-10.335
X-109.1 Y-10.377
X-109.068 Y-10.419
X-109.043 Y-10.462
X-109.021 Y-10.504
X-108.987 Y-10.571
X-108.875 Y-10.67
X-108.734 Y-10.721
X-108.585 Y-10.736
X-108.436 Y-10.722
X-108.291 Y-10.683
X-108.153 Y-10.623
X-108.078 Y-10.576
X-108.001 Y-10.509
X-107.952 Y-10.421
X-107.934 Y-10.32
Y-9.997
X-107.941 Y-9.964
X-107.958 Y-9.935
X-107.984 Y-9.914
X-108.016 Y-9.902
X-108.049 Y-9.901
X-108.081 Y-9.912
X-108.406 Y-10.083
X-108.974 Y-10.381
X-109.002 Y-10.403
X-109.021 Y-10.433
X-109.028 Y-10.469
X-109.021 Y-10.504
X-109.015 Y-10.519
X-108.992 Y-10.588
X-108.983 Y-10.631
X-108.976 Y-10.673
X-108.971 Y-10.71
X-108.886 Y-10.834
X-108.756 Y-10.909
X-108.611 Y-10.946
X-108.461 Y-10.953
X-108.312 Y-10.934
X-108.167 Y-10.893
X-108.108 Y-10.866
X-108.016 Y-10.8
X-107.956 Y-10.704
X-107.934 Y-10.593
Y-10.32
X-107.943 Y-10.283
X-107.965 Y-10.252
X-107.997 Y-10.231
X-108.035 Y-10.224
X-108.073 Y-10.232
X-108.298 Y-10.325
X-108.914 Y-10.58
X-108.947 Y-10.602
X-108.969 Y-10.634
X-108.976 Y-10.673
X-108.973 Y-10.757
Y-10.804
X-108.969 Y-10.879
X-108.899 Y-11.011
X-108.778 Y-11.1
X-108.638 Y-11.154
X-108.49 Y-11.178
X-108.34 Y-11.177
X-108.192 Y-11.151
X-108.131 Y-11.129
X-108.028 Y-11.065
X-107.959 Y-10.966
X-107.934 Y-10.847
Y-10.593
X-107.942 Y-10.559
X-107.961 Y-10.529
X-107.989 Y-10.508
X-108.023 Y-10.498
X-108.059 Y-10.5
X-108.261 Y-10.551
X-108.898 Y-10.71
X-108.927 Y-10.723
X-108.951 Y-10.744
X-108.967 Y-10.772
X-108.973 Y-10.804
Y-10.973
X-108.969 Y-11.048
X-108.919 Y-11.189
X-108.809 Y-11.291
X-108.676 Y-11.359
X-108.531 Y-11.399
X-108.382 Y-11.413
X-108.232 Y-11.402
X-108.087 Y-11.361
X-108.006 Y-11.294
X-107.953 Y-11.204
X-107.934 Y-11.1
Y-10.847
X-107.941 Y-10.814
X-107.958 Y-10.786
X-107.984 Y-10.764
X-108.016 Y-10.753
X-108.049 Y-10.752
X-108.248 Y-10.782
X-108.888 Y-10.877
X-108.921 Y-10.888
X-108.948 Y-10.91
X-108.966 Y-10.939
X-108.973 Y-10.973
Y-11.18
X-108.969 Y-11.255
X-108.919 Y-11.396
X-108.813 Y-11.502
X-108.683 Y-11.576
X-108.54 Y-11.623
X-108.392 Y-11.645
X-108.242 Y-11.642
X-108.165 Y-11.624
X-108.046 Y-11.566
X-107.964 Y-11.461
X-107.934 Y-11.332
Y-11.1
X-107.941 Y-11.068
X-107.957 Y-11.04
X-107.982 Y-11.018
X-108.011 Y-11.006
X-108.044 Y-11.004
X-108.244 Y-11.023
X-108.883 Y-11.084
X-108.917 Y-11.093
X-108.946 Y-11.115
X-108.965 Y-11.145
X-108.973 Y-11.18
Y-11.395
X-108.969 Y-11.47
X-108.919 Y-11.611
X-108.816 Y-11.72
X-108.688 Y-11.798
X-108.547 Y-11.85
X-108.399 Y-11.877
X-108.249 Y-11.875
X-108.103 Y-11.844
X-108.097 Y-11.841
X-108.011 Y-11.774
X-107.954 Y-11.681
X-107.934 Y-11.574
Y-11.332
X-107.941 Y-11.301
X-107.957 Y-11.273
X-107.98 Y-11.251
X-108.01 Y-11.239
X-108.042 Y-11.236
X-108.243 Y-11.251
X-108.881 Y-11.299
X-108.916 Y-11.308
X-108.945 Y-11.329
X-108.965 Y-11.36
X-108.973 Y-11.395
Y-11.648
X-108.969 Y-11.723
X-108.905 Y-11.859
X-108.797 Y-11.963
X-108.667 Y-12.039
X-108.525 Y-12.087
X-108.377 Y-12.11
X-108.227 Y-12.109
X-108.162 Y-12.093
X-108.044 Y-12.034
X-107.963 Y-11.93
X-107.934 Y-11.802
Y-11.574
X-107.941 Y-11.542
X-107.957 Y-11.514
X-107.981 Y-11.493
X-108.011 Y-11.48
X-108.043 Y-11.478
X-108.244 Y-11.496
X-108.882 Y-11.552
X-108.917 Y-11.562
X-108.946 Y-11.583
X-108.965 Y-11.613
X-108.973 Y-11.648
Y-11.855
X-108.969 Y-11.93
X-108.915 Y-12.07
X-108.812 Y-12.179
X-108.685 Y-12.259
X-108.545 Y-12.313
X-108.398 Y-12.343
X-108.248 Y-12.342
X-108.101 Y-12.311
X-108.097 Y-12.31
X-108.011 Y-12.243
X-107.954 Y-12.15
X-107.934 Y-12.043
Y-11.802
X-107.944 Y-11.763
X-107.967 Y-11.731
X-108.001 Y-11.711
X-108.041 Y-11.706
X-108.243 Y-11.718
X-108.88 Y-11.759
X-108.915 Y-11.768
X-108.945 Y-11.789
X-108.965 Y-11.82
X-108.973 Y-11.855
Y-12.071
X-108.966 Y-12.221
X-108.885 Y-12.347
X-108.772 Y-12.445
X-108.64 Y-12.516
X-108.496 Y-12.56
X-108.347 Y-12.579
X-108.197 Y-12.573
X-108.15 Y-12.559
X-108.038 Y-12.498
X-107.962 Y-12.396
X-107.934 Y-12.271
Y-12.043
X-107.943 Y-12.005
X-107.966 Y-11.973
X-107.999 Y-11.953
X-108.038 Y-11.946
X-108.242 Y-11.953
X-108.877 Y-11.974
X-108.913 Y-11.982
X-108.944 Y-12.003
X-108.965 Y-12.034
X-108.973 Y-12.071
Y-12.324
X-108.969 Y-12.399
X-108.913 Y-12.538
X-108.81 Y-12.647
X-108.683 Y-12.727
X-108.543 Y-12.781
X-108.396 Y-12.811
X-108.246
X-108.099 Y-12.78
X-108.011 Y-12.712
X-107.954 Y-12.619
X-107.934 Y-12.512
Y-12.271
X-107.944 Y-12.232
X-107.967 Y-12.2
X-108.001 Y-12.18
X-108.041 Y-12.175
X-108.243 Y-12.187
X-108.88 Y-12.228
X-108.915 Y-12.237
X-108.945 Y-12.258
X-108.965 Y-12.288
X-108.973 Y-12.324
Y-12.578
X-108.969 Y-12.652
X-108.903 Y-12.787
X-108.796 Y-12.892
X-108.667 Y-12.969
X-108.526 Y-13.019
X-108.378 Y-13.044
X-108.228 Y-13.045
X-108.163 Y-13.029
X-108.045 Y-12.971
X-107.964 Y-12.867
X-107.934 Y-12.738
Y-12.512
X-107.941 Y-12.48
X-107.957 Y-12.452
X-107.981 Y-12.431
X-108.01 Y-12.418
X-108.042 Y-12.416
X-108.243 Y-12.431
X-108.881 Y-12.481
X-108.916 Y-12.491
X-108.945 Y-12.512
X-108.965 Y-12.542
X-108.973 Y-12.578
Y-12.784
X-108.969 Y-12.859
X-108.915 Y-12.999
X-108.812 Y-13.109
X-108.686 Y-13.19
X-108.547 Y-13.245
X-108.4 Y-13.277
X-108.25
X-108.103 Y-13.247
X-108.099 Y-13.245
X-108.012 Y-13.179
X-107.954 Y-13.085
X-107.934 Y-12.978
Y-12.738
X-107.944 Y-12.699
X-107.967 Y-12.667
X-108.001 Y-12.647
X-108.04 Y-12.641
X-108.242 Y-12.653
X-108.879 Y-12.688
X-108.914 Y-12.697
X-108.945 Y-12.718
X-108.965 Y-12.749
X-108.973 Y-12.784
Y-13
X-108.966 Y-13.15
X-108.887 Y-13.277
X-108.773 Y-13.376
X-108.642 Y-13.448
X-108.499 Y-13.493
X-108.35 Y-13.513
X-108.2 Y-13.508
X-108.151 Y-13.494
X-108.039 Y-13.433
X-107.962 Y-13.33
X-107.934 Y-13.205
Y-12.978
X-107.943 Y-12.94
X-107.966 Y-12.908
X-107.999 Y-12.888
X-108.037 Y-12.881
X-108.242 Y-12.887
X-108.876 Y-12.903
X-108.913 Y-12.911
X-108.944 Y-12.932
X-108.965 Y-12.963
X-108.973 Y-13
Y-13.253
X-108.969 Y-13.328
X-108.915 Y-13.468
X-108.812 Y-13.577
X-108.686 Y-13.658
X-108.546 Y-13.713
X-108.4 Y-13.744
X-108.25 Y-13.746
X-108.103 Y-13.715
X-108.099 Y-13.713
X-108.012 Y-13.646
X-107.954 Y-13.553
X-107.934 Y-13.445
Y-13.205
X-107.944 Y-13.167
X-107.967 Y-13.135
X-108.001 Y-13.115
X-108.04 Y-13.109
X-108.242 Y-13.121
X-108.879 Y-13.157
X-108.915 Y-13.166
X-108.945 Y-13.187
X-108.965 Y-13.217
X-108.973 Y-13.253
Y-13.507
X-108.969 Y-13.582
X-108.905 Y-13.717
X-108.798 Y-13.823
X-108.67 Y-13.901
X-108.529 Y-13.952
X-108.382 Y-13.978
X-108.232 Y-13.979
X-108.165 Y-13.963
X-108.046 Y-13.905
X-107.964 Y-13.801
X-107.934 Y-13.672
Y-13.445
X-107.941 Y-13.414
X-107.957 Y-13.386
X-107.98 Y-13.365
X-108.01 Y-13.352
X-108.042 Y-13.349
X-108.243 Y-13.364
X-108.88 Y-13.41
X-108.916 Y-13.42
X-108.945 Y-13.441
X-108.965 Y-13.471
X-108.973 Y-13.507
Y-13.714
X-108.969 Y-13.788
X-108.917 Y-13.929
X-108.816 Y-14.04
X-108.69 Y-14.122
X-108.551 Y-14.178
X-108.404 Y-14.21
X-108.254 Y-14.211
X-108.107 Y-14.182
X-108.101 Y-14.179
X-108.013 Y-14.113
X-107.955 Y-14.019
X-107.934 Y-13.911
Y-13.672
X-107.944 Y-13.633
X-107.967 Y-13.601
X-108 Y-13.581
X-108.039 Y-13.575
X-108.242 Y-13.585
X-108.878 Y-13.617
X-108.914 Y-13.626
X-108.944 Y-13.647
X-108.965 Y-13.678
X-108.973 Y-13.714
Y-13.967
X-108.969 Y-14.042
X-108.907 Y-14.178
X-108.802 Y-14.285
X-108.674 Y-14.364
X-108.534 Y-14.416
X-108.386 Y-14.443
X-108.236 Y-14.445
X-108.167 Y-14.429
X-108.047 Y-14.371
X-107.964 Y-14.267
X-107.934 Y-14.137
Y-13.911
X-107.941 Y-13.879
X-107.956 Y-13.852
X-107.98 Y-13.83
X-108.009 Y-13.817
X-108.041 Y-13.814
X-108.243 Y-13.828
X-108.88 Y-13.871
X-108.915 Y-13.88
X-108.945 Y-13.901
X-108.965 Y-13.931
X-108.973 Y-13.967
Y-14.182
X-108.969 Y-14.257
X-108.915 Y-14.397
X-108.813 Y-14.507
X-108.687 Y-14.589
X-108.548 Y-14.644
X-108.401 Y-14.676
X-108.251
X-108.104 Y-14.647
X-108.099 Y-14.644
X-108.012 Y-14.578
X-107.955 Y-14.484
X-107.934 Y-14.376
Y-14.137
X-107.944 Y-14.099
X-107.967 Y-14.067
X-108.001 Y-14.046
X-108.04 Y-14.041
X-108.242 Y-14.052
X-108.879 Y-14.086
X-108.914 Y-14.095
X-108.945 Y-14.116
X-108.965 Y-14.146
X-108.973 Y-14.182
Y-14.436
X-108.969 Y-14.511
X-108.906 Y-14.646
X-108.8 Y-14.753
X-108.672 Y-14.831
X-108.531 Y-14.882
X-108.383 Y-14.908
X-108.233 Y-14.91
X-108.166 Y-14.894
X-108.046 Y-14.836
X-107.964 Y-14.732
X-107.934 Y-14.602
Y-14.376
X-107.941 Y-14.345
X-107.956 Y-14.317
X-107.98 Y-14.296
X-108.01 Y-14.283
X-108.041 Y-14.28
X-108.243 Y-14.294
X-108.88 Y-14.34
X-108.916 Y-14.349
X-108.945 Y-14.37
X-108.965 Y-14.4
X-108.973 Y-14.436
Y-14.643
X-108.969 Y-14.718
X-108.918 Y-14.858
X-108.817 Y-14.969
X-108.691 Y-15.052
X-108.552 Y-15.108
X-108.406 Y-15.141
X-108.256 Y-15.142
X-108.109 Y-15.114
X-108.101 Y-15.11
X-108.013 Y-15.044
X-107.955 Y-14.95
X-107.934 Y-14.841
Y-14.602
X-107.944 Y-14.564
X-107.967 Y-14.532
X-108 Y-14.512
X-108.039 Y-14.506
X-108.242 Y-14.516
X-108.878 Y-14.546
X-108.914 Y-14.555
X-108.944 Y-14.576
X-108.965 Y-14.607
X-108.973 Y-14.643
Y-14.896
X-108.969 Y-14.971
X-108.908 Y-15.108
X-108.803 Y-15.215
X-108.676 Y-15.295
X-108.535 Y-15.347
X-108.388 Y-15.373
X-108.238 Y-15.376
X-108.167 Y-15.36
X-108.047 Y-15.302
X-107.964 Y-15.198
X-107.934 Y-15.068
Y-14.841
X-107.944 Y-14.803
X-107.967 Y-14.771
X-108.002 Y-14.75
X-108.041 Y-14.745
X-108.243 Y-14.758
X-108.88 Y-14.8
X-108.915 Y-14.809
X-108.945 Y-14.83
X-108.965 Y-14.86
X-108.973 Y-14.896
Y-15.112
X-108.969 Y-15.186
X-108.916 Y-15.327
X-108.814 Y-15.437
X-108.689 Y-15.519
X-108.549 Y-15.574
X-108.403 Y-15.606
X-108.253 Y-15.607
X-108.106 Y-15.578
X-108.1 Y-15.575
X-108.012 Y-15.509
X-107.955 Y-15.415
X-107.934 Y-15.307
Y-15.068
X-107.944 Y-15.029
X-107.967 Y-14.998
X-108.001 Y-14.977
X-108.04 Y-14.971
X-108.242 Y-14.982
X-108.878 Y-15.015
X-108.914 Y-15.024
X-108.945 Y-15.045
X-108.965 Y-15.076
X-108.973 Y-15.112
Y-15.365
X-108.969 Y-15.44
X-108.906 Y-15.576
X-108.801 Y-15.682
X-108.673 Y-15.761
X-108.532 Y-15.813
X-108.385 Y-15.839
X-108.235 Y-15.841
X-108.166 Y-15.825
X-108.047 Y-15.767
X-107.964 Y-15.663
X-107.934 Y-15.533
Y-15.307
X-107.941 Y-15.276
X-107.956 Y-15.248
X-107.98 Y-15.226
X-108.009 Y-15.214
X-108.041 Y-15.211
X-108.243 Y-15.225
X-108.88 Y-15.269
X-108.915 Y-15.278
X-108.945 Y-15.299
X-108.965 Y-15.329
X-108.973 Y-15.365
Y-15.572
X-108.969 Y-15.647
X-108.919 Y-15.788
X-108.818 Y-15.899
X-108.693 Y-15.982
X-108.554 Y-16.038
X-108.407 Y-16.071
X-108.257 Y-16.073
X-108.11 Y-16.045
X-108.102 Y-16.041
X-108.013 Y-15.975
X-107.955 Y-15.881
X-107.934 Y-15.772
Y-15.533
X-107.944 Y-15.495
X-107.967 Y-15.463
X-108 Y-15.443
X-108.039 Y-15.437
X-108.242 Y-15.446
X-108.878 Y-15.475
X-108.914 Y-15.484
X-108.944 Y-15.505
X-108.965 Y-15.536
X-108.973 Y-15.572
Y-15.825
X-108.969 Y-15.9
X-108.909 Y-16.037
X-108.804 Y-16.145
X-108.677 Y-16.225
X-108.536 Y-16.277
X-108.389 Y-16.304
X-108.239 Y-16.307
X-108.168 Y-16.291
X-108.047 Y-16.233
X-107.964 Y-16.129
X-107.934 Y-15.998
Y-15.772
X-107.944 Y-15.733
X-107.967 Y-15.701
X-108.001 Y-15.681
X-108.041 Y-15.675
X-108.243 Y-15.688
X-108.88 Y-15.729
X-108.915 Y-15.738
X-108.945 Y-15.759
X-108.965 Y-15.79
X-108.973 Y-15.825
Y-16.041
X-108.969 Y-16.116
X-108.917 Y-16.256
X-108.815 Y-16.367
X-108.69 Y-16.449
X-108.551 Y-16.505
X-108.404 Y-16.537
X-108.254 Y-16.538
X-108.107 Y-16.509
X-108.101 Y-16.506
X-108.013 Y-16.439
X-107.955 Y-16.346
X-107.934 Y-16.237
Y-15.998
X-107.944 Y-15.96
X-107.967 Y-15.928
X-108 Y-15.908
X-108.039 Y-15.902
X-108.242 Y-15.912
X-108.878 Y-15.944
X-108.914 Y-15.953
X-108.944 Y-15.974
X-108.965 Y-16.005
X-108.973 Y-16.041
Y-16.294
X-108.969 Y-16.369
X-108.907 Y-16.505
X-108.802 Y-16.612
X-108.674 Y-16.691
X-108.534 Y-16.743
X-108.386 Y-16.769
X-108.236 Y-16.772
X-108.167 Y-16.756
X-108.047 Y-16.698
X-107.964 Y-16.593
X-107.934 Y-16.464
Y-16.237
X-107.941 Y-16.206
X-107.956 Y-16.178
X-107.98 Y-16.157
X-108.009 Y-16.144
X-108.041 Y-16.141
X-108.243 Y-16.155
X-108.88 Y-16.198
X-108.915 Y-16.207
X-108.945 Y-16.228
X-108.965 Y-16.258
X-108.973 Y-16.294
Y-16.501
X-108.966 Y-16.651
X-108.884 Y-16.777
X-108.77 Y-16.874
X-108.637 Y-16.944
X-108.494 Y-16.989
X-108.345 Y-17.008
X-108.196 Y-16.995
X-108.15 Y-16.982
X-108.038 Y-16.92
X-107.962 Y-16.818
X-107.934 Y-16.694
Y-16.464
X-107.944 Y-16.425
X-107.967 Y-16.394
X-108 Y-16.373
X-108.039 Y-16.367
X-108.242 Y-16.376
X-108.878 Y-16.405
X-108.914 Y-16.413
X-108.944 Y-16.434
X-108.965 Y-16.465
X-108.973 Y-16.501
Y-16.754
X-108.969 Y-16.829
X-108.912 Y-16.968
X-108.808 Y-17.076
X-108.681 Y-17.155
X-108.541 Y-17.21
X-108.393 Y-17.237
X-108.243 Y-17.236
X-108.095 Y-17.202
X-108.01 Y-17.135
X-107.954 Y-17.043
X-107.934 Y-16.936
Y-16.694
X-107.941 Y-16.662
X-107.957 Y-16.635
X-107.98 Y-16.613
X-108.01 Y-16.6
X-108.042 Y-16.598
X-108.243 Y-16.612
X-108.88 Y-16.658
X-108.916 Y-16.667
X-108.945 Y-16.688
X-108.965 Y-16.719
X-108.973 Y-16.754
Y-16.97
X-108.969 Y-17.045
X-108.919 Y-17.186
X-108.818 Y-17.297
X-108.693 Y-17.38
X-108.554 Y-17.436
X-108.407 Y-17.467
X-108.257 Y-17.472
X-108.11 Y-17.444
X-108.017 Y-17.378
X-107.956 Y-17.282
X-107.934 Y-17.171
Y-16.936
X-107.943 Y-16.898
X-107.966 Y-16.866
X-108 Y-16.846
X-108.038 Y-16.84
X-108.242 Y-16.848
X-108.877 Y-16.873
X-108.913 Y-16.882
X-108.944 Y-16.903
X-108.965 Y-16.933
X-108.973 Y-16.97
Y-17.223
Y-17.261
Y-17.308
X-108.972 Y-17.336
X-108.96 Y-17.355
X-108.893 Y-17.433
X-108.804 Y-17.484
X-108.703 Y-17.501
G3 X-108.542 Y-17.182 I-0.007 J0.204
X-108.973 Y-17.308 I-0.195 J-0.134
G1 Y-17.398
X-108.971 Y-17.409
X-108.968 Y-17.42
X-108.964 Y-17.43
X-108.959 Y-17.44
X-108.952 Y-17.45
X-108.941 Y-17.462
X-108.931 Y-17.47
X-108.899 Y-17.49
X-108.888 Y-17.495
X-108.878 Y-17.498
X-108.867 Y-17.5
X-108.846 Y-17.501
X-108.085
X-108.042
X-108.032 Y-17.5
X-108.013 Y-17.494
X-107.988 Y-17.477
X-107.974 Y-17.451
X-107.973 Y-17.421
X-107.985 Y-17.394
X-108.008 Y-17.375
X-108.038 Y-17.368
X-108.067 Y-17.376
X-108.089 Y-17.395
X-108.09 Y-17.396
X-108.102 Y-17.424
X-108.1 Y-17.453
X-108.085 Y-17.479
X-108.061 Y-17.495
X-108.032 Y-17.5
X-108.021 Y-17.497
X-108.011 Y-17.493
X-108 Y-17.488
X-107.982 Y-17.475
X-107.964 Y-17.459
X-107.952 Y-17.445
X-107.944 Y-17.43
X-107.939 Y-17.42
X-107.937 Y-17.409
X-107.935 Y-17.398
X-107.934 Y-17.171
X-107.939 Y-17.143
X-107.952 Y-17.117
X-107.981 Y-17.1 Z-0.983
X-108.006 Y-17.086 Z-0.966
X-108.025 Y-17.075 Z-0.939
X-108.034 Y-17.074 Z-0.916
X-108.038 Z-0.89
G0 Z2
X-90.674 Y-8.713
Z0.5
G3 X-90.19 Y-8.838 Z0.29 I0.242 J-0.062 F333.3
X-90.674 Y-8.713 Z0.079 I-0.242 J0.062
X-90.19 Y-8.838 Z-0.131 I0.242 J-0.062
X-90.674 Y-8.713 Z-0.342 I-0.242 J0.062
X-90.19 Y-8.838 Z-0.552 I0.242 J-0.062
X-90.674 Y-8.713 Z-0.763 I-0.242 J0.062
X-90.464 Y-9.024 Z-0.876 I0.242 J-0.062
X-90.182 Y-8.776 Z-0.99 I0.031 J0.248
X-90.682 I-0.25
X-90.182 I0.25
G1 X-90.145 Y-8.63 F1000
X-90.158 Y-8.557
X-90.195 Y-8.491
X-90.302 Y-8.386
X-90.447 Y-8.346
X-90.595 Y-8.368
X-90.726 Y-8.442
X-90.822 Y-8.556
X-90.874 Y-8.697
X-90.877 Y-8.847
X-90.829 Y-8.989
X-90.737 Y-9.108
X-90.611 Y-9.19
X-90.466 Y-9.225
X-90.316 Y-9.211
X-90.18 Y-9.149
X-90.071 Y-9.046
X-89.993 Y-8.918
X-89.943 Y-8.776
X-89.932 Y-8.627
X-89.967 Y-8.481
X-90.038 Y-8.349
X-90.146 Y-8.245
X-90.277 Y-8.172
X-90.424 Y-8.138
X-90.573 Y-8.146
X-90.718 Y-8.186
X-90.847 Y-8.262
X-90.954 Y-8.368
X-91.036 Y-8.493
X-91.085 Y-8.635
X-91.1 Y-8.784
X-91.083 Y-8.933
X-91.054 Y-9.015
X-91.041 Y-9.047
X-91.024 Y-9.077
X-91.004 Y-9.104
X-90.995 Y-9.114
X-90.968 Y-9.152
X-90.882 Y-9.275
X-90.759 Y-9.361
X-90.621 Y-9.419
X-90.473 Y-9.446
X-90.324 Y-9.437
X-90.179 Y-9.397
X-90.047 Y-9.326
X-90.029 Y-9.31
X-90.016 Y-9.298
X-90.005 Y-9.284
X-89.965 Y-9.237
X-89.927 Y-9.194
X-89.895 Y-9.158
X-89.89 Y-9.152
X-89.796 Y-9.036
X-89.773 Y-8.979
X-89.76 Y-8.941
X-89.752 Y-8.903
X-89.75 Y-8.863
X-89.758 Y-8.827
X-89.779 Y-8.796
X-89.81 Y-8.775
X-89.846 Y-8.767
X-89.883 Y-8.772
X-89.915 Y-8.791
X-89.938 Y-8.82
X-90.051 Y-9.037
X-90.062 Y-9.071
X-90.06 Y-9.107
X-90.046 Y-9.139
X-90.021 Y-9.165
X-89.989 Y-9.18
X-89.953 Y-9.183
X-89.919 Y-9.173
X-89.89 Y-9.152
X-89.776 Y-9.023
X-89.762 Y-9.003
X-89.753 Y-8.984
X-89.751 Y-8.973
X-89.75 Y-8.962
Y-8.646
Y-8.599
Y-8.561
X-89.757 Y-8.411
X-89.821 Y-8.276
X-89.848 Y-8.24
X-89.914 Y-8.175
X-89.997 Y-8.134
X-90.088 Y-8.12
X-90.123 Y-8.128
X-90.152 Y-8.147
X-90.174 Y-8.175
X-90.184 Y-8.209
X-90.181 Y-8.245
X-90.166 Y-8.277
X-89.932 Y-8.615
X-89.906 Y-8.64
X-89.874 Y-8.655
X-89.839 Y-8.657
X-89.805 Y-8.647
X-89.776 Y-8.626
X-89.757 Y-8.596
X-89.75 Y-8.561
Y-8.261
Y-8.223
X-89.752 Y-8.213
X-89.758 Y-8.194
X-89.778 Y-8.167
X-89.807 Y-8.151
X-89.84 Y-8.148
X-89.872 Y-8.16
X-89.895 Y-8.183
X-89.907 Y-8.215
X-89.904 Y-8.248
X-89.888 Y-8.277
X-89.861 Y-8.297
X-89.828 Y-8.303
X-89.795 Y-8.296
X-89.769 Y-8.275
X-89.754 Y-8.245
X-89.752 Y-8.213
X-89.755 Y-8.202
X-89.759 Y-8.192
X-89.765 Y-8.181
X-89.772 Y-8.171
X-89.782 Y-8.16
X-89.806 Y-8.139
X-89.821 Y-8.13
X-89.832 Y-8.125
X-89.843 Y-8.122
X-89.853 Y-8.121
X-89.98 Y-8.12
X-90.788
X-90.938 Y-8.128
X-91.067 Y-8.204
X-91.172 Y-8.311
X-91.251 Y-8.439
X-91.304 Y-8.579
X-91.317 Y-8.655
X-91.31 Y-8.787
X-91.248 Y-8.903
X-91.141 Y-8.981
X-91.104 Y-8.988
X-91.067 Y-8.981
X-91.036 Y-8.961
X-91.014 Y-8.931
X-90.95 Y-8.795
X-90.701 Y-8.262
X-90.692 Y-8.224
X-90.698 Y-8.186
X-90.718 Y-8.152
X-90.75 Y-8.129
X-90.788 Y-8.12
X-91.042
X-91.192 Y-8.128
X-91.32 Y-8.205
X-91.42 Y-8.317
X-91.492 Y-8.448
X-91.533 Y-8.593
Y-8.631
X-91.508 Y-8.754
X-91.435 Y-8.856
X-91.327 Y-8.919
X-91.15 Y-8.977
X-91.141 Y-8.981
X-91.105 Y-8.988
X-91.068 Y-8.981
X-91.037 Y-8.962
X-91.015 Y-8.933
X-91.005 Y-8.897
X-91 Y-8.849
X-90.946 Y-8.229
X-90.948 Y-8.197
X-90.961 Y-8.167
X-90.982 Y-8.143
X-91.01 Y-8.126
X-91.042 Y-8.12
X-91.296
X-91.371 Y-8.124
X-91.511 Y-8.176
X-91.621 Y-8.279
X-91.699 Y-8.406
X-91.737 Y-8.552
Y-8.595
X-91.715 Y-8.71
X-91.65 Y-8.807
X-91.553 Y-8.872
X-91.439 Y-8.895
X-91.407 Y-8.889
X-91.379 Y-8.873
X-91.357 Y-8.849
X-91.345 Y-8.819
X-91.202 Y-8.244
X-91.2 Y-8.209
X-91.21 Y-8.175
X-91.231 Y-8.147
X-91.261 Y-8.128
X-91.296 Y-8.12
X-91.549
X-91.624 Y-8.124
X-91.759 Y-8.189
X-91.859 Y-8.301
X-91.924 Y-8.436
X-91.947 Y-8.584
X-91.939 Y-8.639
X-91.886 Y-8.77
X-91.779 Y-8.862
X-91.642 Y-8.895
X-91.439
X-91.405 Y-8.888
X-91.375 Y-8.87
X-91.354 Y-8.843
X-91.343 Y-8.811
Y-8.776
X-91.455 Y-8.201
X-91.467 Y-8.17
X-91.488 Y-8.144
X-91.517 Y-8.127
X-91.549 Y-8.12
X-91.757
X-91.832 Y-8.124
X-91.968 Y-8.185
X-92.068 Y-8.297
X-92.133 Y-8.433
X-92.151 Y-8.582
X-92.145 Y-8.633
X-92.093 Y-8.766
X-91.986 Y-8.861
X-91.847 Y-8.895
X-91.642
X-91.608 Y-8.888
X-91.579 Y-8.87
X-91.558 Y-8.843
X-91.547 Y-8.81
Y-8.776
X-91.662 Y-8.2
X-91.674 Y-8.169
X-91.695 Y-8.144
X-91.724 Y-8.127
X-91.757 Y-8.12
X-91.972
X-92.047 Y-8.124
X-92.183 Y-8.188
X-92.281 Y-8.302
X-92.341 Y-8.439
X-92.356 Y-8.589
X-92.35 Y-8.637
X-92.297 Y-8.769
X-92.19 Y-8.862
X-92.052 Y-8.895
X-91.847
X-91.813 Y-8.888
X-91.783 Y-8.869
X-91.762 Y-8.842
X-91.751 Y-8.809
X-91.753 Y-8.774
X-91.878 Y-8.199
X-91.89 Y-8.168
X-91.912 Y-8.143
X-91.94 Y-8.127
X-91.972 Y-8.12
X-92.18
X-92.255 Y-8.124
X-92.39 Y-8.188
X-92.488 Y-8.302
X-92.547 Y-8.439
X-92.563 Y-8.589
X-92.556 Y-8.638
X-92.503 Y-8.769
X-92.396 Y-8.862
X-92.259 Y-8.895
X-92.052
X-92.018 Y-8.888
X-91.989 Y-8.869
X-91.967 Y-8.842
X-91.957 Y-8.808
X-91.958 Y-8.774
X-92.086 Y-8.198
X-92.098 Y-8.168
X-92.119 Y-8.143
X-92.148 Y-8.127
X-92.18 Y-8.12
X-92.395
X-92.47 Y-8.124
X-92.604 Y-8.192
X-92.698 Y-8.309
X-92.756 Y-8.447
X-92.769 Y-8.597
X-92.761 Y-8.642
X-92.708 Y-8.772
X-92.601 Y-8.862
X-92.465 Y-8.895
X-92.259
X-92.224 Y-8.888
X-92.195 Y-8.869
X-92.173 Y-8.841
X-92.163 Y-8.807
X-92.165 Y-8.772
X-92.302 Y-8.197
X-92.314 Y-8.167
X-92.336 Y-8.143
X-92.364 Y-8.126
X-92.395 Y-8.12
X-92.603
X-92.678 Y-8.124
X-92.811 Y-8.193
X-92.906 Y-8.309
X-92.963 Y-8.448
X-92.975 Y-8.597
X-92.968 Y-8.643
X-92.914 Y-8.772
X-92.808 Y-8.862
X-92.672 Y-8.895
X-92.465
X-92.431 Y-8.888
X-92.401 Y-8.869
X-92.38 Y-8.841
X-92.369 Y-8.807
X-92.371 Y-8.772
X-92.509 Y-8.197
X-92.521 Y-8.167
X-92.543 Y-8.143
X-92.571 Y-8.126
X-92.603 Y-8.12
X-92.818
X-92.893 Y-8.124
X-93.024 Y-8.197
X-93.116 Y-8.316
X-93.171 Y-8.455
X-93.182 Y-8.605
X-93.174 Y-8.647
X-93.12 Y-8.774
X-93.014 Y-8.863
X-92.879 Y-8.895
X-92.672
X-92.637 Y-8.888
X-92.607 Y-8.868
X-92.586 Y-8.84
X-92.576 Y-8.806
X-92.579 Y-8.77
X-92.725 Y-8.195
X-92.738 Y-8.166
X-92.759 Y-8.142
X-92.787 Y-8.126
X-92.818 Y-8.12
X-92.988
X-93.063 Y-8.124
X-93.204 Y-8.174
X-93.307 Y-8.283
X-93.37 Y-8.419
X-93.392 Y-8.567
X-93.375 Y-8.718
X-93.309 Y-8.811
X-93.213 Y-8.873
X-93.101 Y-8.895
X-92.879
X-92.846 Y-8.888
X-92.816 Y-8.87
X-92.795 Y-8.843
X-92.784 Y-8.811
Y-8.777
X-92.893 Y-8.201
X-92.905 Y-8.17
X-92.926 Y-8.144
X-92.955 Y-8.127
X-92.988 Y-8.12
X-93.195
X-93.27 Y-8.124
X-93.411 Y-8.174
X-93.513 Y-8.284
X-93.577 Y-8.42
X-93.606 Y-8.567
X-93.6 Y-8.627
X-93.55 Y-8.763
X-93.442 Y-8.86
X-93.302 Y-8.895
X-93.101
X-93.068 Y-8.888
X-93.039 Y-8.871
X-93.018 Y-8.845
X-93.006 Y-8.813
Y-8.779
X-93.1 Y-8.204
X-93.111 Y-8.172
X-93.132 Y-8.145
X-93.161 Y-8.127
X-93.195 Y-8.12
X-93.411
X-93.486 Y-8.124
X-93.624 Y-8.181
X-93.725 Y-8.292
X-93.79 Y-8.427
X-93.81 Y-8.576
X-93.804 Y-8.629
X-93.753 Y-8.764
X-93.646 Y-8.86
X-93.506 Y-8.895
X-93.302
X-93.268 Y-8.888
X-93.239 Y-8.87
X-93.217 Y-8.843
X-93.206 Y-8.811
X-93.207 Y-8.776
X-93.316 Y-8.201
X-93.328 Y-8.17
X-93.349 Y-8.144
X-93.378 Y-8.127
X-93.411 Y-8.12
X-93.618
X-93.693 Y-8.124
X-93.832 Y-8.18
X-93.933 Y-8.291
X-93.996 Y-8.427
X-94.015 Y-8.576
X-94.009 Y-8.63
X-93.958 Y-8.765
X-93.851 Y-8.86
X-93.711 Y-8.895
X-93.506
X-93.472 Y-8.888
X-93.443 Y-8.87
X-93.421 Y-8.843
X-93.41 Y-8.81
X-93.411 Y-8.776
X-93.523 Y-8.201
X-93.535 Y-8.17
X-93.556 Y-8.144
X-93.585 Y-8.127
X-93.618 Y-8.12
X-93.834
X-93.909 Y-8.124
X-94.046 Y-8.185
X-94.144 Y-8.298
X-94.204 Y-8.436
X-94.221 Y-8.585
X-94.214 Y-8.635
X-94.162 Y-8.768
X-94.055 Y-8.861
X-93.917 Y-8.895
X-93.711
X-93.677 Y-8.888
X-93.647 Y-8.869
X-93.626 Y-8.842
X-93.615 Y-8.809
X-93.617 Y-8.774
X-93.739 Y-8.199
X-93.751 Y-8.168
X-93.773 Y-8.143
X-93.801 Y-8.127
X-93.834 Y-8.12
X-94.041
X-94.116 Y-8.124
X-94.253 Y-8.185
X-94.351 Y-8.299
X-94.411 Y-8.436
X-94.427 Y-8.585
X-94.42 Y-8.636
X-94.368 Y-8.768
X-94.261 Y-8.861
X-94.123 Y-8.895
X-93.917
X-93.882 Y-8.888
X-93.853 Y-8.869
X-93.832 Y-8.842
X-93.821 Y-8.809
X-93.822 Y-8.774
X-93.947 Y-8.199
X-93.959 Y-8.168
X-93.98 Y-8.143
X-94.009 Y-8.127
X-94.041 Y-8.12
X-94.257
X-94.332 Y-8.124
X-94.466 Y-8.191
X-94.561 Y-8.306
X-94.619 Y-8.445
X-94.633 Y-8.594
X-94.625 Y-8.641
X-94.572 Y-8.771
X-94.466 Y-8.862
X-94.329 Y-8.895
X-94.123
X-94.088 Y-8.888
X-94.059 Y-8.869
X-94.037 Y-8.841
X-94.027 Y-8.807
X-94.029 Y-8.772
X-94.163 Y-8.197
X-94.175 Y-8.167
X-94.197 Y-8.143
X-94.225 Y-8.126
X-94.257 Y-8.12
X-94.464
X-94.539 Y-8.124
X-94.673 Y-8.191
X-94.768 Y-8.307
X-94.826 Y-8.445
X-94.839 Y-8.595
X-94.832 Y-8.641
X-94.779 Y-8.771
X-94.672 Y-8.862
X-94.536 Y-8.895
X-94.329
X-94.295 Y-8.888
X-94.265 Y-8.869
X-94.244 Y-8.841
X-94.233 Y-8.807
X-94.235 Y-8.772
X-94.37 Y-8.197
X-94.383 Y-8.167
X-94.404 Y-8.143
X-94.432 Y-8.126
X-94.464 Y-8.12
X-94.68
X-94.755 Y-8.124
X-94.886 Y-8.196
X-94.979 Y-8.314
X-95.034 Y-8.453
X-95.046 Y-8.603
X-95.038 Y-8.646
X-94.984 Y-8.774
X-94.878 Y-8.863
X-94.743 Y-8.895
X-94.536
X-94.501 Y-8.888
X-94.471 Y-8.868
X-94.45 Y-8.84
X-94.44 Y-8.806
X-94.442 Y-8.771
X-94.586 Y-8.196
X-94.599 Y-8.166
X-94.62 Y-8.142
X-94.648 Y-8.126
X-94.68 Y-8.12
X-94.849
X-94.924 Y-8.124
X-95.066 Y-8.172
X-95.169 Y-8.281
X-95.233 Y-8.416
X-95.256 Y-8.565
X-95.24 Y-8.714
X-95.239 Y-8.716
X-95.173 Y-8.811
X-95.077 Y-8.873
X-94.964 Y-8.895
X-94.743
X-94.709 Y-8.888
X-94.68 Y-8.87
X-94.659 Y-8.843
X-94.647 Y-8.811
X-94.648 Y-8.777
X-94.754 Y-8.202
X-94.766 Y-8.17
X-94.787 Y-8.144
X-94.816 Y-8.127
X-94.849 Y-8.12
X-95.103
X-95.178 Y-8.124
X-95.307 Y-8.199
X-95.398 Y-8.319
X-95.451 Y-8.459
X-95.47 Y-8.608
X-95.463 Y-8.649
X-95.407 Y-8.775
X-95.302 Y-8.863
X-95.168 Y-8.895
X-94.964
X-94.93 Y-8.888
X-94.9 Y-8.869
X-94.879 Y-8.841
X-94.868 Y-8.807
X-94.87 Y-8.772
X-95.009 Y-8.197
X-95.021 Y-8.167
X-95.043 Y-8.143
X-95.071 Y-8.126
X-95.103 Y-8.12
X-95.272
X-95.347 Y-8.124
X-95.487 Y-8.176
X-95.589 Y-8.287
X-95.655 Y-8.422
X-95.678 Y-8.57
X-95.672 Y-8.628
X-95.622 Y-8.763
X-95.514 Y-8.86
X-95.373 Y-8.895
X-95.168
X-95.134 Y-8.888
X-95.105 Y-8.87
X-95.084 Y-8.844
X-95.072 Y-8.811
X-95.073 Y-8.777
X-95.177 Y-8.202
X-95.189 Y-8.17
X-95.21 Y-8.144
X-95.239 Y-8.127
X-95.272 Y-8.12
X-95.479
X-95.554 Y-8.124
X-95.694 Y-8.177
X-95.797 Y-8.286
X-95.862 Y-8.422
X-95.883 Y-8.57
X-95.877 Y-8.626
X-95.827 Y-8.763
X-95.719 Y-8.86
X-95.578 Y-8.895
X-95.373
X-95.34 Y-8.888
X-95.311 Y-8.87
X-95.289 Y-8.844
X-95.278 Y-8.811
X-95.279 Y-8.777
X-95.384 Y-8.202
X-95.396 Y-8.17
X-95.417 Y-8.144
X-95.446 Y-8.127
X-95.479 Y-8.12
X-95.695
X-95.77 Y-8.124
X-95.908 Y-8.182
X-96.008 Y-8.294
X-96.07 Y-8.43
X-96.088 Y-8.579
X-96.082 Y-8.632
X-96.03 Y-8.766
X-95.923 Y-8.861
X-95.784 Y-8.895
X-95.578
X-95.545 Y-8.888
X-95.515 Y-8.87
X-95.494 Y-8.843
X-95.483 Y-8.81
X-95.484 Y-8.775
X-95.6 Y-8.2
X-95.612 Y-8.169
X-95.634 Y-8.144
X-95.662 Y-8.127
X-95.695 Y-8.12
X-95.902
X-95.949
X-95.987
X-96.032 Y-8.123
X-96.101 Y-8.188
X-96.145 Y-8.271
X-96.162 Y-8.365
G3 X-95.867 Y-8.512 I0.186 J0.004
X-95.987 Y-8.12 I-0.127 J0.175
G1 X-96.05
X-96.061 Y-8.121
X-96.071 Y-8.123
X-96.089 Y-8.129
X-96.107 Y-8.139
X-96.125 Y-8.156
X-96.139 Y-8.173
X-96.149 Y-8.189
X-96.156 Y-8.206
X-96.159 Y-8.223
X-96.167 Y-8.692
X-96.168 Y-8.73
Y-8.772
X-96.166 Y-8.805
X-96.151 Y-8.835
X-96.127 Y-8.858
X-96.096 Y-8.873
X-96.063 Y-8.876
X-96.026 Y-8.867
X-95.996 Y-8.844
X-95.977 Y-8.812
X-95.97 Y-8.775
X-95.978 Y-8.738
X-96 Y-8.707
X-96.031 Y-8.686
X-96.068 Y-8.678
X-96.105 Y-8.685
X-96.137 Y-8.705
X-96.159 Y-8.736
X-96.168 Y-8.772
Y-8.793
X-96.166 Y-8.804
X-96.164 Y-8.815
X-96.156 Y-8.832
X-96.149 Y-8.843
X-96.139 Y-8.854
X-96.114 Y-8.877
X-96.103 Y-8.883
X-96.092 Y-8.888
X-96.082 Y-8.892
X-96.071 Y-8.894
X-95.987 Y-8.895
X-95.784
X-95.758 Y-8.892
X-95.734 Y-8.882
X-95.715 Y-8.873
X-95.696 Y-8.869
X-95.008 Y-8.786
X-91.357 Y-8.345
X-91.321 Y-8.347
X-91.289 Y-8.361
X-91.263 Y-8.386
X-91.248 Y-8.419
G3 X-90.968 Y-9.152 I3.527 J0.924
G1 X-90.945 Y-9.195
X-90.925 Y-9.237
X-90.911 Y-9.275
X-90.9 Y-9.321
X-90.882 Y-9.394
X-90.8 Y-9.52
X-90.676 Y-9.604
X-90.533 Y-9.651
X-90.481 Y-9.656
X-90.383 Y-9.649
X-90.292 Y-9.61
X-90.219 Y-9.545
X-90.149 Y-9.459
X-90.005 Y-9.284
X-89.988 Y-9.25
X-89.985 Y-9.211
X-89.997 Y-9.174
X-90.023 Y-9.145
X-90.057 Y-9.127
X-90.096 Y-9.124
X-90.188 Y-9.135
X-90.812 Y-9.21
X-90.849 Y-9.223
X-90.879 Y-9.248
X-90.897 Y-9.283
X-90.9 Y-9.321
X-90.887 Y-9.406
Y-9.49
Y-9.565
X-90.822 Y-9.701
X-90.707 Y-9.796
X-90.691 Y-9.802
X-90.566 Y-9.822
X-90.445 Y-9.788
X-90.347 Y-9.708
X-90.219 Y-9.545
X-90.203 Y-9.511
X-90.2 Y-9.474
X-90.211 Y-9.438
X-90.234 Y-9.409
X-90.267 Y-9.39
X-90.304 Y-9.385
X-90.794 Y-9.41
X-90.826 Y-9.417
X-90.854 Y-9.434
X-90.875 Y-9.459
X-90.887 Y-9.49
X-90.901 Y-9.575
X-90.911 Y-9.614
X-90.929 Y-9.687
X-90.914 Y-9.76
X-90.849 Y-9.895
X-90.745 Y-9.941
X-90.632 Y-9.945
X-90.526 Y-9.906
X-90.442 Y-9.83
X-90.376 Y-9.744
X-90.347 Y-9.708
X-90.332 Y-9.675
X-90.329 Y-9.638
X-90.339 Y-9.603
X-90.362 Y-9.574
X-90.393 Y-9.555
X-90.43 Y-9.549
X-90.821 Y-9.555
X-90.858 Y-9.563
X-90.889 Y-9.583
X-90.911 Y-9.614
X-90.929 Y-9.659
X-90.973 Y-9.744
X-90.99 Y-9.777
X-90.997 Y-9.852
X-90.976 Y-9.924
X-90.881 Y-10.014
X-90.755 Y-10.05
X-90.626 Y-10.023
X-90.525 Y-9.94
X-90.509 Y-9.905
X-90.508 Y-9.867
X-90.521 Y-9.831
X-90.546 Y-9.803
X-90.581 Y-9.786
X-90.867 Y-9.708
X-90.906 Y-9.706
X-90.943 Y-9.718
X-90.973 Y-9.744
X-90.995 Y-9.775
X-91.037 Y-9.828
X-91.06 Y-9.858
X-91.071 Y-9.932
X-91.055 Y-10.005
X-90.96 Y-10.102
X-90.831 Y-10.142
X-90.698 Y-10.116
X-90.592 Y-10.03
X-90.442 Y-9.83
X-90.428 Y-9.798
X-90.425 Y-9.763
X-90.434 Y-9.73
X-90.454 Y-9.701
X-90.483 Y-9.682
X-90.517 Y-9.673
X-90.551 Y-9.676
X-90.991 Y-9.8
X-91.016 Y-9.811
X-91.037 Y-9.828
X-91.11 Y-9.913
X-91.133 Y-9.942
X-91.146 Y-10.016
X-91.132 Y-10.09
X-91.035 Y-10.192
X-90.901 Y-10.234
X-90.763 Y-10.206
X-90.655 Y-10.116
X-90.641 Y-10.081
X-90.64 Y-10.043
X-90.653 Y-10.008
X-90.679 Y-9.98
X-90.713 Y-9.964
X-91.011 Y-9.884
X-91.047 Y-9.881
X-91.081 Y-9.891
X-91.11 Y-9.913
X-91.183 Y-9.997
X-91.206 Y-10.027
X-91.221 Y-10.1
X-91.208 Y-10.174
X-91.111 Y-10.281
X-90.973 Y-10.327
X-90.831 Y-10.3
X-90.72 Y-10.207
X-90.706 Y-10.172
X-90.705 Y-10.135
X-90.718 Y-10.1
X-90.743 Y-10.072
X-90.776 Y-10.055
X-91.082 Y-9.969
X-91.118 Y-9.965
X-91.153 Y-9.975
X-91.183 Y-9.997
X-91.249 Y-10.074
X-91.272 Y-10.104
X-91.296 Y-10.175
X-91.288 Y-10.25
X-91.227 Y-10.387
X-91.121 Y-10.44
X-91.002 Y-10.446
X-90.891 Y-10.406
X-90.804 Y-10.325
X-90.631 Y-10.082
X-90.592 Y-10.03
X-90.578 Y-9.998
X-90.575 Y-9.963
X-90.585 Y-9.929
X-90.607 Y-9.9
X-90.637 Y-9.881
X-90.671 Y-9.873
X-90.707 Y-9.879
X-91.208 Y-10.047
X-91.23 Y-10.058
X-91.249 Y-10.074
X-91.328 Y-10.166
X-91.374 Y-10.225
X-91.389 Y-10.299
X-91.382 Y-10.373
X-91.319 Y-10.51
X-91.313 Y-10.514
X-91.205 Y-10.565
X-91.086 Y-10.569
X-90.974 Y-10.527
X-90.888 Y-10.445
X-90.804 Y-10.325
X-90.79 Y-10.294
X-90.788 Y-10.26
X-90.797 Y-10.227
X-90.817 Y-10.199
X-90.845 Y-10.179
X-90.878 Y-10.17
X-91.245 Y-10.134
X-91.275 Y-10.136
X-91.304 Y-10.147
X-91.328 Y-10.166
X-91.418 Y-10.271
X-91.464 Y-10.331
X-91.482 Y-10.404
X-91.48 Y-10.479
X-91.426 Y-10.619
X-91.413 Y-10.629
X-91.304 Y-10.687
X-91.181 Y-10.696
X-91.065 Y-10.654
X-90.975 Y-10.57
X-90.888 Y-10.445
X-90.875 Y-10.414
X-90.872 Y-10.381
X-90.881 Y-10.349
X-90.9 Y-10.321
X-90.926 Y-10.301
X-90.958 Y-10.291
X-91.331 Y-10.24
X-91.363 Y-10.241
X-91.393 Y-10.252
X-91.418 Y-10.271
X-91.472 Y-10.335
X-91.524 Y-10.398
X-91.568 Y-10.459
X-91.584 Y-10.532
X-91.577 Y-10.607
X-91.518 Y-10.745
X-91.499 Y-10.76
X-91.388 Y-10.817
X-91.264 Y-10.824
X-91.148 Y-10.781
X-91.059 Y-10.694
X-90.975 Y-10.57
X-90.962 Y-10.539
X-90.959 Y-10.506
X-90.968 Y-10.473
X-90.987 Y-10.446
X-91.014 Y-10.426
X-91.046 Y-10.416
X-91.436 Y-10.365
X-91.468 Y-10.366
X-91.499 Y-10.378
X-91.524 Y-10.398
X-91.61 Y-10.504
X-91.629 Y-10.528
X-91.672 Y-10.589
X-91.684 Y-10.663
X-91.673 Y-10.738
X-91.611 Y-10.874
X-91.587 Y-10.893
X-91.476 Y-10.95
X-91.353 Y-10.957
X-91.236 Y-10.914
X-91.148 Y-10.827
X-91.059 Y-10.694
X-91.047 Y-10.663
X-91.045 Y-10.63
X-91.054 Y-10.598
X-91.074 Y-10.571
X-91.101 Y-10.552
X-91.132 Y-10.542
X-91.54 Y-10.493
X-91.573 Y-10.495
X-91.604 Y-10.507
X-91.629 Y-10.528
X-91.741 Y-10.673
X-91.762 Y-10.704
X-91.777 Y-10.777
X-91.771 Y-10.852
X-91.716 Y-10.991
X-91.69 Y-11.016
X-91.579 Y-11.08
X-91.451 Y-11.093
X-91.33 Y-11.05
X-91.237 Y-10.961
X-91.148 Y-10.827
X-91.135 Y-10.796
X-91.134 Y-10.762
X-91.144 Y-10.729
X-91.164 Y-10.702
X-91.192 Y-10.683
X-91.224 Y-10.675
X-91.655 Y-10.637
X-91.687 Y-10.639
X-91.717 Y-10.652
X-91.741 Y-10.673
X-91.826 Y-10.782
X-91.868 Y-10.844
X-91.879 Y-10.918
X-91.857 Y-11.066
X-91.767 Y-11.186
X-91.739 Y-11.203
X-91.631 Y-11.241
X-91.517 Y-11.237
X-91.413 Y-11.19
X-91.334 Y-11.108
X-91.237 Y-10.961
X-91.224 Y-10.924
X-91.225 Y-10.885
X-91.242 Y-10.849
X-91.271 Y-10.823
X-91.308 Y-10.81
X-91.734 Y-10.747
X-91.768 Y-10.748
X-91.8 Y-10.76
X-91.826 Y-10.782
X-91.926 Y-10.912
X-91.969 Y-10.974
X-91.99 Y-11.122
X-91.936 Y-11.262
X-91.83 Y-11.368
X-91.808 Y-11.378
X-91.668 Y-11.403
X-91.532 Y-11.361
X-91.431 Y-11.261
X-91.355 Y-11.14
X-91.334 Y-11.108
X-91.321 Y-11.072
X-91.322 Y-11.034
X-91.338 Y-10.999
X-91.366 Y-10.972
X-91.401 Y-10.958
X-91.831 Y-10.878
X-91.866
X-91.899 Y-10.89
X-91.926 Y-10.912
X-92.011 Y-11.022
X-92.038 Y-11.062
X-92.078 Y-11.126
X-92.09 Y-11.2
X-92.069 Y-11.348
X-91.988 Y-11.475
X-91.865 Y-11.56
X-91.861 Y-11.561
X-91.736 Y-11.565
X-91.62 Y-11.518
X-91.533 Y-11.427
X-91.431 Y-11.261
X-91.419 Y-11.225
X-91.42 Y-11.188
X-91.436 Y-11.153
X-91.463 Y-11.127
X-91.498 Y-11.113
X-91.939 Y-11.024
X-91.976
X-92.011 Y-11.037
X-92.038 Y-11.062
X-92.095 Y-11.146
X-92.134 Y-11.205
X-92.173 Y-11.27
X-92.197 Y-11.418
X-92.146 Y-11.559
X-92.05 Y-11.674
X-92.023 Y-11.689
X-91.916 Y-11.721
X-91.804 Y-11.713
X-91.703 Y-11.663
X-91.627 Y-11.58
X-91.533 Y-11.427
X-91.521 Y-11.393
X-91.522 Y-11.356
X-91.536 Y-11.323
X-91.562 Y-11.296
X-91.595 Y-11.281
X-92.028 Y-11.167
X-92.058 Y-11.163
X-92.087 Y-11.169
X-92.113 Y-11.184
X-92.134 Y-11.205
X-92.249 Y-11.377
X-92.287 Y-11.442
X-92.301 Y-11.591
X-92.249 Y-11.731
X-92.143 Y-11.838
X-92.109 Y-11.854
X-91.967 Y-11.883
X-91.827 Y-11.841
X-91.724 Y-11.739
X-91.627 Y-11.58
X-91.615 Y-11.545
X-91.617 Y-11.508
X-91.632 Y-11.474
X-91.659 Y-11.447
X-91.694 Y-11.433
X-92.147 Y-11.338
X-92.185 Y-11.337
X-92.221 Y-11.351
X-92.249 Y-11.377
X-92.342 Y-11.517
X-92.38 Y-11.582
X-92.398 Y-11.655
X-92.386 Y-11.804
X-92.311 Y-11.935
X-92.192 Y-12.026
X-92.168 Y-12.034
X-92.029 Y-12.046
X-91.9 Y-11.995
X-91.808 Y-11.891
X-91.798 Y-11.858
X-91.801 Y-11.824
X-91.814 Y-11.792
X-91.838 Y-11.767
X-92.201 Y-11.496
X-92.236 Y-11.479
X-92.276 Y-11.477
X-92.313 Y-11.491
X-92.342 Y-11.517
X-92.434 Y-11.655
X-92.453 Y-11.686
X-92.489 Y-11.752
X-92.509 Y-11.901
X-92.453 Y-12.04
X-92.354 Y-12.153
X-92.222 Y-12.224
X-92.216 Y-12.225
X-92.093 Y-12.219
X-91.983 Y-12.164
X-91.904 Y-12.07
X-91.744 Y-11.771
X-91.724 Y-11.739
X-91.712 Y-11.705
X-91.714 Y-11.668
X-91.728 Y-11.635
X-91.752 Y-11.609
X-91.785 Y-11.593
X-91.821 Y-11.59
X-92.38 Y-11.643
X-92.408 Y-11.65
X-92.433 Y-11.665
X-92.453 Y-11.686
X-92.558 Y-11.855
X-92.594 Y-11.921
X-92.61 Y-12.07
X-92.555 Y-12.21
X-92.458 Y-12.324
X-92.327 Y-12.397
X-92.197
X-92.08 Y-12.343
X-91.997 Y-12.246
X-91.904 Y-12.07
X-91.894 Y-12.036
X-91.897 Y-12
X-91.912 Y-11.968
X-91.938 Y-11.943
X-91.97 Y-11.929
X-92.452 Y-11.814
X-92.482 Y-11.811
X-92.511 Y-11.818
X-92.538 Y-11.833
X-92.558 Y-11.855
X-92.662 Y-12.024
X-92.698 Y-12.09
X-92.713 Y-12.239
X-92.659 Y-12.38
X-92.563 Y-12.494
X-92.433 Y-12.57
X-92.423 Y-12.572
X-92.29 Y-12.574
X-92.171 Y-12.518
X-92.086 Y-12.416
X-92.011 Y-12.27
X-91.997 Y-12.246
X-91.988 Y-12.211
X-91.991 Y-12.176
X-92.006 Y-12.144
X-92.031 Y-12.119
X-92.063 Y-12.105
X-92.554 Y-11.982
X-92.585 Y-11.98
X-92.615 Y-11.986
X-92.641 Y-12.002
X-92.662 Y-12.024
X-92.765 Y-12.193
X-92.801 Y-12.259
X-92.817 Y-12.408
X-92.765 Y-12.549
X-92.67 Y-12.665
X-92.541 Y-12.742
X-92.519 Y-12.748
X-92.383 Y-12.752
X-92.259 Y-12.695
X-92.173 Y-12.59
X-92.102 Y-12.447
X-92.086 Y-12.416
X-92.077 Y-12.382
X-92.08 Y-12.347
X-92.096 Y-12.316
X-92.121 Y-12.291
X-92.153 Y-12.277
X-92.658 Y-12.151
X-92.688 Y-12.149
X-92.718 Y-12.155
X-92.745 Y-12.171
X-92.765 Y-12.193
X-92.868 Y-12.362
X-92.9 Y-12.43
X-92.919 Y-12.579
X-92.868 Y-12.72
X-92.774 Y-12.837
X-92.647 Y-12.916
X-92.615 Y-12.926
X-92.476 Y-12.933
X-92.348 Y-12.877
X-92.26 Y-12.769
X-92.252 Y-12.736
X-92.255 Y-12.703
X-92.269 Y-12.672
X-92.293 Y-12.648
X-92.727 Y-12.336
X-92.755 Y-12.322
X-92.787 Y-12.317
X-92.819 Y-12.323
X-92.847 Y-12.339
X-92.868 Y-12.362
X-92.97 Y-12.557
X-93 Y-12.625
X-93.009 Y-12.775
X-92.951 Y-12.913
X-92.854 Y-13.027
X-92.724 Y-13.102
X-92.694 Y-13.11
X-92.557 Y-13.113
X-92.433 Y-13.056
X-92.348 Y-12.95
X-92.173 Y-12.59
X-92.164 Y-12.556
X-92.168 Y-12.522
X-92.183 Y-12.491
X-92.207 Y-12.466
X-92.239 Y-12.452
X-92.273 Y-12.449
X-92.891 Y-12.506
X-92.922 Y-12.514
X-92.949 Y-12.531
X-92.97 Y-12.557
X-93.056 Y-12.726
X-93.086 Y-12.794
X-93.106 Y-12.943
X-93.053 Y-13.083
X-92.958 Y-13.199
X-92.83 Y-13.278
X-92.792 Y-13.289
X-92.647 Y-13.297
X-92.516 Y-13.237
X-92.427 Y-13.122
X-92.42 Y-13.09
X-92.424 Y-13.056
X-92.439 Y-13.026
X-92.463 Y-13.003
X-92.911 Y-12.692
X-92.941 Y-12.678
X-92.974 Y-12.674
X-93.007 Y-12.682
X-93.035 Y-12.7
X-93.056 Y-12.726
X-93.152 Y-12.915
X-93.183 Y-12.984
X-93.195 Y-13.133
X-93.138 Y-13.272
X-93.041 Y-13.386
X-92.912 Y-13.463
X-92.861 Y-13.478
X-92.716 Y-13.483
X-92.585 Y-13.419
X-92.5 Y-13.302
X-92.427 Y-13.122
X-92.39 Y-13.038
X-92.348 Y-12.95
X-92.339 Y-12.916
X-92.343 Y-12.882
X-92.358 Y-12.851
X-92.382 Y-12.827
X-92.414 Y-12.813
X-92.448 Y-12.81
X-93.074 Y-12.864
X-93.105 Y-12.872
X-93.132 Y-12.89
X-93.152 Y-12.915
X-93.258 Y-13.122
X-93.289 Y-13.191
X-93.281 Y-13.341
X-93.215 Y-13.475
X-93.111 Y-13.584
X-92.98 Y-13.656
X-92.931 Y-13.669
X-92.787 Y-13.671
X-92.659 Y-13.607
X-92.575 Y-13.49
X-92.5 Y-13.302
X-92.494 Y-13.267
X-92.5 Y-13.233
X-92.517 Y-13.203
X-92.544 Y-13.18
X-92.577 Y-13.169
X-93.154 Y-13.072
X-93.185
X-93.214 Y-13.081
X-93.239 Y-13.098
X-93.258 Y-13.122
X-93.344 Y-13.291
X-93.375 Y-13.36
X-93.377 Y-13.51
X-93.316 Y-13.647
X-93.216 Y-13.759
X-93.088 Y-13.837
X-92.945 Y-13.882
X-92.933
X-92.818 Y-13.858
X-92.72 Y-13.792
X-92.656 Y-13.693
X-92.575 Y-13.49
X-92.57 Y-13.456
X-92.575 Y-13.422
X-92.592 Y-13.393
X-92.618 Y-13.37
X-92.65 Y-13.358
X-93.237 Y-13.242
X-93.269 Y-13.24
X-93.299 Y-13.249
X-93.325 Y-13.267
X-93.344 Y-13.291
X-93.43 Y-13.46
X-93.461 Y-13.529
X-93.474 Y-13.678
X-93.418 Y-13.817
X-93.323 Y-13.933
X-93.202 Y-14.022
X-93.062 Y-14.077
X-93.037 Y-14.079
X-92.907 Y-14.063
X-92.796 Y-13.993
X-92.726 Y-13.883
X-92.664 Y-13.714
X-92.656 Y-13.693
X-92.65 Y-13.661
X-92.656 Y-13.628
X-92.671 Y-13.599
X-92.695 Y-13.576
X-92.726 Y-13.563
X-93.318 Y-13.412
X-93.351 Y-13.409
X-93.383 Y-13.417
X-93.41 Y-13.435
X-93.43 Y-13.46
X-93.517 Y-13.629
X-93.533 Y-13.665
X-93.56 Y-13.735
X-93.558 Y-13.885
X-93.497 Y-14.022
X-93.4 Y-14.136
X-93.279 Y-14.225
X-93.138 Y-14.276
X-93.109 Y-14.278
X-92.979 Y-14.262
X-92.869 Y-14.192
X-92.798 Y-14.082
X-92.726 Y-13.883
X-92.721 Y-13.85
X-92.727 Y-13.818
X-92.744 Y-13.789
X-92.768 Y-13.767
X-92.799 Y-13.754
X-93.422 Y-13.613
X-93.455 Y-13.611
X-93.487 Y-13.62
X-93.514 Y-13.638
X-93.533 Y-13.665
X-93.618 Y-13.855
X-93.645 Y-13.925
Y-14.075
X-93.585 Y-14.213
X-93.49 Y-14.329
X-93.37 Y-14.419
X-93.23 Y-14.473
X-93.19 Y-14.478
X-93.055 Y-14.465
X-92.94 Y-14.393
X-92.868 Y-14.278
X-92.848 Y-14.22
X-92.798 Y-14.082
X-92.793 Y-14.049
X-92.799 Y-14.017
X-92.815 Y-13.989
X-92.84 Y-13.967
X-92.87 Y-13.954
X-92.872 Y-13.953
X-93.505 Y-13.802
X-93.538 Y-13.8
X-93.571 Y-13.809
X-93.598 Y-13.828
X-93.618 Y-13.855
X-93.666 Y-13.967
X-93.7 Y-14.051
X-93.725 Y-14.122
X-93.728 Y-14.272
X-93.669 Y-14.41
X-93.575 Y-14.527
X-93.455 Y-14.617
X-93.316 Y-14.672
X-93.259 Y-14.681
X-93.12 Y-14.668
X-93.001 Y-14.593
X-92.929 Y-14.472
X-92.878 Y-14.305
X-92.868 Y-14.278
X-92.864 Y-14.246
X-92.87 Y-14.214
X-92.887 Y-14.186
X-92.911 Y-14.164
X-92.941 Y-14.152
X-92.957 Y-14.148
X-93.585 Y-13.995
X-93.62 Y-13.993
X-93.653 Y-14.002
X-93.681 Y-14.023
X-93.7 Y-14.051
X-93.787 Y-14.266
X-93.812 Y-14.337
X-93.806 Y-14.486
X-93.744 Y-14.623
X-93.645 Y-14.736
X-93.524 Y-14.824
X-93.384 Y-14.877
X-93.322 Y-14.887
X-93.182 Y-14.874
X-93.063 Y-14.798
X-92.991 Y-14.676
X-92.988 Y-14.644
X-92.996 Y-14.612
X-93.013 Y-14.584
X-93.039 Y-14.564
X-93.108 Y-14.525
X-93.647 Y-14.22
X-93.678 Y-14.208
X-93.711
X-93.742 Y-14.218
X-93.769 Y-14.238
X-93.787 Y-14.266
X-93.871 Y-14.474
X-93.896 Y-14.545
X-93.886 Y-14.694
X-93.82 Y-14.829
X-93.721 Y-14.941
X-93.599 Y-15.029
X-93.459 Y-15.083
X-93.311 Y-15.107
X-93.303 Y-15.106
X-93.194 Y-15.069
X-93.107 Y-14.993
X-93.055 Y-14.891
X-93.053 Y-14.859
X-93.06 Y-14.828
X-93.078 Y-14.8
X-93.103 Y-14.78
X-93.191 Y-14.73
X-93.731 Y-14.427
X-93.762 Y-14.416
X-93.795
X-93.827 Y-14.426
X-93.853 Y-14.446
X-93.871 Y-14.474
X-93.94 Y-14.643
X-93.965 Y-14.714
X-93.976 Y-14.863
X-93.921 Y-15.002
X-93.829 Y-15.121
X-93.712 Y-15.215
X-93.578 Y-15.283
X-93.433 Y-15.32
X-93.401
X-93.275 Y-15.292
X-93.173 Y-15.213
X-93.114 Y-15.1
X-93.111 Y-15.069
X-93.119 Y-15.038
X-93.135 Y-15.012
X-93.158 Y-14.991
X-93.273 Y-14.921
X-93.796 Y-14.598
X-93.828 Y-14.586
X-93.862 Y-14.584
X-93.894 Y-14.594
X-93.921 Y-14.615
X-93.94 Y-14.643
X-94.026 Y-14.856
X-94.051 Y-14.926
X-94.054 Y-15.076
X-93.996 Y-15.215
X-93.902 Y-15.332
X-93.785 Y-15.426
X-93.653 Y-15.497
X-93.507 Y-15.532
X-93.465 Y-15.533
X-93.336 Y-15.506
X-93.232 Y-15.427
X-93.171 Y-15.311
X-93.169 Y-15.279
X-93.176 Y-15.249
X-93.193 Y-15.222
X-93.217 Y-15.202
X-93.352 Y-15.123
X-93.884 Y-14.81
X-93.916 Y-14.798
X-93.949 Y-14.797
X-93.981 Y-14.808
X-94.008 Y-14.828
X-94.026 Y-14.856
X-94.111 Y-15.065
X-94.144 Y-15.211
X-94.111 Y-15.358
X-94.033 Y-15.486
X-93.928 Y-15.593
X-93.803 Y-15.675
X-93.664 Y-15.732
X-93.515 Y-15.754
X-93.49 Y-15.751
X-93.374 Y-15.716
X-93.282 Y-15.637
X-93.229 Y-15.529
X-93.227 Y-15.497
X-93.234 Y-15.467
X-93.252 Y-15.44
X-93.276 Y-15.42
X-93.435 Y-15.328
X-93.97 Y-15.019
X-94.001 Y-15.007
X-94.034
X-94.066 Y-15.017
X-94.093 Y-15.037
X-94.111 Y-15.065
X-94.181 Y-15.318
X-94.211 Y-15.466
X-94.166 Y-15.609
X-94.08 Y-15.732
X-93.969 Y-15.832
X-93.839 Y-15.907
X-93.698 Y-15.959
X-93.549 Y-15.974
X-93.533 Y-15.972
X-93.42 Y-15.932
X-93.331 Y-15.852
X-93.281 Y-15.743
X-93.261 Y-15.656
X-93.24 Y-15.572
X-93.173 Y-15.318
X-93.104 Y-15.065
X-93.032 Y-14.812
X-92.929 Y-14.472
X-92.926 Y-14.436
X-92.936 Y-14.401
X-92.958 Y-14.373
X-92.988 Y-14.353
X-93.024 Y-14.346
X-93.059 Y-14.352
X-93.091 Y-14.37
X-93.495 Y-14.714
X-93.595 Y-14.8
X-94.151 Y-15.272
X-94.169 Y-15.293
X-94.181 Y-15.318
X-94.21 Y-15.434
X-94.243 Y-15.572
X-94.256 Y-15.646
X-94.234 Y-15.794
X-94.158 Y-15.923
X-94.053 Y-16.03
X-93.928 Y-16.113
X-93.789 Y-16.171
X-93.642 Y-16.196
X-93.606 Y-16.194
X-93.483 Y-16.159
X-93.386 Y-16.077
X-93.332 Y-15.962
X-93.281 Y-15.743
X-93.28 Y-15.711
X-93.289 Y-15.681
X-93.307 Y-15.654
X-93.333 Y-15.635
X-93.363 Y-15.625
X-93.5 Y-15.603
X-94.13 Y-15.499
X-94.166 Y-15.5
X-94.2 Y-15.514
X-94.227 Y-15.539
X-94.243 Y-15.572
X-94.295 Y-15.793
X-94.308 Y-15.867
X-94.287 Y-16.015
X-94.212 Y-16.145
X-94.106 Y-16.252
X-93.981 Y-16.334
X-93.843 Y-16.392
X-93.694 Y-16.415
X-93.655 Y-16.413
X-93.532 Y-16.378
X-93.435 Y-16.295
X-93.381 Y-16.179
X-93.332 Y-15.962
X-93.331 Y-15.93
X-93.34 Y-15.899
X-93.359 Y-15.873
X-93.384 Y-15.854
X-93.415 Y-15.844
X-93.551 Y-15.822
X-94.182 Y-15.721
X-94.219
X-94.252 Y-15.735
X-94.279 Y-15.76
X-94.295 Y-15.793
X-94.353 Y-16.041
X-94.367 Y-16.114
X-94.333 Y-16.261
X-94.252 Y-16.387
X-94.142 Y-16.489
X-94.014 Y-16.566
X-93.873 Y-16.619
X-93.724 Y-16.637
X-93.689 Y-16.633
X-93.568 Y-16.594
X-93.474 Y-16.508
X-93.424 Y-16.392
X-93.396 Y-16.248
X-93.381 Y-16.179
X-93.38 Y-16.146
X-93.39 Y-16.115
X-93.41 Y-16.089
X-93.436 Y-16.07
X-93.467 Y-16.061
X-93.606 Y-16.045
X-94.245 Y-15.968
X-94.28 Y-15.97
X-94.312 Y-15.984
X-94.338 Y-16.009
X-94.353 Y-16.041
X-94.402 Y-16.248
X-94.415 Y-16.321
X-94.39 Y-16.469
X-94.312 Y-16.597
X-94.204 Y-16.702
X-94.077 Y-16.782
X-93.938 Y-16.837
X-93.79 Y-16.859
X-93.741 Y-16.856
X-93.616 Y-16.819
X-93.518 Y-16.732
X-93.466 Y-16.612
X-93.467 Y-16.58
X-93.478 Y-16.549
X-93.498 Y-16.523
X-93.525 Y-16.505
X-93.703 Y-16.428
X-94.265 Y-16.182
X-94.299 Y-16.174
X-94.333 Y-16.178
X-94.363 Y-16.192
X-94.387 Y-16.217
X-94.402 Y-16.248
X-94.452 Y-16.463
X-94.465 Y-16.537
X-94.442 Y-16.685
X-94.366 Y-16.814
X-94.259 Y-16.92
X-94.133 Y-17.001
X-93.994 Y-17.058
X-93.846 Y-17.081
X-93.787 Y-17.079
X-93.656 Y-17.042
X-93.555 Y-16.951
X-93.505 Y-16.826
X-93.506 Y-16.794
X-93.517 Y-16.764
X-93.537 Y-16.739
X-93.564 Y-16.722
X-93.753 Y-16.64
X-94.316 Y-16.396
X-94.349 Y-16.388
X-94.383 Y-16.392
X-94.414 Y-16.407
X-94.438 Y-16.432
X-94.452 Y-16.463
X-94.461 Y-16.501
X-94.497 Y-16.716
X-94.506 Y-16.791
X-94.475 Y-16.937
X-94.392 Y-17.063
X-94.281 Y-17.164
X-94.151 Y-17.239
X-94.01 Y-17.288
X-93.861 Y-17.305
X-93.801 Y-17.3
X-93.672 Y-17.258
X-93.576 Y-17.163
X-93.53 Y-17.036
X-93.533 Y-17.004
X-93.545 Y-16.975
X-93.566 Y-16.951
X-93.594 Y-16.935
X-93.791 Y-16.86
X-94.364 Y-16.643
X-94.398 Y-16.637
X-94.432 Y-16.642
X-94.462 Y-16.659
X-94.485 Y-16.684
X-94.497 Y-16.716
X-94.504 Y-16.754
X-94.534 Y-16.97
X-94.54 Y-17.044
X-94.5 Y-17.189
X-94.412 Y-17.31
X-94.296 Y-17.406
X-94.163 Y-17.475
X-94.121 Y-17.488
X-94.092 Y-17.495
X-94.063 Y-17.5
X-94.033 Y-17.501
X-93.996 Y-17.492
X-93.965 Y-17.471
X-93.944 Y-17.439
X-93.936 Y-17.401
X-93.944 Y-17.364
X-93.964 Y-17.332
X-93.972 Y-17.324
X-94.363 Y-16.917
X-94.393 Y-16.896
X-94.428 Y-16.887
X-94.464 Y-16.891
X-94.497 Y-16.908
X-94.521 Y-16.935
X-94.534 Y-16.97
X-94.562 Y-17.177
X-94.568 Y-17.223
X-94.573 Y-17.261
X-94.576 Y-17.299
X-94.574 Y-17.304
X-94.51 Y-17.407
X-94.411 Y-17.477
X-94.292 Y-17.501
X-94.258 Y-17.494
X-94.228 Y-17.474
X-94.206 Y-17.446
X-94.196 Y-17.412
X-94.199 Y-17.376
X-94.214 Y-17.344
X-94.239 Y-17.319
X-94.418 Y-17.196
X-94.448 Y-17.182
X-94.481 Y-17.178
X-94.513 Y-17.186
X-94.541 Y-17.204
X-94.562 Y-17.23
X-94.573 Y-17.261
X-94.584 Y-17.346
X-94.589 Y-17.388
Y-17.398
X-94.587 Y-17.409
X-94.584 Y-17.42
X-94.58 Y-17.43
X-94.568 Y-17.45
X-94.549 Y-17.469
X-94.527 Y-17.486
X-94.517 Y-17.491
X-94.506 Y-17.496
X-94.496 Y-17.499
X-94.485 Y-17.5
X-94.379 Y-17.501
X-93.872
X-93.722 Y-17.494
X-93.643 Y-17.446
X-93.587 Y-17.373
X-93.56 Y-17.286
X-93.563 Y-17.249
X-93.579 Y-17.217
X-93.606 Y-17.192
X-93.64 Y-17.179
X-93.676
X-93.71 Y-17.191
X-93.919 Y-17.315
X-93.947 Y-17.339
X-93.964 Y-17.371
X-93.968 Y-17.408
X-93.959 Y-17.443
X-93.938 Y-17.473
X-93.907 Y-17.493
X-93.872 Y-17.501
X-93.681
X-93.671 Y-17.5
X-93.66 Y-17.498
X-93.65 Y-17.495
X-93.639 Y-17.49
X-93.629 Y-17.484
X-93.618 Y-17.475
X-93.596 Y-17.453
X-93.588 Y-17.441
X-93.582 Y-17.43
X-93.577 Y-17.42
X-93.575 Y-17.409
X-93.507 Y-16.839
X-93.493 Y-16.754
X-93.424 Y-16.392
Y-16.363
X-93.432 Y-16.336
X-93.457 Y-16.314 Z-0.983
X-93.479 Y-16.294 Z-0.966
X-93.495 Y-16.28 Z-0.939
X-93.504 Y-16.278 Z-0.915
X-93.508 Y-16.277 Z-0.89
G0 Z2
X-87.022 Y-16.729
Z0.5
G3 X-86.537 Y-16.853 Z0.29 I0.242 J-0.062 F333.3
X-87.022 Y-16.729 Z0.079 I-0.242 J0.062
X-86.537 Y-16.853 Z-0.131 I0.242 J-0.062
X-87.022 Y-16.729 Z-0.342 I-0.242 J0.062
X-86.537 Y-16.853 Z-0.552 I0.242 J-0.062
X-87.022 Y-16.729 Z-0.763 I-0.242 J0.062
X-86.811 Y-17.039 Z-0.876 I0.242 J-0.062
X-86.53 Y-16.791 Z-0.99 I0.031 J0.248
X-87.03 I-0.25
X-86.53 I0.25
G1 X-86.492 Y-16.646 F1000
X-86.505 Y-16.572
X-86.542 Y-16.507
X-86.649 Y-16.402
X-86.794 Y-16.362
X-86.942 Y-16.383
X-87.073 Y-16.457
X-87.17 Y-16.572
X-87.222 Y-16.712
X-87.224 Y-16.862
X-87.176 Y-17.005
X-87.084 Y-17.123
X-86.958 Y-17.205
X-86.813 Y-17.241
X-86.663 Y-17.227
X-86.527 Y-17.165
X-86.418 Y-17.061
X-86.34 Y-16.933
X-86.29 Y-16.792
X-86.279 Y-16.642
X-86.315 Y-16.496
X-86.385 Y-16.364
X-86.494 Y-16.26
X-86.624 Y-16.187
X-86.771 Y-16.154
X-86.921 Y-16.161
X-87.065 Y-16.202
X-87.194 Y-16.278
X-87.301 Y-16.383
X-87.383 Y-16.509
X-87.433 Y-16.65
X-87.447 Y-16.8
X-87.431 Y-16.949
X-87.38 Y-17.09
X-87.297 Y-17.215
X-87.191 Y-17.321
X-87.064 Y-17.4
X-86.921 Y-17.446
X-86.772 Y-17.462
X-86.623 Y-17.444
X-86.482 Y-17.392
X-86.356 Y-17.312
X-86.247 Y-17.208
X-86.159 Y-17.087
X-86.097 Y-16.95
X-86.058 Y-16.805
X-86.054 Y-16.721
X-86.058 Y-16.653
X-86.077 Y-16.589
X-86.109 Y-16.53
X-86.13 Y-16.501
X-86.173 Y-16.416
X-86.187 Y-16.37
X-86.237 Y-16.228
X-86.335 Y-16.114
X-86.456 Y-16.026
X-86.592 Y-15.964
X-86.739 Y-15.93
X-86.888 Y-15.926
X-87.037 Y-15.95
X-87.081 Y-15.966
X-87.141 Y-15.995
X-87.194 Y-16.036
X-87.236 Y-16.088
X-87.31 Y-16.205
X-87.32 Y-16.226
X-87.397 Y-16.416
X-87.442 Y-16.536
X-87.522 Y-16.754
X-87.548 Y-16.839
X-87.585 Y-16.984
X-87.568 Y-17.133
X-87.513 Y-17.273
X-87.43 Y-17.397
X-87.415 Y-17.412
X-87.353 Y-17.46
X-87.28 Y-17.491
X-87.202 Y-17.501
X-87.164 Y-17.492
X-87.132 Y-17.469
X-87.112 Y-17.436
X-87.106 Y-17.397
X-87.115 Y-17.359
X-87.13 Y-17.326
X-87.363 Y-16.829
X-87.386 Y-16.798
X-87.42 Y-16.777
X-87.459 Y-16.772
X-87.497 Y-16.781
X-87.528 Y-16.805
X-87.548 Y-16.839
X-87.611 Y-17.046
X-87.637 Y-17.177
X-87.646 Y-17.223
X-87.653 Y-17.261
X-87.663 Y-17.334
X-87.608 Y-17.421
X-87.523 Y-17.48
X-87.421 Y-17.501
G3 X-87.235 Y-17.283 I-0.007 J0.194
X-87.653 Y-17.261 I-0.211 J-0.026
G1 X-87.669 Y-17.346
X-87.675 Y-17.388
X-87.674 Y-17.398
X-87.673 Y-17.409
X-87.67 Y-17.42
X-87.666 Y-17.43
X-87.657 Y-17.445
X-87.646 Y-17.46
X-87.628 Y-17.478
X-87.611 Y-17.489
X-87.601 Y-17.494
X-87.59 Y-17.498
X-87.58 Y-17.5
X-87.569 Y-17.501
X-86.465
X-86.315 Y-17.494
X-86.181 Y-17.426
X-86.066 Y-17.33
X-85.971 Y-17.214
X-85.897 Y-17.084
X-85.869 Y-17.008
X-85.853 Y-16.884
X-85.888 Y-16.764
X-85.968 Y-16.669
X-86.004 Y-16.642
X-86.064 Y-16.585
X-86.088 Y-16.559
X-86.109 Y-16.53
X-86.136 Y-16.506
X-86.169 Y-16.493
X-86.205 Y-16.492
X-86.239 Y-16.504
X-86.266 Y-16.528
X-86.283 Y-16.559
X-86.365 Y-16.801
X-86.556 Y-17.369
X-86.561 Y-17.406
X-86.553 Y-17.442
X-86.532 Y-17.472
X-86.501 Y-17.493
X-86.465 Y-17.501
X-86.173
X-86.023 Y-17.494
X-85.892 Y-17.42
X-85.784 Y-17.316
X-85.704 Y-17.19
X-85.675 Y-17.114
X-85.656 Y-17.001
X-85.681 Y-16.89
X-85.745 Y-16.796
X-85.84 Y-16.732
X-85.875 Y-16.726
X-85.911 Y-16.732
X-85.942 Y-16.751
X-85.964 Y-16.78
X-85.992 Y-16.835
X-86.259 Y-17.356
X-86.269 Y-17.387
X-86.268 Y-17.421
X-86.256 Y-17.452
X-86.234 Y-17.477
X-86.206 Y-17.494
X-86.173 Y-17.501
X-85.919
X-85.769 Y-17.494
X-85.639 Y-17.42
X-85.539 Y-17.308
X-85.472 Y-17.173
X-85.461 Y-17.106
X-85.466 Y-16.984
X-85.519 Y-16.874
X-85.611 Y-16.794
X-85.727 Y-16.758
X-85.76 Y-16.761
X-85.79 Y-16.774
X-85.813 Y-16.797
X-85.829 Y-16.826
X-86.011 Y-17.369
X-86.016 Y-17.406
X-86.007 Y-17.442
X-85.986 Y-17.472
X-85.955 Y-17.493
X-85.919 Y-17.501
X-85.665
X-85.591 Y-17.497
X-85.449 Y-17.447
X-85.342 Y-17.342
X-85.278 Y-17.206
X-85.254 Y-17.058
X-85.259 Y-17.021
X-85.309 Y-16.89
X-85.414 Y-16.797
X-85.55 Y-16.761
X-85.727 Y-16.758
X-85.76 Y-16.764
X-85.789 Y-16.78
X-85.811 Y-16.805
X-85.823 Y-16.836
X-85.825 Y-16.869
X-85.761 Y-17.413
X-85.751 Y-17.447
X-85.73 Y-17.475
X-85.7 Y-17.494
X-85.665 Y-17.501
X-85.45
X-85.375 Y-17.497
X-85.234 Y-17.445
X-85.133 Y-17.335
X-85.069 Y-17.199
X-85.053 Y-17.05
X-85.059 Y-17.015
X-85.113 Y-16.886
X-85.219 Y-16.795
X-85.355 Y-16.763
X-85.526 Y-16.761
X-85.55
X-85.584 Y-16.768
X-85.614 Y-16.785
X-85.636 Y-16.812
X-85.647 Y-16.845
Y-16.88
X-85.544 Y-17.42
X-85.533 Y-17.451
X-85.511 Y-17.477
X-85.483 Y-17.494
X-85.45 Y-17.501
X-85.242
X-85.168 Y-17.497
X-85.027 Y-17.444
X-84.926 Y-17.333
X-84.865 Y-17.197
X-84.851 Y-17.047
X-84.857 Y-17.012
X-84.912 Y-16.884
X-85.018 Y-16.795
X-85.153 Y-16.763
X-85.355
X-85.389 Y-16.77
X-85.418 Y-16.788
X-85.44 Y-16.815
X-85.45 Y-16.848
X-85.449 Y-16.883
X-85.337 Y-17.422
X-85.325 Y-17.452
X-85.303 Y-17.478
X-85.275 Y-17.494
X-85.242 Y-17.501
X-85.027
X-84.952 Y-17.497
X-84.814 Y-17.437
X-84.717 Y-17.323
X-84.659 Y-17.185
X-84.649 Y-17.035
X-84.655 Y-17.004
X-84.712 Y-16.88
X-84.817 Y-16.794
X-84.95 Y-16.763
X-85.153
X-85.187 Y-16.77
X-85.217 Y-16.789
X-85.238 Y-16.817
X-85.249 Y-16.85
X-85.247 Y-16.885
X-85.121 Y-17.424
X-85.108 Y-17.454
X-85.087 Y-17.478
X-85.059 Y-17.495
X-85.027 Y-17.501
X-84.819
X-84.745 Y-17.497
X-84.608 Y-17.435
X-84.511 Y-17.32
X-84.455 Y-17.182
X-84.446 Y-17.032
X-84.452 Y-17.002
X-84.509 Y-16.879
X-84.614 Y-16.793
X-84.746 Y-16.763
X-84.95
X-84.984 Y-16.77
X-85.014 Y-16.789
X-85.035 Y-16.817
X-85.045 Y-16.851
X-85.043 Y-16.886
X-84.913 Y-17.425
X-84.901 Y-17.454
X-84.879 Y-17.479
X-84.851 Y-17.495
X-84.819 Y-17.501
X-84.604
X-84.529 Y-17.497
X-84.396 Y-17.428
X-84.303 Y-17.311
X-84.249 Y-17.17
X-84.243 Y-17.021
X-84.249 Y-16.995
X-84.307 Y-16.875
X-84.411 Y-16.792
X-84.541 Y-16.763
X-84.746
X-84.781 Y-16.77
X-84.811 Y-16.79
X-84.832 Y-16.818
X-84.842 Y-16.853
X-84.839 Y-16.888
X-84.697 Y-17.427
X-84.684 Y-17.456
X-84.663 Y-17.479
X-84.635 Y-17.495
X-84.604 Y-17.501
X-84.396
X-84.322 Y-17.497
X-84.189 Y-17.426
X-84.097 Y-17.308
X-84.044 Y-17.168
X-84.039 Y-17.018
X-84.044 Y-16.994
X-84.103 Y-16.875
X-84.207 Y-16.792
X-84.336 Y-16.763
X-84.541
X-84.576 Y-16.77
X-84.606 Y-16.79
X-84.628 Y-16.819
X-84.637 Y-16.853
X-84.634 Y-16.889
X-84.49 Y-17.427
X-84.477 Y-17.456
X-84.455 Y-17.479
X-84.428 Y-17.495
X-84.396 Y-17.501
X-84.227
X-84.152 Y-17.497
X-84.01 Y-17.449
X-83.908 Y-17.34
X-83.847 Y-17.203
X-83.83 Y-17.054
X-83.837 Y-17.014
X-83.891 Y-16.886
X-83.997 Y-16.795
X-84.133 Y-16.763
X-84.336
X-84.37 Y-16.77
X-84.4 Y-16.788
X-84.421 Y-16.815
X-84.432 Y-16.848
X-84.431 Y-16.882
X-84.322 Y-17.421
X-84.31 Y-17.452
X-84.288 Y-17.477
X-84.26 Y-17.494
X-84.227 Y-17.501
X-84.011
X-83.937 Y-17.497
X-83.797 Y-17.441
X-83.699 Y-17.328
X-83.64 Y-17.19
X-83.629 Y-17.04
X-83.635 Y-17.007
X-83.691 Y-16.882
X-83.796 Y-16.794
X-83.93 Y-16.763
X-84.133
X-84.167 Y-16.77
X-84.197 Y-16.789
X-84.218 Y-16.816
X-84.229 Y-16.85
X-84.227 Y-16.885
X-84.106 Y-17.423
X-84.093 Y-17.453
X-84.072 Y-17.478
X-84.044 Y-17.495
X-84.011 Y-17.501
X-83.804
X-83.729 Y-17.497
X-83.591 Y-17.438
X-83.494 Y-17.324
X-83.436 Y-17.186
X-83.426 Y-17.036
X-83.432 Y-17.005
X-83.488 Y-16.88
X-83.594 Y-16.794
X-83.727 Y-16.763
X-83.93
X-83.964 Y-16.77
X-83.994 Y-16.789
X-84.015 Y-16.817
X-84.026 Y-16.85
X-84.024 Y-16.885
X-83.898 Y-17.424
X-83.886 Y-17.454
X-83.864 Y-17.478
X-83.836 Y-17.495
X-83.804 Y-17.501
X-83.588
X-83.514 Y-17.497
X-83.379 Y-17.431
X-83.285 Y-17.314
