%
(n-081-085)
(T1  D=1 CR=0 - ZMIN=-2 - flat end mill)
G90 G94
G17
G21
G28 G91 Z0
G90

(Clear 19)
M9
T1 M6
S5000 M3
G54
M8
G0 X-120.339 Y-14.741
Z12
Z2
Z0.5
G3 X-119.855 Y-14.865 Z0.29 I0.242 J-0.062 F333.3
X-120.339 Y-14.741 Z0.079 I-0.242 J0.062
X-119.855 Y-14.865 Z-0.131 I0.242 J-0.062
X-120.339 Y-14.741 Z-0.342 I-0.242 J0.062
X-119.855 Y-14.865 Z-0.552 I0.242 J-0.062
X-120.339 Y-14.741 Z-0.763 I-0.242 J0.062
X-120.128 Y-15.051 Z-0.876 I0.242 J-0.062
X-119.847 Y-14.803 Z-0.99 I0.031 J0.248
X-120.347 I-0.25
X-119.847 I0.25
G1 X-119.81 Y-14.658 F1000
X-119.823 Y-14.584
X-119.86 Y-14.519
X-119.967 Y-14.413
X-120.111 Y-14.374
X-120.26 Y-14.395
X-120.39 Y-14.469
X-120.487 Y-14.584
X-120.539 Y-14.724
X-120.541 Y-14.874
X-120.494 Y-15.017
X-120.402 Y-15.135
X-120.276 Y-15.217
X-120.13 Y-15.253
X-119.981 Y-15.239
X-119.844 Y-15.177
X-119.736 Y-15.073
X-119.658 Y-14.945
X-119.607 Y-14.804
X-119.597 Y-14.654
X-119.632 Y-14.508
X-119.703 Y-14.376
X-119.811 Y-14.272
X-119.942 Y-14.199
X-120.088 Y-14.166
X-120.238 Y-14.173
X-120.382 Y-14.214
X-120.512 Y-14.29
X-120.521 Y-14.299
X-120.561 Y-14.348
X-120.59 Y-14.406
X-120.606 Y-14.468
X-120.617 Y-14.558
X-120.634 Y-14.812
X-120.626 Y-14.896
X-120.611 Y-15.027
X-120.588 Y-15.175
X-120.503 Y-15.299
X-120.384 Y-15.39
X-120.244 Y-15.446
X-120.096 Y-15.468
X-119.947 Y-15.454
X-119.805 Y-15.404
X-119.677 Y-15.326
X-119.641 Y-15.291
X-119.585 Y-15.222
X-119.553 Y-15.14
X-119.546 Y-15.052
X-119.562 Y-14.812
X-119.561 Y-14.558
X-119.556 Y-14.474
X-119.553 Y-14.324
X-119.622 Y-14.191
X-119.725 Y-14.082
X-119.853 Y-14.004
X-119.996 Y-13.957
X-120.145 Y-13.94
X-120.294 Y-13.95
X-120.343 Y-13.963
X-120.438 Y-14.007
X-120.512 Y-14.08
X-120.556 Y-14.174
X-120.569 Y-14.22
X-120.583 Y-14.305
X-120.606 Y-14.468
X-120.605 Y-14.506
X-120.59 Y-14.54
X-120.563 Y-14.566
X-120.528 Y-14.581
X-120.491
X-120.456 Y-14.568
X-120.428 Y-14.543
X-120.419 Y-14.52
X-120.423 Y-14.496
X-120.438 Y-14.477
X-120.461 Y-14.469
X-120.485 Y-14.474
X-120.503 Y-14.491
X-120.51 Y-14.514
X-120.504 Y-14.538
X-120.48 Y-14.567
X-120.446 Y-14.584
X-120.408 Y-14.588
X-120.372 Y-14.577
X-120.342 Y-14.554
X-120.323 Y-14.521
X-120.318 Y-14.484
X-120.326 Y-14.447
X-120.348 Y-14.416
X-120.38 Y-14.396
X-120.418 Y-14.388
X-120.455 Y-14.396
X-120.487 Y-14.416
X-120.509 Y-14.447
G3 X-120.611 Y-15.027 I1.081 J-0.491
G1 X-120.597 Y-15.15
X-120.576 Y-15.318
X-120.562 Y-15.391
X-120.483 Y-15.518
X-120.363 Y-15.608
X-120.223 Y-15.663
X-120.075 Y-15.687
X-119.925 Y-15.679
X-119.78 Y-15.643
X-119.643 Y-15.581
X-119.627 Y-15.57
X-119.549 Y-15.487
X-119.508 Y-15.382
Y-15.268
X-119.532 Y-15.15
X-119.545 Y-15.065
X-119.546 Y-15.052
X-119.555 Y-15.018
X-119.576 Y-14.99
X-119.605 Y-14.97
X-119.639 Y-14.962
X-119.674 Y-14.966
X-119.884 Y-15.028
X-120.505 Y-15.213
X-120.535 Y-15.229
X-120.559 Y-15.253
X-120.573 Y-15.284
X-120.576 Y-15.318
X-120.564 Y-15.403
X-120.521 Y-15.568
X-120.499 Y-15.64
X-120.413 Y-15.763
X-120.288 Y-15.846
X-120.145 Y-15.893
X-119.996 Y-15.909
X-119.847 Y-15.898
X-119.7 Y-15.865
X-119.623 Y-15.827
X-119.518 Y-15.743
X-119.46 Y-15.621
X-119.462 Y-15.486
X-119.482 Y-15.403
X-119.508 Y-15.268
X-119.521 Y-15.238
X-119.543 Y-15.214
X-119.571 Y-15.197
X-119.603 Y-15.191
X-119.636 Y-15.196
X-119.846 Y-15.261
X-120.453 Y-15.451
X-120.486 Y-15.468
X-120.51 Y-15.496
X-120.522 Y-15.531
X-120.521 Y-15.568
X-120.464 Y-15.787
X-120.454 Y-15.825
X-120.447 Y-15.85
X-120.419 Y-15.905
X-120.393 Y-15.934
X-120.358 Y-15.95
X-120.319 Y-15.952
X-120.283 Y-15.94
X-120.254 Y-15.914
X-120.237 Y-15.879
X-120.235 Y-15.84
X-120.247 Y-15.803
X-120.264 Y-15.775
X-120.287 Y-15.748
X-120.318 Y-15.731
X-120.353 Y-15.726
X-120.388 Y-15.733
X-120.418 Y-15.752
X-120.439 Y-15.78
X-120.449 Y-15.814
X-120.447 Y-15.85
X-120.436 Y-15.874
X-120.417 Y-15.91
X-120.377 Y-15.973
X-120.254 Y-16.059
X-120.113 Y-16.11
X-119.964 Y-16.132
X-119.815 Y-16.129
X-119.668 Y-16.098
X-119.53 Y-16.038
X-119.487 Y-16.005
X-119.403 Y-15.902
X-119.371 Y-15.772
X-119.399 Y-15.642
X-119.431 Y-15.572
X-119.462 Y-15.486
X-119.476 Y-15.455
X-119.501 Y-15.431
X-119.532 Y-15.417
X-119.566 Y-15.414
X-119.599 Y-15.422
X-119.801 Y-15.514
X-120.369 Y-15.773
X-120.396 Y-15.791
X-120.416 Y-15.817
X-120.426 Y-15.847
X-120.427 Y-15.879
X-120.417 Y-15.91
X-120.309 Y-16.104
X-120.23 Y-16.232
X-120.099 Y-16.305
X-119.954 Y-16.345
X-119.805 Y-16.354
X-119.656 Y-16.335
X-119.513 Y-16.288
X-119.385 Y-16.21
X-119.362 Y-16.187
X-119.294 Y-16.083
X-119.274 Y-15.96
X-119.306 Y-15.839
X-119.399 Y-15.642
X-119.423 Y-15.611
X-119.457 Y-15.592
X-119.496 Y-15.587
X-119.534 Y-15.598
X-119.705 Y-15.685
X-120.265 Y-15.97
X-120.296 Y-15.994
X-120.315 Y-16.028
X-120.32 Y-16.067
X-120.309 Y-16.104
X-120.229 Y-16.248
X-120.183 Y-16.324
X-120.157 Y-16.358
X-120.06 Y-16.472
X-119.924 Y-16.536
X-119.777 Y-16.562
X-119.627 Y-16.556
X-119.481 Y-16.521
X-119.345 Y-16.458
X-119.227 Y-16.366
X-119.217 Y-16.352
X-119.166 Y-16.242
X-119.162 Y-16.122
X-119.206 Y-16.01
X-119.271 Y-15.91
X-119.306 Y-15.839
X-119.326 Y-15.814
X-119.353 Y-15.796
X-119.384 Y-15.788
X-119.416 Y-15.79
X-119.445 Y-15.802
X-119.596 Y-15.893
X-120.127 Y-16.214
X-120.152 Y-16.235
X-120.169 Y-16.264
X-120.175 Y-16.296
X-120.171 Y-16.328
X-120.157 Y-16.358
X-119.997 Y-16.567
X-119.9 Y-16.682
X-119.763 Y-16.743
X-119.614 Y-16.762
X-119.465 Y-16.746
X-119.322 Y-16.701
X-119.19 Y-16.63
X-119.08 Y-16.528
X-119.077 Y-16.524
X-119.035 Y-16.413
X-119.038 Y-16.295
X-119.088 Y-16.187
X-119.105 Y-16.163
X-119.206 Y-16.01
X-119.234 Y-15.983
X-119.271 Y-15.969
X-119.31
X-119.345 Y-15.985
X-119.46 Y-16.066
X-119.973 Y-16.428
X-120 Y-16.456
X-120.014 Y-16.493
X-120.013 Y-16.532
X-119.997 Y-16.567
X-119.892 Y-16.703
X-119.881 Y-16.714
X-119.827 Y-16.754
X-119.732 Y-16.823
X-119.605 Y-16.903
X-119.458 Y-16.931
X-119.308 Y-16.917
X-119.166 Y-16.869
X-119.036 Y-16.794
X-118.931 Y-16.687
X-118.925 Y-16.676
X-118.889 Y-16.55
X-118.91 Y-16.42
X-118.984 Y-16.312
X-119.01 Y-16.295
X-119.04 Y-16.288
X-119.07 Y-16.289
X-119.099 Y-16.3
X-119.21 Y-16.364
X-119.721 Y-16.656
X-119.75 Y-16.682
X-119.767 Y-16.717
X-119.77 Y-16.756
X-119.757 Y-16.793
X-119.732 Y-16.823
X-119.59 Y-16.923
X-119.48 Y-16.994
X-119.35 Y-17.069
X-119.201 Y-17.078
X-119.054 Y-17.045
X-118.921 Y-16.977
X-118.809 Y-16.877
X-118.727 Y-16.75
X-118.718 Y-16.632
X-118.756 Y-16.521
X-118.833 Y-16.432
X-118.962 Y-16.332
X-118.984 Y-16.312
X-119.012 Y-16.294
X-119.045 Y-16.287
X-119.078 Y-16.291
X-119.107 Y-16.306
X-119.131 Y-16.329
X-119.141 Y-16.343
X-119.505 Y-16.854
X-119.521 Y-16.89
X-119.522 Y-16.929
X-119.507 Y-16.966
X-119.48 Y-16.994
X-119.329 Y-17.092
X-119.252 Y-17.134
X-119.226 Y-17.147
X-119.089 Y-17.206
X-118.939 Y-17.196
X-118.799 Y-17.141
X-118.679 Y-17.052
X-118.583 Y-16.936
X-118.573 Y-16.912
X-118.55 Y-16.782
X-118.585 Y-16.653
X-118.672 Y-16.553
X-118.744 Y-16.5
X-118.833 Y-16.432
X-118.864 Y-16.417
X-118.897 Y-16.413
X-118.931 Y-16.421
X-118.959 Y-16.44
X-118.98 Y-16.466
X-119.268 Y-17.012
X-119.279 Y-17.049
X-119.275 Y-17.088
X-119.257 Y-17.122
X-119.226 Y-17.147
X-118.998 Y-17.258
X-118.929 Y-17.288
X-118.78 Y-17.305
X-118.637 Y-17.26
X-118.512 Y-17.177
X-118.419 Y-17.06
X-118.399 Y-17.015
X-118.376 Y-16.87
X-118.424 Y-16.731
X-118.533 Y-16.632
X-118.619 Y-16.585
X-118.66 Y-16.562
X-118.672 Y-16.553
X-118.704 Y-16.539
X-118.74 Y-16.536
X-118.773 Y-16.546
X-118.802 Y-16.568
X-118.821 Y-16.597
X-119.043 Y-17.132
X-119.051 Y-17.168
X-119.045 Y-17.204
X-119.027 Y-17.235
X-118.998 Y-17.258
X-118.85 Y-17.331
X-118.84 Y-17.334
X-118.698 Y-17.363
X-118.624 Y-17.375
X-118.475 Y-17.356
X-118.345 Y-17.28
X-118.25 Y-17.165
X-118.188 Y-17.028
X-118.187 Y-17.025
X-118.199 Y-16.906
X-118.257 Y-16.802
X-118.351 Y-16.728
X-118.406 Y-16.7
X-118.533 Y-16.632
X-118.568 Y-16.622
X-118.605 Y-16.626
X-118.638 Y-16.642
X-118.662 Y-16.67
X-118.675 Y-16.704
X-118.773 Y-17.248
X-118.772 Y-17.286
X-118.758 Y-17.321
X-118.732 Y-17.348
X-118.698 Y-17.363
X-118.444 Y-17.415
X-118.37 Y-17.426
X-118.225 Y-17.386
X-118.108 Y-17.293
X-118.025 Y-17.168
X-118.017 Y-17.137
X-118.011 Y-17.019
X-118.051 Y-16.909
X-118.13 Y-16.822
X-118.237 Y-16.773
X-118.294 Y-16.754
X-118.321 Y-16.743
X-118.351 Y-16.728
X-118.389 Y-16.719
X-118.427 Y-16.725
X-118.46 Y-16.745
X-118.483 Y-16.776
X-118.493 Y-16.813
X-118.52 Y-17.312
X-118.516 Y-17.347
X-118.501 Y-17.378
X-118.476 Y-17.401
X-118.444 Y-17.415
X-118.321 Y-17.44
X-118.237 Y-17.453
X-118.162 Y-17.457
X-118.017 Y-17.419
X-117.902 Y-17.322
X-117.832 Y-17.19
X-117.826 Y-17.147
X-117.832 Y-17.035
X-117.879 Y-16.933
X-117.96 Y-16.855
X-118.063 Y-16.813
X-118.199 Y-16.782
X-118.237 Y-16.773
X-118.274
X-118.308 Y-16.785
X-118.335 Y-16.81
X-118.352 Y-16.842
X-118.356 Y-16.879
X-118.318 Y-17.363
X-118.31 Y-17.395
X-118.292 Y-17.422
X-118.267 Y-17.442
X-118.237 Y-17.453
X-118.152 Y-17.461
X-117.983 Y-17.473
X-117.908 Y-17.474
X-117.772 Y-17.41
X-117.677 Y-17.294
X-117.631 Y-17.151
Y-17.137
X-117.665 Y-17.006
X-117.754 Y-16.903
X-117.878 Y-16.85
X-118.063 Y-16.813
X-118.102 Y-16.814
X-118.138 Y-16.83
X-118.165 Y-16.858
X-118.179 Y-16.895
X-118.177 Y-16.934
X-118.07 Y-17.396
X-118.059 Y-17.425
X-118.039 Y-17.449
X-118.013 Y-17.465
X-117.983 Y-17.473
X-117.814 Y-17.484
X-117.739 Y-17.485
X-117.667 Y-17.462
X-117.543 Y-17.378
X-117.465 Y-17.25
X-117.459 Y-17.212
X-117.466 Y-17.091
X-117.52 Y-16.982
X-117.613 Y-16.903
X-117.73 Y-16.868
X-117.814 Y-16.861
X-117.878 Y-16.85
X-117.916 Y-16.852
X-117.951 Y-16.868
X-117.977 Y-16.895
X-117.991 Y-16.931
X-117.99 Y-16.969
X-117.902 Y-17.404
X-117.891 Y-17.434
X-117.871 Y-17.459
X-117.844 Y-17.476
X-117.814 Y-17.484
X-117.598 Y-17.497
X-117.56 Y-17.499
X-117.486 Y-17.49
X-117.359 Y-17.409
X-117.318 Y-17.332
X-117.28 Y-17.187
X-117.317 Y-17.042
X-117.418 Y-16.932
X-117.56 Y-16.883
X-117.73 Y-16.868
X-117.764 Y-16.872
X-117.794 Y-16.887
X-117.817 Y-16.911
X-117.832 Y-16.942
X-117.835 Y-16.975
X-117.827 Y-17.008
X-117.643 Y-17.438
X-117.623 Y-17.468
X-117.594 Y-17.489
X-117.56 Y-17.499
X-117.391 Y-17.487
X-117.316 Y-17.478
X-117.188 Y-17.4
X-117.114 Y-17.269
X-117.096 Y-17.12
X-117.102 Y-17.1
X-117.164 Y-16.981
X-117.272 Y-16.901
X-117.403 Y-16.877
X-117.56 Y-16.883
X-117.596 Y-16.892
X-117.626 Y-16.914
X-117.646 Y-16.946
X-117.653 Y-16.982
X-117.646 Y-17.019
X-117.487 Y-17.423
X-117.472 Y-17.45
X-117.449 Y-17.471
X-117.421 Y-17.483
X-117.391 Y-17.487
X-117.222 Y-17.475
X-117.147 Y-17.466
X-117.079 Y-17.434
X-116.971 Y-17.33
X-116.916 Y-17.191
X-116.917 Y-17.153
X-116.947 Y-17.035
X-117.021 Y-16.938
X-117.128 Y-16.879
X-117.249 Y-16.867
X-117.306 Y-16.873
X-117.403 Y-16.877
X-117.44 Y-16.887
X-117.47 Y-16.909
X-117.49 Y-16.942
X-117.496 Y-16.979
X-117.488 Y-17.016
X-117.317 Y-17.415
X-117.294 Y-17.447
X-117.261 Y-17.469
X-117.222 Y-17.475
X-117.006 Y-17.46
X-116.931 Y-17.451
X-116.809 Y-17.364
X-116.744 Y-17.229
X-116.734 Y-17.079
X-116.74 Y-17.059
X-116.809 Y-16.937
X-116.926 Y-16.86
X-117.065 Y-16.844
X-117.249 Y-16.867
X-117.286 Y-16.88
X-117.315 Y-16.905
X-117.332 Y-16.94
X-117.334 Y-16.979
X-117.322 Y-17.015
X-117.097 Y-17.41
X-117.073 Y-17.437
X-117.042 Y-17.455
X-117.006 Y-17.46
X-116.883 Y-17.45
X-116.799 Y-17.433
X-116.726 Y-17.415
X-116.611 Y-17.318
X-116.551 Y-17.181
X-116.553 Y-17.031
X-116.561 Y-17.007
X-116.641 Y-16.886
X-116.768 Y-16.816
X-116.913 Y-16.814
X-117.02 Y-16.839
X-117.065 Y-16.844
X-117.101 Y-16.858
X-117.13 Y-16.884
X-117.146 Y-16.919
X-117.148 Y-16.958
X-117.135 Y-16.995
X-116.9 Y-17.386
X-116.874 Y-17.415
X-116.838 Y-17.432
X-116.799 Y-17.433
X-116.629 Y-17.399
X-116.557 Y-17.381
X-116.494 Y-17.339
X-116.401 Y-17.222
X-116.364 Y-17.076
X-116.387 Y-16.928
X-116.394 Y-16.915
X-116.482 Y-16.815
X-116.604 Y-16.764
X-116.737 Y-16.77
X-116.799 Y-16.787
X-116.913 Y-16.814
X-116.947 Y-16.83
X-116.972 Y-16.857
X-116.985 Y-16.892
Y-16.929
X-116.972 Y-16.963
X-116.731 Y-17.353
X-116.704 Y-17.382
X-116.669 Y-17.398
X-116.629 Y-17.399
X-116.414 Y-17.355
X-116.341 Y-17.337
X-116.233 Y-17.233
X-116.182 Y-17.092
Y-16.942
X-116.232 Y-16.801
X-116.238 Y-16.793
X-116.346 Y-16.711
X-116.478 Y-16.685
X-116.609 Y-16.719
X-116.629 Y-16.729
X-116.687 Y-16.754
X-116.714 Y-16.764
X-116.737 Y-16.77
X-116.77 Y-16.788
X-116.794 Y-16.816
X-116.806 Y-16.852
X-116.804 Y-16.889
X-116.789 Y-16.923
X-116.512 Y-17.314
X-116.485 Y-17.34
X-116.451 Y-17.355
X-116.414
X-116.291 Y-17.33
X-116.27 Y-17.324
X-116.249 Y-17.316
X-116.206 Y-17.296
X-116.14 Y-17.26
X-116.038 Y-17.15
X-115.994 Y-17.007
X-115.997 Y-16.857
X-116.054 Y-16.718
X-116.068 Y-16.701
X-116.182 Y-16.615
X-116.323 Y-16.592
X-116.46 Y-16.637
X-116.517 Y-16.67
X-116.609 Y-16.719
X-116.635 Y-16.74
X-116.653 Y-16.77
X-116.659 Y-16.803
X-116.654 Y-16.837
X-116.638 Y-16.867
X-116.325 Y-17.266
X-116.301 Y-17.288
X-116.271 Y-17.301
X-116.238 Y-17.304
X-116.206 Y-17.296
X-115.992 Y-17.194
X-115.926 Y-17.159
X-115.838 Y-17.037
X-115.808 Y-16.89
X-115.824 Y-16.741
X-115.89 Y-16.606
X-115.91 Y-16.584
X-116.024 Y-16.506
X-116.161 Y-16.487
X-116.292 Y-16.531
X-116.46 Y-16.637
X-116.485 Y-16.661
X-116.5 Y-16.692
X-116.503 Y-16.727
X-116.495 Y-16.76
X-116.475 Y-16.789
X-116.103 Y-17.172
X-116.079 Y-17.19
X-116.051 Y-17.2
X-116.021 Y-17.202
X-115.992 Y-17.194
X-115.868 Y-17.135
X-115.823 Y-17.112
X-115.759 Y-17.073
X-115.662 Y-16.959
X-115.625 Y-16.814
X-115.639 Y-16.664
X-115.699 Y-16.527
X-115.794 Y-16.409
X-115.908 Y-16.366
X-116.03 Y-16.371
X-116.14 Y-16.425
X-116.206 Y-16.477
X-116.292 Y-16.531
X-116.317 Y-16.555
X-116.332 Y-16.585
X-116.336 Y-16.619
X-116.328 Y-16.653
X-116.31 Y-16.681
X-115.941 Y-17.089
X-115.916 Y-17.109
X-115.886 Y-17.12
X-115.854 Y-17.121
X-115.823 Y-17.112
X-115.783 Y-17.09
X-115.614 Y-16.99
X-115.552 Y-16.948
X-115.471 Y-16.822
X-115.451 Y-16.673
X-115.476 Y-16.525
X-115.535 Y-16.388
X-115.635 Y-16.276
X-115.638 Y-16.274
X-115.761 Y-16.232
X-115.891 Y-16.246
X-116.002 Y-16.313
X-116.022 Y-16.332
X-116.037 Y-16.345
X-116.14 Y-16.425
X-116.162 Y-16.451
X-116.174 Y-16.482
X-116.175 Y-16.515
X-116.165 Y-16.547
X-116.146 Y-16.574
X-115.732 Y-16.974
X-115.706 Y-16.992
X-115.675 Y-17.001
X-115.644 Y-17
X-115.614 Y-16.99
X-115.53 Y-16.939
X-115.445 Y-16.882
X-115.385 Y-16.836
X-115.3 Y-16.713
X-115.277 Y-16.565
X-115.296 Y-16.416
X-115.354 Y-16.277
X-115.449 Y-16.161
X-115.491 Y-16.132
X-115.597 Y-16.085
X-115.713 Y-16.082
X-115.821 Y-16.123
X-115.906 Y-16.202
X-115.953 Y-16.266
X-116.002 Y-16.313
X-116.024 Y-16.346
X-116.031 Y-16.385
X-116.022 Y-16.423
X-116 Y-16.455
X-115.567 Y-16.869
X-115.54 Y-16.888
X-115.508 Y-16.896
X-115.475 Y-16.894
X-115.445 Y-16.882
X-115.276 Y-16.767
X-115.22 Y-16.725
X-115.129 Y-16.605
X-115.102 Y-16.457
X-115.118 Y-16.308
X-115.171 Y-16.168
X-115.259 Y-16.047
X-115.374 Y-15.95
X-115.423 Y-15.929
X-115.56 Y-15.903
X-115.693 Y-15.942
X-115.794 Y-16.037
X-115.878 Y-16.163
X-115.906 Y-16.202
X-115.921 Y-16.235
X-115.922 Y-16.271
X-115.911 Y-16.306
X-115.888 Y-16.334
X-115.394 Y-16.758
X-115.367 Y-16.774
X-115.336 Y-16.782
X-115.305 Y-16.779
X-115.276 Y-16.767
X-115.191 Y-16.709
X-115.181 Y-16.701
X-115.153 Y-16.67
X-115.049 Y-16.546
X-114.959 Y-16.426
X-114.939 Y-16.277
X-114.967 Y-16.13
X-115.03 Y-15.994
X-115.12 Y-15.874
X-115.237 Y-15.781
X-115.373 Y-15.716
X-115.379 Y-15.715
X-115.504 Y-15.723
X-115.615 Y-15.781
X-115.692 Y-15.88
X-115.699 Y-15.893
X-115.794 Y-16.037
X-115.808 Y-16.073
X-115.807 Y-16.111
X-115.792 Y-16.146
X-115.764 Y-16.173
X-115.714 Y-16.206
X-115.179 Y-16.562
X-115.146 Y-16.576
X-115.111 Y-16.578
X-115.077 Y-16.568
X-115.049 Y-16.546
X-114.901 Y-16.368
X-114.812 Y-16.247
X-114.795 Y-16.098
X-114.826 Y-15.951
X-114.892 Y-15.817
X-114.984 Y-15.698
X-115.097 Y-15.6
X-115.232 Y-15.533
X-115.268 Y-15.526
X-115.4 Y-15.527
X-115.52 Y-15.586
X-115.602 Y-15.691
X-115.68 Y-15.855
X-115.692 Y-15.88
X-115.701 Y-15.914
X-115.696 Y-15.95
X-115.68 Y-15.982
X-115.653 Y-16.006
X-115.579 Y-16.051
X-115.029 Y-16.387
X-114.996 Y-16.4
X-114.961 Y-16.401
X-114.928 Y-16.39
X-114.901 Y-16.368
X-114.853 Y-16.309
X-114.81 Y-16.248
X-114.743 Y-16.138
X-114.672 Y-16.006
X-114.671 Y-15.856
X-114.716 Y-15.712
X-114.792 Y-15.583
X-114.894 Y-15.473
X-115.015 Y-15.384
X-115.154 Y-15.328
X-115.197 Y-15.321
X-115.33 Y-15.33
X-115.447 Y-15.397
X-115.522 Y-15.507
X-115.549 Y-15.572
X-115.585 Y-15.656
X-115.602 Y-15.691
X-115.61 Y-15.727
X-115.604 Y-15.764
X-115.585 Y-15.796
X-115.556 Y-15.819
X-115.44 Y-15.879
X-114.873 Y-16.172
X-114.838 Y-16.182
X-114.801 Y-16.179
X-114.768 Y-16.164
X-114.743 Y-16.138
X-114.605 Y-15.91
X-114.599 Y-15.9
X-114.577 Y-15.862
X-114.556 Y-15.799
X-114.561 Y-15.791
X-114.583 Y-15.765
X-114.613 Y-15.749
X-114.647 Y-15.743
X-114.681 Y-15.749
X-114.711 Y-15.766
X-115.172 Y-16.155
X-115.264 Y-16.233
X-115.288 Y-16.261
X-115.299 Y-16.296
X-115.297 Y-16.332
X-115.282 Y-16.366
X-115.257 Y-16.392
X-115.223 Y-16.407
X-115.187 Y-16.408
X-115.152 Y-16.397
G3 X-114.577 Y-15.862 I-0.756 J1.39
G1 X-114.57 Y-15.844
X-114.55 Y-15.779
X-114.533 Y-15.706
X-114.571 Y-15.561
X-114.642 Y-15.428
X-114.736 Y-15.312
X-114.852 Y-15.216
X-114.984 Y-15.145
X-115.129 Y-15.106
X-115.186 Y-15.105
X-115.32 Y-15.134
X-115.427 Y-15.22
X-115.484 Y-15.344
X-115.515 Y-15.487
X-115.522 Y-15.507
X-115.528 Y-15.539
X-115.523 Y-15.572
X-115.508 Y-15.601
X-115.484 Y-15.623
X-115.454 Y-15.637
X-115.284 Y-15.682
X-114.671 Y-15.845
X-114.633 Y-15.847
X-114.598 Y-15.836
X-114.568 Y-15.812
X-114.55 Y-15.779
X-114.502 Y-15.608
X-114.468 Y-15.462
X-114.499 Y-15.316
X-114.573 Y-15.185
X-114.674 Y-15.074
X-114.795 Y-14.986
X-114.93 Y-14.92
X-115.077 Y-14.888
X-115.144 Y-14.887
X-115.281 Y-14.918
X-115.389 Y-15.008
X-115.444 Y-15.138
X-115.484 Y-15.344
Y-15.381
X-115.47 Y-15.415
X-115.445 Y-15.442
X-115.412 Y-15.458
X-115.234 Y-15.507
X-114.623 Y-15.674
X-114.585 Y-15.677
X-114.549 Y-15.665
X-114.52 Y-15.641
X-114.502 Y-15.608
X-114.443 Y-15.403
X-114.43 Y-15.318
X-114.416 Y-15.169
X-114.466 Y-15.027
X-114.553 Y-14.906
X-114.665 Y-14.805
X-114.794 Y-14.73
X-114.936 Y-14.679
X-115.085 Y-14.661
X-115.151 Y-14.667
X-115.283 Y-14.711
X-115.382 Y-14.811
X-115.424 Y-14.944
X-115.432 Y-15.065
X-115.444 Y-15.138
X-115.442 Y-15.176
X-115.426 Y-15.21
X-115.398 Y-15.235
X-115.363 Y-15.249
X-115.165 Y-15.285
X-114.547 Y-15.398
X-114.508
X-114.472 Y-15.382
X-114.445 Y-15.355
X-114.43 Y-15.318
X-114.406 Y-15.15
X-114.389 Y-15.019
X-114.384 Y-14.944
X-114.424 Y-14.799
X-114.51 Y-14.676
X-114.623 Y-14.578
X-114.753 Y-14.503
X-114.894 Y-14.453
X-115.043 Y-14.434
X-115.133 Y-14.441
X-115.27 Y-14.486
X-115.371 Y-14.59
X-115.411 Y-14.729
X-115.414 Y-14.812
X-115.424 Y-14.944
X-115.418 Y-14.982
X-115.398 Y-15.015
X-115.367 Y-15.038
X-115.33 Y-15.048
X-115.131 Y-15.061
X-114.494 Y-15.103
X-114.458 Y-15.098
X-114.425 Y-15.081
X-114.401 Y-15.053
X-114.389 Y-15.019
X-114.374 Y-14.896
X-114.364 Y-14.812
X-114.369 Y-14.727
X-114.387 Y-14.578
X-114.47 Y-14.454
X-114.582 Y-14.354
X-114.712 Y-14.279
X-114.853 Y-14.228
X-115.002 Y-14.206
X-115.151 Y-14.212
X-115.206 Y-14.229
X-115.321 Y-14.296
X-115.396 Y-14.406
X-115.416 Y-14.537
X-115.414 Y-14.558
X-115.411 Y-14.643
Y-14.729
X-115.404 Y-14.767
X-115.382 Y-14.8
X-115.35 Y-14.821
X-115.311 Y-14.829
X-115.095
X-114.469
X-114.431 Y-14.822
X-114.398 Y-14.799
X-114.376 Y-14.766
X-114.369 Y-14.727
X-114.381 Y-14.558
X-114.39 Y-14.474
X-114.397 Y-14.427
X-114.425 Y-14.28
X-114.521 Y-14.165
X-114.643 Y-14.077
X-114.78 Y-14.015
X-114.925 Y-13.98
X-115.075 Y-13.973
X-115.223 Y-14
X-115.253 Y-14.013
X-115.353 Y-14.083
X-115.416 Y-14.188
X-115.432 Y-14.31
X-115.416 Y-14.537
X-115.404 Y-14.574
X-115.379 Y-14.604
X-115.345 Y-14.622
X-115.306 Y-14.626
X-115.11 Y-14.605
X-114.485 Y-14.537
X-114.448 Y-14.526
X-114.418 Y-14.501
X-114.4 Y-14.466
X-114.397 Y-14.427
X-114.414 Y-14.305
X-114.428 Y-14.22
X-114.45 Y-14.136
X-114.496 Y-13.993
X-114.601 Y-13.886
X-114.731 Y-13.81
X-114.873 Y-13.762
X-115.021 Y-13.743
X-115.171 Y-13.753
X-115.315 Y-13.796
X-115.33 Y-13.806
X-115.416 Y-13.889
X-115.464 Y-13.998
Y-14.118
X-115.444 Y-14.22
X-115.432 Y-14.31
X-115.424 Y-14.341
X-115.405 Y-14.368
X-115.379 Y-14.388
X-115.348 Y-14.398
X-115.315 Y-14.397
X-115.144 Y-14.367
X-114.53 Y-14.257
X-114.5 Y-14.246
X-114.474 Y-14.226
X-114.456 Y-14.199
X-114.448 Y-14.168
X-114.45 Y-14.136
X-114.495 Y-13.967
X-114.514 Y-13.909
X-114.542 Y-13.836
X-114.603 Y-13.699
X-114.722 Y-13.608
X-114.86 Y-13.549
X-115.007 Y-13.52
X-115.157
X-115.304 Y-13.551
X-115.348 Y-13.572
X-115.452 Y-13.656
X-115.509 Y-13.776
X-115.508 Y-13.91
X-115.495 Y-13.967
X-115.464 Y-14.118
X-115.452 Y-14.148
X-115.43 Y-14.173
X-115.402 Y-14.189
X-115.37 Y-14.195
X-115.337 Y-14.191
X-115.204 Y-14.149
X-114.607 Y-13.964
X-114.579 Y-13.95
X-114.556 Y-13.928
X-114.542 Y-13.899
X-114.537 Y-13.868
X-114.542 Y-13.836
X-114.599 Y-13.689
X-114.623 Y-13.629
X-114.649 Y-13.571
X-114.66 Y-13.545
X-114.673 Y-13.516
X-114.7 Y-13.462
X-114.709 Y-13.46
X-114.747 Y-13.458
X-114.782 Y-13.47
X-114.811 Y-13.495
X-114.829 Y-13.528
X-114.833 Y-13.565
X-114.783 Y-14.15
X-114.771 Y-14.291
X-114.761 Y-14.326
X-114.74 Y-14.355
X-114.709 Y-14.375
X-114.673 Y-14.382
X-114.637 Y-14.376
X-114.606 Y-14.358
X-114.583 Y-14.329
X-114.572 Y-14.295
G3 X-114.673 Y-13.516 I-1.571 J0.192
G1 X-114.684 Y-13.492
X-114.701 Y-13.46
X-114.747 Y-13.4
X-114.881 Y-13.335
X-115.027 Y-13.3
X-115.177 Y-13.294
X-115.324 Y-13.323
X-115.462 Y-13.383
X-115.484 Y-13.402
X-115.563 Y-13.503
X-115.592 Y-13.628
X-115.566 Y-13.753
X-115.52 Y-13.86
X-115.508 Y-13.91
X-115.492 Y-13.944
X-115.464 Y-13.969
X-115.429 Y-13.982
X-115.391
X-115.356 Y-13.967
X-115.278 Y-13.914
X-114.753 Y-13.564
X-114.725 Y-13.537
X-114.71 Y-13.502
Y-13.464
X-114.723 Y-13.428
X-114.768 Y-13.362
X-114.819 Y-13.291
X-114.914 Y-13.175
X-115.05 Y-13.111
X-115.198 Y-13.089
X-115.347 Y-13.102
X-115.49 Y-13.149
X-115.615 Y-13.231
X-115.617 Y-13.233
X-115.673 Y-13.333
X-115.688 Y-13.446
X-115.659 Y-13.556
X-115.584 Y-13.714
X-115.566 Y-13.753
X-115.547 Y-13.781
X-115.52 Y-13.8
X-115.487 Y-13.809
X-115.454 Y-13.807
X-115.423 Y-13.794
X-115.378 Y-13.765
X-114.849 Y-13.432
X-114.82 Y-13.404
X-114.804 Y-13.368
Y-13.328
X-114.819 Y-13.291
X-114.943 Y-13.122
X-115.014 Y-13.038
X-115.065 Y-12.983
X-115.2 Y-12.918
X-115.349 Y-12.902
X-115.498 Y-12.925
X-115.637 Y-12.981
X-115.676 Y-13.012
X-115.766 Y-13.129
X-115.788 Y-13.276
X-115.738 Y-13.415
X-115.707 Y-13.46
X-115.659 Y-13.556
X-115.637 Y-13.584
X-115.607 Y-13.603
X-115.571 Y-13.61
X-115.536 Y-13.604
X-115.505 Y-13.586
X-115.028 Y-13.175
X-115.004 Y-13.145
X-114.993 Y-13.109
X-114.997 Y-13.072
X-115.014 Y-13.038
X-115.086 Y-12.953
X-115.107 Y-12.931
X-115.217 Y-12.84
X-115.337 Y-12.751
X-115.486 Y-12.732
X-115.634 Y-12.755
X-115.768 Y-12.824
X-115.803 Y-12.856
X-115.884 Y-12.974
X-115.902 Y-13.115
X-115.851 Y-13.249
X-115.738 Y-13.415
X-115.712 Y-13.44
X-115.679 Y-13.454
X-115.643 Y-13.455
X-115.609 Y-13.443
X-115.581 Y-13.421
X-115.207 Y-12.98
X-115.188 Y-12.946
X-115.183 Y-12.908
X-115.193 Y-12.871
X-115.217 Y-12.84
X-115.285 Y-12.784
X-115.36 Y-12.728
X-115.425 Y-12.683
X-115.552 Y-12.603
X-115.702 Y-12.596
X-115.844 Y-12.643
X-115.888 Y-12.675
X-115.969 Y-12.764
X-116.01 Y-12.877
X-116.005 Y-12.998
X-115.953 Y-13.107
X-115.868 Y-13.225
X-115.851 Y-13.249
X-115.823 Y-13.275
X-115.788 Y-13.289
X-115.749 Y-13.288
X-115.714 Y-13.273
X-115.688 Y-13.246
X-115.402 Y-12.819
X-115.387 Y-12.784
X-115.386 Y-12.746
X-115.4 Y-12.711
X-115.425 Y-12.683
X-115.53 Y-12.61
X-115.647 Y-12.531
X-115.711 Y-12.492
X-115.86 Y-12.476
X-116 Y-12.529
X-116.111 Y-12.63
X-116.118 Y-12.642
X-116.155 Y-12.777
X-116.127 Y-12.914
X-116.039 Y-13.024
X-116.005 Y-13.04
X-115.968 Y-13.042
X-115.933 Y-13.031
X-115.904 Y-13.007
X-115.628 Y-12.676
X-115.612 Y-12.648
X-115.605 Y-12.616
X-115.609 Y-12.584
X-115.624 Y-12.554
X-115.647 Y-12.531
X-115.699 Y-12.496
X-115.73 Y-12.474
X-115.762 Y-12.447
X-115.783 Y-12.424
X-115.81 Y-12.397
X-115.881 Y-12.374
X-116.031 Y-12.367
X-116.169 Y-12.424
X-116.273 Y-12.533
X-116.278 Y-12.544
X-116.306 Y-12.676
X-116.274 Y-12.806
X-116.188 Y-12.91
X-116.039 Y-13.024
X-116.004 Y-13.04
X-115.966 Y-13.042
X-115.929 Y-13.029
X-115.901 Y-13.003
X-115.884 Y-12.968
X-115.764 Y-12.514
X-115.761 Y-12.482
X-115.767 Y-12.451
X-115.783 Y-12.424
X-115.811 Y-12.393
X-115.835 Y-12.362
X-115.853 Y-12.332
X-115.874 Y-12.3
X-115.936 Y-12.259
X-116.081 Y-12.221
X-116.228 Y-12.252
X-116.357 Y-12.33
X-116.448 Y-12.448
X-116.454 Y-12.466
X-116.468 Y-12.598
X-116.424 Y-12.724
X-116.33 Y-12.818
X-116.206 Y-12.896
X-116.188 Y-12.91
X-116.156 Y-12.925
X-116.12 Y-12.928
X-116.086 Y-12.918
X-116.057 Y-12.897
X-116.038 Y-12.867
X-115.849 Y-12.418
X-115.841 Y-12.389
X-115.843 Y-12.36
X-115.853 Y-12.332
X-115.868 Y-12.307
X-115.882 Y-12.278
X-115.9 Y-12.231
X-115.931 Y-12.163
X-116.052 Y-12.074
X-116.201 Y-12.057
X-116.348 Y-12.089
X-116.478 Y-12.163
X-116.582 Y-12.271
X-116.651 Y-12.405
X-116.645 Y-12.524
X-116.593 Y-12.632
X-116.504 Y-12.711
X-116.46 Y-12.736
X-116.33 Y-12.818
X-116.293 Y-12.83
X-116.255 Y-12.828
X-116.22 Y-12.811
X-116.194 Y-12.783
X-115.909 Y-12.317
X-115.898 Y-12.289
X-115.894 Y-12.26
X-115.9 Y-12.231
X-115.915 Y-12.193
X-115.925 Y-12.151
X-115.932 Y-12.109
X-115.938 Y-12.072
X-115.977 Y-12.008
X-116.09 Y-11.91
X-116.236 Y-11.875
X-116.386 Y-11.89
X-116.526 Y-11.943
X-116.651 Y-12.025
X-116.756 Y-12.133
X-116.827 Y-12.265
X-116.832 Y-12.288
Y-12.424
X-116.771 Y-12.546
X-116.663 Y-12.628
X-116.629 Y-12.643
X-116.522 Y-12.7
X-116.504 Y-12.711
X-116.471 Y-12.721
X-116.437
X-116.406 Y-12.708
X-116.38 Y-12.686
X-115.955 Y-12.173
X-115.937 Y-12.143
X-115.932 Y-12.109
X-115.935 Y-12.024
X-115.931 Y-11.982
X-115.929 Y-11.945
X-115.955 Y-11.875
X-116.052 Y-11.759
X-116.188 Y-11.697
X-116.337 Y-11.679
X-116.354 Y-11.681
X-116.393 Y-11.689
X-116.43 Y-11.701
X-116.466 Y-11.718
X-116.545 Y-11.762
X-116.676 Y-11.829
X-116.806 Y-11.904
X-116.918 Y-12.003
X-116.998 Y-12.13
X-117.043 Y-12.273
X-117.042 Y-12.295
X-117.011 Y-12.423
X-116.929 Y-12.525
X-116.811 Y-12.582
X-116.714 Y-12.608
X-116.691 Y-12.616
X-116.663 Y-12.628
X-116.624 Y-12.636
X-116.586 Y-12.628
X-116.554 Y-12.606
X-116.532 Y-12.573
X-116.525 Y-12.534
Y-12.504
X-116.534 Y-11.918
X-116.542 Y-11.879
X-116.565 Y-11.847
X-116.598 Y-11.826
X-116.637 Y-11.82
X-116.676 Y-11.829
X-116.745 Y-11.864
X-116.763 Y-11.872
X-116.799 Y-11.882
X-116.883 Y-11.905
X-116.93 Y-11.916
X-117.002 Y-11.936
X-117.125 Y-12.022
X-117.207 Y-12.148
X-117.215 Y-12.19
Y-12.306
X-117.171 Y-12.414
X-117.089 Y-12.497
X-116.981 Y-12.543
X-116.811 Y-12.582
X-116.778 Y-12.583
X-116.746 Y-12.573
X-116.719 Y-12.553
X-116.7 Y-12.525
X-116.692 Y-12.493
X-116.695 Y-12.46
X-116.814 Y-11.989
X-116.83 Y-11.955
X-116.857 Y-11.93
X-116.892 Y-11.916
X-116.93
X-116.968 Y-11.924
X-117.052 Y-11.94
X-117.137 Y-11.952
X-117.211 Y-11.966
X-117.333 Y-12.053
X-117.397 Y-12.188
X-117.398 Y-12.207
X-117.369 Y-12.351
X-117.274 Y-12.465
X-117.136 Y-12.519
X-117.038 Y-12.531
X-116.981 Y-12.543
X-116.946 Y-12.542
X-116.913 Y-12.53
X-116.886 Y-12.506
X-116.87 Y-12.475
X-116.865 Y-12.44
X-116.872 Y-12.406
X-117.034 Y-12.013
X-117.051 Y-11.986
X-117.075 Y-11.966
X-117.105 Y-11.954
X-117.137 Y-11.952
X-117.222 Y-11.964
X-117.306 Y-11.974
X-117.381 Y-11.983
X-117.445 Y-12.021
X-117.544 Y-12.134
X-117.546 Y-12.144
X-117.545 Y-12.267
X-117.494 Y-12.38
X-117.402 Y-12.462
X-117.284 Y-12.501
X-117.222 Y-12.508
X-117.136 Y-12.519
X-117.101 Y-12.516
X-117.069 Y-12.5
X-117.044 Y-12.475
X-117.03 Y-12.442
X-117.028 Y-12.407
X-117.038 Y-12.373
X-117.217 Y-12.028
X-117.24 Y-11.999
X-117.271 Y-11.981
X-117.306 Y-11.974
X-117.475 Y-11.98
X-117.55 Y-11.986
X-117.612 Y-12.029
X-117.701 Y-12.15
X-117.702 Y-12.161
X-117.691 Y-12.283
X-117.632 Y-12.39
X-117.535 Y-12.464
X-117.416 Y-12.494
X-117.306 Y-12.499
X-117.284 Y-12.501
X-117.248 Y-12.497
X-117.216 Y-12.48
X-117.192 Y-12.453
X-117.179 Y-12.419
Y-12.383
X-117.192 Y-12.349
X-117.39 Y-12.027
X-117.413 Y-12.002
X-117.442 Y-11.986
X-117.475 Y-11.98
X-117.56 Y-11.983
X-117.607 Y-11.979
X-117.681 Y-11.977
X-117.748 Y-12.011
X-117.797 Y-12.068
X-117.827 Y-12.209
X-117.786 Y-12.346
X-117.684 Y-12.448
X-117.547 Y-12.489
X-117.416 Y-12.494
X-117.381 Y-12.488
X-117.35 Y-12.47
X-117.328 Y-12.442
X-117.316 Y-12.409
X-117.318 Y-12.373
X-117.331 Y-12.34
X-117.534 Y-12.025
X-117.553 Y-12.002
X-117.578 Y-11.987
X-117.607 Y-11.979
X-117.729 Y-11.969
X-117.767 Y-11.968
X-117.84 Y-11.984
X-117.897 Y-12.033
X-117.98 Y-12.157
X-117.982 Y-12.172
X-117.964 Y-12.301
X-117.895 Y-12.41
X-117.785 Y-12.48
X-117.657 Y-12.497
X-117.56 Y-12.488
X-117.547 Y-12.489
X-117.512 Y-12.483
X-117.482 Y-12.465
X-117.459 Y-12.438
X-117.448 Y-12.405
Y-12.37
X-117.461 Y-12.337
X-117.656 Y-12.016
X-117.675 Y-11.993
X-117.7 Y-11.977
X-117.729 Y-11.969
X-117.814 Y-11.962
X-117.86 Y-11.953
X-117.897 Y-11.948
X-117.97 Y-11.967
X-118.034 Y-12.006
X-118.128 Y-12.123
X-118.135 Y-12.16
X-118.127 Y-12.296
X-118.06 Y-12.415
X-117.947 Y-12.491
X-117.813 Y-12.51
X-117.657 Y-12.497
X-117.619 Y-12.484
X-117.589 Y-12.458
X-117.572 Y-12.422
X-117.57 Y-12.382
X-117.584 Y-12.345
X-117.797 Y-11.998
X-117.824 Y-11.969
X-117.86 Y-11.953
X-117.927 Y-11.94
X-117.983 Y-11.928
X-118.057 Y-11.916
X-118.129 Y-11.938
X-118.19 Y-11.98
X-118.284 Y-12.098
X-118.319 Y-12.244
X-118.297 Y-12.393
X-118.214 Y-12.487
X-118.1 Y-12.54
X-117.974 Y-12.541
X-117.898 Y-12.526
X-117.813 Y-12.51
X-117.777 Y-12.499
X-117.748 Y-12.475
X-117.73 Y-12.442
X-117.725 Y-12.405
X-117.735 Y-12.368
X-117.917 Y-11.982
X-117.933 Y-11.958
X-117.956 Y-11.939
X-117.983 Y-11.928
X-118.114 Y-11.899
X-118.152 Y-11.89
X-118.189 Y-11.882
X-118.262 Y-11.899
X-118.393 Y-11.971
X-118.479 Y-12.094
X-118.517 Y-12.24
X-118.505 Y-12.389
X-118.499 Y-12.404
X-118.417 Y-12.516
X-118.293 Y-12.579
X-118.153
X-118.068 Y-12.56
X-117.974 Y-12.541
X-117.943 Y-12.528
X-117.918 Y-12.504
X-117.902 Y-12.474
X-117.898 Y-12.44
X-117.905 Y-12.407
X-118.091 Y-11.948
X-118.105 Y-11.923
X-118.126 Y-11.903
X-118.152 Y-11.89
X-118.194 Y-11.878
X-118.237 Y-11.862
X-118.251 Y-11.855
X-118.285 Y-11.84
X-118.36 Y-11.832
X-118.505 Y-11.871
X-118.616 Y-11.972
X-118.69 Y-12.102
X-118.725 Y-12.248
X-118.713 Y-12.398
X-118.661 Y-12.538
X-118.561 Y-12.619
X-118.436 Y-12.65
X-118.31 Y-12.626
X-118.286 Y-12.616
X-118.237 Y-12.599
X-118.153 Y-12.579
X-118.12 Y-12.563
X-118.094 Y-12.535
X-118.081 Y-12.499
X-118.082 Y-12.461
X-118.201 Y-11.922
X-118.211 Y-11.895
X-118.228 Y-11.872
X-118.251 Y-11.855
X-118.321 Y-11.82
X-118.368 Y-11.794
X-118.435 Y-11.762
X-118.585 Y-11.754
X-118.719 Y-11.823
X-118.824 Y-11.93
X-118.898 Y-12.06
X-118.937 Y-12.205
X-118.941 Y-12.355
X-118.915 Y-12.503
X-118.846 Y-12.636
X-118.831 Y-12.652
X-118.724 Y-12.724
X-118.597 Y-12.744
X-118.473 Y-12.709
X-118.406 Y-12.673
X-118.321 Y-12.631
X-118.31 Y-12.626
X-118.285 Y-12.609
X-118.265 Y-12.585
X-118.254 Y-12.556
X-118.253 Y-12.525
X-118.32 Y-11.87
X-118.327 Y-11.84
X-118.344 Y-11.814
X-118.368 Y-11.794
X-118.41 Y-11.771
X-118.525 Y-11.703
X-118.592 Y-11.668
X-118.741 Y-11.657
X-118.879 Y-11.716
X-118.945 Y-11.773
X-119.006 Y-11.845
X-119.042 Y-11.933
X-119.048 Y-12.028
X-119.041 Y-12.109
X-119.042 Y-12.151
X-119.045 Y-12.193
X-119.064 Y-12.278
X-119.074 Y-12.306
X-119.118 Y-12.45
X-119.096 Y-12.598
X-119.028 Y-12.731
X-119.014 Y-12.746
X-118.9 Y-12.823
X-118.764 Y-12.841
X-118.634 Y-12.797
X-118.614 Y-12.784
X-118.473 Y-12.709
X-118.447 Y-12.687
X-118.429 Y-12.657
X-118.423 Y-12.624
X-118.429 Y-12.59
X-118.445 Y-12.56
X-118.471 Y-12.537
X-118.93 Y-12.258
X-118.962 Y-12.246
X-118.996 Y-12.245
X-119.029 Y-12.256
X-119.056 Y-12.277
X-119.074 Y-12.306
X-119.083 Y-12.33
X-119.098 Y-12.362
X-119.121 Y-12.404
X-119.149 Y-12.447
X-119.167 Y-12.469
X-119.191 Y-12.498
X-119.234 Y-12.641
X-119.202 Y-12.788
X-119.184 Y-12.814
X-119.099 Y-12.897
X-118.987 Y-12.94
X-118.868 Y-12.936
X-118.76 Y-12.886
X-118.66 Y-12.813
X-118.634 Y-12.797
X-118.608 Y-12.772
X-118.593 Y-12.74
X-118.591 Y-12.704
X-118.6 Y-12.67
X-118.621 Y-12.641
X-118.651 Y-12.622
X-119.059 Y-12.449
X-119.097 Y-12.441
X-119.135 Y-12.448
X-119.167 Y-12.469
X-119.229 Y-12.531
X-119.252 Y-12.551
X-119.278 Y-12.568
X-119.308 Y-12.59
X-119.34 Y-12.658
X-119.363 Y-12.806
X-119.31 Y-12.946
X-119.299 Y-12.958
X-119.177 Y-13.035
X-119.034 Y-13.047
X-118.901 Y-12.99
X-118.791 Y-12.909
X-118.76 Y-12.886
X-118.737 Y-12.86
X-118.724 Y-12.827
X-118.723 Y-12.792
X-118.735 Y-12.759
X-118.757 Y-12.732
X-118.787 Y-12.714
X-119.19 Y-12.56
X-119.22 Y-12.554
X-119.25 Y-12.557
X-119.278 Y-12.568
X-119.337 Y-12.607
X-119.39 Y-12.638
X-119.421 Y-12.658
X-119.465 Y-12.719
X-119.507 Y-12.863
X-119.495 Y-12.916
X-119.443 Y-13.031
X-119.348 Y-13.114
X-119.228 Y-13.151
X-119.103 Y-13.135
X-118.995 Y-13.069
X-118.962 Y-13.038
X-118.901 Y-12.99
X-118.876 Y-12.96
X-118.864 Y-12.922
X-118.869 Y-12.882
X-118.888 Y-12.847
X-118.92 Y-12.823
X-119.298 Y-12.636
X-119.328 Y-12.627
X-119.36 Y-12.628
X-119.39 Y-12.638
X-119.506 Y-12.705
X-119.569 Y-12.746
X-119.609 Y-12.809
X-119.645 Y-12.955
X-119.608 Y-13.1
X-119.52 Y-13.222
X-119.494 Y-13.241
X-119.389 Y-13.288
X-119.275 Y-13.292
X-119.167 Y-13.254
X-119.082 Y-13.177
X-119.04 Y-13.122
X-118.995 Y-13.069
X-118.975 Y-13.038
X-118.967 Y-13.002
X-118.972 Y-12.966
X-118.991 Y-12.934
X-119.02 Y-12.911
X-119.412 Y-12.705
X-119.443 Y-12.695
X-119.475
X-119.506 Y-12.705
X-119.59 Y-12.754
X-119.656 Y-12.801
X-119.715 Y-12.847
X-119.787 Y-12.979
X-119.785 Y-13.072
X-119.812 Y-13.161
X-119.911 Y-13.319
X-120.196 Y-13.558
X-120.273 Y-13.595
X-120.334 Y-13.635
X-120.384 Y-13.688
X-120.42 Y-13.752
X-120.426 Y-13.787
X-120.42 Y-13.821
X-120.402 Y-13.851
X-120.375 Y-13.874
X-120.342 Y-13.885
X-120.307
X-120.274 Y-13.872
X-120.248 Y-13.849
X-119.932 Y-13.456
X-119.837 Y-13.338
X-119.523 Y-12.947
X-119.506 Y-12.916
X-119.501 Y-12.881
X-119.508 Y-12.846
X-119.527 Y-12.817
X-119.555 Y-12.795
X-119.589 Y-12.785
X-119.624 Y-12.787
X-119.656 Y-12.801
X-119.87 Y-12.953
X-119.899 Y-12.977
X-119.929 Y-13.007
X-119.956 Y-13.038
X-120.027 Y-13.122
X-120.167 Y-13.291
X-120.183 Y-13.311
X-120.288 Y-13.46
X-120.312 Y-13.502
X-120.369 Y-13.629
X-120.473 Y-13.883
X-120.5 Y-13.967
X-120.556 Y-14.174
X-120.558 Y-14.211
X-120.546 Y-14.246
X-120.523 Y-14.274
X-120.49 Y-14.292
X-120.263 Y-14.367
X-119.687 Y-14.558
X-119.652 Y-14.563
X-119.617 Y-14.555
X-119.587 Y-14.536
X-119.566 Y-14.508
X-119.556 Y-14.474
X-119.544 Y-14.305
X-119.532 Y-14.22
X-119.483 Y-13.967
X-119.464 Y-13.883
X-119.433 Y-13.798
X-119.394 Y-13.714
X-119.272 Y-13.46
X-119.252 Y-13.428
X-119.102 Y-13.207
X-119.082 Y-13.177
X-118.765 Y-12.458
X-118.747 Y-12.417
X-118.487 Y-11.828
X-118.479 Y-11.793
X-118.483 Y-11.758
X-118.499 Y-11.727
X-118.525 Y-11.703
X-118.575 Y-11.674
X-118.66 Y-11.62
X-118.684 Y-11.602
X-118.747 Y-11.56
X-118.757 Y-11.559
X-118.899 Y-11.582
X-119.015 Y-11.669
X-119.077 Y-11.8
X-119.07 Y-11.944
X-119.054 Y-11.974
X-119.029 Y-11.996
X-118.998 Y-12.01
X-118.964 Y-12.011
X-118.931 Y-12.002
X-118.904 Y-11.982
X-118.675 Y-11.75
X-118.656 Y-11.723
X-118.647 Y-11.691
X-118.649 Y-11.658
X-118.662 Y-11.627
X-118.684 Y-11.602
X-118.797 Y-11.517
X-118.828 Y-11.496
X-118.901 Y-11.482
X-118.976 Y-11.488
X-118.987 Y-11.492
X-119.076 Y-11.553
X-119.131 Y-11.646
X-119.142 Y-11.753
X-119.108 Y-11.855
X-119.071 Y-11.94
X-119.07 Y-11.944
X-119.053 Y-11.975
X-119.026 Y-11.998
X-118.994 Y-12.01
X-118.958 Y-12.011
X-118.925 Y-11.999
X-118.898 Y-11.976
X-118.881 Y-11.946
X-118.767 Y-11.628
X-118.761 Y-11.598
X-118.765 Y-11.568
X-118.777 Y-11.54
X-118.797 Y-11.517
X-118.829 Y-11.493
X-118.89 Y-11.433
X-118.917 Y-11.407
X-118.99 Y-11.392
X-119.108 Y-11.437
X-119.186 Y-11.536
X-119.205 Y-11.66
X-119.159 Y-11.778
X-119.135 Y-11.8
X-119.104 Y-11.813
X-119.071 Y-11.815
X-119.039 Y-11.806
X-119.011 Y-11.787
X-118.992 Y-11.76
X-118.88 Y-11.538
X-118.87 Y-11.503
X-118.873 Y-11.466
X-118.89 Y-11.433
X-118.914 Y-11.404
X-118.936 Y-11.373
X-118.959 Y-11.344
X-119.028 Y-11.314
X-119.138 Y-11.338
X-119.225 Y-11.41
X-119.27 Y-11.513
X-119.265 Y-11.626
X-119.208 Y-11.724
X-119.164 Y-11.771
X-119.159 Y-11.778
X-119.131 Y-11.802
X-119.096 Y-11.814
X-119.058 Y-11.813
X-119.024 Y-11.798
X-118.998 Y-11.771
X-118.983 Y-11.737
X-118.921 Y-11.451
X-118.919 Y-11.424
X-118.924 Y-11.398
X-118.936 Y-11.373
X-118.954 Y-11.349
X-118.998 Y-11.284
X-119.021 Y-11.254
X-119.09 Y-11.226
X-119.165
X-119.237 Y-11.248
X-119.325 Y-11.339
X-119.361 Y-11.46
X-119.336 Y-11.584
X-119.256 Y-11.683
X-119.225 Y-11.697
X-119.19 Y-11.7
X-119.156 Y-11.691
X-119.127 Y-11.67
X-119.108 Y-11.641
X-118.991 Y-11.379
X-118.983 Y-11.347
X-118.985 Y-11.314
X-118.998 Y-11.284
X-119.07 Y-11.18
X-119.093 Y-11.15
X-119.162 Y-11.122
X-119.237 Y-11.123
X-119.31 Y-11.142
X-119.312 Y-11.143
X-119.412 Y-11.242
X-119.453 Y-11.376
X-119.426 Y-11.514
X-119.337 Y-11.622
X-119.256 Y-11.683
X-119.225 Y-11.697
X-119.191 Y-11.7
X-119.158 Y-11.692
X-119.13 Y-11.673
X-119.11 Y-11.645
X-119.1 Y-11.613
X-119.055 Y-11.245
X-119.057 Y-11.211
X-119.07 Y-11.18
X-119.128 Y-11.095
X-119.149 Y-11.064
X-119.214 Y-11.026
X-119.288 Y-11.016
X-119.436 Y-11.041
X-119.552 Y-11.138
X-119.59 Y-11.276
X-119.559 Y-11.416
X-119.467 Y-11.526
X-119.337 Y-11.622
X-119.306 Y-11.636
X-119.273 Y-11.639
X-119.24 Y-11.631
X-119.212 Y-11.613
X-119.192 Y-11.587
X-119.181 Y-11.555
X-119.119 Y-11.153
Y-11.124
X-119.128 Y-11.095
X-119.167 Y-11.018
X-119.204 Y-10.953
X-119.268 Y-10.914
X-119.34 Y-10.892
X-119.49
X-119.627 Y-10.954
X-119.649 Y-10.979
X-119.707 Y-11.08
X-119.722 Y-11.195
X-119.692 Y-11.307
X-119.622 Y-11.399
X-119.584 Y-11.433
X-119.479 Y-11.517
X-119.467 Y-11.526
X-119.435 Y-11.541
X-119.399 Y-11.543
X-119.365 Y-11.532
X-119.337 Y-11.511
X-119.318 Y-11.48
X-119.166 Y-11.096
X-119.159 Y-11.071
X-119.16 Y-11.044
X-119.167 Y-11.018
X-119.234 Y-10.883
X-119.271 Y-10.818
X-119.333 Y-10.775
X-119.475 Y-10.728
X-119.625 Y-10.742
X-119.755 Y-10.817
X-119.785 Y-10.853
X-119.848 Y-10.973
X-119.852 Y-11.109
X-119.795 Y-11.232
X-119.771 Y-11.264
X-119.76 Y-11.276
X-119.622 Y-11.399
X-119.592 Y-11.417
X-119.558 Y-11.423
X-119.524 Y-11.417
X-119.494 Y-11.399
X-119.472 Y-11.373
X-119.239 Y-10.975
X-119.228 Y-10.945
X-119.226 Y-10.914
X-119.234 Y-10.883
X-119.26 Y-10.831
X-119.279 Y-10.757
X-119.29 Y-10.721
X-119.334 Y-10.661
X-119.458 Y-10.576
X-119.607 Y-10.556
X-119.753 Y-10.586
X-119.881 Y-10.665
X-119.898 Y-10.685
X-119.963 Y-10.797
X-119.974 Y-10.926
X-119.929 Y-11.048
X-119.899 Y-11.095
X-119.795 Y-11.232
X-119.769 Y-11.254
X-119.737 Y-11.266
X-119.703 Y-11.267
X-119.67 Y-11.256
X-119.643 Y-11.234
X-119.301 Y-10.845
X-119.285 Y-10.818
X-119.277 Y-10.788
X-119.279 Y-10.757
X-119.322 Y-10.588
X-119.331 Y-10.552
X-119.426 Y-10.436
X-119.565 Y-10.38
X-119.715 Y-10.373
X-119.861 Y-10.408
X-119.989 Y-10.487
X-120.004 Y-10.503
X-120.07 Y-10.612
X-120.085 Y-10.739
X-120.046 Y-10.86
X-120.008 Y-10.926
X-119.929 Y-11.048
X-119.906 Y-11.073
X-119.875 Y-11.088
X-119.841 Y-11.091
X-119.808 Y-11.084
X-119.78 Y-11.065
X-119.354 Y-10.675
X-119.334 Y-10.65
X-119.323 Y-10.62
X-119.322 Y-10.588
X-119.337 Y-10.501
X-119.343 Y-10.456
X-119.357 Y-10.382
X-119.443 Y-10.259
X-119.577 Y-10.192
X-119.725 Y-10.171
X-119.874 Y-10.191
X-120.014 Y-10.244
X-120.045 Y-10.267
X-120.124 Y-10.355
X-120.162 Y-10.468
X-120.154 Y-10.587
X-120.127 Y-10.673
X-120.091 Y-10.78
X-120.081 Y-10.801
X-120.046 Y-10.86
X-120.019 Y-10.889
X-119.983 Y-10.905
X-119.943
X-119.907 Y-10.89
X-119.387 Y-10.55
X-119.361 Y-10.525
X-119.346 Y-10.492
X-119.343 Y-10.456
X-119.36 Y-10.335
X-119.363 Y-10.289
X-119.373 Y-10.214
X-119.446 Y-10.083
X-119.573 Y-10.004
X-119.719 Y-9.968
X-119.869 Y-9.969
X-120.015 Y-10.004
X-120.062 Y-10.028
X-120.161 Y-10.113
X-120.215 Y-10.232
X-120.213 Y-10.362
X-120.2 Y-10.419
X-120.164 Y-10.55
X-120.154 Y-10.587
X-120.139 Y-10.617
X-120.114 Y-10.64
X-120.084 Y-10.654
X-120.051 Y-10.657
X-120.018 Y-10.648
X-119.423 Y-10.384
X-119.39 Y-10.361
X-119.369 Y-10.328
X-119.363 Y-10.289
X-119.366 Y-10.25
X-119.37 Y-10.12
X-119.375 Y-10.045
X-119.435 Y-9.907
X-119.554 Y-9.816
X-119.695 Y-9.765
X-119.845 Y-9.749
X-119.994 Y-9.766
X-120.057 Y-9.789
X-120.168 Y-9.862
X-120.236 Y-9.975
X-120.249 Y-10.107
X-120.231 Y-10.25
X-120.219 Y-10.335
X-120.213 Y-10.362
X-120.2 Y-10.391
X-120.177 Y-10.415
X-120.149 Y-10.43
X-120.117 Y-10.436
X-120.085 Y-10.43
X-120.065 Y-10.424
X-119.438 Y-10.214
X-119.411 Y-10.199
X-119.389 Y-10.177
X-119.375 Y-10.15
X-119.37 Y-10.12
X-119.371 Y-10.082
X-119.37 Y-9.997
X-119.366 Y-9.951
X-119.363 Y-9.876
X-119.409 Y-9.733
X-119.518 Y-9.63
X-119.653 Y-9.564
X-119.799 Y-9.532
X-119.949 Y-9.531
X-120.027 Y-9.55
X-120.136 Y-9.601
X-120.217 Y-9.691
X-120.255 Y-9.804
X-120.267 Y-9.913
X-120.261 Y-9.997
X-120.249 Y-10.107
X-120.239 Y-10.138
X-120.219 Y-10.164
X-120.192 Y-10.182
X-120.161 Y-10.191
X-120.129 Y-10.189
X-120.09 Y-10.18
X-119.443 Y-10.036
X-119.415 Y-10.025
X-119.391 Y-10.006
X-119.374 Y-9.98
X-119.366 Y-9.951
X-119.355 Y-9.828
X-119.346 Y-9.744
X-119.338 Y-9.669
X-119.394 Y-9.53
X-119.501 Y-9.425
X-119.633 Y-9.354
X-119.778 Y-9.313
X-119.927 Y-9.306
X-119.977 Y-9.314
X-120.095 Y-9.361
X-120.183 Y-9.452
X-120.225 Y-9.571
X-120.255 Y-9.804
X-120.252 Y-9.84
X-120.237 Y-9.872
X-120.211 Y-9.897
X-120.178 Y-9.911
X-120.142 Y-9.913
X-120.09 Y-9.906
X-119.43 Y-9.818
X-119.393 Y-9.806
X-119.363 Y-9.779
X-119.346 Y-9.744
X-119.31 Y-9.575
X-119.298 Y-9.501
X-119.339 Y-9.356
X-119.435 Y-9.242
X-119.559 Y-9.158
X-119.699 Y-9.104
X-119.848 Y-9.08
X-119.901 Y-9.084
X-120.017 Y-9.117
X-120.111 Y-9.193
X-120.168 Y-9.3
X-120.198 Y-9.406
X-120.215 Y-9.49
X-120.225 Y-9.571
X-120.222 Y-9.605
X-120.209 Y-9.636
X-120.185 Y-9.661
X-120.155 Y-9.676
X-120.121 Y-9.681
X-120.059 Y-9.678
X-119.403 Y-9.65
X-119.371 Y-9.644
X-119.344 Y-9.628
X-119.322 Y-9.604
X-119.31 Y-9.575
X-119.292 Y-9.49
X-119.28 Y-9.448
X-119.267 Y-9.406
X-119.243 Y-9.335
X-119.27 Y-9.187
X-119.355 Y-9.064
X-119.471 Y-8.968
X-119.605 Y-8.901
X-119.75 Y-8.864
X-119.809 Y-8.862
X-119.912 Y-8.878
X-120.003 Y-8.928
X-120.072 Y-9.005
X-120.082 Y-9.022
X-120.091 Y-9.041
X-120.098 Y-9.06
X-120.168 Y-9.3
X-120.17 Y-9.335
X-120.16 Y-9.369
X-120.14 Y-9.397
X-120.11 Y-9.416
X-120.076 Y-9.424
X-120.027 Y-9.427
X-119.363 Y-9.465
X-119.334 Y-9.462
X-119.306 Y-9.45
X-119.283 Y-9.431
X-119.267 Y-9.406
X-119.252 Y-9.37
X-119.205 Y-9.275
X-119.175 Y-9.206
X-119.171 Y-9.056
X-119.235 Y-8.921
X-119.336 Y-8.81
X-119.46 Y-8.725
X-119.598 Y-8.667
X-119.635 Y-8.66
X-119.754 Y-8.662
X-119.863 Y-8.711
X-119.944 Y-8.798
X-120.072 Y-9.005
X-120.084 Y-9.04
X-120.082 Y-9.077
X-120.068 Y-9.11
X-120.042 Y-9.137
X-120.009 Y-9.152
X-119.952 Y-9.166
X-119.317 Y-9.324
X-119.285 Y-9.327
X-119.253 Y-9.319
X-119.225 Y-9.301
X-119.205 Y-9.275
X-119.167 Y-9.199
X-119.123 Y-9.127
X-119.087 Y-9.061
X-119.066 Y-8.913
X-119.116 Y-8.771
X-119.205 Y-8.65
X-119.318 Y-8.552
X-119.451 Y-8.482
X-119.472 Y-8.476
X-119.588 Y-8.468
X-119.698 Y-8.505
X-119.786 Y-8.58
X-119.902 Y-8.73
X-119.944 Y-8.798
X-119.956 Y-8.831
X-119.955 Y-8.866
X-119.943 Y-8.898
X-119.92 Y-8.925
X-119.89 Y-8.942
X-119.857 Y-8.953
X-119.239 Y-9.166
X-119.207 Y-9.172
X-119.174 Y-9.166
X-119.145 Y-9.151
X-119.123 Y-9.127
X-119.035 Y-8.984
X-119.015 Y-8.953
X-118.976 Y-8.889
X-118.96 Y-8.74
X-119.007 Y-8.597
X-119.09 Y-8.472
X-119.198 Y-8.368
X-119.263 Y-8.333
X-119.393 Y-8.296
X-119.526 Y-8.321
X-119.635 Y-8.401
X-119.76 Y-8.547
X-119.786 Y-8.58
X-119.801 Y-8.613
X-119.805 Y-8.648
X-119.795 Y-8.683
X-119.774 Y-8.712
X-119.744 Y-8.732
X-119.735 Y-8.735
X-119.135 Y-8.987
X-119.102 Y-8.995
X-119.069 Y-8.991
X-119.039 Y-8.977
X-119.015 Y-8.953
X-118.998 Y-8.928
X-118.915 Y-8.815
X-118.873 Y-8.752
X-118.837 Y-8.606
X-118.869 Y-8.46
X-118.94 Y-8.327
X-119.043 Y-8.218
X-119.061 Y-8.207
X-119.168 Y-8.164
X-119.284 Y-8.165
X-119.39 Y-8.21
X-119.564 Y-8.326
X-119.59 Y-8.349
X-119.635 Y-8.401
X-119.652 Y-8.432
X-119.657 Y-8.467
X-119.649 Y-8.502
X-119.631 Y-8.531
X-119.603 Y-8.553
X-119.039 Y-8.842
X-119.006 Y-8.852
X-118.972 Y-8.85
X-118.94 Y-8.837
X-118.915 Y-8.815
X-118.879 Y-8.772
X-118.837 Y-8.73
X-118.803 Y-8.704
X-118.746 Y-8.656
X-118.693 Y-8.516
X-118.704 Y-8.366
X-118.759 Y-8.227
X-118.85 Y-8.108
X-118.855 Y-8.104
X-118.961 Y-8.052
X-119.079 Y-8.045
X-119.191 Y-8.085
X-119.282 Y-8.139
X-119.337 Y-8.174
X-119.39 Y-8.21
X-119.416 Y-8.237
X-119.43 Y-8.272
Y-8.31
X-119.416 Y-8.345
X-119.39 Y-8.372
X-118.919 Y-8.704
X-118.891 Y-8.718
X-118.861 Y-8.722
X-118.831 Y-8.718
X-118.803 Y-8.704
X-118.725 Y-8.646
X-118.66 Y-8.598
X-118.599 Y-8.554
X-118.536 Y-8.418
X-118.537 Y-8.268
X-118.581 Y-8.124
X-118.619 Y-8.07
X-118.722 Y-7.977
X-118.856 Y-7.941
X-118.992 Y-7.969
X-119.083 Y-8.02
X-119.191 Y-8.085
X-119.218 Y-8.111
X-119.234 Y-8.145
X-119.236 Y-8.182
X-119.224 Y-8.218
X-119.2 Y-8.247
X-118.774 Y-8.59
X-118.747 Y-8.605
X-118.718 Y-8.612
X-118.688 Y-8.609
X-118.66 Y-8.598
X-118.603 Y-8.561
X-118.529 Y-8.518
X-118.466 Y-8.477
X-118.38 Y-8.354
X-118.36 Y-8.206
X-118.394 Y-8.06
X-118.467 Y-7.929
X-118.568 Y-7.868
X-118.684 Y-7.85
X-118.797 Y-7.878
X-118.992 Y-7.969
X-119.022 Y-7.992
X-119.041 Y-8.024
X-119.047 Y-8.061
X-119.038 Y-8.098
X-119.017 Y-8.129
X-118.647 Y-8.501
X-118.621 Y-8.519
X-118.591 Y-8.529
X-118.559
X-118.529 Y-8.518
X-118.406 Y-8.447
X-118.348 Y-8.416
X-118.284 Y-8.377
X-118.205 Y-8.249
X-118.189 Y-8.1
X-118.218 Y-7.953
X-118.235 Y-7.925
X-118.317 Y-7.835
X-118.429 Y-7.785
X-118.551 Y-7.784
X-118.628 Y-7.801
X-118.644 Y-7.807
X-118.797 Y-7.878
X-118.826 Y-7.901
X-118.845 Y-7.933
X-118.851 Y-7.97
X-118.843 Y-8.007
X-118.822 Y-8.038
X-118.463 Y-8.397
X-118.438 Y-8.415
X-118.409 Y-8.425
X-118.378
X-118.348 Y-8.416
X-118.303 Y-8.392
X-118.237 Y-8.36
X-118.19 Y-8.346
X-118.155 Y-8.333
X-118.05 Y-8.226
X-118.008 Y-8.082
X-118.021 Y-7.932
X-118.026 Y-7.921
X-118.106 Y-7.813
X-118.225 Y-7.75
X-118.359 Y-7.746
X-118.551 Y-7.784
X-118.582 Y-7.798
X-118.607 Y-7.82
X-118.623 Y-7.85
X-118.628 Y-7.884
X-118.621 Y-7.917
X-118.604 Y-7.946
X-118.292 Y-8.314
X-118.263 Y-8.337
X-118.228 Y-8.348
X-118.19 Y-8.346
X-118.152 Y-8.334
X-118.068 Y-8.312
X-117.995 Y-8.293
X-117.879 Y-8.198
X-117.826 Y-8.058
X-117.833 Y-7.908
X-117.838 Y-7.895
X-117.91 Y-7.787
X-118.02 Y-7.72
X-118.149 Y-7.705
X-118.359 Y-7.746
X-118.394 Y-7.762
X-118.421 Y-7.79
X-118.435 Y-7.826
X-118.434 Y-7.865
X-118.419 Y-7.9
X-118.168 Y-8.27
X-118.141 Y-8.297
X-118.106 Y-8.311
X-118.068 Y-8.312
X-117.898 Y-8.276
X-117.825 Y-8.259
X-117.764 Y-8.216
X-117.674 Y-8.095
X-117.643 Y-7.949
X-117.646 Y-7.931
X-117.707 Y-7.798
X-117.824 Y-7.71
X-117.968 Y-7.687
X-118.113 Y-7.701
X-118.149 Y-7.705
X-118.186 Y-7.718
X-118.215 Y-7.744
X-118.232 Y-7.779
X-118.234 Y-7.818
X-118.221 Y-7.855
X-117.999 Y-8.229
X-117.973 Y-8.258
X-117.938 Y-8.274
X-117.898 Y-8.276
X-117.814 Y-8.261
X-117.729 Y-8.254
X-117.655 Y-8.244
X-117.536 Y-8.153
X-117.471 Y-8.018
X-117.47 Y-7.868
X-117.471 Y-7.863
X-117.54 Y-7.758
X-117.646 Y-7.69
X-117.771 Y-7.671
X-117.898 Y-7.681
X-117.968 Y-7.687
X-118.006 Y-7.7
X-118.035 Y-7.726
X-118.053 Y-7.762
X-118.055 Y-7.801
X-118.041 Y-7.838
X-117.819 Y-8.206
X-117.796 Y-8.232
X-117.764 Y-8.249
X-117.729 Y-8.254
X-117.56 Y-8.24
X-117.485 Y-8.234
X-117.422 Y-8.194
X-117.324 Y-8.081
X-117.28 Y-7.937
X-117.282 Y-7.921
X-117.337 Y-7.783
X-117.451 Y-7.688
X-117.597 Y-7.66
X-117.771 Y-7.671
X-117.809 Y-7.683
X-117.839 Y-7.708
X-117.857 Y-7.743
X-117.86 Y-7.782
X-117.848 Y-7.82
X-117.64 Y-8.189
X-117.62 Y-8.215
X-117.592 Y-8.232
X-117.56 Y-8.24
X-117.429 Y-8.245
X-117.354 Y-8.243
X-117.285 Y-8.215
X-117.167 Y-8.121
X-117.108 Y-7.983
Y-7.962
X-117.13 Y-7.85
X-117.193 Y-7.754
X-117.287 Y-7.688
X-117.399 Y-7.663
X-117.56 Y-7.658
X-117.597 Y-7.66
X-117.633 Y-7.671
X-117.663 Y-7.693
X-117.682 Y-7.726
X-117.688 Y-7.763
X-117.68 Y-7.799
X-117.514 Y-8.184
X-117.494 Y-8.215
X-117.464 Y-8.236
X-117.429 Y-8.245
X-117.306 Y-8.249
X-117.26 Y-8.254
X-117.185 Y-8.259
X-117.047 Y-8.201
X-116.955 Y-8.082
X-116.922 Y-7.936
X-116.924 Y-7.926
X-116.973 Y-7.801
X-117.072 Y-7.71
X-117.201 Y-7.672
X-117.306 Y-7.666
X-117.399 Y-7.663
X-117.437 Y-7.67
X-117.469 Y-7.692
X-117.49 Y-7.724
X-117.498 Y-7.761
X-117.491 Y-7.799
X-117.338 Y-8.192
X-117.32 Y-8.222
X-117.292 Y-8.243
X-117.26 Y-8.254
X-117.137 Y-8.27
X-117.09 Y-8.277
X-117.016 Y-8.283
X-116.945 Y-8.259
X-116.824 Y-8.17
X-116.751 Y-8.039
X-116.749 Y-8.006
X-116.763 Y-7.891
X-116.819 Y-7.789
X-116.91 Y-7.717
X-117.022 Y-7.684
X-117.052 Y-7.681
X-117.201 Y-7.672
X-117.238 Y-7.678
X-117.271 Y-7.697
X-117.294 Y-7.728
X-117.303 Y-7.764
X-117.299 Y-7.802
X-117.169 Y-8.209
X-117.152 Y-8.241
X-117.124 Y-8.264
X-117.09 Y-8.277
X-117.052 Y-8.282
X-116.968 Y-8.299
X-116.934 Y-8.308
X-116.861 Y-8.322
X-116.718 Y-8.275
X-116.613 Y-8.169
X-116.562 Y-8.027
X-116.563 Y-8.002
X-116.598 Y-7.868
X-116.689 Y-7.764
X-116.818 Y-7.712
X-116.968 Y-7.689
X-117.022 Y-7.684
X-117.059 Y-7.689
X-117.092 Y-7.708
X-117.115 Y-7.737
X-117.126 Y-7.774
X-117.123 Y-7.811
X-117.003 Y-8.239
X-116.988 Y-8.269
X-116.965 Y-8.293
X-116.934 Y-8.308
X-116.756 Y-8.352
X-116.72 Y-8.361
X-116.645 Y-8.352
X-116.509 Y-8.29
X-116.414 Y-8.174
X-116.375 Y-8.029
X-116.376 Y-8.022
X-116.412 Y-7.897
X-116.498 Y-7.799
X-116.617 Y-7.746
X-116.714 Y-7.728
X-116.818 Y-7.712
X-116.856 Y-7.715
X-116.89 Y-7.732
X-116.916 Y-7.761
X-116.928 Y-7.798
X-116.926 Y-7.836
X-116.811 Y-8.287
X-116.799 Y-8.313
X-116.781 Y-8.336
X-116.756 Y-8.352
X-116.714 Y-8.372
X-116.673 Y-8.392
X-116.604 Y-8.422
X-116.53 Y-8.426
X-116.385 Y-8.387
X-116.273 Y-8.287
X-116.201 Y-8.155
X-116.196 Y-8.117
X-116.202 Y-8.005
X-116.249 Y-7.902
X-116.33 Y-7.825
X-116.435 Y-7.782
X-116.617 Y-7.746
X-116.652 Y-7.747
X-116.684 Y-7.759
X-116.71 Y-7.782
X-116.727 Y-7.812
X-116.733 Y-7.846
X-116.726 Y-8.306
X-116.719 Y-8.34
X-116.701 Y-8.37
X-116.673 Y-8.392
X-116.629 Y-8.414
X-116.507 Y-8.477
X-116.473 Y-8.494
X-116.399 Y-8.505
X-116.25 Y-8.483
X-116.127 Y-8.398
X-116.039 Y-8.277
X-116.026 Y-8.234
X-116.018 Y-8.093
X-116.076 Y-7.963
X-116.186 Y-7.875
X-116.291 Y-7.826
X-116.349 Y-7.801
X-116.376 Y-7.794
X-116.435 Y-7.782
X-116.469 Y-7.783
X-116.502 Y-7.795
X-116.528 Y-7.817
X-116.545 Y-7.847
X-116.551 Y-7.881
X-116.55 Y-8.394
X-116.545 Y-8.426
X-116.53 Y-8.454
X-116.507 Y-8.477
X-116.46 Y-8.506
X-116.381 Y-8.561
X-116.317 Y-8.601
X-116.167 Y-8.611
X-116.029 Y-8.552
X-115.917 Y-8.453
X-115.844 Y-8.321
X-115.839 Y-8.297
X-115.84 Y-8.164
X-115.898 Y-8.044
X-116.002 Y-7.961
X-116.186 Y-7.875
X-116.221 Y-7.867
X-116.256 Y-7.872
X-116.288 Y-7.889
X-116.311 Y-7.915
X-116.324 Y-7.949
X-116.419 Y-8.463
Y-8.5
X-116.405 Y-8.534
X-116.381 Y-8.561
X-116.23 Y-8.666
X-116.167 Y-8.706
X-116.018 Y-8.722
X-115.876 Y-8.672
X-115.76 Y-8.577
X-115.676 Y-8.453
X-115.665 Y-8.417
X-115.653 Y-8.289
X-115.696 Y-8.169
X-115.784 Y-8.077
X-115.817 Y-8.054
X-115.868 Y-8.028
X-116.002 Y-7.961
X-116.036 Y-7.953
X-116.07 Y-7.957
X-116.101 Y-7.973
X-116.125 Y-7.998
X-116.139 Y-8.03
X-116.267 Y-8.563
X-116.269 Y-8.601
X-116.256 Y-8.637
X-116.23 Y-8.666
X-116.206 Y-8.683
X-116.147 Y-8.73
X-116.122 Y-8.753
X-116.092 Y-8.787
X-116.065 Y-8.814
X-115.921 Y-8.855
X-115.774 Y-8.823
X-115.646 Y-8.746
X-115.542 Y-8.637
X-115.473 Y-8.503
X-115.474 Y-8.387
X-115.519 Y-8.281
X-115.601 Y-8.199
X-115.784 Y-8.077
X-115.818 Y-8.064
X-115.854 Y-8.063
X-115.888 Y-8.076
X-115.915 Y-8.1
X-115.932 Y-8.131
X-116.11 Y-8.693
X-116.115 Y-8.726
X-116.108 Y-8.758
X-116.092 Y-8.787
X-116.067 Y-8.815
X-116.02 Y-8.88
X-115.973 Y-8.938
X-115.835 Y-8.997
X-115.686 Y-8.984
X-115.548 Y-8.925
X-115.43 Y-8.833
X-115.334 Y-8.717
X-115.319 Y-8.679
X-115.296 Y-8.57
X-115.315 Y-8.46
X-115.373 Y-8.364
X-115.4 Y-8.335
X-115.53 Y-8.247
X-115.601 Y-8.199
X-115.631 Y-8.187
X-115.664 Y-8.185
X-115.696 Y-8.193
X-115.723 Y-8.212
X-115.742 Y-8.238
X-116.025 Y-8.777
X-116.036 Y-8.811
X-116.034 Y-8.847
X-116.02 Y-8.88
X-115.953 Y-8.975
X-115.932 Y-9.009
X-115.89 Y-9.071
X-115.761 Y-9.147
X-115.611 Y-9.153
X-115.467 Y-9.113
X-115.336 Y-9.039
X-115.249 Y-8.961
X-115.167 Y-8.841
X-115.152 Y-8.697
X-115.205 Y-8.562
X-115.277 Y-8.477
X-115.373 Y-8.364
X-115.401 Y-8.344
X-115.434 Y-8.334
X-115.468 Y-8.336
X-115.5 Y-8.35
X-115.525 Y-8.373
X-115.924 Y-8.9
X-115.941 Y-8.935
X-115.944 Y-8.973
X-115.932 Y-9.009
X-115.846 Y-9.152
X-115.805 Y-9.215
X-115.686 Y-9.306
X-115.537 Y-9.327
X-115.389 Y-9.303
X-115.251 Y-9.244
X-115.13 Y-9.156
X-115.094 Y-9.114
X-115.031 Y-8.997
X-115.024 Y-8.865
X-115.076 Y-8.742
X-115.205 Y-8.562
X-115.23 Y-8.539
X-115.261 Y-8.526
X-115.295 Y-8.524
X-115.328 Y-8.533
X-115.356 Y-8.553
X-115.368 Y-8.566
X-115.83 Y-9.035
X-115.848 Y-9.061
X-115.857 Y-9.091
Y-9.123
X-115.846 Y-9.152
X-115.797 Y-9.237
X-115.755 Y-9.321
X-115.721 Y-9.388
X-115.6 Y-9.478
X-115.453 Y-9.506
X-115.304 Y-9.492
X-115.161 Y-9.445
X-115.034 Y-9.366
X-114.985 Y-9.317
X-114.913 Y-9.205
X-114.897 Y-9.073
X-114.94 Y-8.947
X-114.97 Y-8.899
X-115.024 Y-8.815
X-115.076 Y-8.742
X-115.1 Y-8.72
X-115.131 Y-8.706
X-115.164 Y-8.704
X-115.196 Y-8.712
X-115.224 Y-8.731
X-115.248 Y-8.753
X-115.731 Y-9.211
X-115.754 Y-9.243
X-115.762 Y-9.282
X-115.755 Y-9.321
X-115.717 Y-9.406
X-115.699 Y-9.463
X-115.676 Y-9.535
X-115.572 Y-9.643
X-115.431 Y-9.692
X-115.281 Y-9.698
X-115.134 Y-9.669
X-114.996 Y-9.61
X-114.936 Y-9.566
X-114.855 Y-9.476
X-114.816 Y-9.361
X-114.825 Y-9.241
X-114.882 Y-9.047
X-114.892 Y-9.026
X-114.94 Y-8.947
X-114.963 Y-8.923
X-114.991 Y-8.907
X-115.023 Y-8.902
X-115.055 Y-8.907
X-115.084 Y-8.922
X-115.128 Y-8.955
X-115.662 Y-9.362
X-115.687 Y-9.39
X-115.7 Y-9.425
X-115.699 Y-9.463
X-115.692 Y-9.49
X-115.664 Y-9.621
X-115.644 Y-9.694
X-115.555 Y-9.815
X-115.421 Y-9.881
X-115.273 Y-9.904
X-115.123 Y-9.893
X-114.979 Y-9.852
X-114.912 Y-9.816
X-114.821 Y-9.739
X-114.767 Y-9.633
X-114.758 Y-9.514
X-114.768 Y-9.44
X-114.825 Y-9.241
X-114.842 Y-9.21
X-114.867 Y-9.187
X-114.899 Y-9.174
X-114.933 Y-9.173
X-114.966 Y-9.183
X-115.026 Y-9.214
X-115.611 Y-9.515
X-115.636 Y-9.534
X-115.655 Y-9.559
X-115.664 Y-9.59
Y-9.621
X-115.637 Y-9.744
X-115.632 Y-9.79
X-115.621 Y-9.864
X-115.545 Y-9.994
X-115.417 Y-10.072
X-115.272 Y-10.111
X-115.122 Y-10.116
X-114.975 Y-10.09
X-114.911 Y-10.063
X-114.805 Y-9.989
X-114.74 Y-9.878
X-114.728 Y-9.749
X-114.758 Y-9.514
X-114.77 Y-9.481
X-114.793 Y-9.454
X-114.823 Y-9.436
X-114.858 Y-9.43
X-114.892 Y-9.436
X-114.952 Y-9.459
X-115.568 Y-9.69
X-115.595 Y-9.705
X-115.617 Y-9.729
X-115.63 Y-9.758
X-115.632 Y-9.79
X-115.621 Y-9.913
X-115.614 Y-9.991
X-115.604 Y-10.065
X-115.524 Y-10.192
X-115.399 Y-10.275
X-115.257 Y-10.321
X-115.107 Y-10.336
X-114.959 Y-10.317
X-114.919 Y-10.302
X-114.822 Y-10.246
X-114.753 Y-10.159
X-114.721 Y-10.052
X-114.715 Y-9.997
X-114.709 Y-9.913
X-114.718 Y-9.828
X-114.728 Y-9.749
X-114.739 Y-9.716
X-114.76 Y-9.69
X-114.79 Y-9.672
X-114.823 Y-9.665
X-114.857 Y-9.669
X-114.922 Y-9.69
X-115.545 Y-9.89
X-115.574 Y-9.905
X-115.597 Y-9.929
X-115.611 Y-9.958
X-115.614 Y-9.991
X-115.613 Y-10.082
X-115.614 Y-10.14
X-115.612 Y-10.215
X-115.559 Y-10.355
X-115.448 Y-10.456
X-115.313 Y-10.522
X-115.167 Y-10.553
X-115.017 Y-10.555
X-114.984 Y-10.547
X-114.875 Y-10.498
X-114.794 Y-10.41
X-114.753 Y-10.298
X-114.746 Y-10.25
X-114.724 Y-10.082
X-114.721 Y-10.052
X-114.725 Y-10.016
X-114.741 Y-9.985
X-114.767 Y-9.96
X-114.8 Y-9.947
X-114.835 Y-9.946
X-114.887 Y-9.953
X-115.529 Y-10.047
X-115.561 Y-10.058
X-115.588 Y-10.078
X-115.606 Y-10.107
X-115.614 Y-10.14
X-115.617 Y-10.25
X-115.624 Y-10.335
X-115.63 Y-10.41
X-115.578 Y-10.551
X-115.472 Y-10.656
X-115.341 Y-10.729
X-115.197 Y-10.772
X-115.117 Y-10.775
X-114.988 Y-10.751
X-114.882 Y-10.674
X-114.818 Y-10.559
X-114.802 Y-10.504
X-114.768 Y-10.373
X-114.758 Y-10.335
X-114.753 Y-10.298
X-114.755 Y-10.263
X-114.77 Y-10.23
X-114.795 Y-10.205
X-114.827 Y-10.19
X-114.862 Y-10.187
X-114.883 Y-10.189
X-115.535 Y-10.253
X-115.566 Y-10.261
X-115.593 Y-10.279
X-115.613 Y-10.304
X-115.624 Y-10.335
X-115.647 Y-10.504
X-115.655 Y-10.578
X-115.624 Y-10.725
X-115.529 Y-10.841
X-115.406 Y-10.927
X-115.265 Y-10.977
X-115.214 Y-10.983
X-115.1 Y-10.973
X-114.998 Y-10.921
X-114.923 Y-10.835
X-114.902 Y-10.8
X-114.892 Y-10.778
X-114.884 Y-10.757
X-114.853 Y-10.667
X-114.827 Y-10.588
X-114.818 Y-10.559
X-114.816 Y-10.523
X-114.826 Y-10.489
X-114.848 Y-10.46
X-114.878 Y-10.441
X-114.914 Y-10.434
X-115.547 Y-10.423
X-115.582 Y-10.429
X-115.612 Y-10.446
X-115.635 Y-10.472
X-115.647 Y-10.504
X-115.661 Y-10.588
X-115.681 Y-10.673
X-115.691 Y-10.712
X-115.72 Y-10.859
X-115.645 Y-10.989
X-115.534 Y-11.09
X-115.402 Y-11.161
X-115.379 Y-11.166
X-115.261 Y-11.171
X-115.15 Y-11.13
X-115.064 Y-11.049
X-114.976 Y-10.926
X-114.923 Y-10.835
X-114.911 Y-10.797
X-114.915 Y-10.758
X-114.934 Y-10.723
X-114.965 Y-10.699
X-115.003 Y-10.688
X-115.586 Y-10.64
X-115.62 Y-10.643
X-115.651 Y-10.658
X-115.676 Y-10.681
X-115.691 Y-10.712
X-115.702 Y-10.757
X-115.723 Y-10.831
X-115.856 Y-11.095
X-115.911 Y-11.18
X-115.953 Y-11.244
X-116.037 Y-11.361
X-116.094 Y-11.433
X-116.122 Y-11.463
X-116.206 Y-11.533
X-116.296 Y-11.602
X-116.376 Y-11.658
X-116.466 Y-11.718
X-116.493 Y-11.742
X-116.509 Y-11.774
X-116.513 Y-11.81
X-116.504 Y-11.846
X-116.483 Y-11.875
X-116.452 Y-11.895
X-116.069 Y-12.057
X-116.034 Y-12.064
X-115.999 Y-12.059
X-115.967 Y-12.042
X-115.944 Y-12.015
X-115.931 Y-11.982
X-115.925 Y-11.94
X-115.901 Y-11.855
X-115.868 Y-11.782
X-115.862 Y-11.771
X-115.835 Y-11.729
X-115.802 Y-11.686
X-115.783 Y-11.667
X-115.71 Y-11.602
X-115.699 Y-11.593
X-115.53 Y-11.482
X-115.276 Y-11.294
X-115.237 Y-11.264
X-115.191 Y-11.224
X-115.157 Y-11.18
X-115.064 Y-11.049
X-115.052 Y-11.023
X-115.047 Y-10.995
Y-10.994
X-115.062 Y-10.963 Z-0.983
X-115.074 Y-10.936 Z-0.964
X-115.083 Y-10.917 Z-0.936
X-115.09 Y-10.912 Z-0.914
X-115.092 Y-10.91 Z-0.89
G0 Z2
X-109.154 Y-9.297
Z0.5
G3 X-108.669 Y-9.422 Z0.29 I0.242 J-0.062 F333.3
X-109.154 Y-9.297 Z0.079 I-0.242 J0.062
X-108.669 Y-9.422 Z-0.131 I0.242 J-0.062
X-109.154 Y-9.297 Z-0.342 I-0.242 J0.062
X-108.669 Y-9.422 Z-0.552 I0.242 J-0.062
X-109.154 Y-9.297 Z-0.763 I-0.242 J0.062
X-108.943 Y-9.608 Z-0.876 I0.242 J-0.062
X-108.662 Y-9.36 Z-0.99 I0.031 J0.248
X-109.162 I-0.25
X-108.662 I0.25
G1 X-108.624 Y-9.214 F1000
X-108.637 Y-9.14
X-108.674 Y-9.075
X-108.781 Y-8.97
X-108.926 Y-8.93
X-109.074 Y-8.952
X-109.205 Y-9.026
X-109.302 Y-9.14
X-109.354 Y-9.281
X-109.356 Y-9.431
X-109.308 Y-9.573
X-109.216 Y-9.692
X-109.09 Y-9.773
X-108.945 Y-9.809
X-108.795 Y-9.795
X-108.659 Y-9.733
X-108.55 Y-9.63
X-108.472 Y-9.502
X-108.422 Y-9.36
X-108.411 Y-9.211
X-108.446 Y-9.065
X-108.517 Y-8.932
X-108.626 Y-8.829
X-108.756 Y-8.755
X-108.903 Y-8.722
X-109.053 Y-8.729
X-109.197 Y-8.77
X-109.326 Y-8.846
X-109.433 Y-8.952
X-109.515 Y-9.077
X-109.565 Y-9.219
X-109.579 Y-9.368
X-109.562 Y-9.517
X-109.512 Y-9.658
X-109.429 Y-9.784
X-109.323 Y-9.889
X-109.195 Y-9.968
X-109.053 Y-10.015
X-108.904 Y-10.031
X-108.755 Y-10.013
X-108.614 Y-9.96
X-108.488 Y-9.88
X-108.379 Y-9.777
X-108.291 Y-9.655
X-108.229 Y-9.519
X-108.19 Y-9.374
X-108.182 Y-9.224
X-108.205 Y-9.076
X-108.254 Y-8.934
X-108.33 Y-8.805
X-108.431 Y-8.694
X-108.551 Y-8.604
X-108.686 Y-8.538
X-108.831 Y-8.501
X-108.981 Y-8.492
X-109.13 Y-8.508
X-109.161 Y-8.517
X-109.218 Y-8.541
X-109.27 Y-8.576
X-109.313 Y-8.621
X-109.354 Y-8.674
X-109.404 Y-8.73
X-109.5 Y-8.815
X-109.547 Y-8.853
X-109.659 Y-8.953
X-109.737 Y-9.081
X-109.785 Y-9.223
X-109.805 Y-9.372
X-109.796 Y-9.522
X-109.759 Y-9.667
X-109.697 Y-9.804
X-109.651 Y-9.858
X-109.594 Y-9.901
X-109.528 Y-9.928
X-109.493 Y-9.93
X-109.459 Y-9.92
X-109.43 Y-9.898
X-109.411 Y-9.868
X-109.404 Y-9.833
X-109.398 Y-9.497
X-109.387 Y-8.935
X-109.393 Y-8.898
X-109.412 Y-8.867
X-109.442 Y-8.844
X-109.477 Y-8.833
X-109.514 Y-8.837
X-109.547 Y-8.853
X-109.708 Y-8.984
X-109.777 Y-9.034
X-109.805 Y-9.053
X-109.925 Y-9.142
X-109.988 Y-9.278
X-110.016 Y-9.426
X-110.013 Y-9.576
X-109.998 Y-9.654
X-109.943 Y-9.78
X-109.837 Y-9.867
X-109.704 Y-9.899
X-109.673 Y-9.893
X-109.645 Y-9.877
X-109.623 Y-9.853
X-109.61 Y-9.824
X-109.608 Y-9.792
X-109.613 Y-9.709
X-109.652 Y-9.131
X-109.66 Y-9.098
X-109.679 Y-9.069
X-109.706 Y-9.048
X-109.739 Y-9.038
X-109.773 Y-9.04
X-109.805 Y-9.053
X-109.861 Y-9.09
X-109.958 Y-9.152
X-109.998 Y-9.175
X-110.124 Y-9.256
X-110.194 Y-9.389
X-110.222 Y-9.537
X-110.211 Y-9.686
X-110.204 Y-9.704
X-110.14 Y-9.806
X-110.041 Y-9.874
X-109.924 Y-9.899
X-109.885 Y-9.89
X-109.854 Y-9.866
X-109.833 Y-9.833
X-109.827 Y-9.794
X-109.851 Y-9.259
X-109.859 Y-9.226
X-109.876 Y-9.198
X-109.902 Y-9.177
X-109.933 Y-9.165
X-109.966
X-109.998 Y-9.175
X-110.031 Y-9.194
X-110.2 Y-9.267
X-110.267 Y-9.299
X-110.367 Y-9.412
X-110.414 Y-9.554
X-110.412 Y-9.61
X-110.386 Y-9.721
X-110.32 Y-9.815
X-110.224 Y-9.877
X-110.112 Y-9.898
X-110.08 Y-9.892
X-110.052 Y-9.875
X-110.03 Y-9.851
X-110.018 Y-9.82
X-110.016 Y-9.788
X-110.064 Y-9.349
X-110.075 Y-9.314
X-110.097 Y-9.286
X-110.128 Y-9.267
X-110.164 Y-9.26
X-110.2 Y-9.267
X-110.284 Y-9.303
X-110.369 Y-9.332
X-110.439 Y-9.36
X-110.494 Y-9.41
X-110.573 Y-9.538
X-110.576 Y-9.569
X-110.562 Y-9.692
X-110.5 Y-9.8
X-110.399 Y-9.873
X-110.277 Y-9.898
X-110.244 Y-9.892
X-110.216 Y-9.874
X-110.194 Y-9.848
X-110.183 Y-9.817
X-110.182 Y-9.783
X-110.241 Y-9.412
X-110.252 Y-9.38
X-110.273 Y-9.353
X-110.302 Y-9.335
X-110.335 Y-9.328
X-110.369 Y-9.332
X-110.454 Y-9.361
X-110.538 Y-9.387
X-110.61 Y-9.408
X-110.663 Y-9.461
X-110.734 Y-9.594
Y-9.601
X-110.711 Y-9.715
X-110.645 Y-9.811
X-110.548 Y-9.876
X-110.434 Y-9.898
X-110.399 Y-9.891
X-110.369 Y-9.872
X-110.348 Y-9.843
X-110.338 Y-9.809
X-110.341 Y-9.774
X-110.421 Y-9.46
X-110.437 Y-9.426
X-110.465 Y-9.4
X-110.5 Y-9.386
X-110.538 Y-9.387
X-110.669 Y-9.418
X-110.741 Y-9.438
X-110.803 Y-9.481
X-110.84 Y-9.591
X-110.829 Y-9.706
X-110.772 Y-9.806
X-110.679 Y-9.874
X-110.566 Y-9.898
X-110.53 Y-9.891
X-110.5 Y-9.871
X-110.479 Y-9.842
X-110.47 Y-9.807
X-110.473 Y-9.771
X-110.554 Y-9.488
X-110.571 Y-9.455
X-110.598 Y-9.431
X-110.632 Y-9.417
X-110.669 Y-9.418
X-110.792 Y-9.446
X-110.838 Y-9.454
X-110.875 Y-9.463
X-110.927 Y-9.517
X-110.96 Y-9.584
X-110.955 Y-9.7
X-110.901 Y-9.803
X-110.809 Y-9.873
X-110.696 Y-9.898
X-110.663 Y-9.892
X-110.635 Y-9.875
X-110.613 Y-9.849
X-110.601 Y-9.818
X-110.6 Y-9.785
X-110.61 Y-9.753
X-110.735 Y-9.508
X-110.753 Y-9.483
X-110.778 Y-9.464
X-110.807 Y-9.455
X-110.838 Y-9.454
X-110.877 Y-9.461
X-110.923 Y-9.468
X-110.96 Y-9.475
X-111.025 Y-9.512
X-111.067 Y-9.574
X-111.072 Y-9.691
X-111.024 Y-9.798
X-110.934 Y-9.872
X-110.82 Y-9.898
X-110.783 Y-9.89
X-110.752 Y-9.869
X-110.731 Y-9.837
X-110.724 Y-9.8
X-110.73 Y-9.763
X-110.818 Y-9.532
X-110.835 Y-9.503
X-110.86 Y-9.482
X-110.89 Y-9.47
X-110.923 Y-9.468
X-111.046 Y-9.486
X-111.082 Y-9.494
X-111.143 Y-9.539
X-111.182 Y-9.602
Y-9.71
X-111.135 Y-9.807
X-111.051 Y-9.874
X-110.946 Y-9.898
X-110.909 Y-9.89
X-110.878 Y-9.868
X-110.857 Y-9.836
X-110.85 Y-9.799
X-110.857 Y-9.762
X-110.942 Y-9.549
X-110.958 Y-9.521
X-110.983 Y-9.5
X-111.013 Y-9.488
X-111.046 Y-9.486
X-111.13 Y-9.498
X-111.177 Y-9.503
X-111.214 Y-9.509
X-111.268 Y-9.561
X-111.292 Y-9.676
X-111.258 Y-9.788
X-111.173 Y-9.869
X-111.06 Y-9.898
X-111.027 Y-9.892
X-110.998 Y-9.874
X-110.976 Y-9.848
X-110.965 Y-9.817
X-110.964 Y-9.783
X-110.975 Y-9.751
X-111.081 Y-9.555
X-111.105 Y-9.526
X-111.139 Y-9.507
X-111.177 Y-9.503
X-111.261 Y-9.513
X-111.298 Y-9.519
X-111.36 Y-9.562
X-111.388 Y-9.675
X-111.357 Y-9.787
X-111.274 Y-9.869
X-111.162 Y-9.898
X-111.125 Y-9.89
X-111.095 Y-9.869
G3 X-111.261 Y-9.513 I-0.15 J0.147
G1 X-111.384 Y-9.527
X-111.421 Y-9.533
X-111.474 Y-9.586
X-111.491 Y-9.694
X-111.454 Y-9.798
X-111.373 Y-9.872
X-111.266 Y-9.898
X-111.236 Y-9.893
X-111.21 Y-9.878
X-111.19 Y-9.855
G3 X-111.384 Y-9.527 I-0.179 J0.116
G1 X-111.469 Y-9.536
X-111.515 Y-9.539
X-111.553 Y-9.542
X-111.578 Y-9.55
X-111.584 Y-9.552
X-111.601 Y-9.57
X-111.609 Y-9.594
X-111.607 Y-9.618
X-111.592 Y-9.643
X-111.567 Y-9.657
X-111.538 Y-9.658
X-111.513 Y-9.645
X-111.496 Y-9.622
X-111.493 Y-9.593
X-111.503 Y-9.567
X-111.525 Y-9.548
X-111.553 Y-9.542
X-111.568 Y-9.546
X-111.584 Y-9.552
X-111.599 Y-9.561
X-111.614 Y-9.575
X-111.628 Y-9.59
X-111.641 Y-9.611
X-111.646 Y-9.643
X-111.635 Y-9.674
X-111.612 Y-9.696
X-111.581 Y-9.705
X-111.549 Y-9.699
X-111.524 Y-9.679
X-111.511 Y-9.649
X-111.513 Y-9.617
X-111.53 Y-9.589
X-111.557 Y-9.572
X-111.589 Y-9.57
X-111.61 Y-9.577
X-111.628 Y-9.59
X-111.638 Y-9.604
X-111.644 Y-9.618
X-111.648 Y-9.632
X-111.65 Y-9.646
X-111.644 Y-9.795
X-111.607 Y-9.849
X-111.552 Y-9.885
X-111.487 Y-9.898
X-111.449 Y-9.89
X-111.417 Y-9.867
X-111.396 Y-9.834
X-111.39 Y-9.795
X-111.398 Y-9.757
X-111.46 Y-9.621
X-111.481 Y-9.591
X-111.511 Y-9.571
X-111.546 Y-9.562
X-111.582 Y-9.567
X-111.614 Y-9.584
X-111.637 Y-9.611
X-111.65 Y-9.646
Y-9.786
X-111.649 Y-9.796
X-111.647 Y-9.807
X-111.644 Y-9.818
X-111.638 Y-9.831
X-111.621 Y-9.856
X-111.608 Y-9.87
X-111.596 Y-9.881
X-111.585 Y-9.887
X-111.574 Y-9.892
X-111.564 Y-9.895
X-111.553 Y-9.897
X-111.469 Y-9.898
X-109.692 Y-9.899
X-109.65 Y-9.902
X-109.607 Y-9.908
X-109.582 Y-9.913
X-109.523 Y-9.93
X-109.481 Y-9.946
X-109.438 Y-9.967
X-109.392 Y-9.997
X-109.354 Y-10.024
X-109.32 Y-10.056
X-109.207 Y-10.154
X-109.071 Y-10.218
X-108.924 Y-10.247
X-108.774 Y-10.244
X-108.628 Y-10.212
X-108.488 Y-10.157
X-108.36 Y-10.08
X-108.245 Y-9.984
X-108.187 Y-9.918
X-108.147 Y-9.859
X-108.122 Y-9.792
X-108.114 Y-9.721
Y-8.984
X-108.121 Y-8.834
X-108.17 Y-8.692
X-108.253 Y-8.567
X-108.36 Y-8.462
X-108.484 Y-8.377
X-108.62 Y-8.313
X-108.764 Y-8.271
X-108.857 Y-8.258
X-108.97 Y-8.265
X-109.072 Y-8.313
X-109.15 Y-8.395
X-109.163 Y-8.431
X-109.161 Y-8.469
X-109.145 Y-8.504
X-109.117 Y-8.53
X-108.754 Y-8.758
X-108.267 Y-9.065
X-108.235 Y-9.078
X-108.2 Y-9.079
X-108.167 Y-9.068
X-108.139 Y-9.047
X-108.121 Y-9.018
X-108.114 Y-8.984
Y-8.646
X-108.121 Y-8.496
X-108.19 Y-8.363
X-108.29 Y-8.251
X-108.41 Y-8.161
X-108.543 Y-8.092
X-108.686 Y-8.046
X-108.732 Y-8.04
X-108.857 Y-8.049
X-108.968 Y-8.109
X-109.044 Y-8.209
X-109.052 Y-8.245
X-109.046 Y-8.282
X-109.028 Y-8.314
X-108.999 Y-8.337
X-108.775 Y-8.456
X-108.261 Y-8.73
X-108.229 Y-8.741
X-108.195 Y-8.74
X-108.164 Y-8.729
X-108.138 Y-8.707
X-108.12 Y-8.679
X-108.114 Y-8.646
Y-8.346
X-108.117 Y-8.271
X-108.172 Y-8.131
X-108.267 Y-8.015
X-108.386 Y-7.924
X-108.52 Y-7.857
X-108.666 Y-7.821
X-108.677
X-108.789 Y-7.844
X-108.884 Y-7.908
X-108.949 Y-8.002
X-108.955 Y-8.039
X-108.948 Y-8.075
X-108.928 Y-8.107
X-108.898 Y-8.129
X-108.787 Y-8.181
X-108.256 Y-8.433
X-108.218 Y-8.442
X-108.179 Y-8.436
X-108.146 Y-8.416
X-108.123 Y-8.384
X-108.114 Y-8.346
Y-8.092
Y-8.054
Y-8.008
X-108.116 Y-7.97
X-108.19 Y-7.84
X-108.244 Y-7.788
X-108.306 Y-7.741
X-108.377 Y-7.712
X-108.453 Y-7.703
X-108.492 Y-7.712
X-108.524 Y-7.735
X-108.544 Y-7.77
X-108.55 Y-7.809
X-108.539 Y-7.847
X-108.515 Y-7.879
X-108.279 Y-8.08
X-108.246 Y-8.099
X-108.21 Y-8.104
X-108.173 Y-8.096
X-108.143 Y-8.075
X-108.122 Y-8.044
X-108.114 Y-8.008
Y-7.885
Y-7.839
X-108.115 Y-7.801
X-108.121 Y-7.781
X-108.131 Y-7.761
X-108.148 Y-7.742
X-108.159 Y-7.731
X-108.169 Y-7.722
X-108.177 Y-7.717
X-108.196 Y-7.708
X-108.216 Y-7.703
X-108.254
X-108.761
X-108.775
X-108.788 Y-7.706
X-108.801 Y-7.71
X-108.814 Y-7.717
X-108.83 Y-7.728
X-108.846 Y-7.745
X-108.857 Y-7.759
X-108.865 Y-7.773
X-108.935 Y-7.97
X-108.971 Y-8.054
X-109.051 Y-8.223
X-109.095 Y-8.308
X-109.203 Y-8.477
X-109.293 Y-8.596
X-109.313 Y-8.621
X-109.327 Y-8.649
X-109.332 Y-8.679
X-109.34 Y-9.278
X-109.349 Y-9.984
X-109.342 Y-10.023
X-109.32 Y-10.056
X-109.293 Y-10.082
X-109.269 Y-10.112
X-109.232 Y-10.166
X-109.209 Y-10.212
X-109.173 Y-10.278
X-109.066 Y-10.384
X-108.927 Y-10.44
X-108.778 Y-10.458
X-108.629 Y-10.447
X-108.483 Y-10.41
X-108.345 Y-10.352
X-108.261 Y-10.302
X-108.182 Y-10.235
X-108.131 Y-10.146
X-108.114 Y-10.044
Y-9.721
X-108.123 Y-9.682
X-108.146 Y-9.65
X-108.18 Y-9.63
X-108.22 Y-9.625
X-108.258 Y-9.635
X-108.595 Y-9.802
X-109.162 Y-10.082
X-109.192 Y-10.105
X-109.212 Y-10.138
X-109.218 Y-10.175
X-109.209 Y-10.212
X-109.19 Y-10.25
X-109.184 Y-10.264
X-109.174 Y-10.3
X-109.165 Y-10.335
X-109.159 Y-10.381
X-109.152 Y-10.418
X-109.075 Y-10.547
X-108.947 Y-10.626
X-108.803 Y-10.666
X-108.653 Y-10.676
X-108.504 Y-10.659
X-108.359 Y-10.62
X-108.292 Y-10.59
X-108.198 Y-10.525
X-108.136 Y-10.429
X-108.114 Y-10.316
Y-10.044
X-108.122 Y-10.007
X-108.144 Y-9.976
X-108.175 Y-9.955
X-108.212 Y-9.948
X-108.249 Y-9.954
X-108.483 Y-10.044
X-109.095 Y-10.279
X-109.123 Y-10.295
X-109.144 Y-10.319
X-109.157 Y-10.349
X-109.159 Y-10.381
X-109.154 Y-10.419
X-109.152 Y-10.504
Y-10.55
X-109.15 Y-10.588
X-109.087 Y-10.724
X-108.969 Y-10.816
X-108.83 Y-10.873
X-108.683 Y-10.899
X-108.533 Y-10.9
X-108.384 Y-10.877
X-108.315 Y-10.853
X-108.21 Y-10.79
X-108.139 Y-10.69
X-108.114 Y-10.57
Y-10.316
X-108.121 Y-10.281
X-108.141 Y-10.251
X-108.17 Y-10.23
X-108.205 Y-10.22
X-108.241 Y-10.223
X-108.445 Y-10.28
X-109.079 Y-10.458
X-109.108 Y-10.471
X-109.131 Y-10.492
X-109.146 Y-10.519
X-109.152 Y-10.55
Y-10.719
X-109.149 Y-10.794
X-109.082 Y-10.928
X-108.967 Y-11.025
X-108.831 Y-11.088
X-108.685 Y-11.124
X-108.535 Y-11.135
X-108.386 Y-11.118
X-108.325 Y-11.099
X-108.215 Y-11.037
X-108.14 Y-10.936
X-108.114 Y-10.812
Y-10.57
X-108.121 Y-10.536
X-108.138 Y-10.507
X-108.165 Y-10.486
X-108.197 Y-10.475
X-108.231
X-108.431 Y-10.51
X-109.07 Y-10.624
X-109.102 Y-10.636
X-109.128 Y-10.657
X-109.145 Y-10.686
X-109.152 Y-10.719
Y-10.926
X-109.149 Y-11.001
X-109.083 Y-11.136
X-108.972 Y-11.237
X-108.839 Y-11.306
X-108.695 Y-11.349
X-108.546 Y-11.367
X-108.397 Y-11.356
X-108.334 Y-11.338
X-108.22 Y-11.278
X-108.142 Y-11.175
X-108.114 Y-11.049
Y-10.812
X-108.12 Y-10.78
X-108.137 Y-10.751
X-108.163 Y-10.73
X-108.194 Y-10.718
X-108.227 Y-10.717
X-108.426 Y-10.744
X-109.066 Y-10.831
X-109.099 Y-10.841
X-109.127 Y-10.863
X-109.145 Y-10.892
X-109.152 Y-10.926
Y-11.142
X-109.149 Y-11.217
X-109.085 Y-11.352
X-108.976 Y-11.456
X-108.845 Y-11.529
X-108.703 Y-11.576
X-108.554 Y-11.598
X-108.405 Y-11.59
X-108.34 Y-11.574
X-108.223 Y-11.515
X-108.142 Y-11.411
X-108.114 Y-11.283
Y-11.049
X-108.12 Y-11.017
X-108.137 Y-10.989
X-108.161 Y-10.967
X-108.192 Y-10.955
X-108.225 Y-10.953
X-108.424 Y-10.975
X-109.063 Y-11.046
X-109.097 Y-11.056
X-109.126 Y-11.077
X-109.145 Y-11.107
X-109.152 Y-11.142
Y-11.349
X-109.149 Y-11.423
X-109.093 Y-11.563
X-108.989 Y-11.671
X-108.861 Y-11.75
X-108.721 Y-11.802
X-108.573 Y-11.828
X-108.423 Y-11.825
X-108.277 Y-11.793
X-108.189 Y-11.725
X-108.133 Y-11.632
X-108.114 Y-11.526
Y-11.283
X-108.12 Y-11.251
X-108.136 Y-11.223
X-108.16 Y-11.202
X-108.189 Y-11.189
X-108.221 Y-11.187
X-108.423 Y-11.202
X-109.06 Y-11.252
X-109.095 Y-11.262
X-109.125 Y-11.283
X-109.145 Y-11.313
X-109.152 Y-11.349
Y-11.564
X-109.149 Y-11.639
X-109.099 Y-11.78
X-108.998 Y-11.891
X-108.872 Y-11.973
X-108.733 Y-12.028
X-108.586 Y-12.058
X-108.436 Y-12.062
X-108.288 Y-12.034
X-108.196 Y-11.968
X-108.135 Y-11.872
X-108.114 Y-11.761
Y-11.526
X-108.123 Y-11.488
X-108.146 Y-11.456
X-108.179 Y-11.435
X-108.218 Y-11.429
X-108.421 Y-11.439
X-109.057 Y-11.468
X-109.093 Y-11.476
X-109.124 Y-11.497
X-109.144 Y-11.528
X-109.152 Y-11.564
Y-11.817
X-109.149 Y-11.892
X-109.088 Y-12.029
X-108.982 Y-12.136
X-108.854 Y-12.214
X-108.714 Y-12.266
X-108.566 Y-12.293
X-108.416 Y-12.296
X-108.347 Y-12.28
X-108.226 Y-12.222
X-108.143 Y-12.118
X-108.114 Y-11.987
Y-11.761
X-108.12 Y-11.73
X-108.136 Y-11.702
X-108.159 Y-11.681
X-108.189 Y-11.668
X-108.22 Y-11.665
X-108.422 Y-11.678
X-109.059 Y-11.721
X-109.094 Y-11.73
X-109.124 Y-11.751
X-109.144 Y-11.782
X-109.152 Y-11.817
Y-12.024
X-109.145 Y-12.174
X-109.064 Y-12.3
X-108.949 Y-12.397
X-108.817 Y-12.467
X-108.674 Y-12.512
X-108.525 Y-12.532
X-108.375 Y-12.519
X-108.329 Y-12.505
X-108.217 Y-12.444
X-108.141 Y-12.342
X-108.114 Y-12.218
Y-11.987
X-108.123 Y-11.949
X-108.146 Y-11.918
X-108.179 Y-11.897
X-108.218 Y-11.891
X-108.421 Y-11.9
X-109.057 Y-11.928
X-109.093 Y-11.936
X-109.123 Y-11.957
X-109.144 Y-11.988
X-109.152 Y-12.024
Y-12.278
X-109.149 Y-12.353
X-109.091 Y-12.491
X-108.987 Y-12.599
X-108.86 Y-12.679
X-108.72 Y-12.733
X-108.573 Y-12.761
X-108.423 Y-12.759
X-108.276 Y-12.727
X-108.189 Y-12.659
X-108.133 Y-12.567
X-108.114 Y-12.46
Y-12.218
X-108.12 Y-12.186
X-108.136 Y-12.158
X-108.16 Y-12.137
X-108.189 Y-12.124
X-108.221 Y-12.121
X-108.422 Y-12.136
X-109.06 Y-12.181
X-109.095 Y-12.191
X-109.124 Y-12.212
X-109.144 Y-12.242
X-109.152 Y-12.278
Y-12.493
X-109.149 Y-12.568
X-109.098 Y-12.709
X-108.998 Y-12.821
X-108.873 Y-12.904
X-108.734 Y-12.96
X-108.587 Y-12.991
X-108.437 Y-12.996
X-108.289 Y-12.968
X-108.197 Y-12.902
X-108.135 Y-12.806
X-108.114 Y-12.695
Y-12.46
X-108.123 Y-12.422
X-108.146 Y-12.39
X-108.179 Y-12.37
X-108.218 Y-12.364
X-108.421 Y-12.372
X-109.056 Y-12.397
X-109.093 Y-12.405
X-109.123 Y-12.426
X-109.144 Y-12.457
X-109.152 Y-12.493
Y-12.746
X-109.149 Y-12.821
X-109.088 Y-12.959
X-108.984 Y-13.066
X-108.856 Y-13.145
X-108.716 Y-13.198
X-108.569 Y-13.226
X-108.419 Y-13.229
X-108.348 Y-13.213
X-108.227 Y-13.156
X-108.144 Y-13.051
X-108.114 Y-12.921
Y-12.695
X-108.123 Y-12.656
X-108.146 Y-12.624
X-108.18 Y-12.604
X-108.22 Y-12.598
X-108.422 Y-12.611
X-109.059 Y-12.65
X-109.094 Y-12.659
X-109.124 Y-12.68
X-109.144 Y-12.711
X-109.152 Y-12.746
Y-12.953
X-109.145 Y-13.103
X-109.065 Y-13.23
X-108.951 Y-13.328
X-108.819 Y-13.399
X-108.676 Y-13.444
X-108.527 Y-13.464
X-108.378 Y-13.453
X-108.33 Y-13.439
X-108.218 Y-13.378
X-108.141 Y-13.276
X-108.114 Y-13.151
Y-12.921
X-108.123 Y-12.883
X-108.146 Y-12.851
X-108.179 Y-12.83
X-108.218 Y-12.824
X-108.421 Y-12.832
X-109.056 Y-12.857
X-109.093 Y-12.865
X-109.123 Y-12.886
X-109.144 Y-12.917
X-109.152 Y-12.953
Y-13.207
X-109.149 Y-13.282
X-109.093 Y-13.421
X-108.989 Y-13.53
X-108.863 Y-13.61
X-108.723 Y-13.665
X-108.576 Y-13.693
X-108.426
X-108.279 Y-13.661
X-108.276 Y-13.659
X-108.19 Y-13.592
X-108.133 Y-13.499
X-108.114 Y-13.392
Y-13.151
X-108.12 Y-13.119
X-108.136 Y-13.092
X-108.159 Y-13.07
X-108.189 Y-13.057
X-108.22 Y-13.054
X-108.422 Y-13.068
X-109.059 Y-13.111
X-109.094 Y-13.12
X-109.124 Y-13.141
X-109.144 Y-13.171
X-109.152 Y-13.207
Y-13.422
X-109.145 Y-13.572
X-109.064 Y-13.699
X-108.951 Y-13.797
X-108.819 Y-13.867
X-108.675 Y-13.911
X-108.526 Y-13.929
X-108.376 Y-13.923
X-108.329 Y-13.909
X-108.217 Y-13.848
X-108.141 Y-13.746
X-108.114 Y-13.621
Y-13.392
X-108.123 Y-13.354
X-108.145 Y-13.323
X-108.179 Y-13.302
X-108.217 Y-13.296
X-108.421 Y-13.303
X-109.056 Y-13.326
X-109.092 Y-13.334
X-109.123 Y-13.355
X-109.144 Y-13.386
X-109.152 Y-13.422
Y-13.676
X-109.149 Y-13.75
X-109.092 Y-13.89
X-108.989 Y-13.998
X-108.862 Y-14.078
X-108.722 Y-14.132
X-108.575 Y-14.161
X-108.425 Y-14.162
X-108.278 Y-14.13
X-108.19 Y-14.062
X-108.133 Y-13.969
X-108.114 Y-13.862
Y-13.621
X-108.123 Y-13.583
X-108.147 Y-13.551
X-108.181 Y-13.53
X-108.22 Y-13.525
X-108.422 Y-13.538
X-109.059 Y-13.579
X-109.094 Y-13.588
X-109.124 Y-13.609
X-109.144 Y-13.64
X-109.152 Y-13.676
Y-13.929
X-109.149 Y-14.004
X-109.082 Y-14.138
X-108.975 Y-14.243
X-108.846 Y-14.32
X-108.704 Y-14.37
X-108.556 Y-14.395
X-108.406
X-108.342 Y-14.38
X-108.224 Y-14.321
X-108.143 Y-14.217
X-108.114 Y-14.088
Y-13.862
X-108.12 Y-13.831
X-108.136 Y-13.803
X-108.16 Y-13.781
X-108.189 Y-13.769
X-108.222 Y-13.766
X-108.423 Y-13.782
X-109.06 Y-13.833
X-109.095 Y-13.842
X-109.125 Y-13.863
X-109.145 Y-13.894
X-109.152 Y-13.929
Y-14.136
X-109.149 Y-14.211
X-109.094 Y-14.35
X-108.991 Y-14.46
X-108.865 Y-14.541
X-108.725 Y-14.596
X-108.579 Y-14.627
X-108.429 Y-14.628
X-108.282 Y-14.598
X-108.278 Y-14.596
X-108.191 Y-14.529
X-108.134 Y-14.436
X-108.114 Y-14.328
Y-14.088
X-108.123 Y-14.05
X-108.146 Y-14.018
X-108.18 Y-13.998
X-108.219 Y-13.992
X-108.422 Y-14.003
X-109.058 Y-14.04
X-109.094 Y-14.048
X-109.124 Y-14.069
X-109.144 Y-14.1
X-109.152 Y-14.136
Y-14.351
X-109.145 Y-14.501
X-109.065 Y-14.628
X-108.952 Y-14.727
X-108.821 Y-14.799
X-108.678 Y-14.844
X-108.529 Y-14.863
X-108.379 Y-14.858
X-108.33 Y-14.844
X-108.218 Y-14.783
X-108.141 Y-14.681
X-108.114 Y-14.556
Y-14.328
X-108.123 Y-14.29
X-108.145 Y-14.259
X-108.178 Y-14.238
X-108.216 Y-14.232
X-108.421 Y-14.237
X-109.055 Y-14.255
X-109.092 Y-14.263
X-109.123 Y-14.284
X-109.144 Y-14.315
X-109.152 Y-14.351
Y-14.605
X-109.149 Y-14.68
X-109.094 Y-14.819
X-108.991 Y-14.929
X-108.865 Y-15.009
X-108.725 Y-15.064
X-108.578 Y-15.095
X-108.428 Y-15.096
X-108.281 Y-15.066
X-108.278 Y-15.064
X-108.191 Y-14.997
X-108.134 Y-14.904
X-108.114 Y-14.796
Y-14.556
X-108.123 Y-14.518
X-108.146 Y-14.486
X-108.18 Y-14.465
X-108.219 Y-14.46
X-108.422 Y-14.471
X-109.058 Y-14.508
X-109.094 Y-14.517
X-109.124 Y-14.538
X-109.144 Y-14.569
X-109.152 Y-14.605
Y-14.858
X-109.149 Y-14.933
X-109.084 Y-15.068
X-108.977 Y-15.174
X-108.849 Y-15.252
X-108.708 Y-15.303
X-108.56 Y-15.328
X-108.41 Y-15.33
X-108.344 Y-15.314
X-108.225 Y-15.256
X-108.143 Y-15.152
X-108.114 Y-15.022
Y-14.796
X-108.12 Y-14.765
X-108.136 Y-14.737
X-108.16 Y-14.716
X-108.189 Y-14.703
X-108.221 Y-14.7
X-108.422 Y-14.715
X-109.06 Y-14.762
X-109.095 Y-14.771
X-109.124 Y-14.792
X-109.145 Y-14.823
X-109.152 Y-14.858
Y-15.065
X-109.149 Y-15.14
X-109.096 Y-15.28
X-108.994 Y-15.391
X-108.868 Y-15.473
X-108.729 Y-15.528
X-108.583 Y-15.561
X-108.433 Y-15.562
X-108.286 Y-15.533
X-108.279 Y-15.53
X-108.192 Y-15.463
X-108.134 Y-15.37
X-108.114 Y-15.261
Y-15.022
X-108.123 Y-14.984
X-108.146 Y-14.952
X-108.18 Y-14.932
X-108.219 Y-14.926
X-108.421 Y-14.936
X-109.058 Y-14.969
X-109.093 Y-14.977
X-109.124 Y-14.998
X-109.144 Y-15.029
X-109.152 Y-15.065
Y-15.318
X-109.149 Y-15.393
X-109.086 Y-15.53
X-108.98 Y-15.636
X-108.853 Y-15.715
X-108.712 Y-15.767
X-108.565 Y-15.794
X-108.415 Y-15.796
X-108.346 Y-15.78
X-108.226 Y-15.722
X-108.143 Y-15.618
X-108.114 Y-15.488
Y-15.261
X-108.12 Y-15.23
X-108.136 Y-15.202
X-108.159 Y-15.181
X-108.189 Y-15.168
X-108.22 Y-15.165
X-108.422 Y-15.179
X-109.059 Y-15.222
X-109.095 Y-15.231
X-109.124 Y-15.252
X-109.144 Y-15.283
X-109.152 Y-15.318
Y-15.534
X-109.149 Y-15.609
X-109.094 Y-15.748
X-108.992 Y-15.858
X-108.866 Y-15.94
X-108.726 Y-15.995
X-108.58 Y-16.027
X-108.43
X-108.283 Y-15.997
X-108.278 Y-15.995
X-108.191 Y-15.928
X-108.134 Y-15.835
X-108.114 Y-15.727
Y-15.488
X-108.123 Y-15.449
X-108.146 Y-15.417
X-108.18 Y-15.397
X-108.219 Y-15.391
X-108.422 Y-15.403
X-109.058 Y-15.437
X-109.094 Y-15.446
X-109.124 Y-15.467
X-109.144 Y-15.498
X-109.152 Y-15.534
Y-15.787
X-109.149 Y-15.862
X-109.084 Y-15.998
X-108.978 Y-16.104
X-108.85 Y-16.182
X-108.709 Y-16.233
X-108.562 Y-16.259
X-108.412 Y-16.261
X-108.345 Y-16.245
X-108.225 Y-16.187
X-108.143 Y-16.083
X-108.114 Y-15.953
Y-15.727
X-108.12 Y-15.696
X-108.136 Y-15.668
X-108.16 Y-15.647
X-108.189 Y-15.634
X-108.221 Y-15.631
X-108.422 Y-15.645
X-109.06 Y-15.691
X-109.095 Y-15.7
X-109.124 Y-15.721
X-109.144 Y-15.752
X-109.152 Y-15.787
Y-15.994
X-109.149 Y-16.069
X-109.097 Y-16.21
X-108.996 Y-16.321
X-108.87 Y-16.403
X-108.731 Y-16.459
X-108.585 Y-16.492
X-108.435 Y-16.493
X-108.287 Y-16.464
X-108.28 Y-16.461
X-108.192 Y-16.394
X-108.134 Y-16.301
X-108.114 Y-16.192
Y-15.953
X-108.123 Y-15.915
X-108.146 Y-15.883
X-108.18 Y-15.863
X-108.218 Y-15.857
X-108.421 Y-15.867
X-109.057 Y-15.898
X-109.093 Y-15.906
X-109.124 Y-15.927
X-109.144 Y-15.958
X-109.152 Y-15.994
Y-16.248
X-109.149 Y-16.322
X-109.087 Y-16.459
X-108.982 Y-16.566
X-108.854 Y-16.646
X-108.714 Y-16.698
X-108.566 Y-16.724
X-108.416 Y-16.727
X-108.346 Y-16.711
X-108.226 Y-16.653
X-108.143 Y-16.549
X-108.114 Y-16.419
Y-16.192
X-108.123 Y-16.153
X-108.147 Y-16.121
X-108.181 Y-16.101
X-108.22 Y-16.096
X-108.422 Y-16.109
X-109.059 Y-16.151
X-109.094 Y-16.16
X-109.124 Y-16.181
X-109.144 Y-16.212
X-109.152 Y-16.248
Y-16.463
X-109.149 Y-16.538
X-109.095 Y-16.678
X-108.993 Y-16.788
X-108.867 Y-16.87
X-108.728 Y-16.925
X-108.581 Y-16.957
X-108.431 Y-16.958
X-108.284 Y-16.929
X-108.279 Y-16.926
X-108.191 Y-16.859
X-108.134 Y-16.766
X-108.114 Y-16.658
Y-16.419
X-108.123 Y-16.38
X-108.146 Y-16.348
X-108.18 Y-16.328
X-108.219 Y-16.322
X-108.421 Y-16.333
X-109.058 Y-16.367
X-109.094 Y-16.375
X-109.124 Y-16.396
X-109.144 Y-16.427
X-109.152 Y-16.463
Y-16.716
X-109.149 Y-16.791
X-109.085 Y-16.927
X-108.979 Y-17.034
X-108.852 Y-17.112
X-108.711 Y-17.164
X-108.563 Y-17.19
X-108.413 Y-17.192
X-108.345 Y-17.176
X-108.226 Y-17.118
X-108.143 Y-17.014
X-108.114 Y-16.884
Y-16.658
X-108.12 Y-16.626
X-108.136 Y-16.599
X-108.159 Y-16.577
X-108.189 Y-16.564
X-108.221 Y-16.562
X-108.422 Y-16.576
X-109.059 Y-16.62
X-109.095 Y-16.629
X-109.124 Y-16.65
X-109.144 Y-16.681
X-109.152 Y-16.716
Y-16.923
Y-16.97
Y-17.008
X-109.151 Y-17.042
X-109.139 Y-17.065
X-109.072 Y-17.149
X-108.98 Y-17.204
X-108.874 Y-17.223
X-108.839 Y-17.215
X-108.809 Y-17.195
X-108.788 Y-17.166
X-108.778 Y-17.131
X-108.782 Y-17.095
X-108.798 Y-17.063
X-108.824 Y-17.038
X-108.999 Y-16.927
X-109.031 Y-16.914
X-109.066 Y-16.912
X-109.099 Y-16.923
X-109.127 Y-16.944
X-109.145 Y-16.974
X-109.152 Y-17.008
Y-17.113
X-109.151 Y-17.124
X-109.149 Y-17.134
X-109.146 Y-17.145
X-109.141 Y-17.156
X-109.135 Y-17.166
X-109.126 Y-17.177
X-109.1 Y-17.202
X-109.089 Y-17.209
X-109.079 Y-17.214
X-109.068 Y-17.218
X-109.058 Y-17.221
X-109.047 Y-17.222
X-108.254 Y-17.223
X-108.212 Y-17.221
X-108.192 Y-17.216
X-108.167 Y-17.198
X-108.153 Y-17.17
X-108.154 Y-17.139
X-108.169 Y-17.112
X-108.195 Y-17.095
X-108.227 Y-17.093
X-108.255 Y-17.105
X-108.274 Y-17.13
X-108.28 Y-17.161
X-108.27 Y-17.191
X-108.247 Y-17.212
X-108.23 Y-17.219
X-108.212 Y-17.221
X-108.201 Y-17.219
X-108.19 Y-17.215
X-108.18 Y-17.21
X-108.169 Y-17.204
X-108.155 Y-17.191
X-108.14 Y-17.177
X-108.131 Y-17.166
X-108.125 Y-17.156
X-108.12 Y-17.145
X-108.117 Y-17.134
X-108.115 Y-17.124
X-108.114 Y-17.113
Y-16.884
X-108.119 Y-16.856
X-108.131 Y-16.831
X-108.16 Y-16.814 Z-0.983
X-108.186 Y-16.799 Z-0.966
X-108.204 Y-16.788 Z-0.939
X-108.214 Y-16.787 Z-0.916
X-108.217 Z-0.89
G0 Z2
X-95.8 Y-14.739
Z0.5
G3 X-95.316 Y-14.864 Z0.29 I0.242 J-0.062 F333.3
X-95.8 Y-14.739 Z0.079 I-0.242 J0.062
X-95.316 Y-14.864 Z-0.131 I0.242 J-0.062
X-95.8 Y-14.739 Z-0.342 I-0.242 J0.062
X-95.316 Y-14.864 Z-0.552 I0.242 J-0.062
X-95.8 Y-14.739 Z-0.763 I-0.242 J0.062
X-95.59 Y-15.05 Z-0.876 I0.242 J-0.062
X-95.308 Y-14.802 Z-0.99 I0.031 J0.248
X-95.808 I-0.25
X-95.308 I0.25
G1 X-95.271 Y-14.656 F1000
X-95.284 Y-14.582
X-95.321 Y-14.517
X-95.428 Y-14.412
X-95.572 Y-14.372
X-95.721 Y-14.393
X-95.851 Y-14.467
X-95.948 Y-14.582
X-96 Y-14.723
X-96.002 Y-14.873
X-95.955 Y-15.015
X-95.863 Y-15.134
X-95.737 Y-15.215
X-95.591 Y-15.251
X-95.442 Y-15.237
X-95.305 Y-15.175
X-95.197 Y-15.072
X-95.119 Y-14.943
X-95.069 Y-14.802
X-95.058 Y-14.652
X-95.093 Y-14.507
X-95.164 Y-14.374
X-95.272 Y-14.271
X-95.403 Y-14.197
X-95.549 Y-14.164
X-95.699 Y-14.171
X-95.843 Y-14.212
X-95.973 Y-14.288
X-95.982 Y-14.297
X-96.022 Y-14.347
X-96.051 Y-14.404
X-96.067 Y-14.466
X-96.071 Y-14.494
X-96.078 Y-14.558
X-96.095 Y-14.812
X-96.087 Y-14.896
X-96.074 Y-15.012
X-96.05 Y-15.16
X-95.97 Y-15.287
X-95.854 Y-15.381
X-95.716 Y-15.44
X-95.568 Y-15.466
X-95.418 Y-15.454
X-95.276 Y-15.407
X-95.147 Y-15.331
X-95.104 Y-15.292
X-95.048 Y-15.223
X-95.014 Y-15.139
X-95.007 Y-15.05
X-95.023 Y-14.812
X-95.022 Y-14.558
X-95.017 Y-14.474
X-95.014 Y-14.324
X-95.082 Y-14.19
X-95.185 Y-14.082
X-95.313 Y-14.003
X-95.456 Y-13.956
X-95.605 Y-13.939
X-95.754 Y-13.949
X-95.804 Y-13.962
X-95.901 Y-14.006
X-95.976 Y-14.082
X-96.02 Y-14.179
X-96.03 Y-14.22
X-96.044 Y-14.305
X-96.067 Y-14.466
X-96.065 Y-14.506
X-96.048 Y-14.541
X-96.019 Y-14.567
X-95.981 Y-14.58
X-95.942 Y-14.577
X-95.907 Y-14.56
X-95.881 Y-14.53
X-95.875 Y-14.506
X-95.883 Y-14.482
X-95.901 Y-14.465
X-95.926 Y-14.461
X-95.949 Y-14.469
X-95.965 Y-14.489
X-95.968 Y-14.513
X-95.958 Y-14.536
X-95.928 Y-14.561
X-95.89 Y-14.573
X-95.85 Y-14.569
X-95.816 Y-14.55
X-95.791 Y-14.519
X-95.78 Y-14.481
X-95.785 Y-14.442
X-95.805 Y-14.407
X-95.837 Y-14.383
X-95.875 Y-14.374
X-95.914 Y-14.379
X-95.948 Y-14.4
X-95.971 Y-14.432
G3 X-96.074 Y-15.012 I1.081 J-0.491
G1 X-96.058 Y-15.15
X-96.042 Y-15.28
X-96.015 Y-15.428
X-95.921 Y-15.545
X-95.795 Y-15.626
X-95.652 Y-15.672
X-95.503 Y-15.685
X-95.353 Y-15.671
X-95.209 Y-15.63
X-95.075 Y-15.562
X-95.005 Y-15.48
X-94.968 Y-15.378
X-94.969 Y-15.27
X-94.993 Y-15.15
X-95.006 Y-15.065
X-95.007 Y-15.05
X-95.016 Y-15.017
X-95.036 Y-14.989
X-95.064 Y-14.97
X-95.097 Y-14.961
X-95.131 Y-14.963
X-95.342 Y-15.017
X-95.966 Y-15.174
X-95.999 Y-15.189
X-96.024 Y-15.213
X-96.039 Y-15.245
X-96.042 Y-15.28
X-96.025 Y-15.403
X-95.981 Y-15.572
X-95.959 Y-15.643
X-95.871 Y-15.765
X-95.744 Y-15.845
X-95.601 Y-15.891
X-95.452 Y-15.907
X-95.303 Y-15.897
X-95.157 Y-15.862
X-95.083 Y-15.827
X-94.978 Y-15.742
X-94.921 Y-15.62
X-94.923 Y-15.485
X-94.943 Y-15.403
X-94.969 Y-15.27
X-94.982 Y-15.24
X-95.004 Y-15.215
X-95.032 Y-15.199
X-95.064 Y-15.193
X-95.097 Y-15.197
X-95.306 Y-15.263
X-95.914 Y-15.455
X-95.946 Y-15.472
X-95.97 Y-15.5
X-95.982 Y-15.535
X-95.981 Y-15.572
X-95.925 Y-15.787
X-95.915 Y-15.825
X-95.91 Y-15.845
X-95.89 Y-15.887
X-95.864 Y-15.917
X-95.828 Y-15.934
X-95.789 Y-15.936
X-95.751 Y-15.922
X-95.722 Y-15.895
X-95.706 Y-15.859
X-95.705 Y-15.82
X-95.719 Y-15.783
X-95.728 Y-15.769
X-95.756 Y-15.741
X-95.792 Y-15.725
X-95.832
X-95.868 Y-15.74
X-95.896 Y-15.768
X-95.911 Y-15.805
X-95.91 Y-15.845
X-95.902 Y-15.865
X-95.889 Y-15.889
X-95.85 Y-15.954
X-95.731 Y-16.046
X-95.592 Y-16.102
X-95.445 Y-16.129
X-95.295 Y-16.13
X-95.147 Y-16.103
X-95.008 Y-16.047
X-94.957 Y-16.01
X-94.868 Y-15.908
X-94.833 Y-15.777
X-94.859 Y-15.644
X-94.891 Y-15.572
X-94.923 Y-15.485
X-94.937 Y-15.455
X-94.962 Y-15.431
X-94.992 Y-15.416
X-95.026 Y-15.413
X-95.059 Y-15.421
X-95.264 Y-15.511
X-95.835 Y-15.761
X-95.862 Y-15.778
X-95.883 Y-15.803
X-95.894 Y-15.834
Y-15.866
X-95.885 Y-15.897
X-95.77 Y-16.104
X-95.691 Y-16.232
X-95.56 Y-16.305
X-95.415 Y-16.343
X-95.265 Y-16.352
X-95.116 Y-16.334
X-94.974 Y-16.286
X-94.845 Y-16.209
X-94.822 Y-16.185
X-94.755 Y-16.081
X-94.736 Y-15.959
X-94.767 Y-15.839
X-94.859 Y-15.644
X-94.883 Y-15.613
X-94.917 Y-15.593
X-94.956 Y-15.588
X-94.994 Y-15.599
X-95.166 Y-15.686
X-95.726 Y-15.97
X-95.757 Y-15.994
X-95.776 Y-16.028
X-95.781 Y-16.067
X-95.77 Y-16.104
X-95.69 Y-16.248
X-95.648 Y-16.312
X-95.614 Y-16.358
X-95.519 Y-16.473
X-95.382 Y-16.536
X-95.234 Y-16.561
X-95.084 Y-16.555
X-94.939 Y-16.519
X-94.803 Y-16.455
X-94.685 Y-16.362
X-94.677 Y-16.35
X-94.627 Y-16.241
X-94.624 Y-16.12
X-94.669 Y-16.008
X-94.732 Y-15.91
X-94.767 Y-15.839
X-94.787 Y-15.814
X-94.814 Y-15.796
X-94.845 Y-15.788
X-94.877 Y-15.79
X-94.907 Y-15.802
X-95.053 Y-15.891
X-95.584 Y-16.215
X-95.609 Y-16.236
X-95.625 Y-16.264
X-95.632 Y-16.296
X-95.628 Y-16.328
X-95.614 Y-16.358
X-95.46 Y-16.564
X-95.364 Y-16.679
X-95.227 Y-16.742
X-95.078 Y-16.761
X-94.929 Y-16.746
X-94.786 Y-16.701
X-94.653 Y-16.631
X-94.543 Y-16.529
X-94.54 Y-16.525
X-94.497 Y-16.415
X-94.5 Y-16.297
X-94.548 Y-16.189
X-94.566 Y-16.163
X-94.669 Y-16.008
X-94.697 Y-15.981
X-94.733 Y-15.967
X-94.772 Y-15.968
X-94.808 Y-15.984
X-94.921 Y-16.064
X-95.435 Y-16.425
X-95.462 Y-16.453
X-95.476 Y-16.49
X-95.475 Y-16.529
X-95.46 Y-16.564
X-95.379 Y-16.67
X-95.345 Y-16.713
X-95.288 Y-16.754
X-95.195 Y-16.821
X-95.068 Y-16.902
X-94.921 Y-16.93
X-94.772 Y-16.916
X-94.629 Y-16.869
X-94.499 Y-16.794
X-94.394 Y-16.687
X-94.388 Y-16.676
X-94.351 Y-16.548
X-94.373 Y-16.416
X-94.45 Y-16.308
X-94.476 Y-16.292
X-94.505 Y-16.285
X-94.536 Y-16.287
X-94.564 Y-16.298
X-94.674 Y-16.361
X-95.184 Y-16.655
X-95.213 Y-16.681
X-95.231 Y-16.716
X-95.233 Y-16.755
X-95.221 Y-16.792
X-95.195 Y-16.821
X-95.049 Y-16.923
X-94.946 Y-16.993
X-94.818 Y-17.071
X-94.668 Y-17.08
X-94.521 Y-17.048
X-94.387 Y-16.981
X-94.275 Y-16.881
X-94.192 Y-16.756
X-94.19 Y-16.751
X-94.181 Y-16.633
X-94.218 Y-16.52
X-94.296 Y-16.431
X-94.403 Y-16.347
X-94.423 Y-16.332
X-94.45 Y-16.308
X-94.478 Y-16.291
X-94.51 Y-16.284
X-94.543 Y-16.289
X-94.573 Y-16.303
X-94.596 Y-16.327
X-94.605 Y-16.34
X-94.968 Y-16.855
X-94.984 Y-16.89
X-94.985 Y-16.929
X-94.972 Y-16.965
X-94.946 Y-16.993
X-94.802 Y-17.09
X-94.692 Y-17.144
X-94.554 Y-17.203
X-94.405 Y-17.196
X-94.265 Y-17.142
X-94.143 Y-17.054
X-94.047 Y-16.938
X-94.036 Y-16.913
X-94.012 Y-16.782
X-94.047 Y-16.654
X-94.134 Y-16.553
X-94.21 Y-16.497
X-94.296 Y-16.431
X-94.326 Y-16.416
X-94.36 Y-16.412
X-94.393 Y-16.42
X-94.421 Y-16.438
X-94.442 Y-16.465
X-94.733 Y-17.009
X-94.745 Y-17.046
X-94.741 Y-17.085
X-94.722 Y-17.12
X-94.692 Y-17.144
X-94.464 Y-17.256
X-94.395 Y-17.286
X-94.246 Y-17.305
X-94.103 Y-17.261
X-93.977 Y-17.18
X-93.883 Y-17.063
X-93.863 Y-17.016
X-93.838 Y-16.871
X-93.886 Y-16.731
X-93.995 Y-16.631
X-94.08 Y-16.585
X-94.126 Y-16.559
X-94.134 Y-16.553
X-94.166 Y-16.538
X-94.201 Y-16.536
X-94.235 Y-16.546
X-94.263 Y-16.567
X-94.282 Y-16.596
X-94.509 Y-17.129
X-94.517 Y-17.165
X-94.511 Y-17.201
X-94.493 Y-17.233
X-94.464 Y-17.256
X-94.379 Y-17.298
X-94.295 Y-17.335
X-94.164 Y-17.362
X-94.089 Y-17.374
X-93.94 Y-17.357
X-93.81 Y-17.282
X-93.714 Y-17.167
X-93.651 Y-17.031
X-93.65 Y-17.025
X-93.663 Y-16.903
X-93.723 Y-16.796
X-93.821 Y-16.722
X-93.872 Y-16.698
X-93.995 Y-16.631
X-94.03 Y-16.621
X-94.067 Y-16.625
X-94.1 Y-16.641
X-94.124 Y-16.668
X-94.138 Y-16.703
X-94.239 Y-17.247
X-94.238 Y-17.285
X-94.224 Y-17.319
X-94.198 Y-17.347
X-94.164 Y-17.362
X-93.91 Y-17.414
X-93.836 Y-17.425
X-93.691 Y-17.387
X-93.573 Y-17.294
X-93.489 Y-17.17
X-93.48 Y-17.139
X-93.473 Y-17.022
X-93.512 Y-16.911
X-93.59 Y-16.823
X-93.696 Y-16.772
X-93.731 Y-16.77
X-93.765 Y-16.782
X-93.793 Y-16.804
X-93.811 Y-16.834
X-93.98 Y-17.282
X-93.986 Y-17.315
X-93.981 Y-17.348
X-93.966 Y-17.378
X-93.941 Y-17.401
X-93.91 Y-17.414
X-93.787 Y-17.439
X-93.703 Y-17.453
X-93.628 Y-17.457
X-93.482 Y-17.42
X-93.366 Y-17.325
X-93.295 Y-17.193
X-93.289 Y-17.149
X-93.305 Y-17.002
X-93.389 Y-16.881
X-93.521 Y-16.814
X-93.618 Y-16.792
X-93.696 Y-16.772
X-93.733 Y-16.771
X-93.768 Y-16.783
X-93.795 Y-16.807
X-93.813 Y-16.84
X-93.817 Y-16.877
X-93.782 Y-17.362
X-93.775 Y-17.394
X-93.758 Y-17.421
X-93.733 Y-17.442
X-93.703 Y-17.453
X-93.618 Y-17.462
X-93.449 Y-17.473
X-93.374 Y-17.474
X-93.237 Y-17.411
X-93.141 Y-17.296
X-93.096 Y-17.153
X-93.097 Y-17.135
X-93.134 Y-17.002
X-93.227 Y-16.9
X-93.355 Y-16.85
X-93.364 Y-16.849
X-93.521 Y-16.814
X-93.56
X-93.596 Y-16.83
X-93.623 Y-16.858
X-93.638 Y-16.894
X-93.637 Y-16.933
X-93.536 Y-17.395
X-93.525 Y-17.424
X-93.505 Y-17.448
X-93.479 Y-17.465
X-93.449 Y-17.473
X-93.28 Y-17.484
X-93.205 Y-17.485
X-93.133 Y-17.464
X-93.008 Y-17.38
X-92.93 Y-17.252
X-92.924 Y-17.211
X-92.931 Y-17.089
X-92.985 Y-16.981
X-93.078 Y-16.903
X-93.194 Y-16.868
X-93.28 Y-16.86
X-93.355 Y-16.85
X-93.393 Y-16.853
X-93.426 Y-16.87
X-93.451 Y-16.898
X-93.464 Y-16.933
X-93.463 Y-16.971
X-93.367 Y-17.406
X-93.356 Y-17.435
X-93.336 Y-17.459
X-93.31 Y-17.476
X-93.28 Y-17.484
X-93.11 Y-17.495
X-93.064
X-92.989 Y-17.492
X-92.92 Y-17.461
X-92.803 Y-17.368
X-92.742 Y-17.231
X-92.741 Y-17.189
X-92.759 Y-17.074
X-92.82 Y-16.975
X-92.914 Y-16.906
X-93.027 Y-16.879
X-93.11 Y-16.875
X-93.194 Y-16.868
X-93.233 Y-16.873
X-93.266 Y-16.893
X-93.289 Y-16.923
X-93.299 Y-16.961
X-93.295 Y-16.999
X-93.155 Y-17.427
X-93.141 Y-17.453
X-93.12 Y-17.475
X-93.093 Y-17.49
X-93.064 Y-17.495
X-93.026 Y-17.496
X-92.857 Y-17.486
X-92.782 Y-17.478
X-92.716 Y-17.442
X-92.606 Y-17.34
X-92.558 Y-17.198
X-92.56 Y-17.16
X-92.588 Y-17.049
X-92.655 Y-16.957
X-92.752 Y-16.897
X-92.864 Y-16.877
X-93.027 Y-16.879
X-93.066 Y-16.886
X-93.099 Y-16.908
X-93.12 Y-16.94
X-93.128 Y-16.979
X-93.12 Y-17.017
X-92.951 Y-17.425
X-92.929 Y-17.458
X-92.896 Y-17.479
X-92.857 Y-17.486
X-92.772 Y-17.481
X-92.641 Y-17.472
X-92.604 Y-17.468
X-92.472 Y-17.395
X-92.394 Y-17.267
X-92.374 Y-17.119
X-92.378 Y-17.099
X-92.443 Y-16.971
X-92.559 Y-16.887
X-92.702 Y-16.867
X-92.772 Y-16.874
X-92.864 Y-16.877
X-92.897 Y-16.884
X-92.925 Y-16.901
X-92.946 Y-16.928
X-92.958 Y-16.959
Y-16.993
X-92.947 Y-17.024
X-92.732 Y-17.42
X-92.709 Y-17.449
X-92.677 Y-17.467
X-92.641 Y-17.472
X-92.472 Y-17.46
X-92.397 Y-17.451
X-92.272 Y-17.369
X-92.2 Y-17.237
X-92.196 Y-17.165
X-92.216 Y-17.037
X-92.288 Y-16.93
X-92.398 Y-16.863
X-92.526 Y-16.848
X-92.702 Y-16.867
X-92.738 Y-16.879
X-92.767 Y-16.904
X-92.784 Y-16.938
X-92.787 Y-16.976
X-92.776 Y-17.013
X-92.564 Y-17.408
X-92.541 Y-17.437
X-92.508 Y-17.455
X-92.472 Y-17.46
X-92.349 Y-17.451
X-92.264 Y-17.434
X-92.192 Y-17.416
X-92.131 Y-17.371
X-92.042 Y-17.251
X-92.013 Y-17.104
X-92.04 Y-16.956
X-92.042 Y-16.953
X-92.127 Y-16.86
X-92.243 Y-16.81
X-92.369 Y-16.813
X-92.518 Y-16.848
X-92.526
X-92.563 Y-16.861
X-92.593 Y-16.888
X-92.61 Y-16.923
X-92.612 Y-16.962
X-92.598 Y-16.999
X-92.366 Y-17.387
X-92.339 Y-17.416
X-92.304 Y-17.433
X-92.264 Y-17.434
X-92.095 Y-17.4
X-92.022 Y-17.381
X-91.902 Y-17.292
X-91.84 Y-17.155
X-91.827 Y-17.006
X-91.838 Y-16.972
X-91.892 Y-16.871
X-91.981 Y-16.797
X-92.091 Y-16.762
X-92.205 Y-16.772
X-92.264 Y-16.788
X-92.369 Y-16.813
X-92.401 Y-16.828
X-92.427 Y-16.855
X-92.44 Y-16.889
X-92.441 Y-16.925
X-92.429 Y-16.96
X-92.198 Y-17.352
X-92.179 Y-17.375
X-92.154 Y-17.392
X-92.125 Y-17.4
X-92.095
X-91.879 Y-17.356
X-91.807 Y-17.338
X-91.699 Y-17.233
X-91.643 Y-17.094
X-91.646 Y-16.944
X-91.7 Y-16.804
X-91.703 Y-16.8
X-91.809 Y-16.716
X-91.941 Y-16.687
X-92.073 Y-16.719
X-92.133 Y-16.749
X-92.145 Y-16.754
X-92.205 Y-16.772
X-92.238 Y-16.79
X-92.262 Y-16.818
X-92.274 Y-16.854
X-92.272 Y-16.891
X-92.256 Y-16.925
X-91.977 Y-17.316
X-91.95 Y-17.341
X-91.916 Y-17.356
X-91.879
X-91.736 Y-17.327
X-91.714 Y-17.318
X-91.672 Y-17.298
X-91.606 Y-17.263
X-91.502 Y-17.155
X-91.457 Y-17.011
X-91.462 Y-16.861
X-91.519 Y-16.723
X-91.534 Y-16.704
X-91.646 Y-16.618
X-91.785 Y-16.594
X-91.92 Y-16.635
X-91.979 Y-16.67
X-92.011 Y-16.688
X-92.073 Y-16.719
X-92.1 Y-16.741
X-92.118 Y-16.77
X-92.125 Y-16.804
X-92.12 Y-16.838
X-92.103 Y-16.869
X-91.79 Y-17.268
X-91.766 Y-17.29
X-91.736 Y-17.303
X-91.704 Y-17.306
X-91.672 Y-17.298
X-91.477 Y-17.206
X-91.411 Y-17.17
X-91.312 Y-17.057
X-91.274 Y-16.912
X-91.284 Y-16.763
X-91.345 Y-16.626
X-91.368 Y-16.598
X-91.482 Y-16.514
X-91.622 Y-16.492
X-91.757 Y-16.538
X-91.92 Y-16.635
X-91.945 Y-16.658
X-91.961 Y-16.689
X-91.966 Y-16.723
X-91.959 Y-16.756
X-91.941 Y-16.785
X-91.592 Y-17.18
X-91.568 Y-17.2
X-91.539 Y-17.211
X-91.508 Y-17.213
X-91.477 Y-17.206
X-91.334 Y-17.138
X-91.289 Y-17.113
X-91.225 Y-17.073
X-91.129 Y-16.958
X-91.094 Y-16.812
X-91.107 Y-16.663
X-91.17 Y-16.527
X-91.204 Y-16.485
X-91.293 Y-16.412
X-91.403 Y-16.378
X-91.517 Y-16.387
X-91.62 Y-16.44
X-91.699 Y-16.501
X-91.757 Y-16.538
X-91.781 Y-16.562
X-91.796 Y-16.592
X-91.8 Y-16.626
X-91.792 Y-16.659
X-91.774 Y-16.688
X-91.409 Y-17.091
X-91.383 Y-17.111
X-91.353 Y-17.122
X-91.32 Y-17.123
X-91.289 Y-17.113
X-91.102 Y-17.008
X-91.039 Y-16.968
X-90.946 Y-16.85
X-90.917 Y-16.703
X-90.934 Y-16.554
X-90.996 Y-16.417
X-91.092 Y-16.302
X-91.104 Y-16.294
X-91.228 Y-16.246
X-91.362 Y-16.256
X-91.477 Y-16.324
X-91.486 Y-16.332
X-91.62 Y-16.44
X-91.642 Y-16.465
X-91.654 Y-16.496
X-91.655 Y-16.529
X-91.645 Y-16.56
X-91.626 Y-16.587
X-91.219 Y-16.99
X-91.193 Y-17.008
X-91.163 Y-17.018
X-91.132
X-91.102 Y-17.008
X-91.08 Y-16.995
X-90.995 Y-16.942
X-90.911 Y-16.885
X-90.851 Y-16.84
X-90.767 Y-16.715
X-90.746 Y-16.567
X-90.771 Y-16.419
X-90.831 Y-16.281
X-90.93 Y-16.168
X-90.967 Y-16.144
X-91.072 Y-16.099
X-91.187 Y-16.097
X-91.294 Y-16.139
X-91.378 Y-16.217
X-91.393 Y-16.252
Y-16.29
X-91.379 Y-16.326
X-91.049 Y-16.853
X-91.022 Y-16.882
X-90.986 Y-16.898
X-90.947 Y-16.899
X-90.911 Y-16.885
X-90.741 Y-16.77
X-90.683 Y-16.726
X-90.597 Y-16.603
X-90.574 Y-16.455
X-90.594 Y-16.306
X-90.651 Y-16.167
X-90.743 Y-16.049
X-90.861 Y-15.956
X-90.9 Y-15.94
X-91.034 Y-15.918
X-91.163 Y-15.957
X-91.262 Y-16.049
X-91.339 Y-16.163
X-91.378 Y-16.217
X-91.392 Y-16.251
