%
(n-086-090)
(T1  D=1 CR=0 - ZMIN=-2 - flat end mill)
G90 G94
G17
G21
G28 G91 Z0
G90

(Clear 18)
M9
T1 M6
S5000 M3
G54
M8
G0 X-116.09 Y-14.73
Z12
Z2
Z0.5
G3 X-115.605 Y-14.855 Z0.29 I0.242 J-0.062 F333.3
X-116.09 Y-14.73 Z0.079 I-0.242 J0.062
X-115.605 Y-14.855 Z-0.131 I0.242 J-0.062
X-116.09 Y-14.73 Z-0.342 I-0.242 J0.062
X-115.605 Y-14.855 Z-0.552 I0.242 J-0.062
X-116.09 Y-14.73 Z-0.763 I-0.242 J0.062
X-115.879 Y-15.04 Z-0.876 I0.242 J-0.062
X-115.597 Y-14.792 Z-0.99 I0.031 J0.248
X-116.097 I-0.25
X-115.597 I0.25
G1 X-115.56 Y-14.647 F1000
X-115.573 Y-14.573
X-115.61 Y-14.508
X-115.717 Y-14.403
X-115.862 Y-14.363
X-116.01 Y-14.384
X-116.141 Y-14.458
X-116.237 Y-14.573
X-116.29 Y-14.714
X-116.292 Y-14.864
X-116.244 Y-15.006
X-116.152 Y-15.124
X-116.026 Y-15.206
X-115.881 Y-15.242
X-115.731 Y-15.228
X-115.595 Y-15.166
X-115.486 Y-15.062
X-115.408 Y-14.934
X-115.358 Y-14.793
X-115.347 Y-14.643
X-115.382 Y-14.497
X-115.453 Y-14.365
X-115.562 Y-14.261
X-115.692 Y-14.188
X-115.839 Y-14.155
X-115.988 Y-14.162
X-116.133 Y-14.203
X-116.262 Y-14.279
X-116.285 Y-14.301
X-116.335 Y-14.368
X-116.366 Y-14.446
X-116.373 Y-14.529
X-116.372 Y-14.558
Y-14.812
X-116.381 Y-14.943
X-116.385 Y-15.093
X-116.316 Y-15.226
X-116.211 Y-15.333
X-116.082 Y-15.41
X-115.938 Y-15.451
X-115.788 Y-15.456
X-115.64 Y-15.429
X-115.504 Y-15.367
X-115.482 Y-15.351
X-115.426 Y-15.297
X-115.386 Y-15.23
X-115.365 Y-15.156
X-115.353 Y-15.065
X-115.322 Y-14.812
X-115.325 Y-14.727
X-115.337 Y-14.558
X-115.346 Y-14.474
X-115.36 Y-14.371
X-115.389 Y-14.224
X-115.474 Y-14.1
X-115.595 Y-14.012
X-115.735 Y-13.957
X-115.883 Y-13.935
X-116.033 Y-13.94
X-116.179 Y-13.976
X-116.221 Y-13.996
X-116.32 Y-14.072
X-116.379 Y-14.181
X-116.388 Y-14.305
X-116.376 Y-14.485
X-116.373 Y-14.529
X-116.365 Y-14.561
X-116.347 Y-14.589
X-116.321 Y-14.609
X-116.29 Y-14.62
X-116.257 Y-14.619
X-116.069 Y-14.587
X-115.443 Y-14.48
X-115.408 Y-14.467
X-115.38 Y-14.442
X-115.363 Y-14.408
X-115.36 Y-14.371
X-115.37 Y-14.305
X-115.383 Y-14.22
X-115.427 Y-14.051
X-115.45 Y-13.98
X-115.537 Y-13.858
X-115.663 Y-13.776
X-115.805 Y-13.728
X-115.954 Y-13.71
X-116.103 Y-13.719
X-116.247 Y-13.761
X-116.275 Y-13.777
X-116.369 Y-13.859
X-116.422 Y-13.972
X-116.424 Y-14.096
X-116.399 Y-14.22
X-116.388 Y-14.305
X-116.377 Y-14.336
X-116.356 Y-14.363
X-116.328 Y-14.38
X-116.296 Y-14.388
X-116.263 Y-14.384
X-116.107 Y-14.341
X-115.498 Y-14.17
X-115.464 Y-14.153
X-115.439 Y-14.125
X-115.426 Y-14.089
X-115.427 Y-14.051
X-115.449 Y-13.967
X-115.475 Y-13.883
X-115.504 Y-13.798
X-115.569 Y-13.663
X-115.688 Y-13.571
X-115.827 Y-13.515
X-115.975 Y-13.489
X-116.125 Y-13.492
X-116.27 Y-13.53
X-116.311 Y-13.551
X-116.412 Y-13.634
X-116.468 Y-13.753
Y-13.884
X-116.45 Y-13.967
X-116.424 Y-14.096
X-116.411 Y-14.127
X-116.389 Y-14.152
X-116.36 Y-14.168
X-116.327 Y-14.174
X-116.294 Y-14.169
X-116.166 Y-14.125
X-115.568 Y-13.922
X-115.534 Y-13.903
X-115.511 Y-13.873
X-115.5 Y-13.836
X-115.504 Y-13.798
X-115.576 Y-13.629
X-115.613 Y-13.545
X-115.614 Y-13.541
X-115.635 Y-13.497
X-115.66 Y-13.45
X-115.671 Y-13.431
X-115.698 Y-13.406
X-115.733 Y-13.392
X-115.771
X-115.806 Y-13.406
X-115.833 Y-13.431
X-115.849 Y-13.465
X-115.851 Y-13.503
X-115.84 Y-13.538
X-115.814 Y-13.584
X-115.79 Y-13.613
X-115.757 Y-13.631
X-115.72 Y-13.635
X-115.683 Y-13.625
X-115.653 Y-13.603
X-115.633 Y-13.571
X-115.627 Y-13.534
X-115.635 Y-13.497
X-115.652 Y-13.46
X-115.678 Y-13.422
X-115.723 Y-13.362
X-115.859 Y-13.3
X-116.006 Y-13.27
X-116.156
X-116.302 Y-13.304
X-116.438 Y-13.369
X-116.454 Y-13.384
X-116.528 Y-13.484
X-116.555 Y-13.605
X-116.53 Y-13.727
X-116.477 Y-13.851
X-116.473 Y-13.861
X-116.468 Y-13.884
X-116.452 Y-13.918
X-116.424 Y-13.943
X-116.389 Y-13.957
X-116.352 Y-13.956
X-116.317 Y-13.942
X-116.242 Y-13.893
X-115.714 Y-13.549
X-115.686 Y-13.522
X-115.671 Y-13.487
X-115.67 Y-13.449
X-115.684 Y-13.413
X-115.783 Y-13.265
X-115.88 Y-13.151
X-116.015 Y-13.086
X-116.164 Y-13.065
X-116.313 Y-13.08
X-116.456 Y-13.127
X-116.581 Y-13.209
X-116.638 Y-13.311
X-116.652 Y-13.424
X-116.623 Y-13.535
X-116.536 Y-13.714
X-116.53 Y-13.727
X-116.511 Y-13.755
X-116.483 Y-13.774
X-116.451 Y-13.784
X-116.417 Y-13.782
X-116.386 Y-13.768
X-116.344 Y-13.742
X-115.814 Y-13.403
X-115.786 Y-13.376
X-115.77 Y-13.34
Y-13.302
X-115.783 Y-13.265
X-115.828 Y-13.207
X-115.953 Y-13.049
X-116.055 Y-12.94
X-116.195 Y-12.886
X-116.345 Y-12.879
X-116.492 Y-12.91
X-116.628 Y-12.974
X-116.655 Y-12.998
X-116.736 Y-13.115
X-116.754 Y-13.256
X-116.706 Y-13.389
X-116.659 Y-13.46
X-116.623 Y-13.535
X-116.601 Y-13.562
X-116.572 Y-13.58
X-116.539 Y-13.588
X-116.504 Y-13.584
X-116.474 Y-13.568
X-115.973 Y-13.189
X-115.947 Y-13.16
X-115.934 Y-13.123
X-115.936 Y-13.084
X-115.953 Y-13.049
X-116.037 Y-12.949
X-116.058 Y-12.926
X-116.079 Y-12.908
X-116.206 Y-12.803
X-116.267 Y-12.759
X-116.41 Y-12.715
X-116.56 Y-12.724
X-116.7 Y-12.778
X-116.819 Y-12.869
X-116.824 Y-12.876
X-116.871 Y-12.987
X-116.87 Y-13.106
X-116.823 Y-13.216
X-116.706 Y-13.389
X-116.679 Y-13.414
X-116.645 Y-13.429
X-116.608
X-116.573 Y-13.417
X-116.546 Y-13.392
X-116.194 Y-12.94
X-116.177 Y-12.906
X-116.173 Y-12.869
X-116.183 Y-12.833
X-116.206 Y-12.803
X-116.229 Y-12.784
X-116.291 Y-12.736
X-116.376 Y-12.674
X-116.401 Y-12.656
X-116.53 Y-12.579
X-116.68 Y-12.575
X-116.823 Y-12.619
X-116.943 Y-12.711
X-116.994 Y-12.833
X-116.987 Y-12.966
X-116.924 Y-13.082
X-116.854 Y-13.174
X-116.823 Y-13.216
X-116.795 Y-13.242
X-116.76 Y-13.255
X-116.722 Y-13.254
X-116.687 Y-13.239
X-116.66 Y-13.213
X-116.377 Y-12.794
X-116.362 Y-12.758
X-116.361 Y-12.72
X-116.375 Y-12.684
X-116.401 Y-12.656
X-116.629 Y-12.505
X-116.692 Y-12.463
X-116.841 Y-12.451
X-116.984 Y-12.498
X-117.096 Y-12.598
X-117.105 Y-12.613
X-117.141 Y-12.744
X-117.115 Y-12.878
X-117.034 Y-12.986
X-116.935 Y-13.07
X-116.924 Y-13.082
X-116.897 Y-13.102
X-116.865 Y-13.113
X-116.831 Y-13.111
X-116.799 Y-13.099
X-116.774 Y-13.077
X-116.757 Y-13.048
X-116.599 Y-12.616
X-116.593 Y-12.586
X-116.597 Y-12.555
X-116.609 Y-12.528
X-116.629 Y-12.505
X-116.704 Y-12.447
X-116.714 Y-12.438
X-116.735 Y-12.415
X-116.789 Y-12.363
X-116.86 Y-12.34
X-117.01 Y-12.333
X-117.149 Y-12.388
X-117.254 Y-12.495
X-117.262 Y-12.51
X-117.292 Y-12.647
X-117.257 Y-12.782
X-117.165 Y-12.887
X-117.137 Y-12.907
X-117.074 Y-12.953
X-117.034 Y-12.986
X-117.001 Y-13.003
X-116.964 Y-13.007
X-116.928 Y-12.997
X-116.898 Y-12.975
X-116.879 Y-12.943
X-116.717 Y-12.516
X-116.711 Y-12.481
X-116.717 Y-12.446
X-116.735 Y-12.415
X-116.784 Y-12.362
X-116.799 Y-12.341
X-116.819 Y-12.306
X-116.839 Y-12.275
X-116.899 Y-12.229
X-117.042 Y-12.184
X-117.19 Y-12.207
X-117.322 Y-12.278
X-117.368 Y-12.332
X-117.429 Y-12.444
X-117.439 Y-12.571
X-117.397 Y-12.691
X-117.31 Y-12.784
X-117.165 Y-12.887
X-117.133 Y-12.901
X-117.099 Y-12.903
X-117.066 Y-12.893
X-117.038 Y-12.873
X-117.019 Y-12.845
X-116.816 Y-12.394
X-116.808 Y-12.365
X-116.809 Y-12.335
X-116.819 Y-12.306
X-116.835 Y-12.278
X-116.869 Y-12.193
X-116.883 Y-12.158
X-116.933 Y-12.103
X-117.065 Y-12.031
X-117.215 Y-12.026
X-117.359 Y-12.068
X-117.481 Y-12.155
X-117.576 Y-12.271
X-117.596 Y-12.32
X-117.618 Y-12.464
X-117.569 Y-12.602
X-117.461 Y-12.7
X-117.391 Y-12.737
X-117.31 Y-12.784
X-117.274 Y-12.796
X-117.237 Y-12.793
X-117.203 Y-12.777
X-117.178 Y-12.749
X-116.881 Y-12.265
X-116.868 Y-12.231
X-116.869 Y-12.193
X-116.883 Y-12.133
X-116.887 Y-12.109
X-116.899 Y-12.035
X-116.939 Y-11.971
X-117.055 Y-11.877
X-117.201 Y-11.842
X-117.351 Y-11.853
X-117.492 Y-11.903
X-117.618 Y-11.985
X-117.72 Y-12.094
X-117.775 Y-12.197
X-117.81 Y-12.316
X-117.794 Y-12.44
X-117.728 Y-12.546
X-117.624 Y-12.616
X-117.56 Y-12.647
X-117.461 Y-12.7
X-117.429 Y-12.709
X-117.397 Y-12.708
X-117.366 Y-12.696
X-117.341 Y-12.675
X-116.911 Y-12.176
X-116.893 Y-12.145
X-116.887 Y-12.109
X-116.892 Y-12.024
X-116.889 Y-11.982
X-116.885 Y-11.907
X-116.915 Y-11.838
X-117.013 Y-11.725
X-117.149 Y-11.662
X-117.21 Y-11.654
X-117.275 Y-11.652
X-117.338 Y-11.664
X-117.398 Y-11.69
X-117.56 Y-11.782
X-117.645 Y-11.826
X-117.679 Y-11.842
X-117.811 Y-11.913
X-117.914 Y-12.022
X-117.986 Y-12.153
X-118.018 Y-12.3
Y-12.304
X-117.981 Y-12.422
X-117.9 Y-12.515
X-117.788 Y-12.567
X-117.729 Y-12.581
X-117.645 Y-12.607
X-117.624 Y-12.616
X-117.592 Y-12.622
X-117.559 Y-12.617
X-117.529 Y-12.601
X-117.507 Y-12.577
X-117.493 Y-12.546
X-117.491 Y-12.513
X-117.54 Y-11.926
X-117.55 Y-11.89
X-117.573 Y-11.86
X-117.605 Y-11.84
X-117.642 Y-11.834
X-117.679 Y-11.842
X-117.729 Y-11.866
X-117.814 Y-11.888
X-117.898 Y-11.908
X-117.971 Y-11.926
X-118.097 Y-12.007
X-118.18 Y-12.132
X-118.19 Y-12.179
Y-12.297
X-118.145 Y-12.406
X-118.06 Y-12.489
X-117.95 Y-12.533
X-117.898 Y-12.543
X-117.788 Y-12.567
X-117.754 Y-12.568
X-117.723 Y-12.558
X-117.696 Y-12.538
X-117.677 Y-12.511
X-117.669 Y-12.479
X-117.671 Y-12.445
X-117.785 Y-11.982
X-117.801 Y-11.949
X-117.827 Y-11.923
X-117.861 Y-11.909
X-117.898 Y-11.908
X-118.068 Y-11.941
X-118.114 Y-11.949
X-118.187 Y-11.966
X-118.249 Y-12.009
X-118.342 Y-12.127
X-118.346 Y-12.147
X-118.347 Y-12.267
X-118.301 Y-12.378
X-118.215 Y-12.462
X-118.103 Y-12.506
X-117.95 Y-12.533
X-117.915 Y-12.532
X-117.883 Y-12.519
X-117.857 Y-12.496
X-117.84 Y-12.465
X-117.836 Y-12.43
X-117.844 Y-12.395
X-118.008 Y-12.009
X-118.025 Y-11.982
X-118.051 Y-11.961
X-118.081 Y-11.95
X-118.114 Y-11.949
X-118.152 Y-11.956
X-118.283 Y-11.966
X-118.321 Y-11.971
X-118.389 Y-12.003
X-118.44 Y-12.058
X-118.513 Y-12.188
X-118.481 Y-12.331
X-118.383 Y-12.441
X-118.245 Y-12.489
X-118.152 Y-12.497
X-118.103 Y-12.506
X-118.067 Y-12.504
X-118.033 Y-12.489
X-118.007 Y-12.463
X-117.993 Y-12.429
X-117.991 Y-12.393
X-118.002 Y-12.358
X-118.192 Y-12.018
X-118.215 Y-11.989
X-118.247 Y-11.971
X-118.283 Y-11.966
X-118.406 Y-11.976
X-118.481 Y-11.982
X-118.548 Y-12.015
X-118.601 Y-12.068
X-118.629 Y-12.203
X-118.591 Y-12.335
X-118.496 Y-12.435
X-118.366 Y-12.479
X-118.245 Y-12.489
X-118.21 Y-12.485
X-118.179 Y-12.469
X-118.155 Y-12.442
X-118.142 Y-12.41
X-118.141 Y-12.374
X-118.153 Y-12.341
X-118.327 Y-12.027
X-118.348 Y-12.001
X-118.375 Y-11.984
X-118.406 Y-11.976
X-118.537 Y-11.968
X-118.575
X-118.647 Y-11.987
X-118.704 Y-12.037
X-118.782 Y-12.164
X-118.763 Y-12.288
X-118.696 Y-12.392
X-118.591 Y-12.46
X-118.468 Y-12.479
X-118.406 Y-12.476
X-118.366 Y-12.479
X-118.33 Y-12.474
X-118.299 Y-12.458
X-118.275 Y-12.431
X-118.263 Y-12.397
X-118.262 Y-12.361
X-118.275 Y-12.328
X-118.461 Y-12.017
X-118.481 Y-11.993
X-118.507 Y-11.976
X-118.537 Y-11.968
X-118.66 Y-11.961
X-118.735 Y-11.957
X-118.804 Y-11.986
X-118.861 Y-12.035
X-118.935 Y-12.165
X-118.936 Y-12.183
X-118.913 Y-12.304
X-118.843 Y-12.406
X-118.739 Y-12.471
X-118.617 Y-12.488
X-118.468 Y-12.479
X-118.435 Y-12.47
X-118.407 Y-12.451
X-118.387 Y-12.424
X-118.378 Y-12.392
X-118.379 Y-12.358
X-118.392 Y-12.327
X-118.592 Y-12.007
X-118.61 Y-11.985
X-118.633 Y-11.97
X-118.66 Y-11.961
X-118.744 Y-11.949
X-118.805 Y-11.94
X-118.842 Y-11.936
X-118.914 Y-11.955
X-118.979 Y-11.992
X-119.03 Y-12.048
X-119.095 Y-12.183
X-119.094 Y-12.212
X-119.065 Y-12.335
X-118.988 Y-12.435
X-118.877 Y-12.494
X-118.751 Y-12.503
X-118.66 Y-12.491
X-118.617 Y-12.488
X-118.579 Y-12.477
X-118.549 Y-12.452
X-118.53 Y-12.417
X-118.527 Y-12.377
X-118.539 Y-12.34
X-118.737 Y-11.989
X-118.754 Y-11.966
X-118.778 Y-11.949
X-118.805 Y-11.94
X-118.914 Y-11.922
X-118.96 Y-11.913
X-118.997 Y-11.908
X-119.14 Y-11.955
X-119.24 Y-12.067
X-119.278 Y-12.212
X-119.271 Y-12.268
X-119.234 Y-12.381
X-119.156 Y-12.47
X-119.049 Y-12.523
X-118.93 Y-12.529
X-118.751 Y-12.503
X-118.716 Y-12.489
X-118.688 Y-12.464
X-118.672 Y-12.43
X-118.669 Y-12.393
X-118.681 Y-12.357
X-118.895 Y-11.963
X-118.912 Y-11.94
X-118.934 Y-11.923
X-118.96 Y-11.913
X-118.998 Y-11.906
X-119.083 Y-11.886
X-119.156 Y-11.869
X-119.229 Y-11.886
X-119.358 Y-11.962
X-119.441 Y-12.088
X-119.468 Y-12.235
X-119.448 Y-12.384
X-119.439 Y-12.402
X-119.356 Y-12.509
X-119.233 Y-12.569
X-119.096 Y-12.567
X-118.968 Y-12.537
X-118.943 Y-12.531
X-118.93 Y-12.529
X-118.897 Y-12.517
X-118.871 Y-12.495
X-118.853 Y-12.464
X-118.848 Y-12.43
X-118.854 Y-12.396
X-119.021 Y-11.946
X-119.036 Y-11.92
X-119.057 Y-11.9
X-119.083 Y-11.886
X-119.167 Y-11.861
X-119.182 Y-11.855
X-119.22 Y-11.838
X-119.255 Y-11.824
X-119.33 Y-11.82
X-119.473 Y-11.865
X-119.581 Y-11.97
X-119.648 Y-12.104
X-119.676 Y-12.251
X-119.657 Y-12.4
X-119.638 Y-12.446
X-119.572 Y-12.545
X-119.472 Y-12.61
X-119.355 Y-12.632
X-119.239 Y-12.606
X-119.21 Y-12.584
X-119.19 Y-12.554
X-119.182 Y-12.519
X-119.165 Y-11.93
X-119.171 Y-11.893
X-119.19 Y-11.861
X-119.22 Y-11.838
X-119.252 Y-11.823
X-119.337 Y-11.78
X-119.405 Y-11.748
X-119.555 Y-11.747
X-119.686 Y-11.82
X-119.787 Y-11.931
X-119.856 Y-12.064
X-119.889 Y-12.211
X-119.888 Y-12.361
X-119.849 Y-12.506
X-119.773 Y-12.635
X-119.766 Y-12.641
X-119.66 Y-12.708
X-119.536 Y-12.726
X-119.416 Y-12.691
X-119.337 Y-12.649
X-119.239 Y-12.606
X-119.213 Y-12.587
X-119.194 Y-12.562
X-119.184 Y-12.532
Y-12.5
X-119.287 Y-11.851
X-119.296 Y-11.822
X-119.313 Y-11.798
X-119.337 Y-11.78
X-119.421 Y-11.736
X-119.506 Y-11.688
X-119.538 Y-11.67
X-119.613 Y-11.658
X-119.761 Y-11.68
X-119.889 Y-11.759
X-119.926 Y-11.8
X-119.972 Y-11.867
X-119.999 Y-11.943
X-120.004 Y-12.024
X-119.998 Y-12.109
X-119.999 Y-12.151
X-120.004 Y-12.193
X-120.013 Y-12.24
X-120.025 Y-12.278
X-120.067 Y-12.422
X-120.044 Y-12.57
X-119.978 Y-12.705
X-119.956 Y-12.73
X-119.841 Y-12.81
X-119.701 Y-12.829
X-119.568 Y-12.782
X-119.506 Y-12.742
X-119.416 Y-12.691
X-119.389 Y-12.669
X-119.372 Y-12.64
X-119.366 Y-12.606
X-119.371 Y-12.572
X-119.388 Y-12.542
X-119.414 Y-12.519
X-119.881 Y-12.234
X-119.913 Y-12.221
X-119.946 Y-12.22
X-119.979 Y-12.23
X-120.006 Y-12.25
X-120.025 Y-12.278
X-120.06 Y-12.362
X-120.098 Y-12.425
X-120.115 Y-12.447
X-120.16 Y-12.507
X-120.182 Y-12.655
X-120.133 Y-12.797
X-120.12 Y-12.814
X-120.004 Y-12.904
X-119.859 Y-12.928
X-119.72 Y-12.881
X-119.568 Y-12.782
X-119.544 Y-12.758
X-119.529 Y-12.726
X-119.526 Y-12.691
X-119.535 Y-12.657
X-119.556 Y-12.629
X-119.585 Y-12.609
X-119.999 Y-12.422
X-120.03 Y-12.414
X-120.061 Y-12.415
X-120.09 Y-12.427
X-120.115 Y-12.447
X-120.145 Y-12.483
X-120.164 Y-12.503
X-120.197 Y-12.531
X-120.236 Y-12.558
X-120.265 Y-12.582
X-120.291 Y-12.652
X-120.3 Y-12.727
X-120.276 Y-12.875
X-120.267 Y-12.889
X-120.18 Y-12.975
X-120.067 Y-13.02
X-119.945 Y-13.016
X-119.835 Y-12.963
X-119.76 Y-12.907
X-119.72 Y-12.881
X-119.695 Y-12.855
X-119.68 Y-12.823
X-119.678 Y-12.787
X-119.689 Y-12.753
X-119.711 Y-12.724
X-119.741 Y-12.706
X-120.144 Y-12.549
X-120.175 Y-12.542
X-120.207 Y-12.545
X-120.236 Y-12.558
X-120.267 Y-12.581
X-120.325 Y-12.616
X-120.356 Y-12.636
X-120.398 Y-12.698
X-120.423 Y-12.769
X-120.429 Y-12.919
X-120.364 Y-13.054
X-120.356 Y-13.062
X-120.257 Y-13.122
X-120.142 Y-13.14
X-120.028 Y-13.112
X-119.934 Y-13.044
X-119.916 Y-13.012
X-119.91 Y-12.976
X-119.918 Y-12.94
X-119.938 Y-12.909
X-120.206 Y-12.634
X-120.232 Y-12.615
X-120.263 Y-12.605
X-120.295
X-120.325 Y-12.616
X-120.436 Y-12.68
X-120.499 Y-12.721
X-120.542 Y-12.782
X-120.586 Y-12.926
X-120.564 Y-13.074
X-120.483 Y-13.2
X-120.451 Y-13.223
X-120.343 Y-13.273
X-120.224 Y-13.276
X-120.113 Y-13.233
X-120.027 Y-13.151
X-120.015 Y-13.122
X-120.012 Y-13.09
X-120.019 Y-13.059
X-120.035 Y-13.032
X-120.313 Y-12.704
X-120.339 Y-12.682
X-120.371 Y-12.67
X-120.404 Y-12.669
X-120.436 Y-12.68
X-120.521 Y-12.729
X-120.606 Y-12.783
X-120.665 Y-12.829
X-120.737 Y-12.961
Y-13.111
X-120.686 Y-13.252
X-120.589 Y-13.366
X-120.538 Y-13.398
X-120.431 Y-13.437
X-120.318 Y-13.434
X-120.214 Y-13.388
X-120.134 Y-13.308
X-120.027 Y-13.151
X-120.014 Y-13.12
X-120.012 Y-13.087
X-120.021 Y-13.055
X-120.039 Y-13.028
X-120.066 Y-13.008
X-120.509 Y-12.78
X-120.541 Y-12.77
X-120.574 Y-12.771
X-120.606 Y-12.783
X-120.727 Y-12.869
X-120.753 Y-12.889
X-120.811 Y-12.936
X-120.891 Y-13.063
X-120.899 Y-13.213
X-120.854 Y-13.356
X-120.769 Y-13.479
X-120.653 Y-13.574
X-120.596 Y-13.598
X-120.457 Y-13.617
X-120.326 Y-13.567
X-120.235 Y-13.46
X-120.134 Y-13.308
X-120.12 Y-13.271
X-120.121 Y-13.231
X-120.138 Y-13.196
X-120.167 Y-13.169
X-120.645 Y-12.885
X-120.681 Y-12.872
X-120.719 Y-12.873
X-120.753 Y-12.889
X-120.84 Y-12.953
X-120.859 Y-12.969
X-120.944 Y-13.062
X-120.991 Y-13.121
X-121.044 Y-13.261
X-121.029 Y-13.411
X-120.97 Y-13.548
X-120.879 Y-13.667
X-120.757 Y-13.755
X-120.619 Y-13.813
X-120.615
X-120.496 Y-13.798
X-120.393 Y-13.737
X-120.322 Y-13.641
X-120.249 Y-13.49
X-120.235 Y-13.46
X-120.226 Y-13.424
X-120.232 Y-13.387
X-120.25 Y-13.354
X-120.28 Y-13.331
X-120.825 Y-13.043
X-120.856 Y-13.033
X-120.888
X-120.918 Y-13.043
X-120.944 Y-13.062
X-120.998 Y-13.122
X-121.029 Y-13.158
X-121.092 Y-13.241
X-121.134 Y-13.303
X-121.176 Y-13.447
X-121.154 Y-13.596
X-121.09 Y-13.731
X-120.996 Y-13.848
X-120.879 Y-13.942
X-120.741 Y-14.001
X-120.721 Y-14.004
X-120.591 Y-13.994
X-120.478 Y-13.93
X-120.403 Y-13.824
X-120.352 Y-13.706
X-120.322 Y-13.641
X-120.314 Y-13.604
X-120.32 Y-13.567
X-120.339 Y-13.535
X-120.369 Y-13.512
X-120.386 Y-13.504
X-120.97 Y-13.215
X-121.002 Y-13.205
X-121.035 Y-13.207
X-121.066 Y-13.219
X-121.092 Y-13.241
X-121.192 Y-13.376
X-121.227 Y-13.426
X-121.251 Y-13.46
X-121.268 Y-13.491
X-121.296 Y-13.561
X-121.297 Y-13.711
X-121.25 Y-13.853
X-121.169 Y-13.98
X-121.062 Y-14.084
X-120.936 Y-14.165
X-120.792 Y-14.21
X-120.748 Y-14.212
X-120.611 Y-14.184
X-120.501 Y-14.098
X-120.442 Y-13.971
X-120.418 Y-13.861
X-120.403 Y-13.824
X-120.396 Y-13.785
X-120.405 Y-13.746
X-120.429 Y-13.714
X-120.462 Y-13.694
X-120.539 Y-13.667
X-121.149 Y-13.448
X-121.183 Y-13.442
X-121.216 Y-13.448
X-121.246 Y-13.465
X-121.268 Y-13.491
X-121.33 Y-13.629
X-121.364 Y-13.714
X-121.388 Y-13.785
X-121.391 Y-13.935
X-121.339 Y-14.075
X-121.253 Y-14.198
X-121.141 Y-14.299
X-121.013 Y-14.376
X-120.869 Y-14.419
X-120.72 Y-14.429
X-120.711 Y-14.427
X-120.607 Y-14.38
X-120.528 Y-14.298
X-120.485 Y-14.191
X-120.442 Y-13.971
X-120.443 Y-13.934
X-120.457 Y-13.901
X-120.482 Y-13.874
X-120.514 Y-13.858
X-120.626 Y-13.828
X-121.246 Y-13.658
X-121.282 Y-13.655
X-121.316 Y-13.664
X-121.345 Y-13.684
X-121.364 Y-13.714
X-121.452 Y-13.938
X-121.484 Y-14.085
X-121.452 Y-14.231
X-121.377 Y-14.361
X-121.276 Y-14.472
X-121.152 Y-14.557
X-121.015 Y-14.617
X-120.869 Y-14.652
X-120.719 Y-14.647
X-120.717 Y-14.646
X-120.612 Y-14.589
X-120.539 Y-14.496
X-120.507 Y-14.381
X-120.502 Y-14.305
X-120.491 Y-14.22
X-120.485 Y-14.191
X-120.486 Y-14.155
X-120.5 Y-14.121
X-120.526 Y-14.095
X-120.559 Y-14.079
X-120.711 Y-14.04
X-121.335 Y-13.88
X-121.37 Y-13.878
X-121.404 Y-13.888
X-121.432 Y-13.909
X-121.452 Y-13.938
X-121.527 Y-14.22
X-121.545 Y-14.369
X-121.495 Y-14.511
X-121.406 Y-14.632
X-121.293 Y-14.731
X-121.164 Y-14.807
X-121.023 Y-14.858
X-120.875 Y-14.884
X-120.726 Y-14.871
X-120.718 Y-14.868
X-120.614 Y-14.805
X-120.543 Y-14.705
X-120.518 Y-14.586
Y-14.558
X-120.513 Y-14.474
X-120.507 Y-14.381
X-120.512 Y-14.345
X-120.53 Y-14.314
X-120.558 Y-14.29
X-120.592 Y-14.279
X-120.781 Y-14.249
X-121.416 Y-14.151
X-121.452 Y-14.152
X-121.485 Y-14.165
X-121.511 Y-14.189
X-121.527 Y-14.22
X-121.541 Y-14.305
X-121.565 Y-14.474
X-121.57 Y-14.52
X-121.575 Y-14.595
X-121.534 Y-14.739
X-121.447 Y-14.862
X-121.334 Y-14.96
X-121.204 Y-15.035
X-121.063 Y-15.088
X-120.916 Y-15.114
X-120.766 Y-15.106
X-120.733 Y-15.096
X-120.621 Y-15.035
X-120.545 Y-14.933
X-120.518 Y-14.808
Y-14.586
X-120.526 Y-14.55
X-120.546 Y-14.519
X-120.576 Y-14.498
X-120.611 Y-14.489
X-120.83 Y-14.475
X-121.465 Y-14.435
X-121.501 Y-14.439
X-121.534 Y-14.457
X-121.558 Y-14.485
X-121.57 Y-14.52
X-121.574 Y-14.558
X-121.586 Y-14.727
X-121.588 Y-14.774
X-121.59 Y-14.812
X-121.568 Y-14.96
X-121.485 Y-15.085
X-121.374 Y-15.186
X-121.245 Y-15.263
X-121.105 Y-15.316
X-120.957 Y-15.345
X-120.807 Y-15.342
X-120.662 Y-15.307
X-120.656 Y-15.304
X-120.57 Y-15.232
X-120.516 Y-15.133
X-120.503 Y-15.021
X-120.518 Y-14.808
X-120.527 Y-14.77
X-120.55 Y-14.739
X-120.583 Y-14.718
X-120.621 Y-14.712
X-120.865 Y-14.719
X-121.49 Y-14.739
X-121.521 Y-14.745
X-121.549 Y-14.761
X-121.571 Y-14.784
X-121.584 Y-14.814
X-121.587 Y-14.846
X-121.563 Y-15.065
X-121.557 Y-15.112
X-121.532 Y-15.259
X-121.436 Y-15.375
X-121.316 Y-15.465
X-121.181 Y-15.53
X-121.036 Y-15.569
X-120.887 Y-15.581
X-120.737 Y-15.568
X-120.671 Y-15.545
X-120.552 Y-15.469
X-120.482 Y-15.346
X-120.475 Y-15.205
X-120.486 Y-15.15
X-120.5 Y-15.065
X-120.503 Y-15.021
X-120.514 Y-14.984
X-120.539 Y-14.954
X-120.573 Y-14.936
X-120.611 Y-14.932
X-120.84 Y-14.951
X-121.466 Y-15.003
X-121.504 Y-15.014
X-121.534 Y-15.038
X-121.553 Y-15.073
X-121.557 Y-15.112
X-121.524 Y-15.365
X-121.518 Y-15.403
X-121.473 Y-15.546
X-121.369 Y-15.654
X-121.242 Y-15.734
X-121.102 Y-15.786
X-120.954 Y-15.813
X-120.804
X-120.658 Y-15.781
X-120.602 Y-15.756
X-120.494 Y-15.674
X-120.434 Y-15.553
X-120.432 Y-15.417
X-120.453 Y-15.318
X-120.475 Y-15.205
X-120.491 Y-15.169
X-120.519 Y-15.143
X-120.556 Y-15.129
X-120.595 Y-15.13
X-120.82 Y-15.181
X-121.433 Y-15.322
X-121.468 Y-15.338
X-121.495 Y-15.366
X-121.509 Y-15.402
X-121.508 Y-15.441
X-121.452 Y-15.656
X-121.407 Y-15.799
X-121.303 Y-15.907
X-121.173 Y-15.983
X-121.031 Y-16.029
X-120.882 Y-16.046
X-120.732 Y-16.037
X-120.587 Y-15.997
X-120.454 Y-15.928
X-120.449 Y-15.924
X-120.378 Y-15.824
X-120.352 Y-15.704
X-120.376 Y-15.584
X-120.417 Y-15.487
X-120.432 Y-15.417
X-120.449 Y-15.383
X-120.477 Y-15.357
X-120.513 Y-15.343
X-120.552 Y-15.345
X-120.764 Y-15.394
X-121.377 Y-15.537
X-121.413 Y-15.553
X-121.439 Y-15.581
X-121.453 Y-15.618
X-121.452 Y-15.656
X-121.408 Y-15.825
X-121.401 Y-15.846
X-121.391 Y-15.867
X-121.321 Y-15.994
X-121.242 Y-16.122
X-121.116 Y-16.203
X-120.974 Y-16.251
X-120.825 Y-16.269
X-120.675 Y-16.259
X-120.529 Y-16.225
X-120.395 Y-16.157
X-120.367 Y-16.134
X-120.288 Y-16.03
X-120.26 Y-15.903
X-120.289 Y-15.775
X-120.352 Y-15.641
X-120.376 Y-15.584
X-120.399 Y-15.553
X-120.431 Y-15.533
X-120.469 Y-15.527
X-120.506 Y-15.535
X-120.698 Y-15.616
X-121.271 Y-15.857
X-121.299 Y-15.874
X-121.319 Y-15.899
X-121.33 Y-15.93
X-121.331 Y-15.963
X-121.321 Y-15.994
X-121.181 Y-16.248
X-121.09 Y-16.367
X-120.96 Y-16.441
X-120.814 Y-16.478
X-120.664 Y-16.484
X-120.516 Y-16.46
X-120.375 Y-16.409
X-120.25 Y-16.326
X-120.23 Y-16.303
X-120.166 Y-16.19
X-120.156 Y-16.06
X-120.203 Y-15.938
X-120.222 Y-15.91
X-120.267 Y-15.822
X-120.289 Y-15.775
X-120.314 Y-15.745
X-120.348 Y-15.726
X-120.387 Y-15.722
X-120.425 Y-15.733
X-120.583 Y-15.817
X-121.139 Y-16.114
X-121.168 Y-16.138
X-121.187 Y-16.172
X-121.191 Y-16.21
X-121.181 Y-16.248
X-121.123 Y-16.332
X-120.996 Y-16.501
X-120.899 Y-16.615
X-120.76 Y-16.671
X-120.611 Y-16.689
X-120.462 Y-16.676
X-120.318 Y-16.633
X-120.186 Y-16.562
X-120.075 Y-16.461
X-120.072 Y-16.454
X-120.031 Y-16.349
X-120.033 Y-16.236
X-120.076 Y-16.131
X-120.203 Y-15.938
X-120.231 Y-15.912
X-120.267 Y-15.898
X-120.306 Y-15.899
X-120.342 Y-15.915
X-120.46 Y-15.998
X-120.973 Y-16.362
X-120.999 Y-16.39
X-121.013 Y-16.426
X-121.012 Y-16.465
X-120.996 Y-16.501
X-120.859 Y-16.68
X-120.838 Y-16.703
X-120.828 Y-16.713
X-120.77 Y-16.754
X-120.644 Y-16.835
X-120.497 Y-16.869
X-120.348 Y-16.861
X-120.203 Y-16.822
X-120.069 Y-16.755
X-119.956 Y-16.655
X-119.946 Y-16.64
X-119.897 Y-16.512
X-119.909 Y-16.376
X-119.981 Y-16.26
X-120.006 Y-16.242
X-120.036 Y-16.233
X-120.066 Y-16.234
X-120.096 Y-16.244
X-120.237 Y-16.317
X-120.755 Y-16.586
X-120.782 Y-16.606
X-120.8 Y-16.634
X-120.809 Y-16.666
X-120.806 Y-16.699
X-120.793 Y-16.73
X-120.77 Y-16.754
X-120.521 Y-16.932
X-120.395 Y-17.012
X-120.245 Y-17.028
X-120.098 Y-17.003
X-119.96 Y-16.943
X-119.843 Y-16.85
X-119.752 Y-16.73
X-119.747 Y-16.718
X-119.73 Y-16.594
X-119.765 Y-16.474
X-119.846 Y-16.378
X-119.907 Y-16.332
X-119.929 Y-16.312
X-119.981 Y-16.26
X-120.009 Y-16.241
X-120.04 Y-16.233
X-120.073 Y-16.235
X-120.104 Y-16.248
X-120.128 Y-16.271
X-120.15 Y-16.298
X-120.539 Y-16.79
X-120.557 Y-16.825
X-120.559 Y-16.865
X-120.547 Y-16.902
X-120.521 Y-16.932
X-120.436 Y-16.992
X-120.267 Y-17.087
X-120.133 Y-17.153
X-119.983 Y-17.154
X-119.84 Y-17.106
X-119.715 Y-17.025
X-119.613 Y-16.914
X-119.592 Y-16.871
X-119.561 Y-16.731
X-119.599 Y-16.592
X-119.697 Y-16.486
X-119.76 Y-16.445
X-119.846 Y-16.378
X-119.876 Y-16.364
X-119.909 Y-16.36
X-119.942 Y-16.367
X-119.97 Y-16.384
X-119.991 Y-16.41
X-120.302 Y-16.952
X-120.314 Y-16.988
X-120.312 Y-17.026
X-120.296 Y-17.061
X-120.267 Y-17.087
X-120.183 Y-17.134
X-120.098 Y-17.178
X-120.013 Y-17.22
X-119.944 Y-17.249
X-119.795 Y-17.26
X-119.652 Y-17.214
X-119.528 Y-17.131
X-119.434 Y-17.013
X-119.416 Y-16.972
X-119.39 Y-16.834
X-119.429 Y-16.7
X-119.525 Y-16.598
X-119.697 Y-16.486
X-119.729 Y-16.474
X-119.764 Y-16.473
X-119.797 Y-16.484
X-119.824 Y-16.506
X-119.842 Y-16.536
X-120.059 Y-17.095
X-120.066 Y-17.131
X-120.06 Y-17.166
X-120.042 Y-17.197
X-120.013 Y-17.22
X-119.844 Y-17.303
X-119.802 Y-17.321
X-119.655 Y-17.35
X-119.506 Y-17.329
X-119.376 Y-17.255
X-119.276 Y-17.143
X-119.208 Y-17.009
X-119.206 Y-17
X-119.213 Y-16.878
X-119.268 Y-16.769
X-119.362 Y-16.691
X-119.421 Y-16.659
X-119.506 Y-16.611
X-119.525 Y-16.598
X-119.559 Y-16.585
X-119.595
X-119.628 Y-16.597
X-119.655 Y-16.621
X-119.672 Y-16.652
X-119.853 Y-17.2
X-119.858 Y-17.235
X-119.85 Y-17.27
X-119.831 Y-17.3
X-119.802 Y-17.321
X-119.76 Y-17.332
X-119.506 Y-17.384
X-119.432 Y-17.395
X-119.283 Y-17.374
X-119.158 Y-17.292
X-119.102 Y-17.225
X-119.04 Y-17.099
X-119.043 Y-16.958
X-119.11 Y-16.834
X-119.226 Y-16.754
X-119.252 Y-16.743
X-119.337 Y-16.704
X-119.362 Y-16.691
X-119.398 Y-16.681
X-119.435 Y-16.685
X-119.468 Y-16.702
X-119.492 Y-16.73
X-119.504 Y-16.765
X-119.581 Y-17.271
X-119.58 Y-17.308
X-119.565 Y-17.342
X-119.539 Y-17.369
X-119.506 Y-17.384
X-119.278 Y-17.43
X-119.204 Y-17.438
X-119.057 Y-17.408
X-118.939 Y-17.314
X-118.866 Y-17.183
X-118.858 Y-17.141
X-118.856 Y-17.027
X-118.898 Y-16.92
X-118.977 Y-16.836
X-119.081 Y-16.789
X-119.226 Y-16.754
X-119.263 Y-16.748
X-119.3 Y-16.757
X-119.331 Y-16.779
X-119.351 Y-16.811
X-119.358 Y-16.849
X-119.355 Y-17.334
X-119.349 Y-17.366
X-119.333 Y-17.395
X-119.309 Y-17.417
X-119.278 Y-17.43
X-119.167 Y-17.446
X-119.083 Y-17.454
X-119.036 Y-17.457
X-118.961 Y-17.458
X-118.821 Y-17.405
X-118.718 Y-17.296
X-118.693 Y-17.231
X-118.672 Y-17.102
X-118.708 Y-16.976
X-118.794 Y-16.878
X-118.914 Y-16.825
X-118.998 Y-16.809
X-119.081 Y-16.789
X-119.119 Y-16.788
X-119.155 Y-16.803
X-119.183 Y-16.829
X-119.199 Y-16.864
X-119.2 Y-16.902
X-119.125 Y-17.373
X-119.115 Y-17.404
X-119.095 Y-17.43
X-119.068 Y-17.448
X-119.036 Y-17.457
X-118.829 Y-17.47
X-118.754 Y-17.472
X-118.615 Y-17.414
X-118.524 Y-17.295
X-118.505 Y-17.227
X-118.497 Y-17.1
X-118.542 Y-16.982
X-118.632 Y-16.893
X-118.751 Y-16.849
X-118.914 Y-16.825
X-118.953 Y-16.827
X-118.988 Y-16.843
X-119.015 Y-16.872
X-119.028 Y-16.909
X-119.026 Y-16.948
X-118.916 Y-17.395
X-118.904 Y-17.423
X-118.884 Y-17.446
X-118.859 Y-17.463
X-118.829 Y-17.47
X-118.744 Y-17.476
X-118.66 Y-17.479
X-118.613 Y-17.48
X-118.538 Y-17.476
X-118.408 Y-17.403
X-118.329 Y-17.275
X-118.304 Y-17.127
X-118.305 Y-17.12
X-118.354 Y-16.995
X-118.453 Y-16.904
X-118.583 Y-16.865
X-118.66 Y-16.86
X-118.751 Y-16.849
X-118.784 Y-16.851
X-118.815 Y-16.864
X-118.84 Y-16.886
X-118.856 Y-16.915
X-118.861 Y-16.948
X-118.856 Y-16.981
X-118.703 Y-17.413
X-118.683 Y-17.447
X-118.652 Y-17.47
X-118.613 Y-17.48
X-118.444 Y-17.481
X-118.384 Y-17.478
X-118.314 Y-17.452
X-118.196 Y-17.359
X-118.129 Y-17.225
X-118.127 Y-17.192
X-118.143 Y-17.076
X-118.203 Y-16.975
X-118.296 Y-16.905
X-118.409 Y-16.875
X-118.583 Y-16.865
X-118.621 Y-16.871
X-118.653 Y-16.892
X-118.676 Y-16.923
X-118.685 Y-16.96
X-118.68 Y-16.998
X-118.534 Y-17.414
X-118.514 Y-17.448
X-118.482 Y-17.471
X-118.444 Y-17.481
X-118.406
X-118.237 Y-17.469
X-118.162 Y-17.46
X-118.097 Y-17.424
X-117.989 Y-17.319
X-117.945 Y-17.176
X-117.948 Y-17.138
X-117.98 Y-17.026
X-118.053 Y-16.934
X-118.155 Y-16.877
X-118.272 Y-16.864
X-118.409 Y-16.875
X-118.449 Y-16.882
X-118.482 Y-16.904
X-118.504 Y-16.937
X-118.512 Y-16.976
X-118.503 Y-17.015
X-118.332 Y-17.409
X-118.309 Y-17.442
X-118.276 Y-17.463
X-118.237 Y-17.469
X-118.021 Y-17.454
X-117.984 Y-17.45
X-117.855 Y-17.374
X-117.779 Y-17.244
X-117.762 Y-17.095
X-117.768 Y-17.07
X-117.838 Y-16.94
X-117.962 Y-16.859
X-118.109 Y-16.847
X-118.152 Y-16.854
X-118.272 Y-16.864
X-118.309 Y-16.877
X-118.339 Y-16.903
X-118.357 Y-16.938
X-118.359 Y-16.978
X-118.346 Y-17.015
X-118.11 Y-17.406
X-118.087 Y-17.433
X-118.056 Y-17.449
X-118.021 Y-17.454
X-117.898 Y-17.445
X-117.852 Y-17.44
X-117.814 Y-17.435
X-117.777 Y-17.426
X-117.654 Y-17.341
X-117.586 Y-17.207
X-117.58 Y-17.057
X-117.588 Y-17.029
X-117.661 Y-16.902
X-117.785 Y-16.825
X-117.931 Y-16.815
X-118.109 Y-16.847
X-118.145 Y-16.862
X-118.173 Y-16.89
X-118.187 Y-16.926
Y-16.966
X-118.172 Y-17.002
X-117.904 Y-17.392
X-117.88 Y-17.417
X-117.848 Y-17.432
X-117.814 Y-17.435
X-117.645 Y-17.401
X-117.572 Y-17.382
X-117.454 Y-17.29
X-117.396 Y-17.151
X-117.4 Y-17.001
X-117.41 Y-16.973
X-117.489 Y-16.851
X-117.616 Y-16.781
X-117.762 Y-16.779
X-117.814 Y-16.791
X-117.898 Y-16.809
X-117.931 Y-16.815
X-117.966 Y-16.83
X-117.993 Y-16.857
X-118.008 Y-16.893
Y-16.931
X-117.994 Y-16.966
X-117.745 Y-17.356
X-117.719 Y-17.384
X-117.683 Y-17.4
X-117.645 Y-17.401
X-117.475 Y-17.367
X-117.403 Y-17.348
X-117.34 Y-17.307
X-117.246 Y-17.19
X-117.211 Y-17.044
X-117.233 Y-16.896
X-117.247 Y-16.871
X-117.318 Y-16.784
X-117.416 Y-16.729
X-117.527 Y-16.715
X-117.636 Y-16.742
X-117.663 Y-16.761
X-117.681 Y-16.788
X-117.69 Y-16.82
X-117.688 Y-16.853
X-117.589 Y-17.29
X-117.574 Y-17.325
X-117.548 Y-17.351
X-117.513 Y-17.366
X-117.475 Y-17.367
X-117.264 Y-17.324
X-117.243 Y-17.319
X-117.222 Y-17.312
X-117.155 Y-17.278
X-117.061 Y-17.161
X-117.022 Y-17.016
X-117.038 Y-16.867
X-117.099 Y-16.73
X-117.106 Y-16.723
X-117.214 Y-16.646
X-117.345 Y-16.623
X-117.472 Y-16.659
X-117.56 Y-16.707
X-117.636 Y-16.742
X-117.665 Y-16.764
X-117.684 Y-16.794
X-117.691 Y-16.83
X-117.685 Y-16.866
X-117.666 Y-16.897
X-117.325 Y-17.283
X-117.295 Y-17.306
X-117.259 Y-17.316
X-117.222 Y-17.312
X-117.111 Y-17.261
X-117.052 Y-17.233
X-116.986 Y-17.198
X-116.881 Y-17.091
X-116.841 Y-16.947
X-116.849 Y-16.797
X-116.907 Y-16.658
X-116.925 Y-16.637
X-117.044 Y-16.549
X-117.191 Y-16.528
X-117.33 Y-16.581
X-117.336 Y-16.585
X-117.472 Y-16.659
X-117.498 Y-16.682
X-117.516 Y-16.712
X-117.521 Y-16.746
X-117.515 Y-16.779
X-117.498 Y-16.809
X-117.169 Y-17.205
X-117.145 Y-17.226
X-117.115 Y-17.239
X-117.083 Y-17.241
X-117.052 Y-17.233
X-116.858 Y-17.141
X-116.791 Y-17.106
X-116.695 Y-16.991
X-116.66 Y-16.845
X-116.672 Y-16.695
X-116.734 Y-16.559
X-116.766 Y-16.521
X-116.886 Y-16.434
X-117.032 Y-16.415
X-117.17 Y-16.468
X-117.33 Y-16.581
X-117.353 Y-16.606
X-117.367 Y-16.636
X-117.369 Y-16.67
X-117.361 Y-16.702
X-117.342 Y-16.73
X-116.969 Y-17.118
X-116.945 Y-17.137
X-116.917 Y-17.147
X-116.887 Y-17.149
X-116.858 Y-17.141
X-116.714 Y-17.073
X-116.667 Y-17.046
X-116.613 Y-17.012
X-116.515 Y-16.899
X-116.479 Y-16.753
X-116.492 Y-16.604
X-116.552 Y-16.466
X-116.643 Y-16.347
X-116.662 Y-16.335
X-116.781 Y-16.288
X-116.908 Y-16.295
X-117.022 Y-16.354
X-117.052 Y-16.38
X-117.099 Y-16.416
X-117.17 Y-16.468
X-117.193 Y-16.492
X-117.207 Y-16.523
X-117.209 Y-16.557
X-117.2 Y-16.589
X-117.182 Y-16.617
X-116.786 Y-17.027
X-116.76 Y-17.046
X-116.73 Y-17.057
X-116.698
X-116.667 Y-17.046
X-116.629 Y-17.025
X-116.46 Y-16.911
X-116.4 Y-16.866
X-116.323 Y-16.737
X-116.308 Y-16.588
X-116.338 Y-16.441
X-116.402 Y-16.305
X-116.504 Y-16.196
X-116.522 Y-16.185
X-116.66 Y-16.142
X-116.802 Y-16.169
X-116.915 Y-16.259
X-116.931 Y-16.294
X-116.932 Y-16.334
X-116.918 Y-16.37
X-116.598 Y-16.879
X-116.571 Y-16.908
X-116.535 Y-16.924
X-116.497 Y-16.925
X-116.46 Y-16.911
X-116.291 Y-16.796
X-116.231 Y-16.751
X-116.154 Y-16.623
X-116.137 Y-16.474
X-116.149 Y-16.4
X-116.145 Y-16.307
X-116.112 Y-16.22
X-116.01 Y-16.064
X-115.727 Y-15.821
X-115.595 Y-15.752
X-115.579 Y-15.742
X-115.523 Y-15.696
X-115.479 Y-15.638
X-115.45 Y-15.57
X-115.449 Y-15.531
X-115.462 Y-15.494
X-115.489 Y-15.465
X-115.525 Y-15.449
X-115.565 Y-15.448
X-115.602 Y-15.462
X-115.63 Y-15.49
X-115.916 Y-15.908
X-116.138 Y-16.232
X-116.427 Y-16.655
X-116.442 Y-16.691
X-116.443 Y-16.73
X-116.428 Y-16.766
X-116.401 Y-16.794
X-116.366 Y-16.809
X-116.327 Y-16.81
X-116.291 Y-16.796
X-116.143 Y-16.695
X-116.118 Y-16.67
X-115.835 Y-16.332
X-115.783 Y-16.265
X-115.538 Y-15.86
X-115.53 Y-15.843
X-115.523 Y-15.825
X-115.403 Y-15.403
X-115.365 Y-15.156
X-115.368 Y-15.119
X-115.383 Y-15.087
X-115.409 Y-15.061
X-115.442 Y-15.047
X-115.659 Y-14.996
X-116.259 Y-14.856
X-116.293 Y-14.854
X-116.325 Y-14.863
X-116.353 Y-14.883
X-116.372 Y-14.91
X-116.381 Y-14.943
X-116.39 Y-15.065
X-116.405 Y-15.15
X-116.438 Y-15.318
X-116.46 Y-15.424
X-116.474 Y-15.487
X-116.51 Y-15.572
X-116.547 Y-15.656
X-116.629 Y-15.828
X-116.672 Y-15.91
X-116.841 Y-16.163
X-116.915 Y-16.259
X-116.931 Y-16.294
X-116.932 Y-16.333
X-116.918 Y-16.37
X-116.892 Y-16.398
X-116.861 Y-16.421 Z-0.982
X-116.834 Y-16.439 Z-0.961
X-116.817 Y-16.452 Z-0.928
X-116.81 Y-16.456 Z-0.89
G0 Z2
X-117.131 Y-12.833
Z-0.79
G1 Z-0.89 F1000
X-117.128 Y-12.826 Z-0.928
X-117.12 Y-12.806 Z-0.961
X-117.108 Y-12.776 Z-0.982
X-117.094 Y-12.74 Z-0.99
G3 X-116.889 Y-11.982 I-3.396 J1.326
G1 X-116.883 Y-11.936
X-116.861 Y-11.855
X-116.852 Y-11.819
X-116.857 Y-11.744
X-116.858 Y-11.742
X-116.937 Y-11.637
X-117.055 Y-11.577
X-117.187 Y-11.576
X-117.306 Y-11.632
X-117.398 Y-11.69
X-117.424 Y-11.714
X-117.441 Y-11.745
X-117.445 Y-11.78
X-117.437 Y-11.815
X-117.418 Y-11.844
X-117.389 Y-11.865
X-117.355 Y-11.875
X-116.961 Y-11.912
X-116.931 Y-11.91
X-116.902 Y-11.899
X-116.878 Y-11.88
X-116.861 Y-11.855
X-116.824 Y-11.771
X-116.809 Y-11.737
X-116.803 Y-11.662
X-116.868 Y-11.562
X-116.971 Y-11.502
X-117.091 Y-11.497
X-117.199 Y-11.547
X-117.306 Y-11.632
X-117.328 Y-11.658
X-117.34 Y-11.691
Y-11.725
X-117.329 Y-11.757
X-117.307 Y-11.784
X-117.277 Y-11.802
X-117.244 Y-11.808
X-116.91 Y-11.816
X-116.877 Y-11.811
X-116.847 Y-11.796
X-116.824 Y-11.771
X-116.799 Y-11.728
X-116.767 Y-11.686
X-116.745 Y-11.656
X-116.738 Y-11.582
X-116.798 Y-11.488
X-116.894 Y-11.432
X-117.005 Y-11.427
X-117.106 Y-11.474
X-117.199 Y-11.547
X-117.221 Y-11.574
X-117.233 Y-11.607
X-117.232 Y-11.642
X-117.22 Y-11.675
X-117.197 Y-11.701
X-117.166 Y-11.718
X-117.132 Y-11.723
X-116.835 Y-11.715
X-116.798 Y-11.707
X-116.767 Y-11.686
X-116.714 Y-11.63
X-116.688 Y-11.603
X-116.671 Y-11.53
Y-11.527
X-116.73 Y-11.419
X-116.836 Y-11.359
X-116.959 Y-11.364
X-117.06 Y-11.433
X-117.078 Y-11.462
X-117.085 Y-11.496
X-117.078 Y-11.529
G3 X-116.714 Y-11.63 I0.22 J0.086
G1 X-116.68 Y-11.602
X-116.652 Y-11.582
X-116.623 Y-11.559
X-116.598 Y-11.488
X-116.604 Y-11.413
X-116.679 Y-11.32
X-116.791 Y-11.276
X-116.909 Y-11.291
X-117.005 Y-11.364
X-117.06 Y-11.433
X-117.077 Y-11.466
X-117.081 Y-11.502
X-117.071 Y-11.538
X-117.05 Y-11.567
X-117.019 Y-11.587
X-116.983 Y-11.594
X-116.709 Y-11.599
X-116.679 Y-11.595
X-116.652 Y-11.582
X-116.629 Y-11.566
X-116.588 Y-11.539
X-116.558 Y-11.517
X-116.536 Y-11.487
X-116.513 Y-11.416
X-116.519 Y-11.341
X-116.605 Y-11.239
X-116.729 Y-11.194
X-116.86 Y-11.217
X-116.961 Y-11.303
X-116.993 Y-11.349
X-117.005 Y-11.364
X-117.02 Y-11.395
X-117.024 Y-11.429
X-117.016 Y-11.463
X-116.997 Y-11.492
X-116.969 Y-11.512
X-116.935 Y-11.522
X-116.651 Y-11.553
X-116.619 Y-11.551
X-116.588 Y-11.539
X-116.487 Y-11.473
X-116.456 Y-11.451
X-116.419 Y-11.386
X-116.418 Y-11.311
X-116.436 Y-11.238
X-116.535 Y-11.142
X-116.668 Y-11.104
X-116.803 Y-11.134
X-116.907 Y-11.225
X-116.961 Y-11.303
X-116.975 Y-11.334
X-116.977 Y-11.368
X-116.967 Y-11.401
X-116.947 Y-11.428
X-116.919 Y-11.448
X-116.886 Y-11.456
X-116.547 Y-11.487
X-116.516 Y-11.485
X-116.487 Y-11.473
X-116.398 Y-11.415
X-116.376 Y-11.401
X-116.348 Y-11.376
X-116.317 Y-11.307
Y-11.232
X-116.336 Y-11.16
X-116.338 Y-11.156
X-116.443 Y-11.049
X-116.586 Y-11.006
X-116.733 Y-11.038
X-116.845 Y-11.136
X-116.907 Y-11.225
X-116.921 Y-11.256
X-116.923 Y-11.29
X-116.913 Y-11.323
X-116.893 Y-11.351
X-116.865 Y-11.37
X-116.832 Y-11.379
X-116.437 Y-11.415
X-116.405 Y-11.413
X-116.376 Y-11.401
X-116.291 Y-11.332
X-116.263 Y-11.307
X-116.225 Y-11.243
X-116.218 Y-11.168
X-116.231 Y-11.094
X-116.293 Y-10.957
X-116.408 Y-10.862
X-116.42 Y-10.858
X-116.558 Y-10.85
X-116.685 Y-10.904
X-116.774 Y-11.01
X-116.818 Y-11.095
X-116.845 Y-11.136
X-116.86 Y-11.172
X-116.859 Y-11.212
X-116.842 Y-11.248
X-116.813 Y-11.275
X-116.776 Y-11.288
X-116.366 Y-11.351
X-116.327 Y-11.349
X-116.291 Y-11.332
X-116.183 Y-11.245
X-116.164 Y-11.23
X-116.141 Y-11.206
X-116.119 Y-11.176
X-116.088 Y-11.029
X-116.129 Y-10.884
X-116.215 Y-10.762
X-116.269 Y-10.729
X-116.385 Y-10.688
X-116.508 Y-10.696
X-116.617 Y-10.754
X-116.693 Y-10.85
X-116.774 Y-11.01
X-116.783 Y-11.045
X-116.779 Y-11.082
X-116.762 Y-11.114
X-116.735 Y-11.138
X-116.7 Y-11.15
X-116.226 Y-11.232
X-116.195
X-116.166 Y-11.223
X-116.141 Y-11.206
X-116.12 Y-11.18
X-116.056 Y-11.095
X-116.037 Y-11.068
X-115.998 Y-11.005
X-115.975 Y-10.856
X-116.019 Y-10.713
X-116.117 Y-10.599
X-116.244 Y-10.52
X-116.292 Y-10.508
X-116.409 Y-10.502
X-116.518 Y-10.541
X-116.605 Y-10.618
X-116.656 Y-10.723
X-116.684 Y-10.831
X-116.693 Y-10.85
X-116.702 Y-10.884
X-116.699 Y-10.919
X-116.683 Y-10.95
X-116.658 Y-10.975
X-116.626 Y-10.989
X-116.141 Y-11.106
X-116.102 Y-11.107
X-116.066 Y-11.094
X-116.037 Y-11.068
X-115.939 Y-10.926
X-115.924 Y-10.901
X-115.889 Y-10.834
X-115.865 Y-10.686
X-115.916 Y-10.545
X-116.01 Y-10.428
X-116.135 Y-10.345
X-116.277 Y-10.298
X-116.311 Y-10.297
X-116.449 Y-10.327
X-116.557 Y-10.417
X-116.613 Y-10.546
X-116.621 Y-10.588
X-116.656 Y-10.723
X-116.658 Y-10.755
X-116.65 Y-10.786
X-116.632 Y-10.813
X-116.607 Y-10.833
X-116.577 Y-10.843
X-116.026 Y-10.945
X-115.987
X-115.951 Y-10.929
X-115.924 Y-10.901
X-115.868 Y-10.805
X-115.855 Y-10.781
X-115.844 Y-10.757
X-115.815 Y-10.673
X-115.794 Y-10.601
X-115.796 Y-10.451
X-115.863 Y-10.317
X-115.968 Y-10.21
X-116.096 Y-10.131
X-116.241 Y-10.094
X-116.288
X-116.425 Y-10.128
X-116.531 Y-10.22
X-116.584 Y-10.352
X-116.606 Y-10.504
X-116.613 Y-10.546
X-116.611 Y-10.585
X-116.594 Y-10.62
X-116.564 Y-10.646
X-116.527 Y-10.659
X-115.921 Y-10.736
X-115.888 Y-10.735
X-115.857 Y-10.723
X-115.832 Y-10.701
X-115.815 Y-10.673
X-115.783 Y-10.582
X-115.749 Y-10.457
X-115.739 Y-10.419
X-115.723 Y-10.346
X-115.751 Y-10.199
X-115.833 Y-10.073
X-115.948 Y-9.976
X-116.083 Y-9.91
X-116.23 Y-9.883
X-116.289 Y-9.886
X-116.429 Y-9.93
X-116.532 Y-10.035
X-116.572 Y-10.176
X-116.574 Y-10.25
X-116.582 Y-10.335
X-116.584 Y-10.352
X-116.582 Y-10.384
X-116.57 Y-10.414
X-116.549 Y-10.439
X-116.521 Y-10.456
X-116.489 Y-10.462
X-115.838 Y-10.49
X-115.806 Y-10.486
X-115.776 Y-10.472
X-115.753 Y-10.449
X-115.739 Y-10.419
X-115.717 Y-10.335
X-115.699 Y-10.21
X-115.693 Y-10.166
X-115.687 Y-10.091
X-115.729 Y-9.947
X-115.822 Y-9.83
X-115.945 Y-9.743
X-116.084 Y-9.687
X-116.233 Y-9.669
X-116.382 Y-9.684
X-116.388 Y-9.687
X-116.49 Y-9.758
X-116.555 Y-9.864
X-116.57 Y-9.988
X-116.569 Y-9.997
Y-10.082
X-116.572 Y-10.176
X-116.567 Y-10.208
X-116.552 Y-10.236
X-116.529 Y-10.258
X-116.5 Y-10.272
X-116.468 Y-10.276
X-116.436 Y-10.275
X-115.788 Y-10.249
X-115.755 Y-10.242
X-115.726 Y-10.225
X-115.704 Y-10.198
X-115.693 Y-10.166
X-115.682 Y-10.082
X-115.673 Y-9.997
X-115.669 Y-9.951
X-115.666 Y-9.913
Y-9.892
X-115.689 Y-9.743
X-115.781 Y-9.625
X-115.901 Y-9.535
X-116.039 Y-9.475
X-116.186 Y-9.445
X-116.336 Y-9.45
X-116.378 Y-9.463
X-116.496 Y-9.532
X-116.571 Y-9.645
X-116.589 Y-9.78
X-116.584 Y-9.828
X-116.57 Y-9.988
X-116.558 Y-10.025
X-116.532 Y-10.055
X-116.497 Y-10.073
X-116.458 Y-10.075
X-116.394 Y-10.067
X-115.753 Y-9.985
X-115.72 Y-9.975
X-115.692 Y-9.954
X-115.674 Y-9.925
X-115.666 Y-9.892
X-115.699 Y-9.626
X-115.712 Y-9.553
X-115.783 Y-9.42
X-115.897 Y-9.324
X-116.033 Y-9.259
X-116.179 Y-9.225
X-116.329 Y-9.23
X-116.474 Y-9.268
X-116.489 Y-9.277
X-116.577 Y-9.361
X-116.625 Y-9.473
X-116.624 Y-9.595
X-116.592 Y-9.744
X-116.589 Y-9.78
X-116.579 Y-9.811
X-116.56 Y-9.838
X-116.534 Y-9.856
X-116.503 Y-9.866
X-116.471 Y-9.865
X-116.407 Y-9.853
X-115.78 Y-9.734
X-115.746 Y-9.72
X-115.719 Y-9.696
X-115.702 Y-9.663
X-115.699 Y-9.626
X-115.716 Y-9.49
X-115.732 Y-9.406
X-115.745 Y-9.359
X-115.794 Y-9.217
X-115.902 Y-9.114
X-116.036 Y-9.045
X-116.181 Y-9.009
X-116.331 Y-9.004
X-116.478 Y-9.035
X-116.513 Y-9.053
X-116.619 Y-9.141
X-116.676 Y-9.268
X-116.67 Y-9.406
X-116.646 Y-9.49
X-116.624 Y-9.595
X-116.607 Y-9.63
X-116.578 Y-9.657
X-116.54 Y-9.67
X-116.501 Y-9.667
X-116.424 Y-9.646
X-115.816 Y-9.48
X-115.781 Y-9.463
X-115.756 Y-9.434
X-115.743 Y-9.398
X-115.745 Y-9.359
X-115.818 Y-9.106
X-115.829 Y-9.068
X-115.836 Y-9.047
X-115.843 Y-9.027
X-115.866 Y-8.996
X-115.9 Y-8.976
X-115.939 Y-8.97
X-115.977 Y-8.98
X-116.008 Y-9.004
X-116.028 Y-9.039
X-116.033 Y-9.078
X-116.022 Y-9.115
Y-9.117
X-116 Y-9.146
X-115.969 Y-9.165
X-115.933 Y-9.171
X-115.897 Y-9.165
X-115.866 Y-9.146
X-115.844 Y-9.118
X-115.833 Y-9.083
X-115.836 Y-9.047
X-115.839 Y-9.036
X-115.843 Y-9.026
X-115.925 Y-8.9
X-116.058 Y-8.829
X-116.202 Y-8.791
X-116.352 Y-8.782
X-116.499 Y-8.811
X-116.636 Y-8.873
X-116.666 Y-8.898
X-116.744 Y-9.004
X-116.769 Y-9.132
X-116.738 Y-9.259
X-116.707 Y-9.321
X-116.67 Y-9.406
X-116.652 Y-9.432
X-116.626 Y-9.451
X-116.596 Y-9.461
X-116.564
X-116.533 Y-9.451
X-116.463 Y-9.415
X-115.907 Y-9.125
X-115.876 Y-9.101
X-115.857 Y-9.066
X-115.853 Y-9.027
X-115.865 Y-8.989
X-115.973 Y-8.815
X-115.989 Y-8.789
X-116.075 Y-8.666
X-116.21 Y-8.6
X-116.358 Y-8.576
X-116.507 Y-8.587
X-116.651 Y-8.631
X-116.778 Y-8.711
X-116.794 Y-8.728
X-116.859 Y-8.84
X-116.871 Y-8.968
X-116.828 Y-9.09
X-116.799 Y-9.138
X-116.738 Y-9.259
X-116.718 Y-9.285
X-116.69 Y-9.303
X-116.658 Y-9.311
X-116.626 Y-9.308
X-116.596 Y-9.295
X-116.552 Y-9.267
X-116.021 Y-8.923
X-115.994 Y-8.897
X-115.978 Y-8.863
X-115.976 Y-8.825
X-115.989 Y-8.789
X-116.037 Y-8.712
X-116.081 Y-8.646
X-116.182 Y-8.527
X-116.234 Y-8.472
X-116.368 Y-8.406
X-116.517 Y-8.388
X-116.665 Y-8.411
X-116.805 Y-8.466
X-116.924 Y-8.558
X-116.935 Y-8.572
X-116.987 Y-8.687
X-116.988 Y-8.812
X-116.937 Y-8.927
X-116.897 Y-8.984
X-116.828 Y-9.09
X-116.805 Y-9.115
X-116.774 Y-9.13
X-116.74 Y-9.134
X-116.706 Y-9.126
X-116.678 Y-9.108
X-116.661 Y-9.092
X-116.193 Y-8.662
X-116.171 Y-8.633
X-116.161 Y-8.597
X-116.165 Y-8.56
X-116.182 Y-8.527
X-116.331 Y-8.352
X-116.353 Y-8.328
X-116.478 Y-8.244
X-116.626 Y-8.217
X-116.775 Y-8.232
X-116.916 Y-8.283
X-117.036 Y-8.372
X-117.055 Y-8.395
X-117.113 Y-8.513
X-117.115 Y-8.645
X-117.06 Y-8.765
X-116.958 Y-8.899
X-116.937 Y-8.927
X-116.911 Y-8.951
X-116.878 Y-8.964
X-116.843 Y-8.965
X-116.81 Y-8.953
X-116.782 Y-8.931
X-116.774 Y-8.92
X-116.372 Y-8.448
X-116.355 Y-8.42
X-116.348 Y-8.388
X-116.352 Y-8.355
X-116.366 Y-8.325
X-116.389 Y-8.302
X-116.629 Y-8.141
X-116.694 Y-8.103
X-116.841 Y-8.075
X-116.988 Y-8.104
X-117.121 Y-8.174
X-117.227 Y-8.28
X-117.24 Y-8.304
X-117.273 Y-8.439
X-117.241 Y-8.574
X-117.152 Y-8.681
X-117.121 Y-8.695
X-117.088 Y-8.699
X-117.055 Y-8.691
X-117.027 Y-8.672
X-116.62 Y-8.296
X-116.599 Y-8.268
X-116.589 Y-8.234
X-116.591 Y-8.199
X-116.605 Y-8.167
X-116.629 Y-8.141
X-116.714 Y-8.089
X-116.857 Y-8.007
X-116.923 Y-7.973
X-117.073 Y-7.961
X-117.215 Y-8.009
X-117.337 Y-8.097
X-117.374 Y-8.15
X-117.422 Y-8.255
X-117.426 Y-8.371
X-117.386 Y-8.479
X-117.309 Y-8.565
X-117.152 Y-8.681
X-117.119 Y-8.696
X-117.083 Y-8.698
X-117.048 Y-8.687
X-117.02 Y-8.665
X-117.001 Y-8.633
X-116.816 Y-8.127
X-116.809 Y-8.093
X-116.815 Y-8.06
X-116.831 Y-8.03
X-116.857 Y-8.007
X-116.922 Y-7.97
X-116.968 Y-7.947
X-117.052 Y-7.907
X-117.122 Y-7.879
X-117.271 Y-7.867
X-117.411 Y-7.921
X-117.524 Y-8.02
X-117.598 Y-8.15
X-117.599 Y-8.153
Y-8.279
X-117.548 Y-8.393
X-117.454 Y-8.477
X-117.391 Y-8.513
X-117.309 Y-8.565
X-117.275 Y-8.58
X-117.237 Y-8.581
X-117.202 Y-8.569
X-117.174 Y-8.545
X-117.156 Y-8.513
X-117.002 Y-8.026
X-116.998 Y-7.992
X-117.006 Y-7.958
X-117.024 Y-7.928
X-117.052 Y-7.907
X-117.254 Y-7.813
X-117.28 Y-7.801
X-117.306 Y-7.79
X-117.38 Y-7.779
X-117.528 Y-7.802
X-117.654 Y-7.884
X-117.699 Y-7.94
X-117.757 Y-8.059
X-117.759 Y-8.19
X-117.704 Y-8.31
X-117.603 Y-8.395
X-117.56 Y-8.417
X-117.454 Y-8.477
X-117.417 Y-8.488
X-117.379 Y-8.484
X-117.345 Y-8.466
X-117.32 Y-8.437
X-117.308 Y-8.4
X-117.249 Y-7.892
X-117.25 Y-7.861
X-117.261 Y-7.832
X-117.28 Y-7.807
X-117.306 Y-7.79
X-117.522 Y-7.747
X-117.596 Y-7.736
X-117.744 Y-7.762
X-117.81 Y-7.814
X-117.89 Y-7.91
X-117.925 Y-8.03
X-117.908 Y-8.154
X-117.843 Y-8.261
X-117.74 Y-8.332
X-117.603 Y-8.395
X-117.565 Y-8.404
X-117.526 Y-8.398
X-117.492 Y-8.378
X-117.469 Y-8.346
X-117.46 Y-8.308
X-117.445 Y-7.847
X-117.45 Y-7.813
X-117.465 Y-7.783
X-117.49 Y-7.76
X-117.522 Y-7.747
X-117.729 Y-7.705
X-117.803 Y-7.695
X-117.876 Y-7.714
X-118.005 Y-7.791
X-118.087 Y-7.916
X-118.094 Y-7.946
X-118.095 Y-8.062
X-118.053 Y-8.171
X-117.972 Y-8.255
X-117.865 Y-8.302
X-117.814 Y-8.314
X-117.74 Y-8.332
X-117.703 Y-8.333
X-117.668 Y-8.32
X-117.64 Y-8.296
X-117.623 Y-8.263
X-117.619 Y-8.227
X-117.652 Y-7.795
X-117.66 Y-7.765
X-117.676 Y-7.738
X-117.7 Y-7.717
X-117.729 Y-7.705
X-117.814 Y-7.689
X-117.898 Y-7.68
X-117.945 Y-7.677
X-118.02 Y-7.675
X-118.089 Y-7.704
X-118.21 Y-7.793
X-118.277 Y-7.927
X-118.278 Y-7.949
X-118.255 Y-8.092
X-118.167 Y-8.207
X-118.036 Y-8.267
X-117.898 Y-8.294
X-117.865 Y-8.302
X-117.825 Y-8.301
X-117.789 Y-8.285
X-117.762 Y-8.256
X-117.748 Y-8.218
X-117.75 Y-8.179
X-117.859 Y-7.751
X-117.871 Y-7.724
X-117.89 Y-7.701
X-117.916 Y-7.684
X-117.945 Y-7.677
X-118.152 Y-7.662
X-118.227 Y-7.661
X-118.359 Y-7.733
X-118.44 Y-7.859
X-118.446 Y-7.89
X-118.443 Y-8.015
X-118.389 Y-8.128
X-118.293 Y-8.21
X-118.173 Y-8.245
X-118.152 Y-8.246
X-118.036 Y-8.267
X-118.002
X-117.97 Y-8.255
X-117.944 Y-8.233
X-117.927 Y-8.203
X-117.921 Y-8.17
X-117.926 Y-8.136
X-118.068 Y-7.729
X-118.087 Y-7.696
X-118.116 Y-7.673
X-118.152 Y-7.662
X-118.321 Y-7.651
X-118.396 Y-7.65
X-118.465 Y-7.68
X-118.578 Y-7.779
X-118.631 Y-7.919
Y-7.94
X-118.592 Y-8.08
X-118.491 Y-8.186
X-118.353 Y-8.231
X-118.173 Y-8.245
X-118.134 Y-8.238
X-118.1 Y-8.217
X-118.077 Y-8.185
X-118.069 Y-8.146
X-118.077 Y-8.107
X-118.239 Y-7.712
X-118.258 Y-7.682
X-118.287 Y-7.661
X-118.321 Y-7.651
X-118.406 Y-7.645
X-118.537 Y-7.651
X-118.612 Y-7.659
X-118.674 Y-7.701
X-118.775 Y-7.812
X-118.809 Y-7.958
X-118.806 Y-7.977
X-118.75 Y-8.112
X-118.636 Y-8.204
X-118.492 Y-8.232
X-118.406 Y-8.227
X-118.353 Y-8.231
X-118.319 Y-8.227
X-118.289 Y-8.211
X-118.265 Y-8.186
X-118.252 Y-8.154
X-118.25 Y-8.12
X-118.259 Y-8.087
X-118.446 Y-7.707
X-118.468 Y-7.677
X-118.5 Y-7.658
X-118.537 Y-7.651
X-118.706 Y-7.66
X-118.781 Y-7.668
X-118.907 Y-7.75
X-118.934 Y-7.8
X-118.968 Y-7.921
X-118.95 Y-8.046
X-118.882 Y-8.153
X-118.777 Y-8.222
X-118.652 Y-8.241
X-118.492 Y-8.232
X-118.455 Y-8.221
X-118.424 Y-8.196
X-118.406 Y-8.161
X-118.402 Y-8.122
X-118.414 Y-8.085
X-118.616 Y-7.712
X-118.639 Y-7.684
X-118.67 Y-7.666
X-118.706 Y-7.66
X-118.876 Y-7.671
X-118.95 Y-7.68
X-119.013 Y-7.721
X-119.113 Y-7.832
X-119.148 Y-7.978
X-119.143 Y-8.012
X-119.103 Y-8.122
X-119.023 Y-8.208
X-118.917 Y-8.257
X-118.8 Y-8.262
X-118.744 Y-8.253
X-118.66 Y-8.242
X-118.652 Y-8.241
X-118.614 Y-8.23
X-118.583 Y-8.204
X-118.565 Y-8.169
X-118.562 Y-8.13
X-118.574 Y-8.092
X-118.786 Y-7.722
X-118.809 Y-7.694
X-118.84 Y-7.676
X-118.876 Y-7.671
X-118.998 Y-7.681
X-119.083 Y-7.695
X-119.156 Y-7.712
X-119.27 Y-7.809
X-119.322 Y-7.95
X-119.318 Y-8.1
X-119.314 Y-8.109
X-119.236 Y-8.221
X-119.116 Y-8.287
X-118.979 Y-8.292
X-118.914 Y-8.28
X-118.8 Y-8.262
X-118.764 Y-8.247
X-118.736 Y-8.219
X-118.721 Y-8.183
Y-8.144
X-118.736 Y-8.108
X-118.987 Y-7.738
X-119.013 Y-7.712
X-119.046 Y-7.697
X-119.083 Y-7.695
X-119.252 Y-7.724
X-119.325 Y-7.742
X-119.385 Y-7.786
X-119.475 Y-7.906
X-119.509 Y-8.053
X-119.481 Y-8.201
X-119.391 Y-8.294
X-119.27 Y-8.34
X-119.141 Y-8.332
X-119.083 Y-8.315
X-118.979 Y-8.292
X-118.944 Y-8.277
X-118.918 Y-8.25
X-118.903 Y-8.215
Y-8.176
X-118.917 Y-8.141
X-119.154 Y-7.769
X-119.18 Y-7.742
X-119.214 Y-7.726
X-119.252 Y-7.724
X-119.421 Y-7.757
X-119.494 Y-7.776
X-119.616 Y-7.863
X-119.679 Y-7.999
X-119.694 Y-8.148
X-119.648 Y-8.291
X-119.641 Y-8.3
X-119.535 Y-8.387
X-119.401 Y-8.418
X-119.268 Y-8.386
X-119.252 Y-8.378
X-119.167 Y-8.34
X-119.141 Y-8.332
X-119.109 Y-8.314
X-119.086 Y-8.287
X-119.074 Y-8.254
Y-8.218
X-119.087 Y-8.185
X-119.32 Y-7.804
X-119.346 Y-7.775
X-119.382 Y-7.759
X-119.421 Y-7.757
X-119.58 Y-7.789
X-119.59 Y-7.793
X-119.646 Y-7.818
X-119.675 Y-7.831
X-119.741 Y-7.867
X-119.838 Y-7.981
X-119.876 Y-8.126
X-119.866 Y-8.276
X-119.801 Y-8.411
X-119.796 Y-8.417
X-119.69 Y-8.488
X-119.565 Y-8.508
X-119.443 Y-8.475
X-119.268 Y-8.386
X-119.24 Y-8.363
X-119.222 Y-8.333
X-119.216 Y-8.298
X-119.222 Y-8.264
X-119.24 Y-8.233
X-119.56 Y-7.859
X-119.584 Y-7.838
X-119.613 Y-7.826
X-119.644 Y-7.824
X-119.675 Y-7.831
X-119.844 Y-7.91
X-119.91 Y-7.945
X-120.016 Y-8.052
X-120.06 Y-8.195
X-120.051 Y-8.345
X-119.992 Y-8.483
X-119.972 Y-8.507
X-119.853 Y-8.592
X-119.707 Y-8.61
X-119.57 Y-8.557
X-119.506 Y-8.512
X-119.443 Y-8.475
X-119.416 Y-8.453
X-119.399 Y-8.423
X-119.392 Y-8.389
X-119.398 Y-8.355
X-119.414 Y-8.325
X-119.727 Y-7.939
X-119.751 Y-7.918
X-119.781 Y-7.905
X-119.813 Y-7.903
X-119.844 Y-7.91
X-119.929 Y-7.95
X-119.969 Y-7.97
X-120.071 Y-8.025
X-120.136 Y-8.064
X-120.217 Y-8.19
X-120.238 Y-8.339
X-120.213 Y-8.487
X-120.14 Y-8.617
X-120.116 Y-8.641
X-119.997 Y-8.713
X-119.859 Y-8.724
X-119.731 Y-8.672
X-119.57 Y-8.557
X-119.546 Y-8.532
X-119.533 Y-8.5
X-119.531 Y-8.465
X-119.542 Y-8.432
X-119.563 Y-8.404
X-119.96 Y-8.041
X-119.994 Y-8.021
X-120.033 Y-8.015
X-120.071 Y-8.025
X-120.125 Y-8.054
X-120.183 Y-8.089
X-120.256 Y-8.139
X-120.317 Y-8.184
X-120.393 Y-8.313
X-120.409 Y-8.462
X-120.378 Y-8.609
X-120.302 Y-8.738
X-120.264 Y-8.774
X-120.167 Y-8.837
X-120.054 Y-8.858
X-119.94 Y-8.835
X-119.844 Y-8.771
X-119.803 Y-8.73
X-119.76 Y-8.692
X-119.731 Y-8.672
X-119.707 Y-8.646
X-119.694 Y-8.614
X-119.693 Y-8.579
X-119.704 Y-8.545
X-119.725 Y-8.518
X-120.137 Y-8.149
X-120.164 Y-8.132
X-120.195 Y-8.124
X-120.227 Y-8.127
X-120.256 Y-8.139
X-120.412 Y-8.243
X-120.472 Y-8.288
X-120.56 Y-8.41
X-120.582 Y-8.558
X-120.555 Y-8.706
X-120.485 Y-8.839
X-120.384 Y-8.949
X-120.337 Y-8.977
X-120.196 Y-9.02
X-120.052 Y-8.99
X-119.939 Y-8.895
X-119.881 Y-8.815
X-119.844 Y-8.771
X-119.827 Y-8.738
X-119.824 Y-8.7
X-119.834 Y-8.664
X-119.857 Y-8.634
X-120.294 Y-8.253
X-120.321 Y-8.236
X-120.351 Y-8.228
X-120.383 Y-8.231
X-120.412 Y-8.243
X-120.521 Y-8.316
X-120.541 Y-8.332
X-120.646 Y-8.455
X-120.692 Y-8.514
X-120.736 Y-8.658
X-120.721 Y-8.807
X-120.664 Y-8.946
X-120.574 Y-9.065
X-120.454 Y-9.156
X-120.41 Y-9.173
X-120.27 Y-9.193
X-120.136 Y-9.146
X-120.039 Y-9.043
X-120.013 Y-8.999
X-119.939 Y-8.895
X-119.925 Y-8.866
X-119.922 Y-8.833
X-119.93 Y-8.802
X-119.947 Y-8.774
X-119.972 Y-8.753
X-120.522 Y-8.436
X-120.554 Y-8.424
X-120.588
X-120.62 Y-8.434
X-120.646 Y-8.455
X-120.737 Y-8.561
X-120.797 Y-8.646
X-120.837 Y-8.709
X-120.872 Y-8.855
X-120.847 Y-9.003
X-120.781 Y-9.138
X-120.685 Y-9.253
X-120.562 Y-9.338
X-120.51 Y-9.358
X-120.37 Y-9.376
X-120.237 Y-9.328
X-120.141 Y-9.224
X-120.039 Y-9.043
X-120.028 Y-9.005
X-120.032 Y-8.966
X-120.052 Y-8.931
X-120.083 Y-8.907
X-120.092 Y-8.902
X-120.673 Y-8.616
X-120.706 Y-8.607
X-120.74 Y-8.609
X-120.772 Y-8.622
X-120.797 Y-8.646
X-120.915 Y-8.815
X-120.992 Y-8.943
X-120.998 Y-9.093
X-120.954 Y-9.237
X-120.873 Y-9.363
X-120.765 Y-9.468
X-120.635 Y-9.542
X-120.579 Y-9.558
X-120.436 Y-9.564
X-120.307 Y-9.503
X-120.22 Y-9.39
X-120.19 Y-9.321
X-120.148 Y-9.237
X-120.141 Y-9.224
X-120.13 Y-9.186
X-120.135 Y-9.147
X-120.154 Y-9.113
X-120.185 Y-9.089
X-120.212 Y-9.075
X-120.79 Y-8.785
X-120.824 Y-8.775
X-120.858 Y-8.777
X-120.89 Y-8.791
X-120.915 Y-8.815
X-120.944 Y-8.858
X-121.04 Y-9.014
X-121.048 Y-9.032
X-121.06 Y-9.068
X-121.074 Y-9.114
X-121.108 Y-9.26
X-121.071 Y-9.406
X-120.995 Y-9.535
X-120.892 Y-9.644
X-120.765 Y-9.724
X-120.623 Y-9.773
X-120.568 Y-9.775
X-120.431 Y-9.749
X-120.321 Y-9.664
X-120.261 Y-9.539
X-120.251 Y-9.49
X-120.227 Y-9.406
X-120.22 Y-9.39
X-120.213 Y-9.358
X-120.217 Y-9.325
X-120.231 Y-9.296
X-120.254 Y-9.272
X-120.283 Y-9.258
X-120.348 Y-9.238
X-120.949 Y-9.05
X-120.987 Y-9.046
X-121.024 Y-9.057
X-121.055 Y-9.081
X-121.074 Y-9.114
X-121.147 Y-9.368
X-121.158 Y-9.406
X-121.168 Y-9.48
X-121.138 Y-9.627
X-121.06 Y-9.755
X-120.952 Y-9.859
X-120.824 Y-9.938
X-120.68 Y-9.981
X-120.621 Y-9.985
X-120.48 Y-9.96
X-120.366 Y-9.873
X-120.305 Y-9.744
X-120.261 Y-9.539
Y-9.506
X-120.27 Y-9.476
X-120.29 Y-9.449
X-120.316 Y-9.431
X-120.348 Y-9.422
X-120.407 Y-9.415
X-121.051 Y-9.338
X-121.085 Y-9.339
X-121.116 Y-9.353
X-121.142 Y-9.376
X-121.158 Y-9.406
X-121.174 Y-9.49
X-121.195 Y-9.659
X-121.201 Y-9.734
X-121.167 Y-9.88
X-121.082 Y-10.004
X-120.966 Y-10.1
X-120.832 Y-10.167
X-120.686 Y-10.198
X-120.536 Y-10.195
X-120.532 Y-10.194
X-120.429 Y-10.138
X-120.355 Y-10.046
X-120.322 Y-9.933
X-120.313 Y-9.828
X-120.305 Y-9.744
X-120.309 Y-9.706
X-120.328 Y-9.672
X-120.359 Y-9.648
X-120.395 Y-9.638
X-120.454 Y-9.632
X-121.087 Y-9.576
X-121.124 Y-9.579
X-121.158 Y-9.596
X-121.182 Y-9.624
X-121.195 Y-9.659
X-121.224 Y-9.892
X-121.223 Y-9.913
X-121.22 Y-9.959
X-121.201 Y-10.108
X-121.113 Y-10.229
X-120.995 Y-10.321
X-120.859 Y-10.385
X-120.713 Y-10.421
X-120.564 Y-10.418
X-120.544 Y-10.412
X-120.429 Y-10.349
X-120.351 Y-10.243
X-120.327 Y-10.114
X-120.328 Y-10.082
X-120.327 Y-9.997
X-120.322 Y-9.933
X-120.326 Y-9.9
X-120.34 Y-9.87
X-120.363 Y-9.847
X-120.393 Y-9.832
X-120.426 Y-9.828
X-120.496 Y-9.831
X-121.124 Y-9.855
X-121.162 Y-9.864
X-121.194 Y-9.887
X-121.214 Y-9.921
X-121.22 Y-9.959
X-121.217 Y-9.997
X-121.208 Y-10.082
X-121.192 Y-10.212
X-121.165 Y-10.36
X-121.076 Y-10.48
X-120.954 Y-10.568
X-120.814 Y-10.622
X-120.665 Y-10.644
X-120.516 Y-10.626
X-120.499 Y-10.618
X-120.397 Y-10.547
X-120.332 Y-10.44
X-120.317 Y-10.317
X-120.322 Y-10.25
X-120.327 Y-10.114
X-120.334 Y-10.082
X-120.351 Y-10.055
X-120.376 Y-10.034
X-120.407 Y-10.023
X-120.439 Y-10.021
X-120.478 Y-10.026
X-121.104 Y-10.104
X-121.141 Y-10.116
X-121.17 Y-10.141
X-121.188 Y-10.174
X-121.192 Y-10.212
X-121.175 Y-10.335
X-121.154 Y-10.419
X-121.131 Y-10.504
X-121.121 Y-10.539
X-121.097 Y-10.61
X-121.005 Y-10.728
X-120.878 Y-10.808
X-120.734 Y-10.849
X-120.584 Y-10.856
X-120.438 Y-10.821
X-120.434 Y-10.818
X-120.344 Y-10.738
X-120.294 Y-10.628
X-120.29 Y-10.508
X-120.315 Y-10.335
X-120.317 Y-10.317
X-120.327 Y-10.283
X-120.348 Y-10.255
X-120.377 Y-10.236
X-120.411 Y-10.229
X-120.445 Y-10.233
X-120.448 Y-10.234
X-121.054 Y-10.419
X-121.087 Y-10.437
X-121.111 Y-10.465
X-121.123 Y-10.501
X-121.121 Y-10.539
X-121.107 Y-10.588
X-121.08 Y-10.673
X-121.048 Y-10.769
X-121.042 Y-10.781
X-121.029 Y-10.806
X-120.947 Y-10.932
X-120.822 Y-11.015
X-120.678 Y-11.057
X-120.528 Y-11.063
X-120.384 Y-11.022
X-120.38 Y-11.019
X-120.29 Y-10.932
X-120.244 Y-10.815
X-120.25 Y-10.69
X-120.276 Y-10.588
X-120.29 Y-10.508
X-120.303 Y-10.476
X-120.327 Y-10.45
X-120.358 Y-10.434
X-120.392 Y-10.429
X-120.427 Y-10.437
X-120.979 Y-10.667
X-121.007 Y-10.684
X-121.027 Y-10.71
X-121.038 Y-10.741
X-121.039 Y-10.774
X-121.029 Y-10.806
X-120.958 Y-10.926
X-120.859 Y-11.069
X-120.841 Y-11.095
X-120.824 Y-11.121
X-120.732 Y-11.24
X-120.648 Y-11.28
X-120.581 Y-11.344
X-120.537 Y-11.409
X-120.52 Y-11.432
X-120.501 Y-11.452
X-120.48 Y-11.471
X-120.447 Y-11.488
X-120.409 Y-11.491
X-120.374 Y-11.481
X-120.344 Y-11.458
X-120.325 Y-11.426
X-120.319 Y-11.389
X-120.327 Y-11.353
X-120.348 Y-11.322
X-120.668 Y-10.997
X-120.698 Y-10.976
X-120.734 Y-10.967
X-120.77 Y-10.971
X-120.802 Y-10.989
X-120.826 Y-11.016
X-120.838 Y-11.05
X-120.837 Y-11.087
X-120.824 Y-11.121
X-120.775 Y-11.191
X-120.718 Y-11.264
X-120.606 Y-11.366
X-120.521 Y-11.437
X-120.436 Y-11.507
X-120.183 Y-11.7
X-120.164 Y-11.714
X-120.113 Y-11.771
X-120.098 Y-11.793
X-120.06 Y-11.855
X-120.024 Y-11.94
X-120.013 Y-11.978
X-120.004 Y-12.024
X-119.994 Y-12.058
X-119.974 Y-12.086
X-119.945 Y-12.105
X-119.912 Y-12.113
X-119.877 Y-12.11
X-119.846 Y-12.095
X-119.507 Y-11.849
X-119.481 Y-11.822
X-119.467 Y-11.788
Y-11.75
X-119.48 Y-11.715
X-119.506 Y-11.688
X-119.59 Y-11.63
X-119.741 Y-11.517
X-119.76 Y-11.503
X-119.837 Y-11.433
X-119.904 Y-11.349
X-120.013 Y-11.199
X-120.079 Y-11.095
X-120.213 Y-10.831
X-120.25 Y-10.69
X-120.262 Y-10.664
X-120.28 Y-10.642
X-120.316 Y-10.629 Z-0.982
X-120.346 Y-10.618 Z-0.961
X-120.367 Y-10.621 Z-0.928
X-120.374 Y-10.622 Z-0.89
G0 Z2
X-112.717 Y-12.663
Z0.5
G3 X-112.232 Y-12.788 Z0.29 I0.242 J-0.062 F333.3
X-112.717 Y-12.663 Z0.079 I-0.242 J0.062
X-112.232 Y-12.788 Z-0.131 I0.242 J-0.062
X-112.717 Y-12.663 Z-0.342 I-0.242 J0.062
X-112.232 Y-12.788 Z-0.552 I0.242 J-0.062
X-112.717 Y-12.663 Z-0.763 I-0.242 J0.062
X-112.506 Y-12.973 Z-0.876 I0.242 J-0.062
X-112.224 Y-12.725 Z-0.99 I0.031 J0.248
X-112.724 I-0.25
X-112.224 I0.25
G1 X-112.187 Y-12.58 F1000
X-112.2 Y-12.506
X-112.237 Y-12.441
X-112.344 Y-12.336
X-112.489 Y-12.296
X-112.637 Y-12.317
X-112.768 Y-12.391
X-112.864 Y-12.506
X-112.916 Y-12.647
X-112.919 Y-12.797
X-112.871 Y-12.939
X-112.779 Y-13.057
X-112.653 Y-13.139
X-112.508 Y-13.175
X-112.358 Y-13.161
X-112.222 Y-13.099
X-112.113 Y-12.995
X-112.035 Y-12.867
X-111.985 Y-12.726
X-111.974 Y-12.576
X-112.009 Y-12.43
X-112.08 Y-12.298
X-112.188 Y-12.194
X-112.319 Y-12.121
X-112.466 Y-12.088
X-112.615 Y-12.095
X-112.76 Y-12.136
X-112.889 Y-12.212
X-112.996 Y-12.317
X-113.078 Y-12.443
X-113.127 Y-12.585
X-113.142 Y-12.734
X-113.125 Y-12.883
X-113.075 Y-13.024
X-112.992 Y-13.149
X-112.886 Y-13.255
X-112.758 Y-13.334
X-112.616 Y-13.38
X-112.467 Y-13.397
X-112.318 Y-13.379
X-112.177 Y-13.326
X-112.05 Y-13.246
X-111.942 Y-13.143
X-111.854 Y-13.021
X-111.791 Y-12.884
X-111.753 Y-12.739
X-111.745 Y-12.59
X-111.767 Y-12.441
X-111.775 Y-12.421
X-111.81 Y-12.35
X-111.862 Y-12.291
X-111.929 Y-12.248
X-111.976 Y-12.222
X-112.018 Y-12.193
X-112.061 Y-12.155
X-112.105 Y-12.109
X-112.127 Y-12.079
X-112.223 Y-11.963
X-112.36 Y-11.901
X-112.507 Y-11.874
X-112.657 Y-11.876
X-112.803 Y-11.91
X-112.94 Y-11.972
X-113.063 Y-12.057
X-113.076 Y-12.07
X-113.124 Y-12.13
X-113.155 Y-12.2
X-113.167 Y-12.276
X-113.173 Y-12.531
X-113.176 Y-12.784
Y-12.869
X-113.173 Y-13.038
X-113.162 Y-13.187
X-113.096 Y-13.322
X-112.997 Y-13.435
X-112.875 Y-13.522
X-112.738 Y-13.583
X-112.592 Y-13.618
X-112.442 Y-13.629
X-112.293 Y-13.613
X-112.237 Y-13.596
X-112.145 Y-13.552
X-112.074 Y-13.479
X-112.031 Y-13.387
X-112.028 Y-13.376
X-112.01 Y-13.333
X-111.99 Y-13.291
X-111.846 Y-13.038
X-111.797 Y-12.953
X-111.741 Y-12.869
X-111.671 Y-12.784
X-111.582 Y-12.664
X-111.58 Y-12.653
X-111.581 Y-12.537
X-111.624 Y-12.429
X-111.703 Y-12.343
X-111.807 Y-12.292
X-111.841 Y-12.29
X-111.874 Y-12.299
X-111.902 Y-12.319
X-111.921 Y-12.347
X-111.93 Y-12.38
X-111.928 Y-12.414
X-111.843 Y-12.743
X-111.828 Y-12.776
X-111.802 Y-12.801
X-111.77 Y-12.815
X-111.734 Y-12.817
X-111.699 Y-12.807
X-111.671 Y-12.784
X-111.553 Y-12.642
X-111.53 Y-12.616
X-111.512 Y-12.594
X-111.488 Y-12.566
X-111.465 Y-12.536
X-111.496 Y-12.422
X-111.579 Y-12.338
X-111.693 Y-12.306
X-111.732 Y-12.313
X-111.767 Y-12.333
X-111.793 Y-12.362
X-111.808 Y-12.399
G3 X-111.488 Y-12.566 I0.182 J-0.04
G1 X-111.458 Y-12.531
X-111.436 Y-12.507
X-111.407 Y-12.476
X-111.384 Y-12.451
X-111.375 Y-12.436
X-111.377 Y-12.427
X-111.392 Y-12.396
X-111.417 Y-12.371
X-111.45 Y-12.357
X-111.485 Y-12.354
X-111.518 Y-12.364
X-112.054 Y-12.633
X-112.13 Y-12.671
X-112.16 Y-12.693
X-112.179 Y-12.725
X-112.186 Y-12.761
X-112.178 Y-12.797
X-112.159 Y-12.828
X-112.129 Y-12.85
X-112.093 Y-12.86
X-112.057 Y-12.856
G3 X-111.384 Y-12.451 I-0.455 J1.516
G1 X-111.375 Y-12.436
X-111.37 Y-12.425
X-111.366 Y-12.415
X-111.363 Y-12.391
Y-12.383
X-111.373 Y-12.356
X-111.395 Y-12.336
X-111.423 Y-12.328
X-111.451 Y-12.333
X-111.475 Y-12.349
X-111.489 Y-12.375
X-111.491 Y-12.404
X-111.479 Y-12.431
X-111.457 Y-12.45
X-111.429 Y-12.457
X-111.401 Y-12.452
X-111.38 Y-12.437
X-111.366 Y-12.415
X-111.364 Y-12.404
X-111.363 Y-12.394
Y-12.383
X-111.364 Y-12.373
X-111.366 Y-12.362
X-111.373 Y-12.345
X-111.384 Y-12.327
X-111.399 Y-12.311
X-111.415 Y-12.294
X-111.431 Y-12.284
X-111.446 Y-12.278
X-111.458 Y-12.275
X-111.469 Y-12.273
X-111.488
X-111.508 Y-12.278
X-111.553 Y-12.291
X-112.277 Y-12.596
X-112.494 Y-12.687
X-113.112 Y-12.947
X-113.143 Y-12.969
X-113.165 Y-13
X-113.173 Y-13.038
X-113.171 Y-13.122
X-113.161 Y-13.355
X-113.147 Y-13.505
X-113.06 Y-13.627
X-112.945 Y-13.723
X-112.813 Y-13.794
X-112.67 Y-13.842
X-112.522 Y-13.865
X-112.372
X-112.328 Y-13.857
X-112.22 Y-13.815
X-112.137 Y-13.735
X-112.089 Y-13.629
X-112.051 Y-13.46
X-112.031 Y-13.387
X-112.029 Y-13.352
X-112.04 Y-13.318
X-112.062 Y-13.29
X-112.092 Y-13.271
X-112.127 Y-13.264
X-112.433 Y-13.261
X-113.06 Y-13.254
X-113.098 Y-13.262
X-113.131 Y-13.284
X-113.153 Y-13.316
X-113.161 Y-13.355
X-113.15 Y-13.591
X-113.136 Y-13.74
X-113.054 Y-13.866
X-112.939 Y-13.963
X-112.807 Y-14.033
X-112.664 Y-14.08
X-112.516 Y-14.103
X-112.366 Y-14.097
X-112.353 Y-14.094
X-112.25 Y-14.044
X-112.173 Y-13.96
X-112.134 Y-13.853
X-112.125 Y-13.798
X-112.109 Y-13.714
X-112.089 Y-13.629
Y-13.595
X-112.1 Y-13.562
X-112.122 Y-13.535
X-112.151 Y-13.517
X-112.185 Y-13.51
X-112.423 Y-13.505
X-113.048 Y-13.49
X-113.08 Y-13.495
X-113.108 Y-13.509
X-113.131 Y-13.531
X-113.145 Y-13.56
X-113.15 Y-13.591
X-113.144 Y-13.714
X-113.127 Y-13.883
X-113.117 Y-13.957
X-113.046 Y-14.089
X-112.936 Y-14.191
X-112.805 Y-14.265
X-112.663 Y-14.313
X-112.515 Y-14.336
X-112.365 Y-14.324
X-112.262 Y-14.265
X-112.191 Y-14.173
X-112.16 Y-14.061
X-112.152 Y-13.967
X-112.134 Y-13.853
X-112.135 Y-13.818
X-112.149 Y-13.786
X-112.172 Y-13.76
X-112.203 Y-13.744
X-112.237 Y-13.74
X-112.406 Y-13.748
X-113.032 Y-13.777
X-113.07 Y-13.786
X-113.102 Y-13.81
X-113.122 Y-13.844
X-113.127 Y-13.883
X-113.119 Y-13.967
X-113.097 Y-14.136
X-113.084 Y-14.21
X-113.011 Y-14.341
X-112.899 Y-14.44
X-112.766 Y-14.51
X-112.622 Y-14.551
X-112.472 Y-14.564
X-112.422 Y-14.555
X-112.297 Y-14.502
X-112.208 Y-14.4
X-112.173 Y-14.269
X-112.172 Y-14.22
X-112.16 Y-14.061
X-112.165 Y-14.027
X-112.18 Y-13.997
X-112.205 Y-13.974
X-112.236 Y-13.96
X-112.27 Y-13.958
X-112.382 Y-13.968
X-113.007 Y-14.027
X-113.045 Y-14.038
X-113.075 Y-14.063
X-113.094 Y-14.097
X-113.097 Y-14.136
X-113.064 Y-14.389
X-113.05 Y-14.463
X-112.973 Y-14.592
X-112.857 Y-14.686
X-112.721 Y-14.75
X-112.574 Y-14.782
X-112.461 Y-14.778
X-112.349 Y-14.752
X-112.256 Y-14.685
X-112.194 Y-14.587
X-112.175 Y-14.474
X-112.174 Y-14.305
X-112.173 Y-14.269
X-112.179 Y-14.235
X-112.196 Y-14.205
X-112.223 Y-14.183
X-112.255 Y-14.171
X-112.289 Y-14.17
X-112.354 Y-14.181
X-112.98 Y-14.281
X-113.015 Y-14.294
X-113.043 Y-14.319
X-113.06 Y-14.352
X-113.064 Y-14.389
X-113.041 Y-14.558
X-113.018 Y-14.643
X-112.972 Y-14.785
X-112.864 Y-14.89
X-112.732 Y-14.96
X-112.586 Y-14.995
X-112.436 Y-14.997
X-112.387 Y-14.984
X-112.265 Y-14.92
X-112.185 Y-14.807
X-112.164 Y-14.671
X-112.173 Y-14.558
X-112.175 Y-14.474
X-112.183 Y-14.44
X-112.202 Y-14.412
X-112.229 Y-14.391
X-112.262 Y-14.381
X-112.296 Y-14.382
X-112.329 Y-14.389
X-112.942 Y-14.522
X-112.978 Y-14.538
X-113.005 Y-14.567
X-113.019 Y-14.603
X-113.018 Y-14.643
X-112.973 Y-14.812
X-112.948 Y-14.896
X-112.923 Y-14.967
X-112.835 Y-15.088
X-112.706 Y-15.165
X-112.562 Y-15.207
X-112.412 Y-15.204
X-112.364 Y-15.191
X-112.236 Y-15.12
X-112.157 Y-14.996
X-112.146 Y-14.85
X-112.152 Y-14.812
X-112.164 Y-14.671
X-112.174 Y-14.637
X-112.195 Y-14.609
X-112.225 Y-14.59
X-112.259 Y-14.582
X-112.294 Y-14.587
X-112.882 Y-14.777
X-112.915 Y-14.795
X-112.939 Y-14.823
X-112.95 Y-14.859
X-112.948 Y-14.896
X-112.884 Y-15.112
X-112.834 Y-15.253
X-112.72 Y-15.351
X-112.58 Y-15.404
X-112.43 Y-15.415
X-112.283 Y-15.387
X-112.26 Y-15.374
X-112.165 Y-15.293
X-112.112 Y-15.18
X-112.109 Y-15.055
X-112.123 Y-14.981
X-112.146 Y-14.85
X-112.159 Y-14.818
X-112.182 Y-14.792
X-112.212 Y-14.775
X-112.247 Y-14.77
X-112.281 Y-14.777
X-112.824 Y-14.993
X-112.855 Y-15.012
X-112.876 Y-15.041
X-112.886 Y-15.076
X-112.884 Y-15.112
X-112.845 Y-15.234
X-112.804 Y-15.365
X-112.783 Y-15.419
X-112.688 Y-15.535
X-112.552 Y-15.598
X-112.404 Y-15.62
X-112.256 Y-15.594
X-112.23 Y-15.582
X-112.124 Y-15.498
X-112.065 Y-15.377
X-112.066 Y-15.241
X-112.109 Y-15.055
X-112.123 Y-15.022
X-112.149 Y-14.996
X-112.182 Y-14.98
X-112.218 Y-14.978
X-112.253 Y-14.989
X-112.754 Y-15.249
X-112.781 Y-15.27
X-112.799 Y-15.298
X-112.807 Y-15.331
X-112.804 Y-15.365
X-112.792 Y-15.403
X-112.722 Y-15.572
X-112.69 Y-15.64
X-112.586 Y-15.748
X-112.446 Y-15.801
X-112.296 Y-15.809
X-112.151 Y-15.769
X-112.133 Y-15.757
X-112.037 Y-15.655
X-111.998 Y-15.52
X-112.024 Y-15.383
X-112.043 Y-15.356
X-112.07 Y-15.337
X-112.102 Y-15.328
X-112.135 Y-15.329
X-112.649 Y-15.439
X-112.681 Y-15.452
X-112.707 Y-15.474
X-112.723 Y-15.504
X-112.729 Y-15.538
X-112.722 Y-15.572
X-112.641 Y-15.766
X-112.609 Y-15.834
X-112.504 Y-15.942
X-112.363 Y-15.992
X-112.213 Y-15.998
X-112.071 Y-15.95
X-112.047 Y-15.934
X-111.954 Y-15.832
X-111.916 Y-15.699
X-111.943 Y-15.563
X-112.024 Y-15.383
X-112.044 Y-15.355
X-112.073 Y-15.336
X-112.106 Y-15.327
X-112.14 Y-15.331
X-112.171 Y-15.345
X-112.605 Y-15.649
X-112.628 Y-15.672
X-112.643 Y-15.702
X-112.648 Y-15.734
X-112.641 Y-15.766
X-112.556 Y-15.97
X-112.525 Y-16.035
X-112.416 Y-16.137
X-112.273 Y-16.183
X-112.123 Y-16.182
X-111.982 Y-16.13
X-111.955 Y-16.111
X-111.864 Y-16.006
X-111.83 Y-15.871
X-111.86 Y-15.736
X-111.921 Y-15.61
X-111.943 Y-15.563
X-111.964 Y-15.534
X-111.993 Y-15.515
X-112.027 Y-15.507
X-112.062 Y-15.511
X-112.093 Y-15.527
X-112.523 Y-15.855
X-112.545 Y-15.879
X-112.559 Y-15.907
X-112.563 Y-15.939
X-112.556 Y-15.97
X-112.51 Y-16.079
X-112.484 Y-16.114
X-112.399 Y-16.22
X-112.35 Y-16.276
X-112.219 Y-16.35
X-112.07 Y-16.362
X-111.925 Y-16.323
X-111.797 Y-16.245
X-111.791 Y-16.237
X-111.733 Y-16.126
X-111.726 Y-16.001
X-111.77 Y-15.884
X-111.808 Y-15.825
X-111.86 Y-15.736
X-111.884 Y-15.707
X-111.916 Y-15.688
X-111.953 Y-15.683
X-111.989 Y-15.691
X-112.02 Y-15.713
X-112.39 Y-16.091
X-112.41 Y-16.12
X-112.419 Y-16.154
X-112.415 Y-16.189
X-112.399 Y-16.22
X-112.273 Y-16.378
X-112.224 Y-16.435
X-112.096 Y-16.513
X-111.946 Y-16.523
X-111.8 Y-16.487
X-111.676 Y-16.401
X-111.62 Y-16.29
X-111.615 Y-16.165
X-111.661 Y-16.049
X-111.77 Y-15.884
X-111.796 Y-15.859
X-111.828 Y-15.844
X-111.864 Y-15.842
X-111.898 Y-15.852
X-111.927 Y-15.874
X-112.267 Y-16.252
X-112.285 Y-16.281
X-112.293 Y-16.314
X-112.289 Y-16.348
X-112.273 Y-16.378
X-112.146 Y-16.539
X-112.096 Y-16.595
X-111.968 Y-16.673
X-111.818 Y-16.683
X-111.673 Y-16.644
X-111.551 Y-16.555
X-111.497 Y-16.424
X-111.509 Y-16.283
X-111.584 Y-16.163
X-111.661 Y-16.049
X-111.687 Y-16.024
X-111.72 Y-16.01
X-111.756 Y-16.008
X-111.79 Y-16.019
X-111.818 Y-16.041
X-112.141 Y-16.414
X-112.158 Y-16.442
X-112.165 Y-16.475
X-112.161 Y-16.509
X-112.146 Y-16.539
X-112.027 Y-16.687
X-112.009 Y-16.704
X-111.976 Y-16.731
X-111.856 Y-16.822
X-111.708 Y-16.841
X-111.562 Y-16.805
X-111.439 Y-16.719
X-111.419 Y-16.693
X-111.36 Y-16.558
X-111.372 Y-16.411
X-111.452 Y-16.288
X-111.553 Y-16.194
X-111.584 Y-16.163
X-111.614 Y-16.145
X-111.648 Y-16.137
X-111.683 Y-16.142
X-111.714 Y-16.159
X-111.737 Y-16.185
X-111.995 Y-16.605
X-112.007 Y-16.637
X-112.008 Y-16.671
X-111.998 Y-16.704
X-111.976 Y-16.731
X-111.773 Y-16.9
X-111.713 Y-16.945
X-111.567 Y-16.976
X-111.421 Y-16.94
X-111.338 Y-16.879
X-111.252 Y-16.78
X-111.216 Y-16.653
X-111.238 Y-16.524
X-111.313 Y-16.416
X-111.452 Y-16.288
X-111.485 Y-16.269
X-111.522 Y-16.264
X-111.559 Y-16.273
X-111.589 Y-16.295
X-111.61 Y-16.326
X-111.799 Y-16.788
X-111.806 Y-16.818
X-111.804 Y-16.848
X-111.793 Y-16.877
X-111.773 Y-16.9
X-111.638 Y-17.013
X-111.578 Y-17.058
X-111.507 Y-17.081
X-111.357 Y-17.084
X-111.219 Y-17.025
X-111.112 Y-16.92
X-111.097 Y-16.893
X-111.061 Y-16.753
X-111.095 Y-16.612
X-111.19 Y-16.503
X-111.3 Y-16.428
X-111.313 Y-16.416
X-111.345 Y-16.397
X-111.382 Y-16.392
X-111.418 Y-16.4
X-111.449 Y-16.421
X-111.47 Y-16.452
X-111.663 Y-16.899
X-111.671 Y-16.929
X-111.669 Y-16.96
X-111.658 Y-16.989
X-111.638 Y-17.013
X-111.506 Y-17.123
X-111.487 Y-17.137
X-111.469 Y-17.148
X-111.325 Y-17.191
X-111.175 Y-17.185
X-111.04 Y-17.119
X-110.94 Y-17.008
X-110.93 Y-16.985
X-110.903 Y-16.845
X-110.943 Y-16.708
X-111.042 Y-16.605
X-111.19 Y-16.503
X-111.224 Y-16.49
X-111.26 Y-16.489
X-111.294 Y-16.501
X-111.322 Y-16.524
X-111.339 Y-16.556
X-111.498 Y-17.034
X-111.503 Y-17.071
X-111.494 Y-17.108
X-111.472 Y-17.138
X-111.44 Y-17.159
X-111.177 Y-17.25
X-111.105 Y-17.271
X-110.957 Y-17.25
X-110.831 Y-17.168
X-110.746 Y-17.044
X-110.744 Y-17.035
X-110.739 Y-16.906
X-110.79 Y-16.787
X-110.886 Y-16.7
X-110.939 Y-16.67
X-111.042 Y-16.605
X-111.08 Y-16.593
X-111.119 Y-16.595
X-111.155 Y-16.613
X-111.18 Y-16.644
X-111.192 Y-16.681
X-111.24 Y-17.147
X-111.239 Y-17.179
X-111.226 Y-17.209
X-111.205 Y-17.234
X-111.177 Y-17.25
X-110.999 Y-17.312
X-110.927 Y-17.333
X-110.778 Y-17.321
X-110.652 Y-17.239
X-110.573 Y-17.112
X-110.569 Y-17.092
X-110.574 Y-16.945
X-110.649 Y-16.818
X-110.775 Y-16.742
X-110.792 Y-16.737
X-110.877 Y-16.706
X-110.886 Y-16.7
X-110.924 Y-16.689
X-110.963 Y-16.694
X-110.997 Y-16.713
X-111.022 Y-16.744
X-111.032 Y-16.782
X-111.063 Y-17.212
X-111.06 Y-17.243
X-111.048 Y-17.273
X-111.027 Y-17.296
X-110.999 Y-17.312
X-110.877 Y-17.355
X-110.792 Y-17.381
X-110.717 Y-17.387
X-110.569 Y-17.363
X-110.453 Y-17.269
X-110.388 Y-17.134
X-110.386 Y-17.116
X-110.402 Y-16.979
X-110.479 Y-16.864
X-110.598 Y-16.795
X-110.775 Y-16.742
X-110.813 Y-16.74
X-110.85 Y-16.751
X-110.879 Y-16.776
X-110.897 Y-16.81
X-110.9 Y-16.848
X-110.859 Y-17.295
X-110.848 Y-17.332
X-110.825 Y-17.362
X-110.792 Y-17.381
X-110.576 Y-17.411
X-110.501 Y-17.417
X-110.429 Y-17.399
X-110.299 Y-17.323
X-110.271 Y-17.276
X-110.229 Y-17.142
X-110.253 Y-17.003
X-110.338 Y-16.891
X-110.465 Y-16.829
X-110.538 Y-16.813
X-110.598 Y-16.795
X-110.637 Y-16.793
X-110.674 Y-16.806
X-110.704 Y-16.832
X-110.72 Y-16.868
X-110.722 Y-16.907
X-110.658 Y-17.327
X-110.649 Y-17.357
X-110.631 Y-17.382
X-110.606 Y-17.401
X-110.576 Y-17.411
X-110.369 Y-17.439
X-110.332 Y-17.442
X-110.259 Y-17.424
X-110.134 Y-17.341
X-110.063 Y-17.209
X-110.06 Y-17.189
X-110.068 Y-17.074
X-110.118 Y-16.971
X-110.203 Y-16.894
X-110.311 Y-16.854
X-110.454 Y-16.832
X-110.465 Y-16.829
X-110.499
X-110.531 Y-16.84
X-110.558 Y-16.861
X-110.576 Y-16.89
X-110.583 Y-16.924
X-110.578 Y-16.958
X-110.447 Y-17.371
X-110.43 Y-17.403
X-110.403 Y-17.427
X-110.369 Y-17.439
X-110.2 Y-17.462
X-110.162 Y-17.466
X-110.09 Y-17.444
X-110.026 Y-17.406
X-109.92 Y-17.299
X-109.875 Y-17.156
X-109.915 Y-17.025
X-110.009 Y-16.926
X-110.137 Y-16.879
X-110.2 Y-16.871
X-110.311 Y-16.854
X-110.344 Y-16.856
X-110.375 Y-16.868
X-110.401 Y-16.89
X-110.417 Y-16.92
X-110.423 Y-16.953
X-110.418 Y-16.986
X-110.277 Y-17.396
X-110.26 Y-17.427
X-110.233 Y-17.45
X-110.2 Y-17.462
X-110.069 Y-17.48
X-110.031 Y-17.486
X-110.02 Y-17.487
X-109.97 Y-17.485
X-109.933 Y-17.473
X-109.903 Y-17.447
X-109.885 Y-17.413
X-109.882 Y-17.374
X-109.894 Y-17.337
X-109.919 Y-17.307
X-109.953 Y-17.289
X-109.992 Y-17.286
X-110.017 Y-17.288
X-110.051 Y-17.299
X-110.079 Y-17.321
X-110.098 Y-17.351
X-110.106 Y-17.386
X-110.1 Y-17.422
X-110.082 Y-17.453
X-110.054 Y-17.475
X-110.02 Y-17.487
X-109.988 Y-17.486
X-109.946 Y-17.483
X-109.909 Y-17.478
X-109.787 Y-17.391
X-109.709 Y-17.262
X-109.705 Y-17.228
X-109.716 Y-17.102
X-109.777 Y-16.992
X-109.878 Y-16.918
X-110.001 Y-16.891
X-110.031
X-110.137 Y-16.879
X-110.172 Y-16.882
X-110.203 Y-16.897
X-110.228 Y-16.922
X-110.243 Y-16.953
X-110.245 Y-16.988
X-110.236 Y-17.022
X-110.04 Y-17.426
X-110.017 Y-17.457
X-109.984 Y-17.477
X-109.946 Y-17.483
X-109.815 Y-17.472
X-109.74 Y-17.462
X-109.673 Y-17.429
X-109.566 Y-17.325
X-109.522 Y-17.181
X-109.525 Y-17.147
X-109.56 Y-17.034
X-109.636 Y-16.943
X-109.74 Y-16.888
X-109.858 Y-16.878
X-109.946 Y-16.888
X-109.988 Y-16.891
X-110.001
X-110.04 Y-16.9
X-110.071 Y-16.923
X-110.092 Y-16.956
X-110.098 Y-16.995
X-110.089 Y-17.033
X-109.91 Y-17.415
X-109.887 Y-17.446
X-109.853 Y-17.466
X-109.815 Y-17.472
X-109.607 Y-17.456
X-109.533 Y-17.446
X-109.413 Y-17.357
X-109.38 Y-17.285
X-109.353 Y-17.16
X-109.38 Y-17.036
X-109.455 Y-16.933
X-109.565 Y-16.87
X-109.692 Y-16.859
X-109.858 Y-16.878
X-109.895 Y-16.891
X-109.924 Y-16.918
X-109.941 Y-16.953
X-109.942 Y-16.992
X-109.929 Y-17.029
X-109.697 Y-17.408
X-109.674 Y-17.434
X-109.643 Y-17.451
X-109.607 Y-17.456
X-109.438 Y-17.442
X-109.364 Y-17.429
X-109.304 Y-17.385
X-109.206 Y-17.271
X-109.172 Y-17.125
X-109.197 Y-16.977
X-109.2 Y-16.972
X-109.283 Y-16.876
X-109.399 Y-16.823
X-109.526
X-109.692 Y-16.859
X-109.725 Y-16.874
X-109.751 Y-16.901
X-109.765 Y-16.934
X-109.766 Y-16.971
X-109.754 Y-17.006
X-109.529 Y-17.392
X-109.506 Y-17.42
X-109.474 Y-17.437
X-109.438 Y-17.442
X-109.348 Y-17.43
X-109.223 Y-17.403
X-109.15 Y-17.384
X-109.041 Y-17.281
X-108.991 Y-17.139
X-108.992 Y-16.989
X-109.001 Y-16.965
X-109.059 Y-16.869
X-109.149 Y-16.801
X-109.258 Y-16.771
X-109.37 Y-16.783
X-109.438 Y-16.804
X-109.526 Y-16.823
X-109.56 Y-16.839
X-109.586 Y-16.867
X-109.6 Y-16.903
X-109.599 Y-16.941
X-109.584 Y-16.976
X-109.323 Y-17.361
X-109.296 Y-17.388
X-109.261 Y-17.403
X-109.223
X-109.1 Y-17.377
X-109.053 Y-17.366
X-108.981 Y-17.345
X-108.864 Y-17.252
X-108.804 Y-17.115
Y-16.965
X-108.82 Y-16.916
X-108.878 Y-16.816
X-108.97 Y-16.745
X-109.082 Y-16.714
X-109.197 Y-16.727
X-109.37 Y-16.783
X-109.401 Y-16.801
X-109.424 Y-16.829
X-109.436 Y-16.864
X-109.434 Y-16.9
X-109.42 Y-16.933
X-109.156 Y-17.324
X-109.128 Y-17.352
X-109.092 Y-17.366
X-109.053
X-108.846 Y-17.316
X-108.774 Y-17.295
X-108.665 Y-17.192
X-108.615 Y-17.05
X-108.621 Y-16.901
X-108.675 Y-16.76
X-108.688 Y-16.743
X-108.805 Y-16.651
X-108.952 Y-16.627
X-109.092 Y-16.676
X-109.114 Y-16.699
X-109.129 Y-16.728
X-109.133 Y-16.76
X-109.127 Y-16.792
X-108.96 Y-17.252
X-108.942 Y-17.283
X-108.915 Y-17.306
X-108.882 Y-17.317
X-108.846 Y-17.316
X-108.741 Y-17.291
X-108.73 Y-17.288
X-108.72 Y-17.283
X-108.677 Y-17.261
X-108.592 Y-17.211
X-108.53 Y-17.17
X-108.452 Y-17.041
X-108.433 Y-16.892
X-108.46 Y-16.745
X-108.534 Y-16.614
X-108.555 Y-16.595
X-108.67 Y-16.528
X-108.802 Y-16.518
X-108.926 Y-16.566
X-109.092 Y-16.676
X-109.116 Y-16.701
X-109.13 Y-16.734
X-109.133 Y-16.769
X-109.123 Y-16.803
X-109.101 Y-16.831
X-108.708 Y-17.196
X-108.682 Y-17.214
X-108.653 Y-17.222
X-108.622 Y-17.221
X-108.592 Y-17.211
X-108.423 Y-17.111
X-108.36 Y-17.07
X-108.279 Y-16.944
X-108.257 Y-16.796
X-108.282 Y-16.648
X-108.354 Y-16.516
X-108.381 Y-16.488
X-108.506 Y-16.411
X-108.653 Y-16.403
X-108.786 Y-16.465
X-108.829 Y-16.501
X-108.926 Y-16.566
X-108.95 Y-16.591
X-108.964 Y-16.623
X-108.967 Y-16.658
X-108.957 Y-16.692
X-108.936 Y-16.72
X-108.54 Y-17.096
X-108.514 Y-17.114
X-108.484 Y-17.122
X-108.453
X-108.423 Y-17.111
X-108.254 Y-17.011
X-108.248 Y-17.008
X-108.209 Y-16.985
X-108.16 Y-16.948
X-108.154 Y-16.943
Y-16.934
X-108.159 Y-16.899
X-108.177 Y-16.867
X-108.204 Y-16.844
X-108.238 Y-16.832
X-108.274 Y-16.833
X-108.858 Y-16.952
X-108.99 Y-16.979
X-109.024 Y-16.992
X-109.05 Y-17.017
X-109.066 Y-17.05
X-109.069 Y-17.087
X-109.059 Y-17.122
X-109.037 Y-17.151
X-109.006 Y-17.17
X-108.97 Y-17.177
G3 X-108.209 Y-16.985 I0.006 J1.583
G1 X-108.189 Y-16.972
X-108.169 Y-16.956
X-108.148 Y-16.938
X-108.121 Y-16.912
X-108.077 Y-16.769
X-108.085 Y-16.619
X-108.133 Y-16.477
X-108.221 Y-16.355
X-108.26 Y-16.324
X-108.39 Y-16.264
X-108.533 Y-16.272
X-108.657 Y-16.345
X-108.73 Y-16.416
X-108.761 Y-16.445
X-108.786 Y-16.465
X-108.809 Y-16.494
X-108.819 Y-16.53
X-108.816 Y-16.567
X-108.8 Y-16.6
X-108.773 Y-16.625
X-108.265 Y-16.945
X-108.236 Y-16.957
X-108.206 Y-16.96
X-108.175 Y-16.954
X-108.148 Y-16.938
X-108.035 Y-16.839
X-107.981 Y-16.787
X-107.922 Y-16.649
Y-16.499
X-107.967 Y-16.356
X-108.052 Y-16.232
X-108.165 Y-16.134
X-108.177 Y-16.128
X-108.294 Y-16.104
X-108.411 Y-16.128
X-108.51 Y-16.195
X-108.644 Y-16.332
X-108.657 Y-16.345
X-108.675 Y-16.373
X-108.684 Y-16.406
X-108.681 Y-16.44
X-108.666 Y-16.471
X-108.642 Y-16.495
X-108.156 Y-16.843
X-108.127 Y-16.857
X-108.095 Y-16.861
X-108.063 Y-16.855
X-108.035 Y-16.839
X-107.893 Y-16.715
X-107.839 Y-16.663
X-107.766 Y-16.532
X-107.76 Y-16.382
X-107.801 Y-16.237
X-107.875 Y-16.107
X-107.982 Y-16.002
X-108.027 Y-15.976
X-108.136 Y-15.941
X-108.249 Y-15.949
X-108.352 Y-15.998
X-108.429 Y-16.083
X-108.478 Y-16.163
X-108.51 Y-16.195
X-108.527 Y-16.223
X-108.535 Y-16.254
X-108.532 Y-16.287
X-108.519 Y-16.317
X-108.497 Y-16.341
X-108.018 Y-16.716
X-107.988 Y-16.732
X-107.955 Y-16.738
X-107.922 Y-16.732
X-107.893 Y-16.715
X-107.745 Y-16.585
X-107.72 Y-16.562
X-107.7 Y-16.543
X-107.691 Y-16.533
X-107.614 Y-16.404
X-107.604 Y-16.254
X-107.638 Y-16.108
X-107.707 Y-15.975
X-107.808 Y-15.865
X-107.894 Y-15.807
X-108.009 Y-15.761
X-108.132 Y-15.765
X-108.244 Y-15.817
X-108.326 Y-15.91
X-108.375 Y-15.994
X-108.429 Y-16.083
X-108.441 Y-16.119
X-108.438 Y-16.158
X-108.421 Y-16.193
X-108.392 Y-16.218
X-108.378 Y-16.226
X-107.814 Y-16.551
X-107.783 Y-16.563
X-107.749
X-107.718 Y-16.553
X-107.691 Y-16.533
X-107.549 Y-16.306
X-107.477 Y-16.175
X-107.478 Y-16.025
X-107.527 Y-15.883
X-107.611 Y-15.759
X-107.721 Y-15.657
X-107.853 Y-15.585
X-107.894 Y-15.575
X-108.029 Y-15.572
X-108.151 Y-15.628
X-108.237 Y-15.732
X-108.306 Y-15.872
X-108.326 Y-15.91
X-108.335 Y-15.947
X-108.329 Y-15.985
X-108.31 Y-16.018
X-108.28 Y-16.041
X-108.251 Y-16.056
X-107.677 Y-16.341
X-107.643 Y-16.351
X-107.607 Y-16.348
X-107.574 Y-16.332
X-107.549 Y-16.306
X-107.492 Y-16.213
X-107.413 Y-16.079
X-107.378 Y-16.012
X-107.362 Y-15.863
X-107.404 Y-15.719
X-107.482 Y-15.591
X-107.587 Y-15.484
X-107.715 Y-15.406
X-107.858 Y-15.36
X-107.868
X-107.985 Y-15.382
X-108.085 Y-15.447
X-108.151 Y-15.547
X-108.169 Y-15.591
X-108.199 Y-15.656
X-108.237 Y-15.732
X-108.245 Y-15.764
X-108.243 Y-15.796
X-108.231 Y-15.826
X-108.21 Y-15.85
X-108.182 Y-15.867
X-108.138 Y-15.884
X-107.533 Y-16.118
X-107.499 Y-16.124
X-107.466 Y-16.12
X-107.436 Y-16.104
X-107.413 Y-16.079
X-107.362 Y-15.994
X-107.296 Y-15.852
X-107.268 Y-15.782
X-107.264 Y-15.632
X-107.315 Y-15.491
X-107.402 Y-15.369
X-107.514 Y-15.269
X-107.643 Y-15.192
X-107.718 Y-15.173
X-107.864 Y-15.171
X-107.993 Y-15.238
X-108.076 Y-15.359
X-108.093 Y-15.403
X-108.151 Y-15.547
X-108.157 Y-15.586
X-108.148 Y-15.624
X-108.124 Y-15.656
X-108.089 Y-15.676
X-108.026 Y-15.697
X-107.417 Y-15.901
X-107.382 Y-15.907
X-107.347 Y-15.899
X-107.317 Y-15.88
X-107.296 Y-15.852
X-107.206 Y-15.656
X-107.178 Y-15.587
X-107.168 Y-15.437
X-107.219 Y-15.296
X-107.304 Y-15.172
X-107.413 Y-15.07
X-107.544 Y-14.997
X-107.688 Y-14.954
X-107.747
X-107.879 Y-14.985
X-107.984 Y-15.071
X-108.041 Y-15.194
X-108.073 Y-15.351
X-108.076 Y-15.359
X-108.08 Y-15.398
X-108.07 Y-15.436
X-108.046 Y-15.467
X-108.011 Y-15.486
X-107.938 Y-15.509
X-107.326 Y-15.706
X-107.291 Y-15.711
X-107.256 Y-15.704
X-107.227 Y-15.684
X-107.206 Y-15.656
X-107.154 Y-15.545
X-107.13 Y-15.487
X-107.111 Y-15.403
X-107.085 Y-15.255
X-107.125 Y-15.11
X-107.205 Y-14.983
X-107.312 Y-14.879
X-107.439 Y-14.798
X-107.58 Y-14.748
X-107.73 Y-14.734
X-107.758 Y-14.739
X-107.874 Y-14.785
X-107.961 Y-14.874
X-108.004 Y-14.991
X-108.015 Y-15.065
X-108.041 Y-15.194
X-108.04 Y-15.232
X-108.025 Y-15.267
X-107.999 Y-15.293
X-107.964 Y-15.308
X-107.846 Y-15.335
X-107.229 Y-15.475
X-107.191 Y-15.476
X-107.156 Y-15.463
X-107.127 Y-15.437
X-107.111 Y-15.403
X-107.054 Y-15.15
X-107.032 Y-15.001
X-107.078 Y-14.858
X-107.165 Y-14.736
X-107.279 Y-14.639
X-107.411 Y-14.568
X-107.554 Y-14.522
X-107.704 Y-14.514
X-107.731 Y-14.518
X-107.851 Y-14.569
X-107.939 Y-14.666
X-107.977 Y-14.792
X-107.978 Y-14.812
X-108.004 Y-14.991
X-108.001 Y-15.029
X-107.985 Y-15.063
X-107.957 Y-15.088
X-107.921 Y-15.101
X-107.797 Y-15.121
X-107.167 Y-15.223
X-107.13 Y-15.222
X-107.097 Y-15.208
X-107.07 Y-15.183
X-107.054 Y-15.15
X-107.037 Y-15.065
X-107.006 Y-14.896
X-106.988 Y-14.747
X-107.043 Y-14.607
X-107.138 Y-14.491
X-107.256 Y-14.4
X-107.391 Y-14.334
X-107.536 Y-14.294
X-107.686 Y-14.291
X-107.723 Y-14.299
X-107.841 Y-14.352
X-107.926 Y-14.449
X-107.962 Y-14.573
X-107.977 Y-14.792
X-107.971 Y-14.829
X-107.952 Y-14.861
X-107.923 Y-14.884
X-107.887 Y-14.895
X-107.75 Y-14.909
X-107.113 Y-14.974
X-107.077 Y-14.971
X-107.045 Y-14.955
X-107.02 Y-14.929
X-107.006 Y-14.896
X-106.991 Y-14.812
X-106.971 Y-14.596
X-106.968 Y-14.521
X-107.016 Y-14.379
X-107.11 Y-14.262
X-107.229 Y-14.172
X-107.365 Y-14.107
X-107.51 Y-14.069
X-107.66 Y-14.065
X-107.721 Y-14.077
X-107.848 Y-14.135
X-107.935 Y-14.244
X-107.963 Y-14.38
X-107.961 Y-14.474
Y-14.558
X-107.962 Y-14.573
X-107.955 Y-14.612
X-107.934 Y-14.645
X-107.902 Y-14.668
X-107.863 Y-14.676
X-107.711 Y-14.678
X-107.071 Y-14.683
X-107.036 Y-14.677
X-107.005 Y-14.659
X-106.982 Y-14.631
X-106.971 Y-14.596
X-106.952 Y-14.389
X-106.947 Y-14.343
X-106.944 Y-14.305
X-106.948 Y-14.208
X-106.955 Y-14.202
X-106.988 Y-14.186
X-107.024 Y-14.181
X-107.059 Y-14.19
X-107.088 Y-14.211
X-107.109 Y-14.242
X-107.343 Y-14.787
X-107.407 Y-14.936
X-107.415 Y-14.971
X-107.41 Y-15.007
X-107.393 Y-15.039
X-107.365 Y-15.062
X-107.331 Y-15.074
X-107.295 Y-15.073
X-107.261 Y-15.059
X-107.235 Y-15.034
G3 X-106.944 Y-14.305 I-1.278 J0.933
G1 X-106.943 Y-14.263
X-106.951 Y-14.174
X-106.957 Y-14.137
X-107.06 Y-14.028
X-107.183 Y-13.942
X-107.319 Y-13.879
X-107.464 Y-13.84
X-107.614 Y-13.832
X-107.762 Y-13.854
X-107.793 Y-13.867
X-107.894 Y-13.938
X-107.957 Y-14.043
X-107.973 Y-14.164
X-107.969 Y-14.22
X-107.966 Y-14.305
X-107.963 Y-14.38
X-107.955 Y-14.414
X-107.936 Y-14.443
X-107.908 Y-14.463
X-107.875 Y-14.473
X-107.84 Y-14.471
X-107.656 Y-14.427
X-107.028 Y-14.277
X-106.996 Y-14.263
X-106.971 Y-14.239
X-106.955 Y-14.208
X-106.951 Y-14.174
X-106.963 Y-14.051
X-106.973 Y-13.977
X-107.039 Y-13.843
X-107.149 Y-13.74
X-107.279 Y-13.666
X-107.422 Y-13.619
X-107.571 Y-13.6
X-107.72 Y-13.611
X-107.788 Y-13.632
X-107.908 Y-13.705
X-107.981 Y-13.826
X-107.989 Y-13.967
X-107.982 Y-14.051
X-107.973 Y-14.164
X-107.962 Y-14.202
X-107.936 Y-14.232
X-107.901 Y-14.25
X-107.862 Y-14.253
X-107.681 Y-14.231
X-107.051 Y-14.156
X-107.015 Y-14.145
X-106.986 Y-14.121
X-106.967 Y-14.089
X-106.963 Y-14.051
X-106.979 Y-13.883
X-106.985 Y-13.825
X-107.008 Y-13.677
X-107.098 Y-13.557
X-107.219 Y-13.468
X-107.356 Y-13.408
X-107.503 Y-13.375
X-107.653 Y-13.37
X-107.8 Y-13.399
X-107.852 Y-13.421
X-107.961 Y-13.5
X-108.024 Y-13.618
X-108.029 Y-13.752
X-107.989 Y-13.967
X-107.975 Y-14.001
X-107.949 Y-14.027
X-107.915 Y-14.042
X-107.878 Y-14.044
X-107.7 Y-14.019
X-107.071 Y-13.931
X-107.035 Y-13.919
X-107.007 Y-13.895
X-106.989 Y-13.862
X-106.985 Y-13.825
X-106.996 Y-13.714
X-107.01 Y-13.629
X-107.03 Y-13.545
X-107.071 Y-13.4
X-107.171 Y-13.288
X-107.299 Y-13.209
X-107.44 Y-13.16
X-107.589 Y-13.141
X-107.739 Y-13.149
X-107.883 Y-13.189
X-107.924 Y-13.211
X-108.023 Y-13.297
X-108.076 Y-13.418
X-108.073 Y-13.549
X-108.052 Y-13.629
X-108.029 Y-13.752
X-108.014 Y-13.787
X-107.986 Y-13.814
X-107.95 Y-13.829
X-107.912 Y-13.828
X-107.724 Y-13.789
X-107.108 Y-13.662
X-107.072 Y-13.647
X-107.045 Y-13.619
X-107.03 Y-13.583
Y-13.545
X-107.089 Y-13.291
X-107.13 Y-13.147
X-107.235 Y-13.039
X-107.366 Y-12.967
X-107.511 Y-12.926
X-107.66 Y-12.914
X-107.809 Y-12.927
X-107.952 Y-12.975
X-108.013 Y-13.01
X-108.116 Y-13.111
X-108.16 Y-13.249
X-108.135 Y-13.391
X-108.085 Y-13.507
X-108.073 Y-13.549
X-108.055 Y-13.583
X-108.026 Y-13.608
X-107.989 Y-13.62
X-107.951 Y-13.618
X-107.775 Y-13.571
X-107.162 Y-13.407
X-107.128 Y-13.391
X-107.102 Y-13.363
X-107.089 Y-13.329
Y-13.291
X-107.119 Y-13.165
X-107.128 Y-13.143
X-107.225 Y-12.953
X-107.3 Y-12.824
X-107.429 Y-12.747
X-107.573 Y-12.705
X-107.723 Y-12.693
X-107.872 Y-12.708
X-108.014 Y-12.754
X-108.145 Y-12.828
X-108.168 Y-12.851
X-108.235 Y-12.955
X-108.254 Y-13.078
X-108.222 Y-13.198
X-108.135 Y-13.391
X-108.112 Y-13.422
X-108.078 Y-13.442
X-108.04 Y-13.447
X-108.002 Y-13.437
X-107.839 Y-13.359
X-107.272 Y-13.086
X-107.241 Y-13.063
X-107.221 Y-13.029
X-107.216 Y-12.991
X-107.225 Y-12.953
X-107.323 Y-12.763
X-107.343 Y-12.728
X-107.425 Y-12.603
X-107.553 Y-12.524
X-107.698 Y-12.486
X-107.848 Y-12.481
X-107.996 Y-12.506
X-108.138 Y-12.556
X-108.262 Y-12.64
X-108.283 Y-12.662
X-108.348 Y-12.77
X-108.362 Y-12.896
X-108.323 Y-13.017
X-108.254 Y-13.136
X-108.222 Y-13.198
X-108.197 Y-13.228
X-108.163 Y-13.246
X-108.125 Y-13.249
X-108.088 Y-13.238
X-107.939 Y-13.159
X-107.384 Y-12.864
X-107.354 Y-12.839
X-107.336 Y-12.805
X-107.332 Y-12.766
X-107.343 Y-12.728
X-107.36 Y-12.7
X-107.492 Y-12.5
X-107.514 Y-12.471
X-107.607 Y-12.354
X-107.746 Y-12.296
X-107.895 Y-12.277
X-108.044 Y-12.288
X-108.188 Y-12.33
X-108.321 Y-12.4
X-108.434 Y-12.499
X-108.438 Y-12.506
X-108.481 Y-12.612
Y-12.726
X-108.438 Y-12.832
X-108.416 Y-12.855
X-108.388 Y-12.87
X-108.357 Y-12.875
X-108.325 Y-12.87
X-108.137 Y-12.808
X-107.566 Y-12.621
X-107.534 Y-12.604
X-107.51 Y-12.576
X-107.498 Y-12.541
X-107.499 Y-12.505
X-107.514 Y-12.471
X-107.653 Y-12.278
X-107.662 Y-12.265
X-107.688 Y-12.229
X-107.715 Y-12.2
X-107.722 Y-12.193
X-107.756 Y-12.175
X-107.794 Y-12.17
X-107.831 Y-12.18
X-107.861 Y-12.203
X-107.881 Y-12.236
X-107.887 Y-12.274
X-107.878 Y-12.311
X-107.855 Y-12.342
X-107.84 Y-12.357
X-107.809 Y-12.377
X-107.774 Y-12.385
X-107.738 Y-12.379
X-107.706 Y-12.361
X-107.683 Y-12.333
X-107.672 Y-12.299
X-107.673 Y-12.263
X-107.688 Y-12.229
X-107.702 Y-12.211
X-107.722 Y-12.193
X-107.843 Y-12.104
X-107.991 Y-12.079
X-108.141 Y-12.089
X-108.286 Y-12.127
X-108.421 Y-12.191
X-108.538 Y-12.285
X-108.554 Y-12.306
X-108.61 Y-12.431
X-108.604 Y-12.568
X-108.538 Y-12.688
X-108.513 Y-12.707
X-108.482 Y-12.717
X-108.45
X-108.42 Y-12.707
X-108.274 Y-12.631
X-107.746 Y-12.354
X-107.716 Y-12.33
X-107.697 Y-12.298
X-107.692 Y-12.26
X-107.701 Y-12.224
X-107.722 Y-12.193
X-107.93 Y-12.024
X-108.051 Y-11.935
X-108.198 Y-11.91
X-108.347 Y-11.926
X-108.489 Y-11.977
X-108.616 Y-12.056
X-108.719 Y-12.165
X-108.737 Y-12.199
X-108.77 Y-12.327
X-108.746 Y-12.457
X-108.667 Y-12.564
X-108.592 Y-12.63
X-108.559 Y-12.665
X-108.527 Y-12.7
X-108.469 Y-12.784
X-108.36 Y-12.953
X-108.323 Y-13.017
X-108.297 Y-13.045
X-108.262 Y-13.061
X-108.224 Y-13.063
X-108.188 Y-13.05
X-108.159 Y-13.025
X-108.142 Y-12.991
X-108.081 Y-12.774
X-107.899 Y-12.127
X-107.896 Y-12.089
X-107.907 Y-12.054
X-107.93 Y-12.024
X-108.033 Y-11.94
X-108.085 Y-11.901
X-108.169 Y-11.845
X-108.3 Y-11.772
X-108.45 Y-11.764
X-108.596 Y-11.8
X-108.729 Y-11.869
X-108.841 Y-11.968
X-108.925 Y-12.093
X-108.928 Y-12.103
X-108.94 Y-12.22
X-108.907 Y-12.333
X-108.832 Y-12.424
X-108.804 Y-12.439
X-108.772 Y-12.445
X-108.739 Y-12.439
X-108.711 Y-12.424
X-108.641 Y-12.371
X-108.166 Y-12.006
X-108.142 Y-11.978
X-108.129 Y-11.943
Y-11.906
X-108.144 Y-11.872
X-108.169 Y-11.845
X-108.254 Y-11.792
X-108.423 Y-11.694
X-108.49 Y-11.66
X-108.639 Y-11.641
X-108.784 Y-11.678
X-108.915 Y-11.751
X-109.026 Y-11.851
X-109.104 Y-11.98
X-109.106 Y-11.988
X-109.113 Y-12.115
X-109.067 Y-12.233
X-108.976 Y-12.322
X-108.911 Y-12.362
X-108.846 Y-12.413
X-108.761 Y-12.483
X-108.667 Y-12.564
X-108.637 Y-12.581
X-108.603 Y-12.586
X-108.57 Y-12.58
X-108.54 Y-12.563
X-108.518 Y-12.537
X-108.506 Y-12.504
X-108.497 Y-12.452
X-108.378 Y-11.797
X-108.379 Y-11.757
X-108.394 Y-11.721
X-108.423 Y-11.694
X-108.55 Y-11.621
X-108.571 Y-11.612
X-108.723 Y-11.571
X-108.87 Y-11.54
X-109.013 Y-11.585
X-109.138 Y-11.669
X-109.238 Y-11.78
X-109.263 Y-11.833
X-109.29 Y-11.975
X-109.248 Y-12.113
X-109.147 Y-12.216
X-109.113 Y-12.227
X-109.077 Y-12.226
X-109.044 Y-12.213
X-109.018 Y-12.188
X-108.672 Y-11.727
X-108.656 Y-11.692
X-108.653 Y-11.654
X-108.665 Y-11.618
X-108.69 Y-11.589
X-108.723 Y-11.571
X-108.846 Y-11.54
X-108.98 Y-11.507
X-109.054 Y-11.493
X-109.202 Y-11.516
X-109.33 Y-11.594
X-109.423 Y-11.712
X-109.481 Y-11.85
X-109.462 Y-11.977
X-109.39 Y-12.084
X-109.28 Y-12.149
X-109.246 Y-12.153
X-109.214 Y-12.145
X-109.185 Y-12.127
X-109.165 Y-12.101
X-108.919 Y-11.651
X-108.908 Y-11.617
X-108.91 Y-11.582
X-108.923 Y-11.549
X-108.948 Y-11.523
X-108.98 Y-11.507
X-109.1 Y-11.478
X-109.231 Y-11.464
X-109.306 Y-11.46
X-109.451 Y-11.498
X-109.567 Y-11.593
X-109.605 Y-11.654
X-109.65 Y-11.784
X-109.632 Y-11.92
X-109.555 Y-12.033
X-109.436 Y-12.101
X-109.4 Y-12.104
X-109.365 Y-12.093
X-109.336 Y-12.071
X-109.317 Y-12.04
X-109.151 Y-11.598
X-109.145 Y-11.563
X-109.151 Y-11.528
X-109.169 Y-11.498
X-109.197 Y-11.475
X-109.231 Y-11.464
X-109.354 Y-11.451
X-109.485 Y-11.44
X-109.56 Y-11.437
X-109.696 Y-11.5
X-109.794 Y-11.614
X-109.841 Y-11.756
Y-11.768
X-109.811 Y-11.894
X-109.73 Y-11.996
X-109.614 Y-12.055
X-109.576
X-109.54 Y-12.041
X-109.512 Y-12.015
X-109.496 Y-11.98
X-109.399 Y-11.562
X-109.397 Y-11.528
X-109.406 Y-11.496
X-109.425 Y-11.469
X-109.453 Y-11.449
X-109.485 Y-11.44
X-109.607 Y-11.43
X-109.654 Y-11.427
X-109.692 Y-11.425
X-109.767 Y-11.434
X-109.902 Y-11.499
X-109.994 Y-11.617
X-110.004 Y-11.659
X-110.007 Y-11.784
X-109.96 Y-11.899
X-109.87 Y-11.985
X-109.752 Y-12.027
X-109.714 Y-12.023
X-109.679 Y-12.005
X-109.654 Y-11.975
X-109.643 Y-11.937
X-109.602 Y-11.535
X-109.606 Y-11.496
X-109.624 Y-11.461
X-109.654 Y-11.436
X-109.692 Y-11.425
X-109.908 Y-11.44
X-109.965 Y-11.447
X-110.034 Y-11.478
X-110.142 Y-11.581
X-110.153 Y-11.614
X-110.167 Y-11.745
X-110.123 Y-11.869
X-110.03 Y-11.962
X-109.907 Y-12.007
X-109.873 Y-12.005
X-109.843 Y-11.991
X-109.818 Y-11.968
X-109.803 Y-11.939
X-109.798 Y-11.906
X-109.804 Y-11.539
X-109.813 Y-11.5
X-109.835 Y-11.468
X-109.869 Y-11.447
X-109.908 Y-11.44
X-109.946 Y-11.443
X-110.031 Y-11.456
X-110.115 Y-11.471
X-110.188 Y-11.488
X-110.243 Y-11.539
X-110.326 Y-11.665
Y-11.67
X-110.312 Y-11.79
X-110.252 Y-11.895
X-110.155 Y-11.967
X-110.037 Y-11.995
X-110.003 Y-11.989
X-109.973 Y-11.971
X-109.95 Y-11.944
X-109.939 Y-11.911
Y-11.876
X-110.002 Y-11.551
X-110.016 Y-11.516
X-110.043 Y-11.489
X-110.077 Y-11.473
X-110.115 Y-11.471
X-110.2 Y-11.487
X-110.284 Y-11.505
X-110.355 Y-11.53
X-110.409 Y-11.581
X-110.445 Y-11.648
X-110.442 Y-11.781
X-110.379 Y-11.899
X-110.27 Y-11.976
X-110.138 Y-11.995
X-110.104 Y-11.984
X-110.075 Y-11.961
X-110.057 Y-11.93
X-110.051 Y-11.894
X-110.058 Y-11.859
X-110.174 Y-11.566
X-110.192 Y-11.537
X-110.218 Y-11.516
X-110.25 Y-11.504
X-110.284 Y-11.505
X-110.454 Y-11.556
X-110.489 Y-11.569
X-110.538 Y-11.625
X-110.6 Y-11.762
X-110.565 Y-11.867
X-110.493 Y-11.952
X-110.394 Y-12.002
X-110.284 Y-12.01
X-110.249 Y-11.998
X-110.22 Y-11.973
X-110.203 Y-11.94
X-110.199 Y-11.903
X-110.21 Y-11.867
X-110.338 Y-11.608
X-110.358 Y-11.581
X-110.387 Y-11.562
X-110.42 Y-11.553
X-110.454 Y-11.556
X-110.538 Y-11.582
X-110.588 Y-11.602
X-110.719 Y-11.675
X-110.786 Y-11.739
X-110.849 Y-11.777
X-110.875 Y-11.789
X-110.812 Y-11.925
X-110.807 Y-11.931
X-110.727 Y-12.004
X-110.626 Y-12.044
X-110.517 Y-12.045
X-110.484 Y-12.032
X-110.458 Y-12.008
X-110.442 Y-11.976
X-110.438 Y-11.941
X-110.454 Y-11.689
X-110.463 Y-11.654
X-110.484 Y-11.624
X-110.515 Y-11.603
X-110.552 Y-11.596
X-110.588 Y-11.602
X-110.623 Y-11.619
X-110.792 Y-11.714
X-110.877 Y-11.765
X-111.046 Y-11.898
X-111.094 Y-11.94
X-111.179 Y-12.024
X-111.26 Y-12.109
X-111.268 Y-12.119
X-111.274 Y-12.13
X-111.279 Y-12.14
X-111.282 Y-12.151
X-111.284 Y-12.162
X-111.285 Y-12.172
Y-12.183
X-111.283 Y-12.193
X-111.281 Y-12.204
X-111.277 Y-12.214
X-111.272 Y-12.225
X-111.25 Y-12.257
X-111.238 Y-12.269
X-111.225 Y-12.278
X-111.215 Y-12.283
X-111.204 Y-12.287
X-111.194 Y-12.29
X-111.183 Y-12.292
X-111.173
X-111.162
X-111.151 Y-12.29
X-111.141 Y-12.287
X-111.13 Y-12.283
X-111.046 Y-12.234
X-110.775 Y-12.109
X-110.741 Y-12.097
X-110.707 Y-12.087
X-110.538 Y-12.049
X-110.454 Y-12.034
X-110.284 Y-12.011
X-110.2 Y-12
X-110.115 Y-11.993
X-110.031 Y-11.996
X-109.946 Y-12.002
X-109.728 Y-12.03
X-109.692 Y-12.035
X-109.476 Y-12.09
X-109.41 Y-12.109
X-109.354 Y-12.125
X-109.269 Y-12.153
X-109.184 Y-12.193
X-109.046 Y-12.278
X-108.976 Y-12.322
X-108.939 Y-12.334
X-108.9 Y-12.332
X-108.865 Y-12.314
X-108.839 Y-12.285
X-108.82 Y-12.252 Z-0.982
X-108.804 Y-12.224 Z-0.961
X-108.793 Y-12.205 Z-0.928
X-108.789 Y-12.198 Z-0.89
G0 Z2
X-111.752 Y-12.769
Z1.11
G1 Z1.01 F1000
Z-0.99
G3 X-112.127 Y-12.079 I-3.371 J-1.388
G1 X-112.146 Y-12.055
X-112.164 Y-12.024
X-112.185 Y-11.982
X-112.202 Y-11.94
X-112.215 Y-11.893
X-112.226 Y-11.858
X-112.328 Y-11.748
X-112.465 Y-11.686
X-112.613 Y-11.662
X-112.763 Y-11.67
X-112.909 Y-11.705
X-112.972 Y-11.732
X-113.065 Y-11.792
X-113.129 Y-11.882
X-113.157 Y-11.99
X-113.159 Y-12.024
X-113.167 Y-12.276
X-113.161 Y-12.309
X-113.145 Y-12.338
X-113.12 Y-12.36
X-113.089 Y-12.373
X-113.056 Y-12.375
X-113.024 Y-12.366
X-112.856 Y-12.286
X-112.269 Y-12.006
X-112.242 Y-11.987
X-112.222 Y-11.959
X-112.213 Y-11.927
X-112.215 Y-11.893
X-112.225 Y-11.855
X-112.23 Y-11.819
X-112.234 Y-11.771
X-112.239 Y-11.696
X-112.323 Y-11.572
X-112.451 Y-11.494
X-112.596 Y-11.453
X-112.745 Y-11.443
X-112.894 Y-11.461
X-112.934 Y-11.474
X-113.036 Y-11.532
X-113.108 Y-11.624
X-113.139 Y-11.737
X-113.157 Y-11.99
X-113.151 Y-12.027
X-113.131 Y-12.059
X-113.101 Y-12.082
X-113.064 Y-12.092
X-113.026 Y-12.088
X-112.939 Y-12.06
X-112.303 Y-11.859
X-112.269 Y-11.84
X-112.244 Y-11.809
X-112.234 Y-11.771
X-112.23 Y-11.683
X-112.226 Y-11.638
X-112.224 Y-11.563
X-112.276 Y-11.423
X-112.387 Y-11.322
X-112.522 Y-11.257
X-112.668 Y-11.224
X-112.818 Y-11.219
X-112.879 Y-11.231
X-112.997 Y-11.282
X-113.083 Y-11.378
X-113.12 Y-11.501
X-113.139 Y-11.737
X-113.134 Y-11.772
X-113.118 Y-11.803
X-113.091 Y-11.826
X-113.059 Y-11.839
X-113.023 Y-11.84
X-112.958 Y-11.829
X-112.31 Y-11.725
X-112.279 Y-11.715
X-112.254 Y-11.696
X-112.235 Y-11.669
X-112.226 Y-11.638
X-112.209 Y-11.433
X-112.206 Y-11.358
X-112.263 Y-11.22
X-112.372 Y-11.116
X-112.504 Y-11.045
X-112.648 Y-11.003
X-112.798 Y-10.995
X-112.849 Y-11.004
X-112.97 Y-11.052
X-113.059 Y-11.147
X-113.099 Y-11.271
X-113.118 Y-11.47
X-113.12 Y-11.501
X-113.116 Y-11.535
X-113.1 Y-11.566
X-113.075 Y-11.59
X-113.043 Y-11.603
X-113.008 Y-11.605
X-112.945 Y-11.597
X-112.296 Y-11.519
X-112.265 Y-11.51
X-112.238 Y-11.491
X-112.219 Y-11.465
X-112.209 Y-11.433
X-112.189 Y-11.218
X-112.186 Y-11.143
X-112.249 Y-11.007
X-112.356 Y-10.902
X-112.487 Y-10.828
X-112.63 Y-10.783
X-112.779 Y-10.774
X-112.819 Y-10.78
X-112.936 Y-10.825
X-113.024 Y-10.913
X-113.069 Y-11.03
X-113.079 Y-11.095
X-113.09 Y-11.18
X-113.099 Y-11.271
X-113.095 Y-11.305
X-113.08 Y-11.336
X-113.055 Y-11.36
X-113.024 Y-11.374
X-112.989 Y-11.376
X-112.926 Y-11.37
X-112.278 Y-11.304
X-112.246 Y-11.295
X-112.218 Y-11.276
X-112.199 Y-11.25
X-112.189 Y-11.218
X-112.185 Y-11.18
X-112.169 Y-11.049
X-112.163 Y-10.974
X-112.202 Y-10.829
X-112.298 Y-10.714
X-112.421 Y-10.628
X-112.561 Y-10.573
X-112.709 Y-10.551
X-112.762 Y-10.556
X-112.886 Y-10.595
X-112.982 Y-10.683
X-113.032 Y-10.803
X-113.069 Y-11.03
X-113.067 Y-11.064
X-113.054 Y-11.095
X-113.032 Y-11.12
X-113.002 Y-11.137
X-112.968 Y-11.142
X-112.912 Y-11.141
X-112.267 Y-11.133
X-112.232 Y-11.126
X-112.203 Y-11.108
X-112.181 Y-11.081
X-112.169 Y-11.049
X-112.146 Y-10.867
X-112.142 Y-10.842
X-112.134 Y-10.767
X-112.172 Y-10.622
X-112.265 Y-10.504
X-112.387 Y-10.417
X-112.525 Y-10.357
X-112.673 Y-10.334
X-112.719 Y-10.338
X-112.841 Y-10.373
X-112.937 Y-10.455
X-112.991 Y-10.569
X-113.032 Y-10.803
X-113.031 Y-10.837
X-113.019 Y-10.868
X-112.997 Y-10.894
X-112.967 Y-10.911
