%
(n-091-095)
(T1  D=1 CR=0 - ZMIN=-2 - flat end mill)
G90 G94
G17
G21
G28 G91 Z0
G90

(Clear 17)
M9
T1 M6
S5000 M3
G54
M8
G0 X-115.245 Y-12.322
Z12
Z2
Z0.5
G3 X-114.76 Y-12.446 Z0.29 I0.242 J-0.062 F333.3
X-115.245 Y-12.322 Z0.079 I-0.242 J0.062
X-114.76 Y-12.446 Z-0.131 I0.242 J-0.062
X-115.245 Y-12.322 Z-0.342 I-0.242 J0.062
X-114.76 Y-12.446 Z-0.552 I0.242 J-0.062
X-115.245 Y-12.322 Z-0.763 I-0.242 J0.062
X-115.034 Y-12.632 Z-0.876 I0.242 J-0.062
X-114.752 Y-12.384 Z-0.99 I0.031 J0.248
X-115.252 I-0.25
X-114.752 I0.25
G1 X-114.715 Y-12.239 F1000
X-114.728 Y-12.165
X-114.765 Y-12.099
X-114.872 Y-11.994
X-115.017 Y-11.954
X-115.165 Y-11.976
X-115.296 Y-12.05
X-115.392 Y-12.164
X-115.445 Y-12.305
X-115.447 Y-12.455
X-115.399 Y-12.597
X-115.307 Y-12.716
X-115.181 Y-12.798
X-115.036 Y-12.833
X-114.886 Y-12.82
X-114.75 Y-12.757
X-114.641 Y-12.654
X-114.563 Y-12.526
X-114.513 Y-12.384
X-114.502 Y-12.235
X-114.537 Y-12.089
X-114.608 Y-11.957
X-114.717 Y-11.853
X-114.847 Y-11.78
X-114.994 Y-11.746
X-115.143 Y-11.754
X-115.288 Y-11.794
X-115.417 Y-11.87
X-115.524 Y-11.976
X-115.606 Y-12.102
X-115.655 Y-12.243
X-115.67 Y-12.392
X-115.653 Y-12.541
X-115.603 Y-12.683
X-115.52 Y-12.808
X-115.414 Y-12.914
X-115.286 Y-12.993
X-115.144 Y-13.039
X-114.995 Y-13.055
X-114.846 Y-13.037
X-114.705 Y-12.985
X-114.578 Y-12.904
X-114.47 Y-12.801
X-114.382 Y-12.679
X-114.319 Y-12.543
X-114.281 Y-12.398
X-114.273 Y-12.248
X-114.295 Y-12.1
X-114.345 Y-11.958
X-114.421 Y-11.829
X-114.522 Y-11.718
X-114.642 Y-11.629
X-114.777 Y-11.562
X-114.922 Y-11.525
X-115.072 Y-11.516
X-115.221 Y-11.533
X-115.304 Y-11.557
X-115.394 Y-11.601
X-115.465 Y-11.673
X-115.508 Y-11.764
X-115.53 Y-11.834
X-115.539 Y-11.855
X-115.585 Y-11.94
X-115.751 Y-12.193
X-115.828 Y-12.322
X-115.858 Y-12.469
X-115.85 Y-12.619
X-115.843 Y-12.643
X-115.803 Y-12.729
X-115.738 Y-12.797
X-115.656 Y-12.843
X-115.614 Y-12.857
X-115.589 Y-12.869
X-115.53 Y-12.901
X-115.459 Y-12.953
X-115.445 Y-12.965
X-115.411 Y-13.001
X-115.381 Y-13.038
X-115.36 Y-13.068
X-115.318 Y-13.13
X-115.194 Y-13.214
X-115.05 Y-13.257
X-114.9 Y-13.265
X-114.752 Y-13.242
X-114.61 Y-13.194
X-114.478 Y-13.122
X-114.397 Y-13.058
X-114.337 Y-12.995
X-114.298 Y-12.917
X-114.282 Y-12.832
X-114.276 Y-12.616
X-114.274 Y-12.531
X-114.272 Y-12.278
X-114.283 Y-11.893
X-114.295 Y-11.744
X-114.362 Y-11.61
X-114.461 Y-11.497
X-114.582 Y-11.408
X-114.716 Y-11.341
X-114.86 Y-11.298
X-115.008 Y-11.277
X-115.158 Y-11.28
X-115.206 Y-11.289
X-115.311 Y-11.33
X-115.393 Y-11.407
X-115.441 Y-11.509
X-115.486 Y-11.686
X-115.508 Y-11.764
X-115.51 Y-11.798
X-115.501 Y-11.831
X-115.482 Y-11.858
X-115.454 Y-11.878
X-115.421 Y-11.887
X-115.009 Y-11.929
X-114.393 Y-11.992
X-114.36 Y-11.99
X-114.329 Y-11.977
X-114.305 Y-11.955
X-114.289 Y-11.926
X-114.283 Y-11.893
X-114.287 Y-11.771
X-114.29 Y-11.686
X-114.299 Y-11.555
X-114.308 Y-11.481
X-114.372 Y-11.345
X-114.474 Y-11.236
X-114.598 Y-11.151
X-114.735 Y-11.09
X-114.88 Y-11.052
X-115.029 Y-11.034
X-115.179 Y-11.045
X-115.186 Y-11.047
X-115.285 Y-11.1
X-115.359 Y-11.185
X-115.396 Y-11.291
X-115.404 Y-11.349
X-115.421 Y-11.433
X-115.441 Y-11.509
X-115.442 Y-11.544
X-115.432 Y-11.577
X-115.41 Y-11.605
X-115.38 Y-11.623
X-115.346 Y-11.63
X-115.024 Y-11.64
X-114.402 Y-11.659
X-114.37 Y-11.655
X-114.341 Y-11.64
X-114.318 Y-11.617
X-114.303 Y-11.588
X-114.299 Y-11.555
X-114.308 Y-11.433
X-114.32 Y-11.302
X-114.342 Y-11.154
X-114.432 Y-11.034
X-114.549 Y-10.94
X-114.682 Y-10.87
X-114.824 Y-10.823
X-114.972 Y-10.798
X-115.122 Y-10.803
X-115.144 Y-10.809
X-115.255 Y-10.863
X-115.334 Y-10.958
X-115.368 Y-11.075
X-115.379 Y-11.18
X-115.396 Y-11.291
X-115.394 Y-11.325
X-115.381 Y-11.355
X-115.359 Y-11.38
X-115.33 Y-11.396
X-115.297 Y-11.402
X-115.043 Y-11.404
X-114.421 Y-11.408
X-114.389 Y-11.403
X-114.36 Y-11.388
X-114.337 Y-11.364
X-114.324 Y-11.335
X-114.32 Y-11.302
X-114.345 Y-11.042
X-114.367 Y-10.893
X-114.459 Y-10.775
X-114.578 Y-10.684
X-114.713 Y-10.618
X-114.857 Y-10.578
X-115.007 Y-10.562
X-115.155 Y-10.581
X-115.162 Y-10.583
X-115.258 Y-10.644
X-115.324 Y-10.735
X-115.352 Y-10.845
X-115.356 Y-10.926
X-115.368 Y-11.075
X-115.364 Y-11.108
X-115.35 Y-11.138
X-115.327 Y-11.161
X-115.297 Y-11.176
X-115.265 Y-11.18
X-115.067 Y-11.172
X-114.441 Y-11.147
X-114.403 Y-11.138
X-114.371 Y-11.115
X-114.351 Y-11.081
X-114.345 Y-11.042
X-114.356 Y-10.926
X-114.365 Y-10.842
X-114.384 Y-10.757
X-114.423 Y-10.613
X-114.522 Y-10.5
X-114.648 Y-10.418
X-114.787 Y-10.362
X-114.935 Y-10.335
X-115.085 Y-10.337
X-115.128 Y-10.349
X-115.244 Y-10.408
X-115.324 Y-10.512
X-115.352 Y-10.639
Y-10.845
X-115.347 Y-10.878
X-115.331 Y-10.908
X-115.307 Y-10.931
X-115.276 Y-10.944
X-115.242 Y-10.947
X-115.09 Y-10.932
X-114.473 Y-10.875
X-114.441 Y-10.866
X-114.414 Y-10.848
X-114.394 Y-10.822
X-114.383 Y-10.79
X-114.384 Y-10.757
X-114.439 Y-10.504
X-114.478 Y-10.359
X-114.579 Y-10.248
X-114.707 Y-10.17
X-114.85 Y-10.123
X-114.999 Y-10.106
X-115.148 Y-10.126
X-115.175 Y-10.137
X-115.278 Y-10.206
X-115.343 Y-10.311
X-115.362 Y-10.433
X-115.352 Y-10.588
Y-10.639
X-115.345 Y-10.672
X-115.328 Y-10.701
X-115.302 Y-10.722
X-115.27 Y-10.734
X-115.236
X-115.14 Y-10.719
X-114.522 Y-10.621
X-114.485 Y-10.607
X-114.456 Y-10.58
X-114.44 Y-10.543
X-114.439 Y-10.504
X-114.476 Y-10.335
X-114.496 Y-10.25
X-114.54 Y-10.107
X-114.645 Y-10
X-114.778 Y-9.93
X-114.923 Y-9.894
X-115.073 Y-9.889
X-115.219 Y-9.922
X-115.229 Y-9.928
X-115.323 Y-10.007
X-115.377 Y-10.118
X-115.381 Y-10.241
X-115.368 Y-10.335
X-115.362 Y-10.433
X-115.353 Y-10.466
X-115.333 Y-10.494
X-115.306 Y-10.513
X-115.273 Y-10.523
X-115.24 Y-10.521
X-115.187 Y-10.509
X-114.571 Y-10.367
X-114.536 Y-10.352
X-114.51 Y-10.324
X-114.496 Y-10.289
Y-10.25
X-114.56 Y-9.997
X-114.611 Y-9.856
X-114.724 Y-9.757
X-114.861 Y-9.696
X-115.009 Y-9.671
X-115.159 Y-9.678
X-115.217 Y-9.698
X-115.336 Y-9.773
X-115.408 Y-9.894
X-115.417 Y-10.035
X-115.381 Y-10.241
X-115.369 Y-10.272
X-115.348 Y-10.298
X-115.319 Y-10.314
X-115.286 Y-10.321
X-115.253 Y-10.316
X-115.234 Y-10.31
X-114.627 Y-10.113
X-114.595 Y-10.096
X-114.571 Y-10.068
X-114.559 Y-10.034
X-114.56 Y-9.997
X-114.637 Y-9.744
X-114.663 Y-9.673
X-114.762 Y-9.561
X-114.895 Y-9.492
X-115.042 Y-9.46
X-115.192 Y-9.471
X-115.335 Y-9.516
X-115.338 Y-9.519
X-115.42 Y-9.606
X-115.462 Y-9.718
X-115.456 Y-9.838
X-115.445 Y-9.881
X-115.438 Y-9.913
X-115.417 Y-10.035
X-115.403 Y-10.067
X-115.38 Y-10.093
X-115.349 Y-10.109
X-115.314 Y-10.114
X-115.28 Y-10.106
X-114.695 Y-9.862
X-114.665 Y-9.842
X-114.644 Y-9.814
X-114.634 Y-9.779
X-114.637 Y-9.744
X-114.703 Y-9.528
X-114.726 Y-9.465
X-114.823 Y-9.351
X-114.957 Y-9.283
X-115.104 Y-9.256
X-115.254 Y-9.262
X-115.395 Y-9.313
X-115.413 Y-9.326
X-115.501 Y-9.425
X-115.537 Y-9.553
X-115.515 Y-9.684
X-115.49 Y-9.744
X-115.459 Y-9.828
X-115.456 Y-9.838
X-115.441 Y-9.869
X-115.417 Y-9.892
X-115.386 Y-9.907
X-115.352 Y-9.91
X-115.319 Y-9.901
X-114.758 Y-9.645
X-114.729 Y-9.625
X-114.709 Y-9.597
X-114.7 Y-9.563
X-114.703 Y-9.528
X-114.728 Y-9.448
X-114.736 Y-9.427
X-114.746 Y-9.406
X-114.829 Y-9.276
X-114.916 Y-9.154
X-115.048 Y-9.083
X-115.196 Y-9.057
X-115.345 Y-9.069
X-115.484 Y-9.127
X-115.501 Y-9.14
X-115.584 Y-9.24
X-115.617 Y-9.366
X-115.594 Y-9.494
X-115.515 Y-9.684
X-115.496 Y-9.712
X-115.469 Y-9.732
X-115.436 Y-9.742
X-115.402 Y-9.74
X-115.371 Y-9.728
X-114.863 Y-9.412
X-114.834 Y-9.386
X-114.818 Y-9.351
X-114.816 Y-9.312
X-114.829 Y-9.276
X-114.962 Y-9.068
X-115.048 Y-8.946
X-115.184 Y-8.882
X-115.334 Y-8.869
X-115.481 Y-8.896
X-115.546 Y-8.931
X-115.636 Y-9.003
X-115.691 Y-9.104
X-115.705 Y-9.218
X-115.675 Y-9.328
X-115.594 Y-9.494
X-115.574 Y-9.523
X-115.545 Y-9.543
X-115.511 Y-9.552
X-115.476 Y-9.548
X-115.444 Y-9.533
X-114.989 Y-9.199
X-114.964 Y-9.173
X-114.95 Y-9.139
X-114.949 Y-9.102
X-114.962 Y-9.068
X-115.09 Y-8.867
X-115.133 Y-8.806
X-115.253 Y-8.716
X-115.401 Y-8.687
X-115.549 Y-8.71
X-115.685 Y-8.773
X-115.708 Y-8.794
X-115.786 Y-8.905
X-115.807 Y-9.039
X-115.767 Y-9.169
X-115.679 Y-9.321
X-115.675 Y-9.328
X-115.653 Y-9.356
X-115.622 Y-9.375
X-115.587 Y-9.381
X-115.552 Y-9.375
X-115.521 Y-9.356
X-115.11 Y-8.992
X-115.088 Y-8.966
X-115.077 Y-8.933
X-115.078 Y-8.899
X-115.09 Y-8.867
X-115.213 Y-8.673
X-115.231 Y-8.646
X-115.25 Y-8.619
X-115.305 Y-8.568
X-115.446 Y-8.518
X-115.596 Y-8.52
X-115.738 Y-8.568
X-115.786 Y-8.602
X-115.864 Y-8.683
X-115.906 Y-8.788
X-115.907 Y-8.901
X-115.865 Y-9.007
X-115.826 Y-9.068
X-115.767 Y-9.169
X-115.741 Y-9.197
X-115.707 Y-9.213
X-115.669 Y-9.215
X-115.633 Y-9.202
X-115.604 Y-9.178
X-115.254 Y-8.738
X-115.239 Y-8.71
X-115.233 Y-8.679
X-115.236 Y-8.648
X-115.25 Y-8.619
X-115.36 Y-8.51
X-115.394 Y-8.477
X-115.45 Y-8.427
X-115.587 Y-8.365
X-115.737 Y-8.369
X-115.876 Y-8.424
X-115.929 Y-8.468
X-116.005 Y-8.564
X-116.036 Y-8.683
X-116.016 Y-8.804
X-115.951 Y-8.907
X-115.914 Y-8.944
X-115.882 Y-8.984
X-115.865 Y-9.007
X-115.839 Y-9.033
X-115.804 Y-9.048
X-115.767 Y-9.049
X-115.732 Y-9.036
X-115.704 Y-9.012
X-115.388 Y-8.607
X-115.371 Y-8.576
X-115.367 Y-8.541
X-115.375 Y-8.506
X-115.394 Y-8.477
X-115.55 Y-8.324
X-115.606 Y-8.274
X-115.745 Y-8.218
X-115.894 Y-8.231
X-116.029 Y-8.296
X-116.137 Y-8.401
X-116.144 Y-8.413
X-116.181 Y-8.54
X-116.161 Y-8.67
X-116.087 Y-8.779
X-115.951 Y-8.907
X-115.921 Y-8.927
X-115.886 Y-8.935
X-115.85 Y-8.93
X-115.819 Y-8.912
X-115.795 Y-8.885
X-115.536 Y-8.443
X-115.524 Y-8.413
X-115.523 Y-8.381
X-115.532 Y-8.35
X-115.55 Y-8.324
X-115.699 Y-8.177
X-115.755 Y-8.128
X-115.896 Y-8.077
X-116.045 Y-8.095
X-116.18 Y-8.16
X-116.286 Y-8.266
X-116.295 Y-8.282
X-116.331 Y-8.42
X-116.299 Y-8.559
X-116.207 Y-8.668
X-116.122 Y-8.746
X-116.087 Y-8.779
X-116.057 Y-8.797
X-116.022 Y-8.803
X-115.987 Y-8.797
X-115.956 Y-8.779
X-115.934 Y-8.751
X-115.684 Y-8.294
X-115.673 Y-8.265
X-115.672 Y-8.233
X-115.681 Y-8.203
X-115.699 Y-8.177
X-115.825 Y-8.054
X-115.846 Y-8.04
X-115.857 Y-8.033
X-115.953 Y-7.996
X-116.024 Y-7.973
X-116.174 Y-7.967
X-116.313 Y-8.022
X-116.424 Y-8.124
X-116.447 Y-8.163
X-116.486 Y-8.27
X-116.483 Y-8.383
X-116.437 Y-8.488
X-116.356 Y-8.567
X-116.238 Y-8.646
X-116.207 Y-8.668
X-116.174 Y-8.682
X-116.137 Y-8.684
X-116.102 Y-8.672
X-116.074 Y-8.648
X-116.056 Y-8.616
X-115.896 Y-8.119
X-115.892 Y-8.082
X-115.901 Y-8.047
X-115.922 Y-8.017
X-115.953 Y-7.996
X-116.168 Y-7.913
X-116.24 Y-7.89
X-116.39 Y-7.894
X-116.523 Y-7.963
X-116.622 Y-8.075
X-116.631 Y-8.096
X-116.652 Y-8.236
X-116.608 Y-8.369
X-116.508 Y-8.468
X-116.492 Y-8.477
X-116.356 Y-8.567
X-116.32 Y-8.581
X-116.282 Y-8.58
X-116.247 Y-8.564
X-116.22 Y-8.537
X-116.206 Y-8.502
X-116.109 Y-8.025
X-116.108 Y-7.991
X-116.119 Y-7.959
X-116.14 Y-7.932
X-116.168 Y-7.913
X-116.376 Y-7.834
X-116.447 Y-7.81
X-116.596 Y-7.827
X-116.723 Y-7.906
X-116.808 Y-8.03
X-116.813 Y-8.047
X-116.815 Y-8.19
X-116.751 Y-8.317
X-116.635 Y-8.401
X-116.545 Y-8.445
X-116.508 Y-8.468
X-116.47 Y-8.479
X-116.431 Y-8.476
X-116.396 Y-8.458
X-116.371 Y-8.427
X-116.36 Y-8.39
X-116.315 Y-7.935
X-116.317 Y-7.904
X-116.329 Y-7.875
X-116.349 Y-7.85
X-116.376 Y-7.834
X-116.545 Y-7.769
X-116.603 Y-7.751
X-116.677 Y-7.747
X-116.822 Y-7.787
X-116.936 Y-7.885
X-117.001 Y-8.02
X-117.003 Y-8.04
X-116.983 Y-8.176
X-116.905 Y-8.288
X-116.785 Y-8.354
X-116.682 Y-8.384
X-116.656 Y-8.392
X-116.635 Y-8.401
X-116.598 Y-8.407
X-116.562 Y-8.399
X-116.531 Y-8.378
X-116.509 Y-8.347
X-116.501 Y-8.311
X-116.484 Y-7.864
X-116.487 Y-7.835
X-116.499 Y-7.807
X-116.519 Y-7.784
X-116.545 Y-7.769
X-116.629 Y-7.738
X-116.777 Y-7.717
X-116.852 Y-7.709
X-116.926 Y-7.721
X-117.06 Y-7.789
X-117.153 Y-7.906
X-117.162 Y-7.938
X-117.171 Y-8.055
X-117.135 Y-8.166
X-117.058 Y-8.254
X-116.954 Y-8.307
X-116.785 Y-8.354
X-116.748 Y-8.356
X-116.712 Y-8.344
X-116.684 Y-8.32
X-116.666 Y-8.287
X-116.662 Y-8.25
X-116.695 Y-7.807
X-116.703 Y-7.776
X-116.721 Y-7.748
X-116.746 Y-7.728
X-116.777 Y-7.717
X-117.014 Y-7.681
X-117.089 Y-7.674
X-117.159 Y-7.702
X-117.279 Y-7.791
X-117.349 Y-7.924
X-117.352 Y-7.951
X-117.341 Y-8.066
X-117.288 Y-8.169
X-117.2 Y-8.244
X-117.09 Y-8.28
X-117.052 Y-8.285
X-116.968 Y-8.303
X-116.954 Y-8.307
X-116.92 Y-8.309
X-116.888 Y-8.3
X-116.86 Y-8.281
X-116.84 Y-8.253
X-116.831 Y-8.221
X-116.833 Y-8.187
X-116.935 Y-7.757
X-116.951 Y-7.722
X-116.979 Y-7.695
X-117.014 Y-7.681
X-117.184 Y-7.656
X-117.258 Y-7.649
X-117.398 Y-7.703
X-117.497 Y-7.816
X-117.542 Y-7.959
X-117.541 Y-7.976
X-117.502 Y-8.108
X-117.407 Y-8.209
X-117.277 Y-8.257
X-117.09 Y-8.28
X-117.052 Y-8.276
X-117.018 Y-8.258
X-116.993 Y-8.228
X-116.982 Y-8.191
X-116.985 Y-8.153
X-117.105 Y-7.728
X-117.122 Y-7.695
X-117.149 Y-7.67
X-117.184 Y-7.656
X-117.349 Y-7.632
X-117.423 Y-7.625
X-117.496 Y-7.643
X-117.623 Y-7.723
X-117.705 Y-7.849
X-117.728 Y-7.997
X-117.727 Y-8.003
X-117.672 Y-8.124
X-117.571 Y-8.21
X-117.442 Y-8.243
X-117.391 Y-8.244
X-117.277 Y-8.257
X-117.24 Y-8.253
X-117.207 Y-8.236
X-117.182 Y-8.208
X-117.17 Y-8.172
X-117.171 Y-8.135
X-117.269 Y-7.708
X-117.285 Y-7.673
X-117.313 Y-7.646
X-117.349 Y-7.632
X-117.56 Y-7.601
X-117.634 Y-7.611
X-117.774 Y-7.666
X-117.869 Y-7.782
X-117.916 Y-7.924
X-117.915 Y-7.962
X-117.885 Y-8.08
X-117.811 Y-8.176
X-117.705 Y-8.235
X-117.585 Y-8.247
X-117.56 Y-8.244
X-117.475 Y-8.242
X-117.442 Y-8.243
X-117.406 Y-8.236
X-117.374 Y-8.216
X-117.353 Y-8.186
X-117.343 Y-8.15
X-117.347 Y-8.114
X-117.482 Y-7.671
X-117.499 Y-7.638
X-117.526 Y-7.614
X-117.56 Y-7.601
X-117.645 Y-7.608
X-117.814 Y-7.625
X-117.888 Y-7.637
X-118.012 Y-7.722
X-118.085 Y-7.852
X-118.105 Y-8.001
X-118.097 Y-8.034
X-118.033 Y-8.162
X-117.916 Y-8.246
X-117.774 Y-8.266
X-117.585 Y-8.247
X-117.549 Y-8.235
X-117.52 Y-8.211
X-117.503 Y-8.177
X-117.499 Y-8.14
X-117.509 Y-8.104
X-117.717 Y-7.681
X-117.741 Y-7.65
X-117.775 Y-7.63
X-117.814 Y-7.625
X-117.983 Y-7.643
X-118.057 Y-7.655
X-118.124 Y-7.689
X-118.231 Y-7.794
X-118.286 Y-7.933
X-118.282 Y-8.083
X-118.273 Y-8.108
X-118.193 Y-8.223
X-118.07 Y-8.29
X-117.929 Y-8.293
X-117.814 Y-8.27
X-117.774 Y-8.266
X-117.739 Y-8.255
X-117.711 Y-8.231
X-117.693 Y-8.199
X-117.688 Y-8.162
X-117.696 Y-8.127
X-117.885 Y-7.702
X-117.901 Y-7.677
X-117.924 Y-7.657
X-117.953 Y-7.646
X-117.983 Y-7.643
X-118.152 Y-7.662
X-118.199 Y-7.671
X-118.271 Y-7.69
X-118.395 Y-7.775
X-118.464 Y-7.908
X-118.475 Y-8.003
X-118.456 Y-8.147
X-118.373 Y-8.266
X-118.244 Y-8.332
X-118.099 Y-8.33
X-117.929 Y-8.293
X-117.897 Y-8.278
X-117.871 Y-8.253
X-117.857 Y-8.22
X-117.855 Y-8.184
X-117.866 Y-8.149
X-118.094 Y-7.723
X-118.113 Y-7.698
X-118.138 Y-7.68
X-118.168 Y-7.671
X-118.199
X-118.237 Y-7.679
X-118.406 Y-7.723
X-118.478 Y-7.746
X-118.596 Y-7.838
X-118.653 Y-7.976
X-118.659 Y-8.126
X-118.617 Y-8.27
X-118.602 Y-8.291
X-118.503 Y-8.378
X-118.375 Y-8.414
X-118.245 Y-8.391
X-118.099 Y-8.33
X-118.072 Y-8.312
X-118.052 Y-8.285
X-118.042 Y-8.253
X-118.043 Y-8.22
X-118.054 Y-8.189
X-118.298 Y-7.771
X-118.318 Y-7.746
X-118.344 Y-7.729
X-118.375 Y-7.721
X-118.406 Y-7.723
X-118.622 Y-7.78
X-118.693 Y-7.802
X-118.797 Y-7.911
X-118.846 Y-8.053
X-118.85 Y-8.203
X-118.802 Y-8.345
X-118.786 Y-8.369
X-118.679 Y-8.463
X-118.541 Y-8.497
X-118.402 Y-8.464
X-118.321 Y-8.423
X-118.245 Y-8.391
X-118.216 Y-8.371
X-118.196 Y-8.342
X-118.187 Y-8.307
X-118.191 Y-8.272
X-118.206 Y-8.24
X-118.519 Y-7.818
X-118.548 Y-7.792
X-118.583 Y-7.779
X-118.622 Y-7.78
X-118.702 Y-7.801
X-118.744 Y-7.813
X-118.829 Y-7.861
X-118.955 Y-7.943
X-119.026 Y-8.075
X-119.042 Y-8.224
X-119.013 Y-8.372
X-118.941 Y-8.503
X-118.924 Y-8.519
X-118.815 Y-8.584
X-118.69 Y-8.599
X-118.57 Y-8.56
X-118.402 Y-8.464
X-118.376 Y-8.443
X-118.358 Y-8.413
X-118.351 Y-8.38
X-118.356 Y-8.346
X-118.372 Y-8.316
X-118.704 Y-7.889
X-118.729 Y-7.866
X-118.761 Y-7.852
X-118.796 Y-7.851
X-118.829 Y-7.861
X-119.016 Y-7.97
X-119.053 Y-7.993
X-119.114 Y-8.036
X-119.198 Y-8.161
X-119.221 Y-8.309
X-119.198 Y-8.457
X-119.13 Y-8.591
X-119.104 Y-8.618
X-118.983 Y-8.696
X-118.839 Y-8.706
X-118.708 Y-8.646
X-118.66 Y-8.613
X-118.57 Y-8.56
X-118.543 Y-8.536
X-118.527 Y-8.505
X-118.523 Y-8.47
X-118.531 Y-8.435
X-118.55 Y-8.406
X-118.93 Y-8.01
X-118.957 Y-7.991
X-118.988 Y-7.981
X-119.022
X-119.053 Y-7.993
X-119.214 Y-8.095
X-119.275 Y-8.139
X-119.368 Y-8.256
X-119.397 Y-8.403
X-119.377 Y-8.552
X-119.311 Y-8.687
X-119.212 Y-8.8
X-119.189 Y-8.813
X-119.058 Y-8.853
X-118.923 Y-8.83
X-118.812 Y-8.749
X-118.76 Y-8.689
X-118.744 Y-8.675
X-118.708 Y-8.646
X-118.687 Y-8.62
X-118.676 Y-8.59
X-118.675 Y-8.557
X-118.684 Y-8.526
X-118.703 Y-8.499
X-119.093 Y-8.111
X-119.119 Y-8.092
X-119.151 Y-8.082
X-119.183 Y-8.084
X-119.214 Y-8.095
X-119.282 Y-8.139
X-119.337 Y-8.178
X-119.421 Y-8.247
X-119.477 Y-8.297
X-119.55 Y-8.428
X-119.559 Y-8.578
X-119.521 Y-8.723
X-119.45 Y-8.855
X-119.341 Y-8.958
X-119.314 Y-8.973
X-119.182 Y-9.009
X-119.048 Y-8.982
X-118.939 Y-8.899
X-118.869 Y-8.815
X-118.812 Y-8.749
X-118.794 Y-8.714
X-118.791 Y-8.675
X-118.803 Y-8.637
X-118.829 Y-8.607
X-119.3 Y-8.247
X-119.328 Y-8.232
X-119.36 Y-8.226
X-119.393 Y-8.232
X-119.421 Y-8.247
X-119.59 Y-8.385
X-119.646 Y-8.435
X-119.713 Y-8.57
X-119.718 Y-8.72
X-119.681 Y-8.865
X-119.609 Y-8.997
X-119.502 Y-9.102
X-119.457 Y-9.129
X-119.323 Y-9.17
X-119.184 Y-9.146
X-119.072 Y-9.061
X-118.939 Y-8.899
X-118.922 Y-8.864
X-118.92 Y-8.824
X-118.933 Y-8.787
X-118.96 Y-8.758
X-119.471 Y-8.384
X-119.499 Y-8.37
X-119.531 Y-8.365
X-119.562 Y-8.37
X-119.59 Y-8.385
X-119.675 Y-8.454
X-119.701 Y-8.477
X-119.72 Y-8.496
X-119.783 Y-8.587
X-119.862 Y-8.714
X-119.872 Y-8.864
X-119.836 Y-9.009
X-119.765 Y-9.141
X-119.661 Y-9.25
X-119.535 Y-9.331
X-119.506 Y-9.339
X-119.374 Y-9.346
X-119.252 Y-9.296
X-119.163 Y-9.197
X-119.138 Y-9.152
X-119.083 Y-9.074
X-119.072 Y-9.061
X-119.057 Y-9.032
X-119.052 Y-9
X-119.057 Y-8.967
X-119.073 Y-8.938
X-119.098 Y-8.916
X-119.114 Y-8.906
X-119.649 Y-8.563
X-119.684 Y-8.549
X-119.721 Y-8.548
X-119.756 Y-8.562
X-119.783 Y-8.587
X-119.929 Y-8.796
X-119.969 Y-8.86
X-120.003 Y-9.006
X-119.977 Y-9.154
X-119.912 Y-9.288
X-119.817 Y-9.404
X-119.695 Y-9.493
X-119.556 Y-9.547
X-119.44 Y-9.534
X-119.34 Y-9.479
X-119.268 Y-9.391
X-119.163 Y-9.197
X-119.152 Y-9.16
X-119.157 Y-9.12
X-119.177 Y-9.086
X-119.208 Y-9.062
X-119.225 Y-9.053
X-119.804 Y-8.767
X-119.837 Y-8.757
X-119.872 Y-8.759
X-119.904 Y-8.773
X-119.929 Y-8.796
X-119.942 Y-8.815
X-120.013 Y-8.928
X-120.063 Y-9.009
X-120.099 Y-9.074
X-120.122 Y-9.223
X-120.086 Y-9.368
X-120.012 Y-9.499
X-119.91 Y-9.608
X-119.788 Y-9.696
X-119.726 Y-9.717
X-119.581 Y-9.73
X-119.447 Y-9.673
X-119.356 Y-9.56
X-119.337 Y-9.519
X-119.322 Y-9.49
X-119.268 Y-9.391
X-119.259 Y-9.36
Y-9.328
X-119.27 Y-9.298
X-119.29 Y-9.273
X-119.316 Y-9.255
X-119.351 Y-9.239
X-119.938 Y-8.973
X-119.972 Y-8.964
X-120.007 Y-8.968
X-120.038 Y-8.983
X-120.063 Y-9.009
X-120.099 Y-9.068
X-120.148 Y-9.152
X-120.183 Y-9.222
X-120.212 Y-9.291
X-120.227 Y-9.44
X-120.184 Y-9.584
X-120.105 Y-9.711
X-119.999 Y-9.818
X-119.87 Y-9.893
X-119.727 Y-9.938
X-119.701 Y-9.939
X-119.572 Y-9.91
X-119.468 Y-9.828
X-119.408 Y-9.71
X-119.391 Y-9.638
X-119.387 Y-9.628
X-119.356 Y-9.56
X-119.348 Y-9.522
X-119.356 Y-9.483
X-119.378 Y-9.45
X-119.412 Y-9.428
X-119.461 Y-9.409
X-120.058 Y-9.177
X-120.094 Y-9.17
X-120.129 Y-9.176
X-120.16 Y-9.194
X-120.183 Y-9.222
X-120.286 Y-9.431
X-120.316 Y-9.5
X-120.327 Y-9.65
X-120.281 Y-9.792
X-120.198 Y-9.917
X-120.088 Y-10.02
X-119.961 Y-10.099
X-119.818 Y-10.143
X-119.762 Y-10.146
X-119.624 Y-10.121
X-119.512 Y-10.035
X-119.452 Y-9.908
X-119.421 Y-9.762
X-119.408 Y-9.71
Y-9.673
X-119.42 Y-9.639
X-119.445 Y-9.611
X-119.477 Y-9.594
X-119.549 Y-9.572
X-120.169 Y-9.383
X-120.203 Y-9.379
X-120.236 Y-9.386
X-120.265 Y-9.405
X-120.286 Y-9.431
X-120.352 Y-9.566
X-120.355 Y-9.575
X-120.375 Y-9.659
X-120.386 Y-9.706
X-120.41 Y-9.854
X-120.366 Y-9.997
X-120.283 Y-10.122
X-120.175 Y-10.225
X-120.047 Y-10.305
X-119.905 Y-10.352
X-119.756 Y-10.367
X-119.73 Y-10.362
X-119.614 Y-10.313
X-119.529 Y-10.222
X-119.488 Y-10.104
X-119.485 Y-10.082
X-119.471 Y-9.997
X-119.452 Y-9.908
X-119.453 Y-9.87
X-119.468 Y-9.835
X-119.494 Y-9.808
X-119.529 Y-9.793
X-119.65 Y-9.767
X-120.267 Y-9.633
X-120.305 Y-9.632
X-120.341 Y-9.645
X-120.369 Y-9.671
X-120.386 Y-9.706
X-120.444 Y-9.97
X-120.456 Y-10.044
X-120.433 Y-10.192
X-120.358 Y-10.322
X-120.252 Y-10.428
X-120.127 Y-10.51
X-119.987 Y-10.566
X-119.839 Y-10.589
X-119.784 Y-10.584
X-119.655 Y-10.541
X-119.558 Y-10.446
X-119.513 Y-10.317
X-119.506 Y-10.249
X-119.488 Y-10.104
X-119.492 Y-10.066
X-119.509 Y-10.032
X-119.538 Y-10.008
X-119.574 Y-9.996
X-119.699 Y-9.979
X-120.334 Y-9.896
X-120.37 Y-9.897
X-120.403 Y-9.912
X-120.429 Y-9.937
X-120.444 Y-9.97
X-120.468 Y-10.082
X-120.484 Y-10.166
X-120.49 Y-10.212
X-120.503 Y-10.362
X-120.443 Y-10.499
X-120.347 Y-10.614
X-120.228 Y-10.706
X-120.093 Y-10.771
X-119.947 Y-10.807
X-119.797 Y-10.809
X-119.757 Y-10.8
X-119.642 Y-10.745
X-119.56 Y-10.648
X-119.526 Y-10.526
X-119.515 Y-10.335
X-119.513 Y-10.317
X-119.518 Y-10.279
X-119.536 Y-10.246
X-119.566 Y-10.222
X-119.603 Y-10.211
X-119.749 Y-10.195
X-120.381 Y-10.13
X-120.419 Y-10.133
X-120.452 Y-10.15
X-120.477 Y-10.178
X-120.49 Y-10.212
X-120.495 Y-10.25
X-120.505 Y-10.335
X-120.519 Y-10.504
X-120.521 Y-10.579
X-120.474 Y-10.721
X-120.38 Y-10.838
X-120.261 Y-10.929
X-120.126 Y-10.994
X-119.981 Y-11.033
X-119.831 Y-11.037
X-119.771 Y-11.025
X-119.646 Y-10.968
X-119.559 Y-10.862
X-119.528 Y-10.727
X-119.53 Y-10.588
X-119.526 Y-10.526
X-119.533 Y-10.487
X-119.554 Y-10.454
X-119.587 Y-10.431
X-119.625 Y-10.423
X-119.78 Y-10.422
X-120.419 Y-10.416
X-120.454 Y-10.422
X-120.486 Y-10.441
X-120.508 Y-10.469
X-120.519 Y-10.504
X-120.537 Y-10.719
X-120.539 Y-10.794
X-120.501 Y-10.939
X-120.41 Y-11.059
X-120.292 Y-11.151
X-120.157 Y-11.218
X-120.013 Y-11.258
X-119.863 Y-11.265
X-119.715 Y-11.242
X-119.696 Y-11.233
X-119.601 Y-11.164
X-119.54 Y-11.062
X-119.523 Y-10.945
X-119.527 Y-10.842
X-119.528 Y-10.727
X-119.537 Y-10.69
X-119.559 Y-10.66
X-119.591 Y-10.639
X-119.628 Y-10.632
X-119.797
X-120.437 Y-10.631
X-120.473 Y-10.638
X-120.504 Y-10.656
X-120.526 Y-10.685
X-120.537 Y-10.719
X-120.547 Y-10.842
X-120.544 Y-10.926
X-120.538 Y-11.011
X-120.518 Y-11.159
X-120.431 Y-11.281
X-120.314 Y-11.376
X-120.18 Y-11.443
X-120.036 Y-11.484
X-119.886 Y-11.499
X-119.737 Y-11.48
X-119.702 Y-11.467
X-119.593 Y-11.396
X-119.524 Y-11.285
X-119.508 Y-11.156
X-119.514 Y-11.095
X-119.523 Y-10.945
X-119.533 Y-10.908
X-119.557 Y-10.878
X-119.591 Y-10.859
X-119.629 Y-10.854
X-119.815 Y-10.866
X-120.444 Y-10.906
X-120.481 Y-10.916
X-120.512 Y-10.939
X-120.532 Y-10.973
X-120.538 Y-11.011
X-120.517 Y-11.264
X-120.497 Y-11.413
X-120.407 Y-11.533
X-120.287 Y-11.623
X-120.151 Y-11.685
X-120.005 Y-11.72
X-119.855 Y-11.729
X-119.707 Y-11.703
X-119.661 Y-11.684
X-119.552 Y-11.608
X-119.487 Y-11.492
X-119.478 Y-11.359
X-119.506 Y-11.18
X-119.508 Y-11.156
X-119.521 Y-11.12
X-119.546 Y-11.091
X-119.58 Y-11.073
X-119.618 Y-11.07
X-119.797 Y-11.09
X-120.428 Y-11.16
X-120.464 Y-11.171
X-120.493 Y-11.194
X-120.512 Y-11.227
X-120.517 Y-11.264
X-120.503 Y-11.433
X-120.489 Y-11.517
X-120.48 Y-11.564
X-120.462 Y-11.637
X-120.38 Y-11.763
X-120.262 Y-11.854
X-120.125 Y-11.916
X-119.979 Y-11.95
X-119.829 Y-11.957
X-119.681 Y-11.93
X-119.621 Y-11.905
X-119.507 Y-11.825
X-119.442 Y-11.701
X-119.441 Y-11.561
X-119.451 Y-11.517
X-119.467 Y-11.433
X-119.478 Y-11.359
X-119.493 Y-11.323
X-119.521 Y-11.295
X-119.558 Y-11.28
X-119.597 Y-11.281
X-119.782 Y-11.32
X-120.402 Y-11.45
X-120.437 Y-11.465
X-120.464 Y-11.492
X-120.479 Y-11.526
X-120.48 Y-11.564
X-120.473 Y-11.602
X-120.422 Y-11.817
X-120.402 Y-11.889
X-120.317 Y-12.014
X-120.195 Y-12.101
X-120.056 Y-12.157
X-119.908 Y-12.182
X-119.758 Y-12.179
X-119.612 Y-12.144
X-119.477 Y-12.081
X-119.466 Y-12.071
X-119.392 Y-11.976
X-119.362 Y-11.859
X-119.381 Y-11.739
X-119.431 Y-11.602
X-119.441 Y-11.561
X-119.458 Y-11.526
X-119.487 Y-11.5
X-119.524 Y-11.488
X-119.563 Y-11.49
X-119.737 Y-11.537
X-120.35 Y-11.701
X-120.384 Y-11.718
X-120.409 Y-11.745
X-120.423 Y-11.78
X-120.422 Y-11.817
X-120.374 Y-12.024
X-120.366 Y-12.051
X-120.334 Y-12.109
X-120.256 Y-12.236
X-120.136 Y-12.327
X-119.996 Y-12.381
X-119.848 Y-12.404
X-119.698 Y-12.399
X-119.551 Y-12.369
X-119.463 Y-12.327
X-119.371 Y-12.26
X-119.309 Y-12.164
X-119.287 Y-12.052
X-119.306 Y-11.94
X-119.381 Y-11.739
X-119.402 Y-11.708
X-119.434 Y-11.686
X-119.471 Y-11.678
X-119.508 Y-11.684
X-119.701 Y-11.756
X-120.28 Y-11.97
X-120.309 Y-11.987
X-120.331 Y-12.012
X-120.343 Y-12.043
X-120.344 Y-12.077
X-120.334 Y-12.109
X-120.195 Y-12.362
X-120.116 Y-12.489
X-119.989 Y-12.57
X-119.845 Y-12.612
X-119.696 Y-12.624
X-119.547 Y-12.604
X-119.405 Y-12.555
X-119.28 Y-12.473
X-119.265 Y-12.457
X-119.202 Y-12.353
X-119.185 Y-12.232
X-119.218 Y-12.115
X-119.265 Y-12.024
X-119.306 Y-11.94
X-119.33 Y-11.911
X-119.363 Y-11.892
X-119.4 Y-11.887
X-119.436 Y-11.896
X-119.581 Y-11.963
X-120.148 Y-12.226
X-120.175 Y-12.244
X-120.194 Y-12.27
X-120.205 Y-12.3
Y-12.332
X-120.195 Y-12.362
X-120.183 Y-12.385
X-120.037 Y-12.616
X-119.938 Y-12.729
X-119.805 Y-12.798
X-119.658 Y-12.826
X-119.508 Y-12.82
X-119.363 Y-12.781
X-119.229 Y-12.714
X-119.186 Y-12.677
X-119.105 Y-12.569
X-119.081 Y-12.436
X-119.117 Y-12.306
X-119.178 Y-12.193
X-119.218 Y-12.115
X-119.238 Y-12.09
X-119.265 Y-12.072
X-119.296 Y-12.064
X-119.328 Y-12.066
X-119.358 Y-12.079
X-119.467 Y-12.147
X-120.003 Y-12.48
X-120.031 Y-12.506
X-120.047 Y-12.541
X-120.049 Y-12.579
X-120.037 Y-12.616
X-119.844 Y-12.858
X-119.795 Y-12.914
X-119.666 Y-12.991
X-119.518 Y-13.017
X-119.368 Y-13.006
X-119.225 Y-12.963
X-119.096 Y-12.886
X-119.046 Y-12.838
X-118.971 Y-12.717
X-118.965 Y-12.574
X-119.028 Y-12.447
X-119.083 Y-12.369
X-119.117 Y-12.306
X-119.139 Y-12.28
X-119.168 Y-12.263
X-119.202 Y-12.257
X-119.235 Y-12.262
X-119.265 Y-12.278
X-119.33 Y-12.329
X-119.826 Y-12.72
X-119.851 Y-12.749
X-119.863 Y-12.785
X-119.861 Y-12.823
X-119.844 Y-12.858
X-119.76 Y-12.965
X-119.741 Y-12.986
X-119.729 Y-12.998
X-119.717 Y-13.007
X-119.59 Y-13.099
X-119.464 Y-13.18
X-119.315 Y-13.194
X-119.168 Y-13.167
X-119.03 Y-13.107
X-118.912 Y-13.014
X-118.874 Y-12.965
X-118.823 Y-12.864
X-118.813 Y-12.752
X-118.845 Y-12.644
X-118.915 Y-12.555
X-118.998 Y-12.481
X-119.028 Y-12.447
X-119.055 Y-12.426
X-119.087 Y-12.416
X-119.12 Y-12.417
X-119.152 Y-12.428
X-119.177 Y-12.45
X-119.202 Y-12.479
X-119.605 Y-12.955
X-119.622 Y-12.983
X-119.629 Y-13.014
X-119.626 Y-13.046
X-119.612 Y-13.075
X-119.59 Y-13.099
X-119.421 Y-13.22
X-119.363 Y-13.261
X-119.337 Y-13.279
X-119.319 Y-13.291
X-119.252 Y-13.325
X-119.103 Y-13.335
X-118.958 Y-13.297
X-118.827 Y-13.223
X-118.719 Y-13.119
X-118.689 Y-13.065
X-118.649 Y-12.932
X-118.674 Y-12.795
X-118.758 Y-12.684
X-118.915 Y-12.555
X-118.946 Y-12.538
X-118.982 Y-12.533
X-119.017 Y-12.54
X-119.047 Y-12.56
X-119.068 Y-12.589
X-119.349 Y-13.168
X-119.359 Y-13.201
X-119.357 Y-13.235
X-119.343 Y-13.266
X-119.319 Y-13.291
X-119.252 Y-13.329
X-119.14 Y-13.389
X-119.004 Y-13.453
X-118.854 Y-13.445
X-118.715 Y-13.39
X-118.597 Y-13.297
X-118.507 Y-13.177
X-118.495 Y-13.143
X-118.479 Y-13.007
X-118.527 Y-12.878
X-118.627 Y-12.784
X-118.66 Y-12.764
X-118.758 Y-12.684
X-118.79 Y-12.668
X-118.824 Y-12.663
X-118.858 Y-12.671
X-118.888 Y-12.69
X-118.908 Y-12.718
X-119.179 Y-13.257
X-119.19 Y-13.294
X-119.186 Y-13.331
X-119.169 Y-13.364
X-119.14 Y-13.389
X-118.914 Y-13.509
X-118.871 Y-13.529
X-118.725 Y-13.562
X-118.58 Y-13.524
X-118.454 Y-13.443
X-118.355 Y-13.33
X-118.291 Y-13.194
Y-13.189
X-118.299 Y-13.072
X-118.352 Y-12.967
X-118.441 Y-12.89
X-118.627 Y-12.784
X-118.662 Y-12.774
X-118.698 Y-12.776
X-118.731 Y-12.792
X-118.756 Y-12.817
X-118.771 Y-12.851
X-118.902 Y-13.422
X-118.904 Y-13.459
X-118.892 Y-13.494
X-118.868 Y-13.522
X-118.835 Y-13.539
X-118.613 Y-13.597
X-118.54 Y-13.612
X-118.391 Y-13.593
X-118.263 Y-13.515
X-118.161 Y-13.405
X-118.142 Y-13.359
X-118.118 Y-13.247
X-118.138 Y-13.135
X-118.198 Y-13.038
X-118.29 Y-12.97
X-118.326 Y-12.953
X-118.441 Y-12.89
X-118.476 Y-12.879
X-118.513 Y-12.882
X-118.547 Y-12.898
X-118.572 Y-12.926
X-118.585 Y-12.96
X-118.683 Y-13.482
Y-13.519
X-118.67 Y-13.553
X-118.646 Y-13.58
X-118.613 Y-13.597
X-118.488 Y-13.629
X-118.406 Y-13.647
X-118.256 Y-13.66
X-118.115 Y-13.611
X-118.007 Y-13.506
X-117.939 Y-13.373
X-117.936 Y-13.347
X-117.95 Y-13.202
X-118.031 Y-13.08
X-118.16 Y-13.011
X-118.237 Y-12.992
X-118.279 Y-12.976
X-118.29 Y-12.97
X-118.327 Y-12.962
X-118.363 Y-12.968
X-118.396 Y-12.987
X-118.418 Y-13.016
X-118.429 Y-13.052
X-118.48 Y-13.54
X-118.478 Y-13.576
X-118.463 Y-13.608
X-118.438 Y-13.633
X-118.406 Y-13.647
X-118.152 Y-13.681
X-118.077 Y-13.686
X-117.931 Y-13.651
X-117.819 Y-13.552
X-117.756 Y-13.416
X-117.752 Y-13.384
X-117.769 Y-13.239
X-117.853 Y-13.118
X-117.984 Y-13.052
X-118.114 Y-13.022
X-118.16 Y-13.011
X-118.197
X-118.232 Y-13.023
X-118.26 Y-13.048
X-118.277 Y-13.082
X-118.28 Y-13.119
X-118.235 Y-13.592
X-118.227 Y-13.624
X-118.209 Y-13.651
X-118.183 Y-13.671
X-118.152 Y-13.681
X-117.936 Y-13.705
X-117.873 Y-13.709
X-117.8 Y-13.691
X-117.671 Y-13.614
X-117.59 Y-13.488
X-117.58 Y-13.449
X-117.578 Y-13.329
X-117.621 Y-13.218
X-117.705 Y-13.133
X-117.815 Y-13.087
X-117.898 Y-13.071
X-117.984 Y-13.052
X-118.022
X-118.058 Y-13.067
X-118.085 Y-13.094
X-118.1 Y-13.129
X-118.101 Y-13.168
X-118.021 Y-13.624
X-118.01 Y-13.653
X-117.992 Y-13.678
X-117.966 Y-13.696
X-117.936 Y-13.705
X-117.86 Y-13.714
X-117.814 Y-13.713
X-117.683 Y-13.706
X-117.608 Y-13.698
X-117.479 Y-13.621
X-117.404 Y-13.491
X-117.384 Y-13.342
X-117.436 Y-13.223
X-117.532 Y-13.138
X-117.654 Y-13.101
X-117.815 Y-13.087
X-117.85 Y-13.088
X-117.882 Y-13.1
X-117.908 Y-13.122
X-117.925 Y-13.152
X-117.931 Y-13.185
X-117.926 Y-13.219
X-117.779 Y-13.639
X-117.764 Y-13.666
X-117.742 Y-13.688
X-117.714 Y-13.701
X-117.683 Y-13.706
X-117.56 Y-13.699
X-117.475 Y-13.687
X-117.402 Y-13.672
X-117.279 Y-13.586
X-117.209 Y-13.453
X-117.208 Y-13.424
X-117.226 Y-13.304
X-117.29 Y-13.202
X-117.389 Y-13.133
X-117.508 Y-13.108
X-117.56 Y-13.109
X-117.654 Y-13.101
X-117.688 Y-13.105
X-117.718 Y-13.12
X-117.742 Y-13.144
X-117.756 Y-13.175
X-117.759 Y-13.209
X-117.75 Y-13.242
X-117.577 Y-13.628
X-117.56 Y-13.654
X-117.536 Y-13.674
X-117.507 Y-13.685
X-117.475 Y-13.687
X-117.306 Y-13.661
X-117.26 Y-13.65
X-117.222 Y-13.642
X-117.187 Y-13.628
X-117.13 Y-13.579
X-117.053 Y-13.45
X-117.051 Y-13.428
X-117.068 Y-13.307
X-117.132 Y-13.203
X-117.232 Y-13.133
X-117.351 Y-13.108
X-117.508
X-117.544 Y-13.116
X-117.574 Y-13.137
X-117.595 Y-13.166
X-117.604 Y-13.202
X-117.6 Y-13.238
X-117.583 Y-13.27
X-117.319 Y-13.605
X-117.292 Y-13.629
X-117.258 Y-13.642
X-117.222
X-117.052 Y-13.586
X-117.018 Y-13.572
X-116.965 Y-13.519
X-116.897 Y-13.385
Y-13.382
X-116.928 Y-13.265
X-117.003 Y-13.169
X-117.109 Y-13.111
X-117.229 Y-13.1
X-117.306 Y-13.108
X-117.351
X-117.388 Y-13.117
X-117.419 Y-13.138
X-117.44 Y-13.17
X-117.448 Y-13.207
X-117.441 Y-13.245
X-117.42 Y-13.277
X-117.154 Y-13.559
X-117.124 Y-13.58
X-117.089 Y-13.59
X-117.052 Y-13.586
X-116.968 Y-13.557
X-116.909 Y-13.53
X-116.842 Y-13.496
X-116.801 Y-13.433
X-116.778 Y-13.362
X-116.803 Y-13.245
X-116.873 Y-13.149
X-116.978 Y-13.091
X-117.096 Y-13.082
X-117.229 Y-13.1
X-117.265 Y-13.112
X-117.294 Y-13.136
X-117.311 Y-13.17
X-117.315 Y-13.207
X-117.305 Y-13.243
X-117.282 Y-13.273
X-117.014 Y-13.513
X-116.982 Y-13.532
X-116.945 Y-13.538
X-116.909 Y-13.53
X-116.755 Y-13.46
X-116.72 Y-13.442
X-116.681 Y-13.378
X-116.683 Y-13.25
X-116.745 Y-13.139
X-116.853 Y-13.071
X-116.98 Y-13.062
X-117.052 Y-13.076
X-117.096 Y-13.082
X-117.133 Y-13.096
X-117.162 Y-13.124
X-117.177 Y-13.16
X-117.178 Y-13.2
X-117.162 Y-13.236
X-117.134 Y-13.264
X-116.848 Y-13.451
X-116.819 Y-13.465
X-116.787 Y-13.468
X-116.755 Y-13.46
X-116.714 Y-13.441
X-116.693 Y-13.429
X-116.672 Y-13.415
X-116.613 Y-13.368
X-116.543 Y-13.235
Y-13.232
X-116.585 Y-13.135
X-116.661 Y-13.063
X-116.761 Y-13.029
X-116.865 Y-13.038
X-116.98 Y-13.062
X-117.015 Y-13.078
X-117.042 Y-13.105
X-117.056 Y-13.14
X-117.057 Y-13.178
X-117.043 Y-13.213
X-117.017 Y-13.241
X-116.784 Y-13.411
X-116.748 Y-13.428
X-116.709 Y-13.429
X-116.672 Y-13.415
X-116.545 Y-13.321
X-116.51 Y-13.291
X-116.418 Y-13.207
X-116.376 Y-13.165
X-116.337 Y-13.122
X-116.264 Y-13.038
X-116.206 Y-12.975
X-116.183 Y-12.953
X-116.122 Y-12.906
X-116.054 Y-12.869
X-116.027 Y-12.846
X-115.887 Y-12.674
X-115.592 Y-12.315
X-115.575 Y-12.284
X-115.57 Y-12.249
X-115.577 Y-12.214
X-115.596 Y-12.184
X-115.624 Y-12.163
X-115.658 Y-12.152
X-115.693 Y-12.154
X-115.726 Y-12.169
X-115.751 Y-12.193
X-115.808 Y-12.278
X-115.868 Y-12.357
X-115.953 Y-12.447
X-116.207 Y-12.7
X-116.249 Y-12.739
X-116.291 Y-12.771
X-116.312 Y-12.784
X-116.376 Y-12.821
X-116.464 Y-12.869
X-116.545 Y-12.907
X-116.714 Y-12.983
X-116.799 Y-13.018
X-116.865 Y-13.038
X-116.898 Y-13.056
X-116.921 Y-13.085
X-116.932 Y-13.121
X-116.93 Y-13.158
X-116.913 Y-13.192
X-116.886 Y-13.217
X-116.851 Y-13.231
X-116.814
X-116.779 Y-13.217
X-116.403 Y-12.975
X-115.5 Y-12.395
X-115.473 Y-12.37
X-115.458 Y-12.337
X-115.455 Y-12.301
X-115.465 Y-12.266
X-115.487 Y-12.237
X-115.518 Y-12.218
X-115.554 Y-12.211
X-115.59 Y-12.218
X-115.621 Y-12.237
X-115.643 Y-12.266
X-115.654 Y-12.301
X-115.65 Y-12.338
G3 X-115.36 Y-13.068 I3.513 J0.974
G1 X-115.329 Y-13.122
X-115.295 Y-13.207
X-115.267 Y-13.276
X-115.168 Y-13.389
X-115.031 Y-13.451
X-114.883 Y-13.475
X-114.733 Y-13.468
X-114.587 Y-13.435
X-114.447 Y-13.38
X-114.437 Y-13.373
X-114.365 Y-13.312
X-114.315 Y-13.232
X-114.293 Y-13.14
X-114.291 Y-13.122
X-114.282 Y-12.832
X-114.29 Y-12.793
X-114.312 Y-12.761
X-114.345 Y-12.739
X-114.384 Y-12.732
X-114.422 Y-12.74
X-114.643 Y-12.836
X-115.237 Y-13.094
X-115.265 Y-13.113
X-115.286 Y-13.14
X-115.296 Y-13.173
X-115.295 Y-13.207
X-115.284 Y-13.249
X-115.276 Y-13.295
X-115.273 Y-13.339
X-115.265 Y-13.414
X-115.194 Y-13.546
X-115.071 Y-13.632
X-114.929 Y-13.68
X-114.78 Y-13.696
X-114.63 Y-13.685
X-114.544 Y-13.665
X-114.432 Y-13.612
X-114.35 Y-13.518
X-114.314 Y-13.399
X-114.293 Y-13.14
X-114.298 Y-13.103
X-114.316 Y-13.071
X-114.345 Y-13.048
X-114.381 Y-13.036
X-114.418 Y-13.039
X-114.567 Y-13.078
X-115.198 Y-13.24
X-115.229 Y-13.254
X-115.253 Y-13.277
X-115.268 Y-13.306
X-115.273 Y-13.339
X-115.271 Y-13.376
X-115.276 Y-13.471
X-115.278 Y-13.511
X-115.279 Y-13.586
X-115.219 Y-13.724
X-115.105 Y-13.822
X-114.969 Y-13.885
X-114.823 Y-13.918
X-114.673 Y-13.923
X-114.525 Y-13.9
X-114.519 Y-13.897
X-114.429 Y-13.839
X-114.366 Y-13.752
X-114.337 Y-13.649
X-114.314 Y-13.399
X-114.319 Y-13.364
X-114.335 Y-13.332
X-114.362 Y-13.309
X-114.395 Y-13.296
X-114.43 Y-13.295
X-114.55 Y-13.315
X-115.195 Y-13.423
X-115.226 Y-13.433
X-115.252 Y-13.453
X-115.27 Y-13.48
X-115.278 Y-13.511
X-115.291 Y-13.714
X-115.293 Y-13.789
X-115.231 Y-13.925
X-115.121 Y-14.027
X-114.989 Y-14.097
X-114.845 Y-14.14
X-114.696 Y-14.155
X-114.621 Y-14.146
X-114.495 Y-14.1
X-114.402 Y-14.005
X-114.36 Y-13.878
X-114.337 Y-13.649
X-114.341 Y-13.615
X-114.356 Y-13.584
X-114.382 Y-13.56
X-114.413 Y-13.546
X-114.448 Y-13.544
X-114.556 Y-13.555
X-115.203 Y-13.625
X-115.235 Y-13.634
X-115.263 Y-13.654
X-115.282 Y-13.681
X-115.291 Y-13.714
X-115.304 Y-13.883
X-115.306 Y-13.957
X-115.269 Y-14.103
X-115.171 Y-14.216
X-115.046 Y-14.299
X-114.907 Y-14.355
X-114.759 Y-14.38
X-114.684 Y-14.376
X-114.558 Y-14.341
X-114.459 Y-14.256
X-114.405 Y-14.137
X-114.37 Y-13.967
X-114.36 Y-13.878
X-114.363 Y-13.845
X-114.377 Y-13.815
X-114.4 Y-13.791
X-114.43 Y-13.776
X-114.462 Y-13.772
X-114.565 Y-13.775
X-115.208 Y-13.794
X-115.242 Y-13.801
X-115.272 Y-13.82
X-115.294 Y-13.849
X-115.304 Y-13.883
X-115.311 Y-13.967
X-115.325 Y-14.098
X-115.329 Y-14.173
X-115.287 Y-14.317
X-115.191 Y-14.432
X-115.068 Y-14.518
X-114.93 Y-14.576
X-114.782 Y-14.6
X-114.731 Y-14.597
X-114.604 Y-14.563
X-114.505 Y-14.478
X-114.451 Y-14.358
X-114.405 Y-14.137
Y-14.103
X-114.417 Y-14.071
X-114.439 Y-14.044
X-114.469 Y-14.027
X-114.502 Y-14.02
X-114.583
X-115.225 Y-14.012
X-115.26 Y-14.018
X-115.291 Y-14.036
X-115.313 Y-14.064
X-115.325 Y-14.098
X-115.338 Y-14.22
X-115.35 Y-14.305
X-115.358 Y-14.379
X-115.319 Y-14.524
X-115.226 Y-14.642
X-115.105 Y-14.731
X-114.968 Y-14.792
X-114.82 Y-14.817
X-114.776 Y-14.815
X-114.654 Y-14.782
X-114.556 Y-14.702
X-114.5 Y-14.588
X-114.492 Y-14.558
X-114.451 Y-14.358
Y-14.324
X-114.462 Y-14.292
X-114.484 Y-14.266
X-114.513 Y-14.248
X-114.547 Y-14.242
X-114.605 Y-14.24
X-115.249 Y-14.223
X-115.284 Y-14.229
X-115.315 Y-14.245
X-115.338 Y-14.272
X-115.35 Y-14.305
X-115.376 Y-14.474
X-115.384 Y-14.52
X-115.393 Y-14.595
X-115.352 Y-14.739
X-115.26 Y-14.857
X-115.139 Y-14.947
X-115.003 Y-15.008
X-114.855 Y-15.033
X-114.826 Y-15.031
X-114.705 Y-14.997
X-114.608 Y-14.917
X-114.553 Y-14.804
X-114.5 Y-14.588
X-114.498 Y-14.553
X-114.509 Y-14.52
X-114.53 Y-14.493
X-114.56 Y-14.474
X-114.594 Y-14.467
X-114.637 Y-14.465
X-115.282 Y-14.441
X-115.317 Y-14.446
X-115.347 Y-14.462
X-115.371 Y-14.488
X-115.384 Y-14.52
X-115.39 Y-14.558
X-115.423 Y-14.727
X-115.435 Y-14.801
X-115.395 Y-14.946
X-115.305 Y-15.066
X-115.187 Y-15.158
X-115.051 Y-15.221
X-114.903 Y-15.247
X-114.885 Y-15.246
X-114.767 Y-15.213
X-114.673 Y-15.137
X-114.616 Y-15.028
X-114.578 Y-14.896
X-114.553 Y-14.804
X-114.552 Y-14.77
X-114.563 Y-14.737
X-114.584 Y-14.71
X-114.613 Y-14.691
X-114.646 Y-14.683
X-114.675 Y-14.682
X-115.321 Y-14.651
X-115.355 Y-14.655
X-115.386 Y-14.671
X-115.41 Y-14.696
X-115.423 Y-14.727
X-115.441 Y-14.812
X-115.461 Y-14.896
X-115.475 Y-14.97
X-115.461 Y-15.119
X-115.382 Y-15.247
X-115.272 Y-15.348
X-115.14 Y-15.42
X-114.994 Y-15.456
X-114.964
X-114.839 Y-15.429
X-114.737 Y-15.352
X-114.676 Y-15.239
X-114.616 Y-15.028
X-114.613 Y-14.995
X-114.622 Y-14.962
X-114.641 Y-14.935
X-114.668 Y-14.915
X-114.701 Y-14.905
X-114.714 Y-14.904
X-115.352 Y-14.824
X-115.388 Y-14.826
X-115.42 Y-14.84
X-115.446 Y-14.864
X-115.461 Y-14.896
X-115.502 Y-15.065
X-115.514 Y-15.111
X-115.529 Y-15.185
X-115.508 Y-15.334
X-115.429 Y-15.461
X-115.317 Y-15.561
X-115.186 Y-15.633
X-115.109 Y-15.65
X-114.982 Y-15.651
X-114.866 Y-15.599
X-114.782 Y-15.504
X-114.725 Y-15.403
X-114.699 Y-15.318
X-114.676 Y-15.239
X-114.673 Y-15.205
X-114.682 Y-15.172
X-114.702 Y-15.145
X-114.729 Y-15.125
X-114.761 Y-15.115
X-114.765
X-115.406 Y-15.041
X-115.441 Y-15.043
X-115.473 Y-15.056
X-115.498 Y-15.08
X-115.514 Y-15.111
X-115.567 Y-15.318
X-115.586 Y-15.391
X-115.564 Y-15.54
X-115.485 Y-15.667
X-115.374 Y-15.768
X-115.24 Y-15.835
X-115.215 Y-15.84
X-115.089 Y-15.841
X-114.973 Y-15.789
X-114.889 Y-15.694
X-114.782 Y-15.504
X-114.771 Y-15.469
X-114.774 Y-15.432
X-114.791 Y-15.398
X-114.818 Y-15.373
X-114.853 Y-15.36
X-115.455 Y-15.253
X-115.49
X-115.523 Y-15.265
X-115.55 Y-15.288
X-115.567 Y-15.318
X-115.593 Y-15.403
X-115.614 Y-15.45
X-115.633 Y-15.487
X-115.663 Y-15.556
X-115.653 Y-15.706
X-115.584 Y-15.839
X-115.479 Y-15.946
X-115.347 Y-16.017
X-115.326 Y-16.023
X-115.197 Y-16.026
X-115.078 Y-15.975
X-114.993 Y-15.879
X-114.889 Y-15.694
X-114.878 Y-15.659
X-114.881 Y-15.622
X-114.897 Y-15.589
X-114.924 Y-15.564
X-114.958 Y-15.55
X-115.525 Y-15.437
X-115.557 Y-15.436
X-115.587 Y-15.445
X-115.613 Y-15.462
X-115.633 Y-15.487
X-115.718 Y-15.656
X-115.748 Y-15.725
X-115.747 Y-15.875
X-115.684 Y-16.011
X-115.584 Y-16.122
X-115.453 Y-16.197
X-115.432 Y-16.202
X-115.302 Y-16.208
X-115.182 Y-16.157
X-115.094 Y-16.059
X-114.993 Y-15.879
X-114.982 Y-15.844
X-114.984 Y-15.808
X-115 Y-15.775
X-115.025 Y-15.75
X-115.059 Y-15.735
X-115.607 Y-15.607
X-115.64 Y-15.605
X-115.671 Y-15.613
X-115.698 Y-15.631
X-115.718 Y-15.656
X-115.803 Y-15.825
X-115.834 Y-15.893
X-115.843 Y-16.043
X-115.786 Y-16.182
X-115.689 Y-16.296
X-115.56 Y-16.374
X-115.538 Y-16.38
X-115.411 Y-16.388
X-115.293 Y-16.343
X-115.203 Y-16.253
X-115.094 Y-16.059
X-115.084 Y-16.025
X-115.086 Y-15.99
X-115.1 Y-15.957
X-115.125 Y-15.932
X-115.158 Y-15.917
X-115.691 Y-15.778
X-115.723 Y-15.775
X-115.755 Y-15.782
X-115.783 Y-15.8
X-115.803 Y-15.825
X-115.847 Y-15.91
X-115.868 Y-15.946
X-115.885 Y-15.973
X-115.923 Y-16.037
X-115.953 Y-16.184
X-115.908 Y-16.327
X-115.819 Y-16.448
X-115.698 Y-16.536
X-115.679 Y-16.543
X-115.552 Y-16.561
X-115.43 Y-16.524
X-115.333 Y-16.44
X-115.254 Y-16.332
X-115.203 Y-16.253
X-115.191 Y-16.219
Y-16.184
X-115.203 Y-16.151
X-115.227 Y-16.124
X-115.258 Y-16.107
X-115.772 Y-15.935
X-115.803 Y-15.93
X-115.835 Y-15.935
X-115.863 Y-15.95
X-115.885 Y-15.973
X-115.9 Y-15.994
X-115.967 Y-16.079
X-115.987 Y-16.104
X-116.032 Y-16.165
X-116.077 Y-16.308
X-116.045 Y-16.454
X-115.968 Y-16.583
X-115.856 Y-16.682
X-115.826 Y-16.696
X-115.694 Y-16.726
X-115.562 Y-16.694
X-115.458 Y-16.607
X-115.333 Y-16.44
X-115.319 Y-16.408
X-115.316 Y-16.373
X-115.326 Y-16.339
X-115.347 Y-16.311
X-115.376 Y-16.291
X-115.873 Y-16.078
X-115.903 Y-16.071
X-115.934 Y-16.073
X-115.963 Y-16.084
X-115.987 Y-16.104
X-116.122 Y-16.268
X-116.166 Y-16.328
X-116.199 Y-16.475
X-116.165 Y-16.621
X-116.088 Y-16.75
X-115.974 Y-16.847
X-115.969 Y-16.849
X-115.855 Y-16.878
X-115.739 Y-16.86
X-115.638 Y-16.8
X-115.617 Y-16.769
X-115.608 Y-16.732
X-115.614 Y-16.695
X-115.632 Y-16.663
X-115.971 Y-16.269
X-115.997 Y-16.247
X-116.029 Y-16.236
X-116.063
X-116.095 Y-16.247
X-116.122 Y-16.268
X-116.206 Y-16.371
X-116.246 Y-16.416
X-116.296 Y-16.473
X-116.331 Y-16.619
X-116.301 Y-16.766
X-116.228 Y-16.897
X-116.186 Y-16.934
X-116.058 Y-17.002
X-115.912 Y-17.001
X-115.784 Y-16.932
X-115.53 Y-16.7
X-115.505 Y-16.67
X-115.458 Y-16.607
X-115.443 Y-16.576
X-115.44 Y-16.541
X-115.449 Y-16.507
X-115.469 Y-16.479
X-115.497 Y-16.459
X-115.531 Y-16.45
X-116.174 Y-16.394
X-116.212 Y-16.398
X-116.246 Y-16.416
X-116.291 Y-16.456
X-116.353 Y-16.501
X-116.414 Y-16.545
X-116.478 Y-16.68
X-116.472 Y-16.83
X-116.418 Y-16.97
X-116.388 Y-17.006
X-116.279 Y-17.089
X-116.144 Y-17.114
X-116.012 Y-17.077
X-115.847 Y-16.985
X-115.836 Y-16.979
X-115.826 Y-16.971
X-115.784 Y-16.932
X-115.763 Y-16.903
X-115.754 Y-16.867
X-115.758 Y-16.831
X-115.775 Y-16.799
X-115.802 Y-16.775
X-116.255 Y-16.503
X-116.287 Y-16.491
X-116.321 Y-16.49
X-116.353 Y-16.501
X-116.376 Y-16.514
X-116.492 Y-16.572
X-116.557 Y-16.609
X-116.636 Y-16.737
X-116.648 Y-16.886
X-116.608 Y-17.031
X-116.582 Y-17.071
X-116.488 Y-17.162
X-116.365 Y-17.205
X-116.236 Y-17.192
X-116.206 Y-17.182
X-116.193 Y-17.177
X-116.012 Y-17.077
X-115.984 Y-17.052
X-115.967 Y-17.018
X-115.964 Y-16.98
X-115.975 Y-16.944
X-115.999 Y-16.915
X-116.386 Y-16.587
X-116.418 Y-16.569
X-116.455 Y-16.564
X-116.492 Y-16.572
X-116.662 Y-16.657
X-116.727 Y-16.693
X-116.807 Y-16.82
X-116.823 Y-16.97
X-116.783 Y-17.114
X-116.776 Y-17.126
X-116.685 Y-17.22
X-116.562 Y-17.266
X-116.432 Y-17.255
X-116.376 Y-17.238
X-116.236 Y-17.192
X-116.202 Y-17.171
X-116.179 Y-17.138
X-116.171 Y-17.099
X-116.178 Y-17.06
X-116.2 Y-17.027
X-116.55 Y-16.677
X-116.574 Y-16.659
X-116.602 Y-16.649
X-116.633
X-116.662 Y-16.657
X-116.714 Y-16.683
X-116.799 Y-16.723
X-116.838 Y-16.74
X-116.872 Y-16.757
X-116.97 Y-16.87
X-116.999 Y-17.017
X-116.969 Y-17.164
X-116.966 Y-17.171
X-116.876 Y-17.269
X-116.752 Y-17.32
X-116.619 Y-17.311
X-116.432 Y-17.255
X-116.402 Y-17.239
X-116.38 Y-17.214
X-116.367 Y-17.182
X-116.366 Y-17.149
X-116.375 Y-17.116
X-116.395 Y-17.089
X-116.732 Y-16.761
X-116.764 Y-16.74
X-116.801 Y-16.733
X-116.838 Y-16.74
X-116.894 Y-16.764
X-116.968 Y-16.782
X-117.004 Y-16.792
X-117.063 Y-16.838
X-117.151 Y-16.959
X-117.174 Y-17.108
X-117.166 Y-17.138
X-117.095 Y-17.267
X-116.971 Y-17.346
X-116.824 Y-17.356
X-116.794 Y-17.345
X-116.769 Y-17.324
X-116.752 Y-17.296
X-116.745 Y-17.264
X-116.748 Y-17.232
X-116.852 Y-16.853
X-116.869 Y-16.82
X-116.896 Y-16.795
X-116.931 Y-16.781
X-116.968 Y-16.782
X-117.099 Y-16.811
X-117.171 Y-16.831
X-117.231 Y-16.877
X-117.278 Y-16.935
X-117.339 Y-17.072
X-117.331 Y-17.221
X-117.33 Y-17.224
X-117.25 Y-17.325
X-117.136 Y-17.383
X-117.007 Y-17.389
X-116.714 Y-17.337
X-116.619 Y-17.311
X-116.587 Y-17.293
X-116.564 Y-17.265
X-116.552 Y-17.231
X-116.553 Y-17.194
X-116.567 Y-17.161
X-116.593 Y-17.135
X-117.023 Y-16.828
X-117.059 Y-16.812
X-117.099 Y-16.811
X-117.271 Y-16.848
X-117.343 Y-16.868
X-117.403 Y-16.912
X-117.492 Y-17.033
X-117.522 Y-17.18
X-117.519 Y-17.193
X-117.472 Y-17.295
X-117.392 Y-17.374
X-117.287 Y-17.417
X-117.175 Y-17.418
X-117.007 Y-17.389
X-116.972 Y-17.374
X-116.945 Y-17.346
X-116.93 Y-17.311
Y-17.272
X-116.944 Y-17.236
X-117.169 Y-16.892
X-117.196 Y-16.864
X-117.232 Y-16.849
X-117.271 Y-16.848
X-117.391 Y-16.874
X-117.437 Y-16.883
X-117.51 Y-16.901
X-117.631 Y-16.99
X-117.692 Y-17.127
X-117.691 Y-17.163
X-117.659 Y-17.286
X-117.579 Y-17.385
X-117.466 Y-17.442
X-117.339 Y-17.447
X-117.175 Y-17.418
X-117.139 Y-17.403
X-117.112 Y-17.375
X-117.097 Y-17.34
X-117.098 Y-17.301
X-117.112 Y-17.265
X-117.339 Y-16.926
X-117.365 Y-16.899
X-117.4 Y-16.884
X-117.437 Y-16.883
X-117.475 Y-16.89
X-117.56 Y-16.897
X-117.607 Y-16.894
X-117.644 Y-16.893
X-117.712 Y-16.926
X-117.768 Y-16.975
X-117.848 Y-17.101
X-117.863 Y-17.251
X-117.857 Y-17.268
X-117.784 Y-17.393
X-117.662 Y-17.469
X-117.518 Y-17.479
X-117.482 Y-17.464
X-117.455 Y-17.436
X-117.44 Y-17.4
Y-17.361
X-117.519 Y-16.973
X-117.53 Y-16.944
X-117.55 Y-16.919
X-117.576 Y-16.902
X-117.607 Y-16.894
X-117.729 Y-16.885
X-117.804 Y-16.883
X-117.872 Y-16.915
X-117.984 Y-17.015
X-118.045 Y-17.152
X-118.044 Y-17.206
X-118.006 Y-17.344
X-117.908 Y-17.45
X-117.772 Y-17.497
X-117.687 Y-17.505
X-117.645 Y-17.501
X-117.339 Y-17.447
X-117.306 Y-17.434
X-117.279 Y-17.409
X-117.263 Y-17.377
X-117.26 Y-17.341
X-117.269 Y-17.307
X-117.29 Y-17.277
X-117.671 Y-16.912
X-117.698 Y-16.894
X-117.729 Y-16.885
X-117.814 Y-16.879
X-117.86 Y-16.871
X-117.935 Y-16.863
X-118.007 Y-16.882
X-118.135 Y-16.96
X-118.212 Y-17.089
X-118.234 Y-17.237
X-118.232 Y-17.244
X-118.181 Y-17.358
X-118.087 Y-17.441
X-117.967 Y-17.479
X-117.932 Y-17.474
X-117.9 Y-17.458
X-117.876 Y-17.432
X-117.863 Y-17.398
X-117.782 Y-16.989
Y-16.95
X-117.797 Y-16.914
X-117.824 Y-16.886
X-117.86 Y-16.871
X-117.898 Y-16.865
X-118.034 Y-16.839
X-118.108 Y-16.828
X-118.251 Y-16.872
X-118.356 Y-16.98
X-118.418 Y-17.117
X-118.419 Y-17.149
X-118.392 Y-17.285
X-118.307 Y-17.394
X-118.183 Y-17.453
X-118.152 Y-17.46
X-118.068 Y-17.469
X-117.772 Y-17.497
X-117.736 Y-17.493
X-117.704 Y-17.476
X-117.68 Y-17.448
X-117.667 Y-17.414
X-117.668 Y-17.378
X-117.681 Y-17.344
X-117.971 Y-16.883
X-117.998 Y-16.855
X-118.034 Y-16.839
X-118.068 Y-16.832
X-118.152 Y-16.814
X-118.194 Y-16.801
X-118.266 Y-16.778
X-118.413 Y-16.811
X-118.527 Y-16.908
X-118.595 Y-17.041
X-118.6 Y-17.078
X-118.584 Y-17.225
X-118.5 Y-17.347
X-118.367 Y-17.414
X-118.33 Y-17.413
X-118.296 Y-17.4
X-118.269 Y-17.375
X-118.253 Y-17.342
X-118.137 Y-16.919
X-118.134 Y-16.884
X-118.143 Y-16.849
X-118.164 Y-16.82
X-118.194 Y-16.801
X-118.237 Y-16.785
X-118.321 Y-16.745
X-118.391 Y-16.716
X-118.466 Y-16.718
X-118.609 Y-16.763
X-118.719 Y-16.864
X-118.781 Y-17.001
X-118.786 Y-17.039
X-118.77 Y-17.186
X-118.685 Y-17.307
X-118.553 Y-17.373
X-118.518
X-118.486 Y-17.362
X-118.459 Y-17.34
X-118.441 Y-17.31
X-118.274 Y-16.869
X-118.267 Y-16.833
X-118.274 Y-16.798
X-118.293 Y-16.767
X-118.321 Y-16.745
X-118.406 Y-16.705
X-118.466 Y-16.67
X-118.532 Y-16.634
X-118.682
X-118.815 Y-16.704
X-118.916 Y-16.815
X-118.973 Y-16.954
X-118.975 Y-16.965
X-118.964 Y-17.091
X-118.901 Y-17.202
X-118.799 Y-17.277
X-118.764 Y-17.284
X-118.728 Y-17.278
X-118.697 Y-17.26
X-118.674 Y-17.233
X-118.433 Y-16.802
X-118.422 Y-16.767
X-118.424 Y-16.73
X-118.439 Y-16.696
X-118.466 Y-16.67
X-118.606 Y-16.585
X-118.671 Y-16.548
X-118.82 Y-16.53
X-118.958 Y-16.587
X-119.069 Y-16.689
X-119.145 Y-16.818
X-119.153 Y-16.85
X-119.154 Y-16.987
X-119.093 Y-17.111
X-118.983 Y-17.194
X-118.95 Y-17.202
X-118.916 Y-17.197
X-118.885 Y-17.182
X-118.862 Y-17.157
X-118.578 Y-16.723
X-118.564 Y-16.687
Y-16.648
X-118.579 Y-16.613
X-118.606 Y-16.585
X-118.66 Y-16.551
X-118.733 Y-16.501
X-118.744 Y-16.492
X-118.804 Y-16.447
X-118.951 Y-16.416
X-119.094 Y-16.461
X-119.214 Y-16.55
X-119.305 Y-16.67
X-119.322 Y-16.716
X-119.339 Y-16.852
X-119.293 Y-16.982
X-119.194 Y-17.078
X-119.161 Y-17.089
X-119.126 Y-17.088
X-119.094 Y-17.075
X-119.068 Y-17.052
X-118.733 Y-16.629
X-118.716 Y-16.595
X-118.712 Y-16.558
X-118.722 Y-16.522
X-118.744 Y-16.492
X-118.785 Y-16.458
X-118.829 Y-16.413
X-118.851 Y-16.389
X-118.903 Y-16.335
X-119.044 Y-16.284
X-119.192 Y-16.309
X-119.324 Y-16.38
X-119.432 Y-16.484
X-119.507 Y-16.614
X-119.513 Y-16.638
X-119.518 Y-16.765
X-119.469 Y-16.882
X-119.376 Y-16.969
X-119.345 Y-16.98
X-119.312
X-119.281 Y-16.97
X-119.255 Y-16.95
X-118.855 Y-16.52
X-118.836 Y-16.49
X-118.828 Y-16.455
X-118.833 Y-16.42
X-118.851 Y-16.389
X-118.9 Y-16.332
X-118.968 Y-16.248
X-119.018 Y-16.192
X-119.159 Y-16.139
X-119.308 Y-16.155
X-119.446 Y-16.215
X-119.563 Y-16.308
X-119.656 Y-16.426
X-119.665 Y-16.447
X-119.688 Y-16.562
X-119.666 Y-16.677
X-119.601 Y-16.775
X-119.571 Y-16.794
X-119.536 Y-16.802
X-119.501 Y-16.797
X-119.47 Y-16.779
X-118.985 Y-16.385
X-118.961 Y-16.356
X-118.949 Y-16.32
X-118.952 Y-16.282
X-118.968 Y-16.248
X-119.036 Y-16.163
X-119.062 Y-16.123
X-119.105 Y-16.062
X-119.237 Y-15.99
X-119.387 Y-15.986
X-119.531 Y-16.029
X-119.66 Y-16.105
X-119.77 Y-16.207
X-119.797 Y-16.249
X-119.84 Y-16.374
X-119.826 Y-16.507
X-119.755 Y-16.62
X-119.727 Y-16.638
X-119.694 Y-16.646
X-119.661 Y-16.643
X-119.63 Y-16.629
X-119.613 Y-16.617
X-119.091 Y-16.257
X-119.064 Y-16.23
X-119.05 Y-16.196
X-119.049 Y-16.158
X-119.062 Y-16.123
X-119.167 Y-15.958
X-119.18 Y-15.932
X-119.191 Y-15.91
X-119.217 Y-15.873
X-119.226
X-119.259 Y-15.878
X-119.287 Y-15.894
X-119.309 Y-15.918
X-119.322 Y-15.948
X-119.325 Y-15.981
X-119.274 Y-16.591
X-119.266 Y-16.684
X-119.257 Y-16.72
X-119.235 Y-16.749
X-119.203 Y-16.769
X-119.167 Y-16.776
X-119.131 Y-16.769
X-119.1 Y-16.75
X-119.077 Y-16.721
X-119.067 Y-16.685
G3 X-119.191 Y-15.91 I-1.576 J0.147
G1 X-119.211 Y-15.879
X-119.221 Y-15.868
X-119.237 Y-15.857
X-119.252 Y-15.849
X-119.272 Y-15.844
X-119.279 Y-15.849
X-119.609 Y-16.176
X-119.63 Y-16.207
X-119.638 Y-16.243
X-119.633 Y-16.279
X-119.614 Y-16.311
X-119.586 Y-16.335
G3 X-119.252 Y-15.849 I0.14 J0.261
G1 X-119.263 Y-15.846
X-119.273 Y-15.844
X-119.294 Y-15.842
X-119.421
X-119.571 Y-15.85
X-119.714 Y-15.896
X-119.842 Y-15.975
X-119.894 Y-16.031
X-119.962 Y-16.149
X-119.97 Y-16.284
X-119.919 Y-16.409
X-119.894 Y-16.432
X-119.863 Y-16.446
X-119.83 Y-16.448
X-119.797 Y-16.439
X-119.769 Y-16.42
X-119.749 Y-16.4
X-119.355 Y-16.014
X-119.333 Y-15.982
X-119.325 Y-15.944
X-119.331 Y-15.906
X-119.352 Y-15.874
X-119.384 Y-15.851
X-119.421 Y-15.842
X-119.76
X-119.806
X-119.844
X-119.882 Y-15.844
X-119.894 Y-15.851
X-119.993 Y-15.932
X-120.049 Y-16.047
X-120.053 Y-16.175
X-120.002 Y-16.292
X-119.975 Y-16.317
X-119.94 Y-16.33
X-119.903 Y-16.329
X-119.869 Y-16.315
X-119.842 Y-16.29
X-119.826 Y-16.256
X-119.751 Y-15.968
X-119.748 Y-15.932
X-119.758 Y-15.898
X-119.779 Y-15.869
X-119.809 Y-15.85
X-119.844 Y-15.842
X-119.975
X-120.013
X-120.056 Y-15.844
X-120.08 Y-15.851
X-120.087 Y-15.854
X-120.107 Y-15.877
X-120.113 Y-15.907
X-120.104 Y-15.936
X-120.081 Y-15.956
X-120.052 Y-15.962
X-120.023 Y-15.953
X-120.003 Y-15.93
X-119.996 Y-15.901
X-120.005 Y-15.872
X-120.027 Y-15.851
X-120.056 Y-15.844
X-120.066 Y-15.846
X-120.077 Y-15.849
X-120.087 Y-15.854
X-120.098 Y-15.861
X-120.112 Y-15.873
X-120.122 Y-15.885
X-120.139 Y-15.91
X-120.144 Y-15.92
X-120.148 Y-15.931
X-120.151 Y-15.941
X-120.152 Y-15.952
Y-15.962
Y-15.973
X-120.15 Y-15.984
X-120.146 Y-15.994
X-120.085 Y-16.163
X-120.076 Y-16.184
X-120.064 Y-16.205
X-119.844 Y-16.514
X-119.789 Y-16.585
X-119.506 Y-16.871
X-119.451 Y-16.923
X-119.421 Y-16.942
X-119.083 Y-17.145
X-119.022 Y-17.177
X-118.644 Y-17.346
X-118.61 Y-17.359
X-118.575 Y-17.368
X-118.183 Y-17.453
X-118.154 Y-17.454
X-118.127 Y-17.447
X-118.104 Y-17.423 Z-0.983
X-118.084 Y-17.401 Z-0.966
X-118.07 Y-17.385 Z-0.939
X-118.067 Y-17.376 Z-0.915
Y-17.373 Z-0.89
G0 Z2
X-109.12 Y-9.275
Z0.5
G3 X-108.635 Y-9.4 Z0.29 I0.242 J-0.062 F333.3
X-109.12 Y-9.275 Z0.079 I-0.242 J0.062
X-108.635 Y-9.4 Z-0.131 I0.242 J-0.062
X-109.12 Y-9.275 Z-0.342 I-0.242 J0.062
X-108.635 Y-9.4 Z-0.552 I0.242 J-0.062
X-109.12 Y-9.275 Z-0.763 I-0.242 J0.062
X-108.909 Y-9.586 Z-0.876 I0.242 J-0.062
X-108.628 Y-9.338 Z-0.99 I0.031 J0.248
X-109.128 I-0.25
X-108.628 I0.25
G1 X-108.59 Y-9.192 F1000
X-108.603 Y-9.119
X-108.64 Y-9.053
X-108.747 Y-8.948
X-108.892 Y-8.908
X-109.04 Y-8.93
X-109.171 Y-9.004
X-109.267 Y-9.118
X-109.32 Y-9.259
X-109.322 Y-9.409
X-109.274 Y-9.551
X-109.182 Y-9.67
X-109.056 Y-9.752
X-108.911 Y-9.787
X-108.761 Y-9.773
X-108.625 Y-9.711
X-108.516 Y-9.608
X-108.438 Y-9.48
X-108.388 Y-9.338
X-108.377 Y-9.189
X-108.412 Y-9.043
X-108.483 Y-8.911
X-108.592 Y-8.807
X-108.722 Y-8.734
X-108.869 Y-8.7
X-109.018 Y-8.707
X-109.163 Y-8.748
X-109.292 Y-8.824
X-109.399 Y-8.93
X-109.481 Y-9.055
X-109.53 Y-9.197
X-109.545 Y-9.346
X-109.528 Y-9.495
X-109.478 Y-9.637
X-109.395 Y-9.762
X-109.289 Y-9.868
X-109.161 Y-9.946
X-109.019 Y-9.993
X-108.87 Y-10.009
X-108.721 Y-9.991
X-108.58 Y-9.938
X-108.453 Y-9.858
X-108.345 Y-9.755
X-108.257 Y-9.633
X-108.194 Y-9.497
X-108.156 Y-9.352
X-108.148 Y-9.202
X-108.17 Y-9.054
X-108.22 Y-8.912
X-108.296 Y-8.783
X-108.397 Y-8.672
X-108.517 Y-8.583
X-108.652 Y-8.516
X-108.797 Y-8.479
X-108.947 Y-8.47
X-109.096 Y-8.487
X-109.124 Y-8.495
X-109.181 Y-8.518
X-109.233 Y-8.553
X-109.276 Y-8.598
X-109.313 Y-8.646
X-109.354 Y-8.691
X-109.438 Y-8.77
X-109.488 Y-8.815
X-109.523 Y-8.842
X-109.636 Y-8.941
X-109.71 Y-9.071
X-109.755 Y-9.214
X-109.771 Y-9.363
X-109.76 Y-9.513
X-109.721 Y-9.657
X-109.677 Y-9.75
X-109.632 Y-9.819
X-109.57 Y-9.873
X-109.496 Y-9.908
X-109.46 Y-9.911
X-109.425 Y-9.901
X-109.396 Y-9.879
X-109.376 Y-9.848
X-109.369 Y-9.812
X-109.367 Y-9.488
X-109.364 Y-8.923
X-109.37 Y-8.887
X-109.389 Y-8.856
X-109.418 Y-8.834
X-109.453 Y-8.823
X-109.49 Y-8.826
X-109.523 Y-8.842
X-109.703 Y-8.984
X-109.777 Y-9.037
X-109.897 Y-9.127
X-109.958 Y-9.264
X-109.983 Y-9.412
X-109.979 Y-9.562
X-109.961 Y-9.644
X-109.907 Y-9.762
X-109.808 Y-9.846
X-109.682 Y-9.88
X-109.65 Y-9.875
X-109.621 Y-9.859
X-109.598 Y-9.836
X-109.584 Y-9.806
X-109.581 Y-9.773
X-109.586 Y-9.694
X-109.624 Y-9.116
X-109.632 Y-9.083
X-109.651 Y-9.054
X-109.678 Y-9.033
X-109.711 Y-9.023
X-109.745 Y-9.025
X-109.777 Y-9.037
X-109.861 Y-9.094
X-109.959 Y-9.152
X-109.998 Y-9.174
X-110.063 Y-9.212
X-110.145 Y-9.338
X-110.183 Y-9.483
X-110.179 Y-9.633
X-110.171 Y-9.661
X-110.111 Y-9.774
X-110.008 Y-9.852
X-109.883 Y-9.879
X-109.85 Y-9.873
X-109.822 Y-9.856
X-109.8 Y-9.83
X-109.788 Y-9.799
X-109.787 Y-9.766
X-109.855 Y-9.25
X-109.867 Y-9.214
X-109.891 Y-9.185
X-109.924 Y-9.168
X-109.962 Y-9.164
X-109.998 Y-9.174
X-110.031 Y-9.191
X-110.139 Y-9.237
X-110.207 Y-9.27
X-110.317 Y-9.371
X-110.372 Y-9.51
X-110.373 Y-9.66
X-110.371 Y-9.665
X-110.31 Y-9.777
X-110.208 Y-9.852
X-110.084 Y-9.879
X-110.046 Y-9.87
X-110.014 Y-9.847
X-109.994 Y-9.814
X-109.988 Y-9.776
X-110.004 Y-9.327
X-110.012 Y-9.29
X-110.033 Y-9.259
X-110.065 Y-9.238
X-110.102 Y-9.23
X-110.139 Y-9.237
X-110.284 Y-9.298
X-110.325 Y-9.311
X-110.395 Y-9.337
X-110.508 Y-9.436
X-110.56 Y-9.577
X-110.559 Y-9.598
X-110.531 Y-9.707
X-110.465 Y-9.798
X-110.37 Y-9.858
X-110.259 Y-9.879
X-110.227 Y-9.873
X-110.199 Y-9.857
X-110.178 Y-9.832
X-110.165 Y-9.802
X-110.163 Y-9.77
X-110.199 Y-9.397
X-110.208 Y-9.364
X-110.228 Y-9.336
X-110.257 Y-9.316
X-110.291 Y-9.307
X-110.325 Y-9.311
X-110.5 Y-9.366
X-110.571 Y-9.392
X-110.63 Y-9.437
X-110.67 Y-9.501
X-110.681 Y-9.635
X-110.629 Y-9.76
X-110.526 Y-9.848
X-110.395 Y-9.879
X-110.36 Y-9.872
X-110.331 Y-9.853
X-110.309 Y-9.825
X-110.299 Y-9.791
X-110.301 Y-9.756
X-110.377 Y-9.439
X-110.393 Y-9.403
X-110.423 Y-9.377
X-110.46 Y-9.363
X-110.5 Y-9.366
X-110.538 Y-9.378
X-110.667 Y-9.406
X-110.703 Y-9.415
X-110.759 Y-9.466
X-110.797 Y-9.53
X-110.799 Y-9.657
X-110.745 Y-9.771
X-110.647 Y-9.851
X-110.523 Y-9.879
X-110.486 Y-9.87
X-110.454 Y-9.848
X-110.433 Y-9.815
X-110.427 Y-9.776
X-110.435 Y-9.739
X-110.558 Y-9.464
X-110.576 Y-9.436
X-110.602 Y-9.416
X-110.634 Y-9.406
X-110.667
X-110.792 Y-9.432
X-110.829 Y-9.44
X-110.883 Y-9.492
X-110.919 Y-9.558
X-110.916 Y-9.676
X-110.863 Y-9.781
X-110.771 Y-9.853
X-110.656 Y-9.879
X-110.617 Y-9.87
X-110.586 Y-9.847
X-110.565 Y-9.813
X-110.559 Y-9.774
X-110.569 Y-9.736
X-110.689 Y-9.488
X-110.706 Y-9.462
X-110.731 Y-9.443
X-110.761 Y-9.433
X-110.792 Y-9.432
X-110.877 Y-9.447
X-110.923 Y-9.453
X-110.96 Y-9.461
X-111.01 Y-9.516
X-111.042 Y-9.584
X-111.036 Y-9.693
X-110.984 Y-9.79
X-110.896 Y-9.856
X-110.789 Y-9.879
X-110.756 Y-9.872
X-110.727 Y-9.855
X-110.706 Y-9.829
X-110.694 Y-9.798
Y-9.764
X-110.704 Y-9.733
X-110.824 Y-9.506
X-110.849 Y-9.475
X-110.884 Y-9.457
X-110.923 Y-9.453
X-111.008 Y-9.466
X-111.044 Y-9.473
X-111.109 Y-9.511
X-111.15 Y-9.574
X-111.151 Y-9.685
X-111.105 Y-9.785
X-111.019 Y-9.854
X-110.911 Y-9.879
X-110.874 Y-9.871
X-110.843 Y-9.849
X-110.822 Y-9.818
X-110.814 Y-9.781
X-110.821 Y-9.743
X-110.903 Y-9.529
X-110.92 Y-9.501
X-110.945 Y-9.48
X-110.975 Y-9.467
X-111.008 Y-9.466
X-111.13 Y-9.482
X-111.167 Y-9.489
X-111.226 Y-9.535
X-111.264 Y-9.6
X-111.262 Y-9.702
X-111.216 Y-9.794
X-111.136 Y-9.857
X-111.036 Y-9.879
X-110.998 Y-9.87
X-110.967 Y-9.848
X-110.946 Y-9.816
X-110.939 Y-9.778
X-110.947 Y-9.74
X-111.03 Y-9.543
X-111.047 Y-9.517
X-111.07 Y-9.497
X-111.099 Y-9.485
X-111.13 Y-9.482
X-111.261 Y-9.498
X-111.298 Y-9.504
X-111.351 Y-9.557
X-111.372 Y-9.668
X-111.337 Y-9.774
X-111.255 Y-9.851
X-111.146 Y-9.879
X-111.117 Y-9.874
X-111.091 Y-9.86
X-111.071 Y-9.839
G3 X-111.261 Y-9.498 I-0.174 J0.127
G1 X-111.346 Y-9.507
X-111.383 Y-9.513
X-111.443 Y-9.558
X-111.467 Y-9.667
X-111.435 Y-9.774
X-111.355 Y-9.851
X-111.247 Y-9.879
X-111.211 Y-9.871
X-111.181 Y-9.849
G3 X-111.346 Y-9.507 I-0.149 J0.139
G1 X-111.431 Y-9.516
X-111.469 Y-9.519
X-111.511 Y-9.522
X-111.541 Y-9.533
X-111.591 Y-9.571
X-111.59 Y-9.58
X-111.582 Y-9.612
X-111.563 Y-9.64
X-111.536 Y-9.66
X-111.505 Y-9.67
X-110.869 Y-9.758
X-110.759 Y-9.773
X-110.72 Y-9.771
X-110.685 Y-9.754
X-110.659 Y-9.726
X-110.646 Y-9.689
X-110.648 Y-9.651
X-110.663 Y-9.616
X-110.691 Y-9.589
X-110.727 Y-9.575
G3 X-111.511 Y-9.522 I-0.637 J-3.59
G1 X-111.522 Y-9.524
X-111.532 Y-9.528
X-111.543 Y-9.532
X-111.553 Y-9.539
X-111.585 Y-9.563
X-111.595 Y-9.575
X-111.602 Y-9.585
X-111.607 Y-9.596
X-111.613 Y-9.615
Y-9.645
X-111.599 Y-9.67
X-111.576 Y-9.688
X-111.548 Y-9.693
X-111.519 Y-9.685
X-111.498 Y-9.666
X-111.487 Y-9.639
X-111.488 Y-9.61
X-111.489 Y-9.608
X-111.504 Y-9.582
X-111.529 Y-9.566
X-111.559 Y-9.563
X-111.587 Y-9.574
X-111.607 Y-9.596
X-111.611 Y-9.606
X-111.614 Y-9.617
X-111.615 Y-9.628
X-111.616 Y-9.638
X-111.608 Y-9.788
X-111.592 Y-9.817
X-111.574 Y-9.841
X-111.553 Y-9.862
X-111.519 Y-9.873
X-111.484 Y-9.872
X-111.451 Y-9.858
X-111.425 Y-9.834
X-111.409 Y-9.802
X-111.406 Y-9.766
X-111.416 Y-9.637
X-111.426 Y-9.601
X-111.448 Y-9.571
X-111.48 Y-9.551
X-111.516 Y-9.545
X-111.553 Y-9.552
X-111.584 Y-9.572
X-111.606 Y-9.602
X-111.616 Y-9.638
X-111.615 Y-9.765
X-111.614 Y-9.775
X-111.612 Y-9.786
X-111.609 Y-9.796
X-111.604 Y-9.807
X-111.597 Y-9.818
X-111.588 Y-9.828
X-111.571 Y-9.847
X-111.553 Y-9.862
X-111.543 Y-9.868
X-111.532 Y-9.873
X-111.522 Y-9.876
X-111.511 Y-9.878
X-111.469 Y-9.879
X-109.692
X-109.607 Y-9.883
X-109.523 Y-9.9
X-109.482 Y-9.913
X-109.438 Y-9.93
X-109.354 Y-9.979
X-109.329 Y-9.997
X-109.269 Y-10.053
X-109.159 Y-10.154
X-109.019 Y-10.208
X-108.871 Y-10.231
X-108.721 Y-10.223
X-108.575 Y-10.187
X-108.437 Y-10.127
X-108.31 Y-10.047
X-108.197 Y-9.949
X-108.149 Y-9.892
X-108.111 Y-9.834
X-108.087 Y-9.768
X-108.079 Y-9.699
Y-8.937
X-108.087 Y-8.787
X-108.144 Y-8.649
X-108.232 Y-8.527
X-108.342 Y-8.425
X-108.468 Y-8.344
X-108.605 Y-8.284
X-108.75 Y-8.245
X-108.829 Y-8.236
X-108.938 Y-8.244
X-109.037 Y-8.29
X-109.113 Y-8.369
X-109.127 Y-8.406
X-109.125 Y-8.445
X-109.109 Y-8.481
X-109.08 Y-8.507
X-108.725 Y-8.721
X-108.231 Y-9.019
X-108.199 Y-9.032
X-108.164
X-108.132 Y-9.021
X-108.105 Y-9
X-108.086 Y-8.971
X-108.079 Y-8.937
Y-8.599
X-108.087 Y-8.449
X-108.164 Y-8.321
X-108.269 Y-8.213
X-108.391 Y-8.127
X-108.526 Y-8.061
X-108.67 Y-8.019
X-108.707 Y-8.015
X-108.828 Y-8.027
X-108.934 Y-8.086
X-109.008 Y-8.183
X-109.016 Y-8.22
X-109.011 Y-8.257
X-108.991 Y-8.289
X-108.962 Y-8.312
X-108.746 Y-8.421
X-108.224 Y-8.685
X-108.193 Y-8.695
X-108.159 Y-8.694
X-108.128 Y-8.682
X-108.103 Y-8.66
X-108.086 Y-8.632
X-108.079 Y-8.599
Y-8.346
X-108.087 Y-8.196
X-108.16 Y-8.065
X-108.265 Y-7.958
X-108.39 Y-7.875
X-108.528 Y-7.818
X-108.587 Y-7.808
X-108.722 Y-7.815
X-108.84 Y-7.88
X-108.918 Y-7.991
X-108.924 Y-8.027
X-108.916 Y-8.062
X-108.897 Y-8.093
X-108.868 Y-8.115
X-108.749 Y-8.173
X-108.223 Y-8.432
X-108.185 Y-8.442
X-108.146 Y-8.437
X-108.112 Y-8.416
X-108.088 Y-8.384
X-108.079 Y-8.346
Y-8.092
Y-8.054
Y-8.008
X-108.083 Y-7.933
X-108.16 Y-7.804
X-108.205 Y-7.763
X-108.266 Y-7.72
X-108.335 Y-7.693
X-108.409 Y-7.683
X-108.446 Y-7.692
X-108.478 Y-7.714
X-108.499 Y-7.747
X-108.505 Y-7.785
X-108.497 Y-7.823
X-108.475 Y-7.855
X-108.249 Y-8.076
X-108.217 Y-8.097
X-108.18 Y-8.104
X-108.142 Y-8.097
X-108.11 Y-8.077
X-108.088 Y-8.045
X-108.079 Y-8.008
Y-7.839
Y-7.801
X-108.081 Y-7.784
X-108.088 Y-7.76
X-108.107 Y-7.735
X-108.135 Y-7.721
X-108.167 Y-7.72
X-108.195 Y-7.733
X-108.216 Y-7.756
X-108.224 Y-7.787
X-108.219 Y-7.818
X-108.2 Y-7.843
X-108.173 Y-7.859
X-108.142 Y-7.861
X-108.112 Y-7.849
X-108.091 Y-7.826
X-108.083 Y-7.806
X-108.081 Y-7.784
X-108.085 Y-7.767
X-108.09 Y-7.755
X-108.098 Y-7.742
X-108.116 Y-7.717
X-108.13 Y-7.704
X-108.143 Y-7.696
X-108.156 Y-7.69
X-108.169 Y-7.686
X-108.18 Y-7.684
X-108.212 Y-7.683
X-108.719
X-108.74 Y-7.684
X-108.751 Y-7.685
X-108.761 Y-7.688
X-108.772 Y-7.692
X-108.783 Y-7.698
X-108.794 Y-7.706
X-108.805 Y-7.717
X-108.82 Y-7.736
X-108.832 Y-7.756
X-108.877 Y-7.885
X-108.909 Y-7.97
X-108.931 Y-8.023
X-109.028 Y-8.223
X-109.073 Y-8.308
X-109.184 Y-8.478
X-109.247 Y-8.561
X-109.276 Y-8.598
X-109.29 Y-8.626
X-109.295 Y-8.657
X-109.294 Y-9.273
X-109.293 Y-9.988
X-109.287 Y-10.022
X-109.269 Y-10.053
X-109.242 Y-10.082
X-109.212 Y-10.124
X-109.184 Y-10.168
X-109.164 Y-10.209
X-109.132 Y-10.277
X-109.018 Y-10.375
X-108.877 Y-10.426
X-108.728 Y-10.44
X-108.579 Y-10.425
X-108.434 Y-10.385
X-108.297 Y-10.324
X-108.223 Y-10.279
X-108.146 Y-10.212
X-108.097 Y-10.123
X-108.079 Y-10.023
Y-9.699
X-108.086 Y-9.667
X-108.103 Y-9.638
X-108.129 Y-9.616
X-108.161 Y-9.605
X-108.194 Y-9.604
X-108.226 Y-9.615
X-108.549 Y-9.786
X-109.117 Y-10.088
X-109.145 Y-10.11
X-109.163 Y-10.14
X-109.17 Y-10.175
X-109.164 Y-10.209
X-109.148 Y-10.25
X-109.136 Y-10.293
X-109.127 Y-10.335
X-109.122 Y-10.381
X-109.117 Y-10.419
X-109.03 Y-10.54
X-108.899 Y-10.614
X-108.753 Y-10.65
X-108.604 Y-10.656
X-108.455 Y-10.636
X-108.31 Y-10.595
X-108.252 Y-10.568
X-108.161 Y-10.502
X-108.1 Y-10.407
X-108.079 Y-10.296
Y-10.023
X-108.088 Y-9.986
X-108.11 Y-9.954
X-108.142 Y-9.933
X-108.18 Y-9.926
X-108.217 Y-9.934
X-108.449 Y-10.03
X-109.061 Y-10.283
X-109.087 Y-10.299
X-109.107 Y-10.322
X-109.119 Y-10.351
X-109.122 Y-10.381
X-109.119 Y-10.419
X-109.118 Y-10.504
X-109.114 Y-10.579
X-109.047 Y-10.713
X-108.927 Y-10.803
X-108.787 Y-10.857
X-108.639 Y-10.881
X-108.489 Y-10.88
X-108.341 Y-10.855
X-108.277 Y-10.832
X-108.174 Y-10.769
X-108.104 Y-10.669
X-108.079 Y-10.55
Y-10.296
X-108.087 Y-10.262
X-108.106 Y-10.232
X-108.134 Y-10.211
X-108.168 Y-10.2
X-108.203 Y-10.203
X-108.405 Y-10.253
X-109.042 Y-10.41
X-109.072 Y-10.423
X-109.096 Y-10.444
X-109.112 Y-10.472
X-109.118 Y-10.504
Y-10.719
X-109.114 Y-10.794
X-109.038 Y-10.923
X-108.919 Y-11.015
X-108.781 Y-11.075
X-108.635 Y-11.107
X-108.485 Y-11.115
X-108.337 Y-11.095
X-108.284 Y-11.078
X-108.177 Y-11.015
X-108.105 Y-10.914
X-108.079 Y-10.793
Y-10.55
X-108.086 Y-10.516
X-108.105 Y-10.487
X-108.132 Y-10.466
X-108.164 Y-10.455
X-108.199 Y-10.456
X-108.399 Y-10.496
X-109.038 Y-10.625
X-109.069 Y-10.637
X-109.094 Y-10.658
X-109.111 Y-10.687
X-109.118 Y-10.719
Y-10.888
X-109.114 Y-10.963
X-109.062 Y-11.104
X-108.955 Y-11.208
X-108.824 Y-11.282
X-108.681 Y-11.328
X-108.532 Y-11.348
X-108.383 Y-11.341
X-108.236 Y-11.304
X-108.153 Y-11.237
X-108.098 Y-11.146
X-108.079 Y-11.041
Y-10.793
X-108.086 Y-10.761
X-108.102 Y-10.732
X-108.127 Y-10.711
X-108.158 Y-10.699
X-108.191 Y-10.697
X-108.39 Y-10.72
X-109.029 Y-10.792
X-109.063 Y-10.802
X-109.091 Y-10.824
X-109.11 Y-10.854
X-109.118 Y-10.888
Y-11.095
X-109.114 Y-11.17
X-109.066 Y-11.312
X-108.963 Y-11.421
X-108.836 Y-11.501
X-108.695 Y-11.552
X-108.547 Y-11.579
X-108.397 Y-11.58
X-108.318 Y-11.564
X-108.195 Y-11.507
X-108.11 Y-11.402
X-108.079 Y-11.27
Y-11.041
X-108.089 Y-11.002
X-108.112 Y-10.97
X-108.146 Y-10.95
X-108.186 Y-10.944
X-108.388 Y-10.957
X-109.025 Y-10.999
X-109.06 Y-11.008
X-109.09 Y-11.029
X-109.11 Y-11.059
X-109.118 Y-11.095
Y-11.349
X-109.114 Y-11.423
X-109.051 Y-11.56
X-108.944 Y-11.664
X-108.814 Y-11.74
X-108.673 Y-11.79
X-108.525 Y-11.814
X-108.375 Y-11.808
X-108.311 Y-11.792
X-108.191 Y-11.734
X-108.109 Y-11.63
X-108.079 Y-11.5
Y-11.27
X-108.086 Y-11.238
X-108.102 Y-11.21
X-108.126 Y-11.189
X-108.156 Y-11.176
X-108.189 Y-11.174
X-108.389 Y-11.193
X-109.027 Y-11.252
X-109.062 Y-11.262
X-109.091 Y-11.283
X-109.11 Y-11.314
X-109.118 Y-11.349
Y-11.564
X-109.114 Y-11.639
X-109.057 Y-11.777
X-108.953 Y-11.885
X-108.825 Y-11.964
X-108.685 Y-12.017
X-108.537 Y-12.044
X-108.387 Y-12.04
X-108.24 Y-12.008
X-108.155 Y-11.941
X-108.099 Y-11.849
X-108.079 Y-11.743
Y-11.5
X-108.086 Y-11.469
X-108.101 Y-11.441
X-108.125 Y-11.42
X-108.155 Y-11.407
X-108.187 Y-11.404
X-108.388 Y-11.419
X-109.026 Y-11.468
X-109.061 Y-11.477
X-109.09 Y-11.498
X-109.11 Y-11.528
X-109.118 Y-11.564
Y-11.771
X-109.11 Y-11.921
X-109.032 Y-12.048
X-108.918 Y-12.146
X-108.786 Y-12.217
X-108.642 Y-12.26
X-108.493 Y-12.278
X-108.344 Y-12.273
X-108.295 Y-12.259
X-108.183 Y-12.197
X-108.106 Y-12.095
X-108.079 Y-11.971
Y-11.743
X-108.088 Y-11.705
X-108.111 Y-11.673
X-108.144 Y-11.652
X-108.183 Y-11.646
X-108.387 Y-11.653
X-109.021 Y-11.674
X-109.058 Y-11.683
X-109.089 Y-11.704
X-109.11 Y-11.734
X-109.118 Y-11.771
Y-12.024
X-109.114 Y-12.099
X-109.059 Y-12.239
X-108.956 Y-12.347
X-108.829 Y-12.427
X-108.689 Y-12.481
X-108.542 Y-12.511
X-108.392
X-108.245 Y-12.48
X-108.242 Y-12.478
X-108.156 Y-12.412
X-108.099 Y-12.319
X-108.079 Y-12.212
Y-11.971
X-108.089 Y-11.932
X-108.112 Y-11.9
X-108.146 Y-11.88
X-108.186 Y-11.874
X-108.387 Y-11.887
X-109.024 Y-11.928
X-109.06 Y-11.937
X-109.09 Y-11.958
X-109.11 Y-11.989
X-109.118 Y-12.024
Y-12.24
X-109.11 Y-12.389
X-109.03 Y-12.516
X-108.916 Y-12.613
X-108.784 Y-12.684
X-108.64 Y-12.729
X-108.492 Y-12.747
X-108.342 Y-12.741
X-108.295 Y-12.728
X-108.183 Y-12.666
X-108.106 Y-12.564
X-108.079 Y-12.44
Y-12.212
X-108.088 Y-12.174
X-108.111 Y-12.142
X-108.144 Y-12.121
X-108.183 Y-12.115
X-108.387 Y-12.122
X-109.021 Y-12.143
X-109.058 Y-12.151
X-109.089 Y-12.172
X-109.11 Y-12.203
X-109.118 Y-12.24
Y-12.493
X-109.114 Y-12.568
X-109.058 Y-12.707
X-108.954 Y-12.815
X-108.827 Y-12.895
X-108.687 Y-12.949
X-108.54 Y-12.979
X-108.39 Y-12.98
X-108.244 Y-12.948
X-108.156 Y-12.881
X-108.099 Y-12.788
X-108.079 Y-12.681
Y-12.44
X-108.089 Y-12.401
X-108.112 Y-12.369
X-108.146 Y-12.349
X-108.186 Y-12.343
X-108.387 Y-12.356
X-109.024 Y-12.397
X-109.06 Y-12.406
X-109.09 Y-12.427
X-109.11 Y-12.457
X-109.118 Y-12.493
Y-12.7
X-109.11 Y-12.85
X-109.033 Y-12.978
X-108.92 Y-13.077
X-108.789 Y-13.15
X-108.646 Y-13.195
X-108.497 Y-13.215
X-108.347 Y-13.211
X-108.297 Y-13.197
X-108.184 Y-13.136
X-108.107 Y-13.033
X-108.079 Y-12.908
Y-12.681
X-108.088 Y-12.643
X-108.111 Y-12.611
X-108.143 Y-12.591
X-108.182 Y-12.584
X-108.386 Y-12.589
X-109.02 Y-12.604
X-109.057 Y-12.611
X-109.088 Y-12.632
X-109.11 Y-12.663
X-109.118 Y-12.7
Y-12.953
X-109.114 Y-13.028
X-109.061 Y-13.169
X-108.959 Y-13.278
X-108.833 Y-13.36
X-108.694 Y-13.415
X-108.547 Y-13.447
X-108.397 Y-13.449
X-108.25 Y-13.418
X-108.245 Y-13.416
X-108.157 Y-13.349
X-108.099 Y-13.256
X-108.079 Y-13.148
Y-12.908
X-108.088 Y-12.87
X-108.112 Y-12.838
X-108.146 Y-12.817
X-108.185 Y-12.812
X-108.387 Y-12.823
X-109.023 Y-12.857
X-109.059 Y-12.866
X-109.089 Y-12.887
X-109.11 Y-12.917
X-109.118 Y-12.953
Y-13.169
X-109.11 Y-13.319
X-109.032 Y-13.447
X-108.919 Y-13.545
X-108.788 Y-13.618
X-108.645 Y-13.664
X-108.497 Y-13.683
X-108.347 Y-13.679
X-108.297 Y-13.664
X-108.184 Y-13.604
X-108.107 Y-13.501
X-108.079 Y-13.376
Y-13.148
X-108.088 Y-13.11
X-108.111 Y-13.078
X-108.144 Y-13.058
X-108.182 Y-13.051
X-108.386 Y-13.056
X-109.021 Y-13.072
X-109.057 Y-13.08
X-109.088 Y-13.101
X-109.11 Y-13.132
X-109.118 Y-13.169
Y-13.422
X-109.114 Y-13.497
X-109.061 Y-13.637
X-108.958 Y-13.747
X-108.832 Y-13.828
X-108.693 Y-13.884
X-108.546 Y-13.915
X-108.396 Y-13.916
X-108.249 Y-13.886
X-108.244 Y-13.884
X-108.157 Y-13.817
X-108.099 Y-13.724
X-108.079 Y-13.616
Y-13.376
X-108.088 Y-13.337
X-108.112 Y-13.306
X-108.146 Y-13.285
X-108.185 Y-13.28
X-108.387 Y-13.291
X-109.024 Y-13.326
X-109.059 Y-13.335
X-109.089 Y-13.356
X-109.11 Y-13.386
X-109.118 Y-13.422
Y-13.676
X-109.114 Y-13.75
X-109.05 Y-13.886
X-108.944 Y-13.992
X-108.817 Y-14.071
X-108.676 Y-14.122
X-108.528 Y-14.148
X-108.378 Y-14.15
X-108.31 Y-14.134
X-108.191 Y-14.076
X-108.109 Y-13.972
X-108.079 Y-13.842
Y-13.616
X-108.085 Y-13.584
X-108.101 Y-13.557
X-108.125 Y-13.535
X-108.154 Y-13.522
X-108.186 Y-13.52
X-108.388 Y-13.534
X-109.025 Y-13.579
X-109.06 Y-13.588
X-109.09 Y-13.61
X-109.11 Y-13.64
X-109.118 Y-13.676
Y-13.883
X-109.114 Y-13.957
X-109.062 Y-14.098
X-108.962 Y-14.209
X-108.836 Y-14.291
X-108.697 Y-14.348
X-108.551 Y-14.38
X-108.401 Y-14.382
X-108.253 Y-14.353
X-108.246 Y-14.35
X-108.158 Y-14.283
X-108.1 Y-14.19
X-108.079 Y-14.081
Y-13.842
X-108.088 Y-13.804
X-108.112 Y-13.772
X-108.145 Y-13.752
X-108.184 Y-13.746
X-108.387 Y-13.755
X-109.023 Y-13.786
X-109.059 Y-13.795
X-109.089 Y-13.816
X-109.11 Y-13.846
X-109.118 Y-13.883
Y-14.136
X-109.114 Y-14.211
X-109.053 Y-14.348
X-108.948 Y-14.455
X-108.821 Y-14.534
X-108.68 Y-14.587
X-108.532 Y-14.613
X-108.382 Y-14.616
X-108.312 Y-14.6
X-108.192 Y-14.542
X-108.109 Y-14.437
X-108.079 Y-14.307
Y-14.081
X-108.089 Y-14.042
X-108.112 Y-14.01
X-108.146 Y-13.99
X-108.186 Y-13.985
X-108.388 Y-13.998
X-109.025 Y-14.04
X-109.06 Y-14.049
X-109.09 Y-14.07
X-109.11 Y-14.1
X-109.118 Y-14.136
Y-14.351
X-109.114 Y-14.426
X-109.061 Y-14.566
X-108.959 Y-14.677
X-108.833 Y-14.758
X-108.694 Y-14.814
X-108.548 Y-14.846
X-108.398 Y-14.847
X-108.25 Y-14.818
X-108.245 Y-14.815
X-108.157 Y-14.748
X-108.099 Y-14.655
X-108.079 Y-14.547
Y-14.307
X-108.088 Y-14.269
X-108.112 Y-14.237
X-108.145 Y-14.217
X-108.184 Y-14.211
X-108.387 Y-14.222
X-109.023 Y-14.255
X-109.059 Y-14.264
X-109.089 Y-14.285
X-109.11 Y-14.315
X-109.118 Y-14.351
Y-14.605
X-109.114 Y-14.68
X-109.051 Y-14.816
X-108.946 Y-14.922
X-108.818 Y-15.001
X-108.677 Y-15.053
X-108.529 Y-15.079
X-108.379 Y-15.081
X-108.311 Y-15.065
X-108.191 Y-15.007
X-108.109 Y-14.903
X-108.079 Y-14.773
Y-14.547
X-108.085 Y-14.515
X-108.101 Y-14.488
X-108.125 Y-14.466
X-108.154 Y-14.453
X-108.186 Y-14.45
X-108.388 Y-14.464
X-109.025 Y-14.508
X-109.06 Y-14.518
X-109.09 Y-14.539
X-109.11 Y-14.569
X-109.118 Y-14.605
Y-14.812
X-109.114 Y-14.887
X-109.063 Y-15.028
X-108.963 Y-15.139
X-108.838 Y-15.221
X-108.699 Y-15.278
X-108.552 Y-15.311
X-108.402 Y-15.313
X-108.255 Y-15.285
X-108.247 Y-15.281
X-108.158 Y-15.214
X-108.1 Y-15.12
X-108.079 Y-15.011
Y-14.773
X-108.088 Y-14.735
X-108.111 Y-14.703
X-108.145 Y-14.682
X-108.184 Y-14.676
X-108.387 Y-14.686
X-109.023 Y-14.715
X-109.059 Y-14.724
X-109.089 Y-14.745
X-109.11 Y-14.776
X-109.118 Y-14.812
Y-15.065
X-109.114 Y-15.14
X-109.053 Y-15.277
X-108.949 Y-15.385
X-108.822 Y-15.464
X-108.681 Y-15.517
X-108.534 Y-15.544
X-108.384 Y-15.547
X-108.313 Y-15.531
X-108.192 Y-15.473
X-108.109 Y-15.368
X-108.079 Y-15.238
Y-15.011
X-108.089 Y-14.973
X-108.112 Y-14.941
X-108.146 Y-14.921
X-108.186 Y-14.915
X-108.387 Y-14.928
X-109.024 Y-14.969
X-109.06 Y-14.978
X-109.09 Y-14.999
X-109.11 Y-15.029
X-109.118 Y-15.065
Y-15.28
X-109.114 Y-15.355
X-109.061 Y-15.496
X-108.96 Y-15.606
X-108.835 Y-15.688
X-108.695 Y-15.744
X-108.549 Y-15.777
X-108.399
X-108.252 Y-15.749
X-108.245 Y-15.745
X-108.157 Y-15.679
X-108.1 Y-15.585
X-108.079 Y-15.477
Y-15.238
X-108.088 Y-15.2
X-108.112 Y-15.168
X-108.145 Y-15.147
X-108.184 Y-15.142
X-108.387 Y-15.152
X-109.023 Y-15.184
X-109.059 Y-15.193
X-109.089 Y-15.214
X-109.11 Y-15.244
X-109.118 Y-15.28
Y-15.534
X-109.114 Y-15.609
X-109.052 Y-15.745
X-108.947 Y-15.852
X-108.819 Y-15.931
X-108.678 Y-15.983
X-108.531 Y-16.009
X-108.381 Y-16.012
X-108.311 Y-15.996
X-108.192 Y-15.937
X-108.109 Y-15.833
X-108.079 Y-15.703
Y-15.477
X-108.085 Y-15.446
X-108.101 Y-15.418
X-108.125 Y-15.397
X-108.154 Y-15.384
X-108.186 Y-15.381
X-108.388 Y-15.394
X-109.025 Y-15.438
X-109.06 Y-15.447
X-109.09 Y-15.468
X-109.11 Y-15.498
X-109.118 Y-15.534
Y-15.741
X-109.11 Y-15.891
X-109.029 Y-16.017
X-108.915 Y-16.114
X-108.782 Y-16.184
X-108.639 Y-16.228
X-108.49 Y-16.248
X-108.341 Y-16.235
X-108.295 Y-16.221
X-108.183 Y-16.16
X-108.106 Y-16.058
X-108.079 Y-15.934
Y-15.703
X-108.088 Y-15.665
X-108.111 Y-15.633
X-108.145 Y-15.613
X-108.184 Y-15.607
X-108.387 Y-15.616
X-109.022 Y-15.644
X-109.059 Y-15.653
X-109.089 Y-15.674
X-109.11 Y-15.705
X-109.118 Y-15.741
Y-15.994
X-109.114 Y-16.069
X-109.057 Y-16.208
X-108.952 Y-16.315
X-108.825 Y-16.395
X-108.686 Y-16.449
X-108.538 Y-16.477
X-108.388 Y-16.475
X-108.24 Y-16.442
X-108.155 Y-16.375
X-108.099 Y-16.282
X-108.079 Y-16.176
Y-15.934
X-108.086 Y-15.902
X-108.101 Y-15.874
X-108.125 Y-15.853
X-108.155 Y-15.84
X-108.186 Y-15.837
X-108.388 Y-15.852
X-109.025 Y-15.898
X-109.06 Y-15.907
X-109.09 Y-15.928
X-109.11 Y-15.959
X-109.118 Y-15.994
Y-16.21
X-109.114 Y-16.284
X-109.063 Y-16.426
X-108.963 Y-16.537
X-108.838 Y-16.62
X-108.699 Y-16.676
X-108.552 Y-16.707
X-108.402 Y-16.712
X-108.255 Y-16.684
X-108.162 Y-16.618
X-108.101 Y-16.522
X-108.079 Y-16.411
Y-16.176
X-108.088 Y-16.138
X-108.111 Y-16.106
X-108.145 Y-16.086
X-108.183 Y-16.08
X-108.387 Y-16.088
X-109.022 Y-16.113
X-109.058 Y-16.121
X-109.089 Y-16.143
X-109.11 Y-16.173
X-109.118 Y-16.21
Y-16.463
X-109.114 Y-16.538
X-109.054 Y-16.675
X-108.949 Y-16.783
X-108.822 Y-16.862
X-108.681 Y-16.914
X-108.534 Y-16.942
X-108.384 Y-16.945
X-108.313 Y-16.929
X-108.193 Y-16.872
X-108.109 Y-16.767
X-108.079 Y-16.637
Y-16.411
X-108.089 Y-16.372
X-108.112 Y-16.34
X-108.146 Y-16.32
X-108.185 Y-16.314
X-108.387 Y-16.327
X-109.024 Y-16.367
X-109.06 Y-16.376
X-109.09 Y-16.397
X-109.11 Y-16.427
X-109.118 Y-16.463
Y-16.67
X-109.11 Y-16.82
X-109.03 Y-16.947
X-108.917 Y-17.044
X-108.784 Y-17.115
X-108.641 Y-17.161
X-108.493 Y-17.18
X-108.343 Y-17.168
X-108.296 Y-17.155
X-108.183 Y-17.094
X-108.107 Y-16.992
X-108.079 Y-16.867
Y-16.637
X-108.088 Y-16.599
X-108.111 Y-16.567
X-108.145 Y-16.546
X-108.183 Y-16.54
X-108.387 Y-16.548
X-109.022 Y-16.573
X-109.058 Y-16.582
X-109.089 Y-16.603
X-109.11 Y-16.634
X-109.118 Y-16.67
Y-16.923
Y-16.97
Y-17.008
X-109.116 Y-17.036
X-109.107 Y-17.052
X-109.04 Y-17.133
X-108.95 Y-17.185
X-108.847 Y-17.203
G3 X-108.683 Y-16.883 I-0.007 J0.205
X-109.118 Y-17.008 I-0.197 J-0.133
G1 Y-17.092
X-109.116 Y-17.105
X-109.113 Y-17.118
X-109.107 Y-17.131
X-109.089 Y-17.16
X-109.075 Y-17.177
X-109.06 Y-17.188
X-109.045 Y-17.196
X-109.03 Y-17.201
X-109.015 Y-17.203
X-108.212
X-108.19
X-108.18
X-108.155 Y-17.196
X-108.146 Y-17.193
X-108.126 Y-17.173
X-108.116 Y-17.146
X-108.118 Y-17.118
X-108.132 Y-17.093
X-108.156 Y-17.076
X-108.185 Y-17.071
X-108.213 Y-17.079
X-108.235 Y-17.098
X-108.246 Y-17.125
X-108.245 Y-17.154
X-108.232 Y-17.18
X-108.208 Y-17.197
X-108.18 Y-17.203
X-108.169 Y-17.201
X-108.158 Y-17.198
X-108.146 Y-17.193
X-108.134 Y-17.186
X-108.123 Y-17.177
X-108.11 Y-17.162
X-108.091 Y-17.133
X-108.085 Y-17.119
X-108.081 Y-17.105
X-108.079 Y-17.092
Y-16.867
X-108.084 Y-16.839
X-108.097 Y-16.813
X-108.126 Y-16.796 Z-0.983
X-108.151 Y-16.781 Z-0.966
X-108.17 Y-16.771 Z-0.939
X-108.179 Y-16.77 Z-0.916
X-108.183 Z-0.89
G0 Z2
X-90.801 Y-12.321
Z0.5
G3 X-90.317 Y-12.446 Z0.29 I0.242 J-0.062 F333.3
X-90.801 Y-12.321 Z0.079 I-0.242 J0.062
X-90.317 Y-12.446 Z-0.131 I0.242 J-0.062
X-90.801 Y-12.321 Z-0.342 I-0.242 J0.062
X-90.317 Y-12.446 Z-0.552 I0.242 J-0.062
X-90.801 Y-12.321 Z-0.763 I-0.242 J0.062
X-90.591 Y-12.631 Z-0.876 I0.242 J-0.062
X-90.309 Y-12.383 Z-0.99 I0.031 J0.248
X-90.809 I-0.25
X-90.309 I0.25
G1 X-90.272 Y-12.238 F1000
X-90.285 Y-12.164
X-90.322 Y-12.099
X-90.429 Y-11.994
X-90.573 Y-11.954
X-90.722 Y-11.975
X-90.852 Y-12.049
X-90.949 Y-12.164
X-91.001 Y-12.305
X-91.003 Y-12.455
X-90.956 Y-12.597
X-90.864 Y-12.715
X-90.738 Y-12.797
X-90.592 Y-12.833
X-90.443 Y-12.819
X-90.306 Y-12.757
X-90.198 Y-12.653
X-90.12 Y-12.525
X-90.07 Y-12.384
X-90.059 Y-12.234
X-90.094 Y-12.089
X-90.165 Y-11.956
X-90.273 Y-11.853
X-90.404 Y-11.779
X-90.55 Y-11.746
X-90.7 Y-11.753
X-90.844 Y-11.794
X-90.974 Y-11.87
X-91.08 Y-11.976
X-91.162 Y-12.101
X-91.212 Y-12.243
X-91.227 Y-12.392
X-91.21 Y-12.541
X-91.16 Y-12.682
X-91.077 Y-12.808
X-90.971 Y-12.913
X-90.843 Y-12.992
X-90.7 Y-13.038
X-90.551 Y-13.055
X-90.402 Y-13.037
X-90.262 Y-12.984
X-90.135 Y-12.904
X-90.026 Y-12.801
X-89.939 Y-12.679
X-89.876 Y-12.543
X-89.838 Y-12.398
X-89.83 Y-12.248
X-89.852 Y-12.099
X-89.901 Y-11.958
X-89.977 Y-11.828
X-90.078 Y-11.718
X-90.199 Y-11.628
X-90.334 Y-11.562
X-90.479 Y-11.525
X-90.629 Y-11.515
X-90.778 Y-11.532
X-90.861 Y-11.557
X-90.951 Y-11.601
X-91.022 Y-11.673
X-91.065 Y-11.764
X-91.08 Y-11.818
X-91.096 Y-11.855
X-91.142 Y-11.94
X-91.308 Y-12.193
X-91.384 Y-12.323
X-91.414 Y-12.469
X-91.406 Y-12.619
X-91.399 Y-12.645
X-91.358 Y-12.732
X-91.291 Y-12.802
X-91.206 Y-12.846
X-91.164 Y-12.86
X-91.143 Y-12.869
X-91.112 Y-12.885
X-91.08 Y-12.904
X-91.015 Y-12.953
X-90.995 Y-12.972
X-90.937 Y-13.038
X-90.911 Y-13.076
X-90.868 Y-13.138
X-90.742 Y-13.219
X-90.598 Y-13.259
X-90.448 Y-13.264
X-90.3 Y-13.24
X-90.158 Y-13.19
X-90.027 Y-13.117
X-89.952 Y-13.056
X-89.893 Y-12.993
X-89.854 Y-12.916
X-89.839 Y-12.831
X-89.832 Y-12.616
X-89.83 Y-12.531
X-89.829 Y-12.278
X-89.84 Y-11.893
X-89.852 Y-11.744
X-89.918 Y-11.61
X-90.018 Y-11.497
X-90.138 Y-11.408
X-90.272 Y-11.341
X-90.416 Y-11.297
X-90.565 Y-11.277
X-90.715 Y-11.279
X-90.763 Y-11.289
X-90.868 Y-11.33
X-90.95 Y-11.407
X-90.997 Y-11.509
X-91.043 Y-11.686
X-91.065 Y-11.764
X-91.067 Y-11.798
X-91.058 Y-11.83
X-91.038 Y-11.858
X-91.01 Y-11.878
X-90.978 Y-11.887
X-90.565 Y-11.929
X-89.95 Y-11.992
X-89.917 Y-11.99
X-89.886 Y-11.977
X-89.862 Y-11.955
X-89.845 Y-11.926
X-89.84 Y-11.893
X-89.843 Y-11.771
X-89.847 Y-11.686
X-89.856 Y-11.555
X-89.865 Y-11.481
X-89.928 Y-11.345
X-90.031 Y-11.235
X-90.155 Y-11.151
X-90.292 Y-11.09
X-90.437 Y-11.051
X-90.586 Y-11.034
X-90.735 Y-11.045
X-90.744 Y-11.047
X-90.843 Y-11.099
X-90.916 Y-11.183
X-90.953 Y-11.289
X-90.963 Y-11.349
X-90.978 Y-11.433
X-90.997 Y-11.509
X-90.999 Y-11.544
X-90.988 Y-11.577
X-90.967 Y-11.604
X-90.937 Y-11.623
X-90.903 Y-11.63
X-90.58 Y-11.64
X-89.959 Y-11.659
X-89.927 Y-11.655
X-89.898 Y-11.64
X-89.875 Y-11.617
X-89.86 Y-11.588
X-89.856 Y-11.555
X-89.865 Y-11.433
X-89.877 Y-11.302
X-89.899 Y-11.154
X-89.988 Y-11.033
X-90.106 Y-10.94
X-90.239 Y-10.87
X-90.381 Y-10.822
X-90.529 Y-10.797
X-90.679 Y-10.803
X-90.701 Y-10.808
X-90.811 Y-10.863
X-90.89 Y-10.957
X-90.925 Y-11.075
X-90.927 Y-11.095
X-90.937 Y-11.18
X-90.953 Y-11.289
X-90.952 Y-11.322
X-90.939 Y-11.353
X-90.917 Y-11.378
X-90.888 Y-11.395
X-90.855 Y-11.4
X-90.599 Y-11.403
X-89.978 Y-11.408
X-89.946 Y-11.403
X-89.917 Y-11.388
X-89.894 Y-11.364
X-89.88 Y-11.335
X-89.877 Y-11.302
X-89.901 Y-11.049
X-89.923 Y-10.9
X-90.012 Y-10.78
X-90.13 Y-10.687
X-90.265 Y-10.62
X-90.409 Y-10.579
X-90.558 Y-10.562
X-90.707 Y-10.579
X-90.716 Y-10.583
X-90.814 Y-10.644
X-90.881 Y-10.737
X-90.909 Y-10.849
X-90.911 Y-10.896
X-90.925 Y-11.075
X-90.921 Y-11.107
X-90.907 Y-11.137
X-90.884 Y-11.16
X-90.855 Y-11.175
X-90.822 Y-11.179
X-90.623 Y-11.173
X-89.998 Y-11.155
X-89.959 Y-11.146
X-89.927 Y-11.122
X-89.907 Y-11.088
X-89.901 Y-11.049
X-89.913 Y-10.926
X-89.922 Y-10.842
X-89.941 Y-10.757
X-89.98 Y-10.613
X-90.08 Y-10.5
X-90.205 Y-10.418
X-90.344 Y-10.362
X-90.492 Y-10.335
X-90.642 Y-10.337
X-90.685 Y-10.349
X-90.801 Y-10.409
X-90.881 Y-10.512
X-90.909 Y-10.64
Y-10.849
X-90.903 Y-10.882
X-90.888 Y-10.912
X-90.863 Y-10.934
X-90.832 Y-10.947
X-90.799 Y-10.95
X-90.646 Y-10.935
X-90.029 Y-10.875
X-89.997 Y-10.866
X-89.97 Y-10.848
X-89.95 Y-10.821
X-89.94 Y-10.79
X-89.941 Y-10.757
X-89.996 Y-10.504
X-90.035 Y-10.359
X-90.136 Y-10.248
X-90.264 Y-10.17
X-90.407 Y-10.123
X-90.556 Y-10.107
X-90.705 Y-10.126
X-90.732 Y-10.137
X-90.834 Y-10.206
X-90.9 Y-10.311
X-90.918 Y-10.434
X-90.909 Y-10.588
Y-10.64
X-90.902 Y-10.673
X-90.884 Y-10.702
X-90.858 Y-10.723
X-90.827 Y-10.734
X-90.793 Y-10.735
X-90.697 Y-10.719
X-90.078 Y-10.621
X-90.041 Y-10.607
X-90.013 Y-10.58
X-89.997 Y-10.543
X-89.996 Y-10.504
X-90.033 Y-10.335
X-90.052 Y-10.25
X-90.097 Y-10.107
X-90.202 Y-10.001
X-90.334 Y-9.93
X-90.48 Y-9.894
X-90.63 Y-9.889
X-90.776 Y-9.923
X-90.786 Y-9.928
X-90.88 Y-10.008
X-90.933 Y-10.119
X-90.938 Y-10.242
X-90.924 Y-10.335
X-90.918 Y-10.434
X-90.909 Y-10.466
X-90.89 Y-10.494
X-90.862 Y-10.514
X-90.83 Y-10.523
X-90.796 Y-10.521
X-90.744 Y-10.509
X-90.128 Y-10.367
X-90.093 Y-10.352
X-90.067 Y-10.324
X-90.052 Y-10.289
Y-10.25
X-90.117 Y-9.997
X-90.168 Y-9.856
X-90.28 Y-9.757
X-90.418 Y-9.697
X-90.566 Y-9.672
X-90.715 Y-9.679
X-90.774 Y-9.698
X-90.893 Y-9.773
X-90.965 Y-9.894
X-90.974 Y-10.034
X-90.938 Y-10.242
X-90.926 Y-10.273
X-90.904 Y-10.298
X-90.875 Y-10.315
X-90.842 Y-10.321
X-90.809 Y-10.316
X-90.791 Y-10.31
X-90.184 Y-10.113
X-90.151 Y-10.096
X-90.128 Y-10.068
X-90.116 Y-10.034
X-90.117 Y-9.997
X-90.194 Y-9.744
X-90.22 Y-9.673
X-90.319 Y-9.561
X-90.452 Y-9.493
X-90.599 Y-9.46
X-90.749 Y-9.471
X-90.892 Y-9.517
X-90.895 Y-9.519
X-90.976 Y-9.605
X-91.018 Y-9.716
X-91.014 Y-9.834
X-90.995 Y-9.913
X-90.974 Y-10.034
X-90.96 Y-10.067
X-90.937 Y-10.093
X-90.906 Y-10.109
X-90.871 Y-10.113
X-90.837 Y-10.106
X-90.252 Y-9.862
X-90.222 Y-9.842
X-90.201 Y-9.814
X-90.191 Y-9.779
X-90.194 Y-9.744
X-90.26 Y-9.528
X-90.283 Y-9.465
X-90.379 Y-9.351
X-90.513 Y-9.284
X-90.661 Y-9.256
X-90.811 Y-9.263
X-90.952 Y-9.313
X-90.97 Y-9.326
X-91.058 Y-9.426
X-91.094 Y-9.553
X-91.072 Y-9.684
X-91.047 Y-9.744
X-91.015 Y-9.828
X-91.014 Y-9.834
X-90.999 Y-9.865
X-90.975 Y-9.889
X-90.944 Y-9.904
X-90.91 Y-9.907
X-90.876 Y-9.899
X-90.315 Y-9.645
X-90.286 Y-9.626
X-90.266 Y-9.597
X-90.257 Y-9.563
X-90.26 Y-9.528
X-90.284 Y-9.448
X-90.293 Y-9.427
X-90.303 Y-9.406
X-90.403 Y-9.249
X-90.446 Y-9.188
X-90.568 Y-9.1
X-90.713 Y-9.06
X-90.863 Y-9.061
X-91.005 Y-9.108
X-91.036 Y-9.128
X-91.131 Y-9.227
X-91.172 Y-9.359
X-91.15 Y-9.494
X-91.072 Y-9.684
X-91.052 Y-9.713
X-91.023 Y-9.733
X-90.99 Y-9.742
X-90.955 Y-9.739
X-90.923 Y-9.725
X-90.432 Y-9.382
X-90.406 Y-9.355
X-90.392 Y-9.321
X-90.391 Y-9.284
X-90.403 Y-9.249
X-90.535 Y-9.042
X-90.578 Y-8.981
X-90.703 Y-8.898
X-90.851 Y-8.871
X-91 Y-8.887
X-91.137 Y-8.948
X-91.16 Y-8.968
X-91.24 Y-9.078
X-91.263 Y-9.212
X-91.224 Y-9.343
X-91.188 Y-9.406
X-91.15 Y-9.494
X-91.129 Y-9.524
X-91.099 Y-9.544
X-91.064 Y-9.553
X-91.027 Y-9.548
X-90.996 Y-9.53
X-90.557 Y-9.17
X-90.534 Y-9.144
X-90.522 Y-9.111
Y-9.075
X-90.535 Y-9.042
X-90.643 Y-8.872
X-90.686 Y-8.811
X-90.807 Y-8.722
X-90.954 Y-8.693
X-91.103 Y-8.709
X-91.238 Y-8.774
X-91.262 Y-8.794
X-91.343 Y-8.908
X-91.364 Y-9.046
X-91.321 Y-9.178
X-91.284 Y-9.237
X-91.224 Y-9.343
X-91.201 Y-9.369
X-91.17 Y-9.385
X-91.136 Y-9.39
X-91.102 Y-9.383
X-91.072 Y-9.365
X-90.662 Y-8.997
X-90.641 Y-8.971
X-90.63 Y-8.938
X-90.631 Y-8.904
X-90.643 Y-8.872
X-90.767 Y-8.678
X-90.787 Y-8.646
X-90.804 Y-8.622
X-90.858 Y-8.571
X-90.999 Y-8.518
X-91.149 Y-8.52
X-91.291 Y-8.568
X-91.414 Y-8.654
X-91.419 Y-8.66
X-91.469 Y-8.768
X-91.474 Y-8.886
X-91.433 Y-8.998
X-91.321 Y-9.178
X-91.294 Y-9.205
X-91.26 Y-9.22
X-91.223 Y-9.222
X-91.187 Y-9.209
X-91.159 Y-9.185
X-90.809 Y-8.74
X-90.793 Y-8.713
X-90.787 Y-8.682
X-90.791 Y-8.651
X-90.804 Y-8.622
X-90.826 Y-8.599
X-90.951 Y-8.477
X-91.007 Y-8.427
X-91.144 Y-8.366
X-91.294 Y-8.37
X-91.436 Y-8.418
X-91.553 Y-8.512
X-91.56 Y-8.522
X-91.606 Y-8.65
X-91.591 Y-8.785
X-91.518 Y-8.9
X-91.468 Y-8.949
X-91.452 Y-8.966
X-91.433 Y-8.998
X-91.407 Y-9.024
X-91.373 Y-9.039
X-91.336 Y-9.041
X-91.301 Y-9.029
X-91.273 Y-9.006
X-90.946 Y-8.609
X-90.929 Y-8.578
X-90.923 Y-8.542
X-90.931 Y-8.507
X-90.951 Y-8.477
X-91.103 Y-8.327
X-91.16 Y-8.277
X-91.297 Y-8.218
X-91.447 Y-8.225
X-91.587 Y-8.279
X-91.699 Y-8.38
X-91.707 Y-8.395
X-91.749 Y-8.523
X-91.73 Y-8.656
X-91.655 Y-8.768
X-91.588 Y-8.832
X-91.518 Y-8.9
X-91.489 Y-8.918
X-91.455 Y-8.926
X-91.42 Y-8.921
X-91.39 Y-8.905
X-91.366 Y-8.88
X-91.092 Y-8.449
X-91.079 Y-8.419
X-91.076 Y-8.386
X-91.085 Y-8.354
X-91.103 Y-8.327
X-91.249 Y-8.184
X-91.305 Y-8.134
X-91.442 Y-8.073
X-91.592 Y-8.081
X-91.731 Y-8.138
X-91.841 Y-8.24
X-91.857 Y-8.266
X-91.896 Y-8.371
X-91.893 Y-8.484
X-91.85 Y-8.587
X-91.771 Y-8.668
X-91.757 Y-8.678
X-91.696 Y-8.73
X-91.655 Y-8.768
X-91.626 Y-8.786
X-91.592 Y-8.793
X-91.557 Y-8.787
X-91.527 Y-8.771
X-91.504 Y-8.745
X-91.236 Y-8.305
X-91.224 Y-8.274
X-91.222 Y-8.242
X-91.231 Y-8.211
X-91.249 Y-8.184
X-91.381 Y-8.054
X-91.4 Y-8.042
X-91.418 Y-8.032
X-91.503 Y-7.999
X-91.645 Y-7.952
X-91.794 Y-7.975
X-91.925 Y-8.047
X-92.026 Y-8.158
X-92.039 Y-8.187
X-92.063 Y-8.322
X-92.025 Y-8.454
X-91.933 Y-8.555
X-91.771 Y-8.668
X-91.738 Y-8.681
X-91.702 Y-8.682
X-91.668 Y-8.671
X-91.64 Y-8.648
X-91.623 Y-8.617
X-91.448 Y-8.124
X-91.442 Y-8.087
X-91.451 Y-8.05
X-91.472 Y-8.02
X-91.503 Y-7.999
X-91.757 Y-7.901
X-91.828 Y-7.878
X-91.977 Y-7.891
X-92.109 Y-7.964
X-92.201 Y-8.081
X-92.207 Y-8.097
X-92.225 Y-8.232
X-92.18 Y-8.361
X-92.084 Y-8.457
X-92.011 Y-8.502
X-91.933 Y-8.555
X-91.896 Y-8.569
X-91.857 Y-8.568
X-91.822 Y-8.553
X-91.795 Y-8.524
X-91.781 Y-8.488
X-91.697 Y-8.01
Y-7.977
X-91.708 Y-7.945
X-91.729 Y-7.919
X-91.757 Y-7.901
X-91.926 Y-7.836
X-91.997 Y-7.813
X-92.072 Y-7.81
X-92.217 Y-7.849
X-92.331 Y-7.946
X-92.349 Y-7.979
X-92.384 Y-8.101
X-92.365 Y-8.227
X-92.295 Y-8.333
X-92.188 Y-8.402
X-92.153 Y-8.407
X-92.118 Y-8.399
X-92.089 Y-8.38
X-92.067 Y-8.352
X-91.876 Y-7.973
X-91.866 Y-7.942
X-91.867 Y-7.91
X-91.878 Y-7.879
X-91.898 Y-7.854
X-91.926 Y-7.836
X-92.095 Y-7.771
X-92.142 Y-7.754
X-92.18 Y-7.74
X-92.254 Y-7.732
X-92.398 Y-7.776
X-92.504 Y-7.882
X-92.564 Y-8.019
X-92.566 Y-8.033
X-92.548 Y-8.17
X-92.47 Y-8.285
X-92.349 Y-8.352
X-92.236 Y-8.385
X-92.213 Y-8.392
X-92.188 Y-8.402
X-92.155 Y-8.407
X-92.122 Y-8.4
X-92.093 Y-8.384
X-92.071 Y-8.358
X-92.059 Y-8.327
X-92.057 Y-8.294
X-92.118 Y-7.82
X-92.129 Y-7.786
X-92.15 Y-7.758
X-92.18 Y-7.74
X-92.395 Y-7.707
X-92.47 Y-7.7
X-92.608 Y-7.76
X-92.658 Y-7.817
X-92.726 Y-7.95
X-92.722 Y-8.1
X-92.645 Y-8.229
X-92.516 Y-8.305
X-92.349 Y-8.352
X-92.316 Y-8.355
X-92.284 Y-8.346
X-92.256 Y-8.328
X-92.236 Y-8.301
X-92.226 Y-8.269
X-92.227 Y-8.236
X-92.315 Y-7.787
X-92.331 Y-7.75
X-92.359 Y-7.722
X-92.395 Y-7.707
X-92.565 Y-7.682
X-92.639 Y-7.675
X-92.779 Y-7.731
X-92.875 Y-7.846
X-92.922 Y-7.988
X-92.92 Y-8.004
X-92.882 Y-8.133
X-92.791 Y-8.231
X-92.666 Y-8.281
X-92.516 Y-8.305
X-92.483 Y-8.307
X-92.45 Y-8.298
X-92.422 Y-8.279
X-92.403 Y-8.252
X-92.393 Y-8.22
X-92.394 Y-8.187
X-92.485 Y-7.76
X-92.5 Y-7.724
X-92.528 Y-7.697
X-92.565 Y-7.682
X-92.734 Y-7.657
X-92.808 Y-7.65
X-92.88 Y-7.672
X-93.005 Y-7.755
X-93.086 Y-7.881
X-93.091 Y-7.915
X-93.084 Y-8.034
X-93.033 Y-8.141
X-92.944 Y-8.219
X-92.831 Y-8.257
X-92.772 Y-8.265
X-92.666 Y-8.281
X-92.628 Y-8.278
X-92.594 Y-8.261
X-92.569 Y-8.233
X-92.556 Y-8.197
X-92.557 Y-8.159
X-92.654 Y-7.733
X-92.67 Y-7.698
X-92.698 Y-7.672
X-92.734 Y-7.657
X-92.905 Y-7.632
X-92.98 Y-7.625
X-93.124 Y-7.668
X-93.229 Y-7.775
X-93.28 Y-7.916
Y-7.946
X-93.241 Y-8.089
X-93.139 Y-8.196
X-92.998 Y-8.241
X-92.941 Y-8.245
X-92.831 Y-8.257
X-92.793 Y-8.253
X-92.76 Y-8.236
X-92.735 Y-8.208
X-92.723 Y-8.172
X-92.725 Y-8.135
X-92.826 Y-7.707
X-92.842 Y-7.672
X-92.87 Y-7.646
X-92.905 Y-7.632
X-93.11 Y-7.602
X-93.131 Y-7.601
X-93.206 Y-7.609
X-93.342 Y-7.673
X-93.433 Y-7.792
X-93.467 Y-7.938
X-93.463 Y-7.977
X-93.43 Y-8.088
X-93.357 Y-8.178
X-93.255 Y-8.234
X-93.139 Y-8.246
X-93.11 Y-8.244
X-93.026 Y-8.24
X-92.998 Y-8.241
X-92.961 Y-8.235
X-92.928 Y-8.215
X-92.905 Y-8.185
X-92.896 Y-8.148
X-92.9 Y-8.111
X-93.042 Y-7.671
X-93.055 Y-7.644
X-93.076 Y-7.622
X-93.102 Y-7.608
X-93.131 Y-7.601
X-93.153 Y-7.603
X-93.364 Y-7.625
X-93.438 Y-7.636
X-93.563 Y-7.719
X-93.636 Y-7.85
X-93.655 Y-7.999
X-93.647 Y-8.032
X-93.582 Y-8.16
X-93.465 Y-8.244
X-93.322 Y-8.263
X-93.28 Y-8.258
X-93.139 Y-8.246
X-93.103 Y-8.235
X-93.074 Y-8.211
X-93.056 Y-8.177
X-93.051 Y-8.14
X-93.061 Y-8.103
X-93.267 Y-7.681
X-93.291 Y-7.649
X-93.325 Y-7.63
X-93.364 Y-7.625
X-93.533 Y-7.643
X-93.607 Y-7.654
X-93.674 Y-7.688
X-93.782 Y-7.793
X-93.836 Y-7.933
X-93.832 Y-8.082
X-93.822 Y-8.107
X-93.743 Y-8.221
X-93.62 Y-8.288
X-93.481 Y-8.292
X-93.364 Y-8.267
X-93.322 Y-8.263
X-93.288 Y-8.251
X-93.259 Y-8.227
X-93.242 Y-8.195
X-93.237 Y-8.159
X-93.245 Y-8.123
X-93.435 Y-7.701
X-93.452 Y-7.676
X-93.475 Y-7.656
X-93.503 Y-7.645
X-93.533 Y-7.643
X-93.618 Y-7.651
X-93.703 Y-7.662
X-93.749 Y-7.67
X-93.787 Y-7.677
X-93.859 Y-7.7
X-93.969 Y-7.802
X-94.025 Y-7.941
X-94.027 Y-8.091
X-94.015 Y-8.129
X-93.96 Y-8.231
X-93.87 Y-8.305
X-93.759 Y-8.339
X-93.643 Y-8.328
X-93.618 Y-8.321
X-93.481 Y-8.292
X-93.446 Y-8.276
X-93.421 Y-8.248
X-93.407 Y-8.213
Y-8.176
X-93.421 Y-8.141
X-93.688 Y-7.722
X-93.715 Y-7.695
X-93.749 Y-7.679
X-93.787 Y-7.677
X-93.956 Y-7.722
X-94.028 Y-7.744
X-94.089 Y-7.788
X-94.18 Y-7.907
X-94.216 Y-8.053
X-94.198 Y-8.202
X-94.179 Y-8.241
X-94.11 Y-8.332
X-94.011 Y-8.39
X-93.898 Y-8.408
X-93.787 Y-8.382
X-93.703 Y-8.346
X-93.643 Y-8.328
X-93.612 Y-8.311
X-93.588 Y-8.284
X-93.576 Y-8.25
X-93.577 Y-8.214
X-93.59 Y-8.18
X-93.85 Y-7.766
X-93.87 Y-7.743
X-93.896 Y-7.727
X-93.926 Y-7.72
X-93.956 Y-7.722
X-94.172 Y-7.778
X-94.244 Y-7.801
X-94.35 Y-7.906
X-94.401 Y-8.047
X-94.402 Y-8.197
X-94.356 Y-8.34
X-94.333 Y-8.372
X-94.225 Y-8.465
X-94.085 Y-8.497
X-93.947 Y-8.46
X-93.872 Y-8.42
X-93.787 Y-8.382
X-93.759 Y-8.361
X-93.739 Y-8.331
X-93.731 Y-8.297
X-93.736 Y-8.262
X-93.752 Y-8.231
X-94.071 Y-7.815
X-94.099 Y-7.79
X-94.134 Y-7.777
X-94.172 Y-7.778
X-94.295 Y-7.811
X-94.305 Y-7.815
X-94.406 Y-7.873
X-94.468 Y-7.914
X-94.558 Y-8.035
X-94.589 Y-8.181
X-94.575 Y-8.331
X-94.513 Y-8.467
X-94.494 Y-8.489
X-94.385 Y-8.569
X-94.252 Y-8.593
X-94.123 Y-8.556
X-93.947 Y-8.46
X-93.92 Y-8.438
X-93.903 Y-8.407
X-93.897 Y-8.373
X-93.904 Y-8.338
X-93.922 Y-8.308
X-94.283 Y-7.895
X-94.309 Y-7.874
X-94.34 Y-7.863
X-94.374 Y-7.862
X-94.406 Y-7.873
X-94.572 Y-7.97
X-94.635 Y-8.011
X-94.734 Y-8.124
X-94.769 Y-8.27
X-94.756 Y-8.419
X-94.713 Y-8.516
X-94.635 Y-8.621
X-94.52 Y-8.684
X-94.388 Y-8.693
X-94.265 Y-8.646
X-94.21 Y-8.609
X-94.123 Y-8.556
X-94.096 Y-8.534
X-94.079 Y-8.504
X-94.074 Y-8.47
X-94.08 Y-8.435
X-94.097 Y-8.406
X-94.449 Y-7.993
X-94.475 Y-7.971
X-94.506 Y-7.96
X-94.54 Y-7.959
X-94.572 Y-7.97
X-94.764 Y-8.083
X-94.802 Y-8.106
X-94.86 Y-8.154
X-94.931 Y-8.286
X-94.943 Y-8.435
X-94.908 Y-8.581
X-94.831 Y-8.71
X-94.721 Y-8.814
X-94.596 Y-8.844
X-94.47 Y-8.819
X-94.366 Y-8.744
X-94.354 Y-8.73
X-94.295 Y-8.669
X-94.265 Y-8.646
X-94.244 Y-8.619
X-94.232 Y-8.588
Y-8.554
X-94.243 Y-8.521
X-94.264 Y-8.495
X-94.688 Y-8.119
X-94.714 Y-8.102
X-94.743 Y-8.094
X-94.774 Y-8.095
X-94.802 Y-8.106
X-94.846 Y-8.139
X-94.972 Y-8.242
X-95.027 Y-8.292
X-95.096 Y-8.425
X-95.103 Y-8.575
X-95.064 Y-8.72
X-94.991 Y-8.851
X-94.882 Y-8.954
X-94.859 Y-8.965
X-94.728 Y-8.999
X-94.596 Y-8.972
X-94.488 Y-8.89
X-94.401 Y-8.784
X-94.366 Y-8.744
X-94.35 Y-8.716
X-94.343 Y-8.685
X-94.347 Y-8.653
X-94.36 Y-8.624
X-94.382 Y-8.601
X-94.85 Y-8.242
X-94.879 Y-8.227
X-94.911 Y-8.221
X-94.943 Y-8.226
X-94.972 Y-8.242
X-95.141 Y-8.38
X-95.196 Y-8.43
X-95.259 Y-8.566
X-95.263 Y-8.716
X-95.224 Y-8.861
X-95.151 Y-8.992
X-95.044 Y-9.097
X-95.001 Y-9.121
X-94.867 Y-9.161
X-94.729 Y-9.135
X-94.618 Y-9.049
X-94.488 Y-8.89
X-94.471 Y-8.854
X-94.469 Y-8.814
X-94.482 Y-8.777
X-94.509 Y-8.748
X-95.022 Y-8.378
X-95.05 Y-8.364
X-95.081 Y-8.36
X-95.113 Y-8.365
X-95.141 Y-8.38
X-95.225 Y-8.449
X-95.258 Y-8.477
X-95.274 Y-8.493
X-95.34 Y-8.587
X-95.38 Y-8.65
X-95.418 Y-8.795
X-95.401 Y-8.944
X-95.342 Y-9.082
X-95.251 Y-9.202
X-95.132 Y-9.293
X-95.087 Y-9.312
X-94.947 Y-9.334
X-94.811 Y-9.289
X-94.713 Y-9.186
X-94.693 Y-9.152
X-94.633 Y-9.068
X-94.618 Y-9.049
X-94.602 Y-9.02
X-94.598 Y-8.987
X-94.604 Y-8.954
X-94.621 Y-8.926
X-94.646 Y-8.904
X-94.663 Y-8.893
X-95.208 Y-8.561
X-95.242 Y-8.548
X-95.279
X-95.313 Y-8.562
X-95.34 Y-8.587
X-95.479 Y-8.787
X-95.519 Y-8.851
X-95.55 Y-8.997
X-95.523 Y-9.145
X-95.456 Y-9.279
X-95.36 Y-9.394
X-95.236 Y-9.478
X-95.181 Y-9.499
X-95.04 Y-9.518
X-94.906 Y-9.468
X-94.81 Y-9.362
X-94.742 Y-9.237
X-94.713 Y-9.186
X-94.702 Y-9.156
Y-9.124
X-94.712 Y-9.093
X-94.731 Y-9.068
X-94.757 Y-9.049
X-94.774 Y-9.041
X-95.355 Y-8.757
X-95.388 Y-8.748
X-95.423 Y-8.75
X-95.454 Y-8.763
X-95.479 Y-8.787
X-95.498 Y-8.815
X-95.564 Y-8.917
X-95.605 Y-8.984
X-95.641 Y-9.049
X-95.669 Y-9.196
X-95.637 Y-9.343
X-95.565 Y-9.474
X-95.464 Y-9.586
X-95.338 Y-9.667
X-95.198 Y-9.719
X-95.195
X-95.079 Y-9.703
X-94.978 Y-9.643
X-94.908 Y-9.549
X-94.887 Y-9.505
X-94.81 Y-9.362
X-94.8 Y-9.332
X-94.801 Y-9.3
X-94.812 Y-9.27
X-94.831 Y-9.244
X-94.858 Y-9.227
X-94.892 Y-9.212
X-95.48 Y-8.948
X-95.514 Y-8.939
X-95.549 Y-8.943
X-95.58 Y-8.958
X-95.605 Y-8.984
X-95.657 Y-9.068
X-95.705 Y-9.152
X-95.733 Y-9.209
X-95.763 Y-9.278
X-95.776 Y-9.428
X-95.732 Y-9.571
X-95.649 Y-9.696
X-95.541 Y-9.8
X-95.414 Y-9.881
X-95.27 Y-9.923
X-95.255
X-95.126 Y-9.895
X-95.021 Y-9.814
X-94.961 Y-9.696
X-94.944 Y-9.628
X-94.94 Y-9.617
X-94.908 Y-9.549
X-94.9 Y-9.518
X-94.902 Y-9.486
X-94.914 Y-9.456
X-94.935 Y-9.432
X-94.963 Y-9.416
X-95.012 Y-9.397
X-95.609 Y-9.164
X-95.644 Y-9.157
X-95.679 Y-9.163
X-95.71 Y-9.181
X-95.733 Y-9.209
X-95.83 Y-9.406
X-95.86 Y-9.475
X-95.876 Y-9.624
X-95.831 Y-9.767
X-95.749 Y-9.893
X-95.643 Y-9.998
X-95.516 Y-10.079
X-95.373 Y-10.125
X-95.318 Y-10.129
X-95.179 Y-10.104
X-95.066 Y-10.019
X-95.005 Y-9.891
X-94.972 Y-9.737
X-94.961 Y-9.696
X-94.96 Y-9.66
X-94.972 Y-9.625
X-94.996 Y-9.597
X-95.028 Y-9.58
X-95.096 Y-9.558
X-95.711 Y-9.358
X-95.745 Y-9.353
X-95.779 Y-9.36
X-95.809 Y-9.379
X-95.83 Y-9.406
X-95.902 Y-9.551
X-95.912 Y-9.575
X-95.932 Y-9.659
X-95.942 Y-9.706
X-95.967 Y-9.854
X-95.915 Y-9.994
X-95.828 Y-10.116
X-95.716 Y-10.216
X-95.587 Y-10.293
X-95.444 Y-10.336
X-95.294 Y-10.348
X-95.277 Y-10.345
X-95.165 Y-10.295
X-95.082 Y-10.204
X-95.042 Y-10.088
X-95.028 Y-9.997
X-95.005 Y-9.891
X-95.006 Y-9.853
X-95.021 Y-9.817
X-95.049 Y-9.79
X-95.085 Y-9.776
X-95.204 Y-9.753
X-95.826 Y-9.632
X-95.864
X-95.899 Y-9.646
X-95.926 Y-9.672
X-95.942 Y-9.706
X-95.998 Y-9.959
X-96.011 Y-10.033
X-95.984 Y-10.181
X-95.907 Y-10.309
X-95.801 Y-10.415
X-95.674 Y-10.496
X-95.535 Y-10.55
X-95.386 Y-10.572
X-95.336 Y-10.567
X-95.208 Y-10.524
X-95.112 Y-10.428
X-95.068 Y-10.301
X-95.056 Y-10.198
X-95.042 Y-10.088
X-95.046 Y-10.05
X-95.064 Y-10.017
X-95.093 Y-9.992
X-95.13 Y-9.98
X-95.253 Y-9.965
X-95.889 Y-9.885
X-95.925 Y-9.887
X-95.957 Y-9.901
X-95.983 Y-9.926
X-95.998 Y-9.959
X-96.007 Y-9.997
X-96.044 Y-10.212
X-96.053 Y-10.287
X-96.019 Y-10.433
X-95.936 Y-10.558
X-95.824 Y-10.657
X-95.693 Y-10.731
