%
(n-096-100)
(T1  D=1 CR=0 - ZMIN=-2 - flat end mill)
G90 G94
G17
G21
G28 G91 Z0
G90

(Clear 16)
M9
T1 M6
S5000 M3
G54
M8
G0 X-116.297 Y-12.321
Z12
Z2
Z0.5
G3 X-115.813 Y-12.445 Z0.29 I0.242 J-0.062 F333.3
X-116.297 Y-12.321 Z0.079 I-0.242 J0.062
X-115.813 Y-12.445 Z-0.131 I0.242 J-0.062
X-116.297 Y-12.321 Z-0.342 I-0.242 J0.062
X-115.813 Y-12.445 Z-0.552 I0.242 J-0.062
X-116.297 Y-12.321 Z-0.763 I-0.242 J0.062
X-116.086 Y-12.631 Z-0.876 I0.242 J-0.062
X-115.805 Y-12.383 Z-0.99 I0.031 J0.248
X-116.305 I-0.25
X-115.805 I0.25
G1 X-115.768 Y-12.238 F1000
X-115.781 Y-12.164
X-115.818 Y-12.099
X-115.925 Y-11.994
X-116.069 Y-11.954
X-116.218 Y-11.975
X-116.348 Y-12.049
X-116.445 Y-12.164
X-116.497 Y-12.304
X-116.499 Y-12.454
X-116.451 Y-12.597
X-116.36 Y-12.715
X-116.234 Y-12.797
X-116.088 Y-12.833
X-115.939 Y-12.819
X-115.802 Y-12.757
X-115.694 Y-12.653
X-115.616 Y-12.525
X-115.565 Y-12.384
X-115.555 Y-12.234
X-115.59 Y-12.088
X-115.661 Y-11.956
X-115.769 Y-11.852
X-115.9 Y-11.779
X-116.046 Y-11.746
X-116.196 Y-11.753
X-116.34 Y-11.794
X-116.47 Y-11.87
X-116.576 Y-11.975
X-116.658 Y-12.101
X-116.708 Y-12.242
X-116.722 Y-12.392
X-116.706 Y-12.541
X-116.655 Y-12.682
X-116.573 Y-12.807
X-116.466 Y-12.913
X-116.339 Y-12.992
X-116.196 Y-13.038
X-116.047 Y-13.054
X-115.898 Y-13.037
X-115.758 Y-12.984
X-115.631 Y-12.904
X-115.522 Y-12.8
X-115.435 Y-12.679
X-115.372 Y-12.542
X-115.334 Y-12.397
X-115.326 Y-12.247
X-115.348 Y-12.099
X-115.397 Y-11.957
X-115.473 Y-11.828
X-115.574 Y-11.717
X-115.695 Y-11.628
X-115.829 Y-11.562
X-115.975 Y-11.524
X-116.124 Y-11.515
X-116.273 Y-11.532
X-116.356 Y-11.556
X-116.447 Y-11.601
X-116.517 Y-11.672
X-116.56 Y-11.763
X-116.591 Y-11.855
X-116.629 Y-11.926
X-116.637 Y-11.94
X-116.803 Y-12.193
X-116.882 Y-12.321
X-116.912 Y-12.468
X-116.903 Y-12.618
X-116.896 Y-12.643
X-116.855 Y-12.729
X-116.789 Y-12.798
X-116.705 Y-12.843
X-116.676 Y-12.853
X-116.639 Y-12.869
X-116.587 Y-12.897
X-116.545 Y-12.925
X-116.51 Y-12.953
X-116.46 Y-13.003
X-116.433 Y-13.038
X-116.417 Y-13.061
X-116.326 Y-13.181
X-116.19 Y-13.242
X-116.042 Y-13.269
X-115.892 Y-13.263
X-115.746 Y-13.227
X-115.609 Y-13.168
X-115.482 Y-13.087
X-115.437 Y-13.047
X-115.383 Y-12.986
X-115.348 Y-12.912
X-115.335 Y-12.831
X-115.328 Y-12.616
X-115.326 Y-12.531
X-115.324 Y-12.278
X-115.335 Y-11.893
X-115.347 Y-11.744
X-115.414 Y-11.61
X-115.513 Y-11.497
X-115.634 Y-11.407
X-115.768 Y-11.341
X-115.911 Y-11.297
X-116.06 Y-11.276
X-116.21 Y-11.279
X-116.258 Y-11.288
X-116.363 Y-11.33
X-116.445 Y-11.407
X-116.493 Y-11.508
X-116.545 Y-11.708
X-116.56 Y-11.763
X-116.563 Y-11.797
X-116.553 Y-11.83
X-116.534 Y-11.857
X-116.506 Y-11.877
X-116.473 Y-11.886
X-116.061 Y-11.929
X-115.446 Y-11.992
X-115.413 Y-11.99
X-115.382 Y-11.977
X-115.357 Y-11.955
X-115.341 Y-11.926
X-115.335 Y-11.893
X-115.339 Y-11.771
X-115.342 Y-11.686
X-115.352 Y-11.555
X-115.361 Y-11.481
X-115.424 Y-11.345
X-115.526 Y-11.235
X-115.65 Y-11.151
X-115.787 Y-11.09
X-115.932 Y-11.051
X-116.081 Y-11.034
X-116.231 Y-11.044
X-116.24 Y-11.047
X-116.339 Y-11.099
X-116.412 Y-11.183
X-116.449 Y-11.288
X-116.46 Y-11.36
X-116.474 Y-11.433
X-116.493 Y-11.508
X-116.494 Y-11.543
X-116.484 Y-11.577
X-116.462 Y-11.604
X-116.433 Y-11.623
X-116.399 Y-11.63
X-116.076 Y-11.64
X-115.455 Y-11.659
X-115.422 Y-11.655
X-115.393 Y-11.64
X-115.37 Y-11.617
X-115.356 Y-11.588
X-115.352 Y-11.555
X-115.361 Y-11.433
X-115.373 Y-11.302
X-115.394 Y-11.154
X-115.484 Y-11.033
X-115.601 Y-10.94
X-115.734 Y-10.87
X-115.876 Y-10.822
X-116.024 Y-10.797
X-116.174 Y-10.802
X-116.196 Y-10.808
X-116.307 Y-10.862
X-116.386 Y-10.957
X-116.421 Y-11.075
X-116.422 Y-11.095
X-116.432 Y-11.18
X-116.449 Y-11.288
X-116.447 Y-11.322
X-116.435 Y-11.353
X-116.413 Y-11.378
X-116.384 Y-11.394
X-116.351 Y-11.4
X-116.095 Y-11.402
X-115.473 Y-11.408
X-115.441 Y-11.403
X-115.412 Y-11.388
X-115.39 Y-11.364
X-115.376 Y-11.335
X-115.373 Y-11.302
X-115.397 Y-11.049
X-115.419 Y-10.9
X-115.508 Y-10.78
X-115.626 Y-10.687
X-115.76 Y-10.62
X-115.904 Y-10.579
X-116.053 Y-10.562
X-116.202 Y-10.579
X-116.211 Y-10.583
X-116.308 Y-10.643
X-116.376 Y-10.735
X-116.404 Y-10.845
X-116.409 Y-10.926
X-116.421 Y-11.075
X-116.417 Y-11.107
X-116.403 Y-11.137
X-116.38 Y-11.16
X-116.35 Y-11.175
X-116.318 Y-11.179
X-116.119 Y-11.173
X-115.494 Y-11.155
X-115.455 Y-11.146
X-115.423 Y-11.122
X-115.402 Y-11.088
X-115.397 Y-11.049
X-115.409 Y-10.926
X-115.418 Y-10.842
X-115.436 Y-10.757
X-115.475 Y-10.613
X-115.575 Y-10.5
X-115.701 Y-10.418
X-115.84 Y-10.362
X-115.987 Y-10.335
X-116.137 Y-10.337
X-116.181 Y-10.349
X-116.297 Y-10.409
X-116.376 Y-10.512
X-116.404 Y-10.64
Y-10.845
X-116.399 Y-10.878
X-116.384 Y-10.908
X-116.359 Y-10.931
X-116.328 Y-10.945
X-116.295 Y-10.947
X-116.142 Y-10.933
X-115.525 Y-10.875
X-115.493 Y-10.866
X-115.466 Y-10.848
X-115.446 Y-10.822
X-115.436 Y-10.79
Y-10.757
X-115.492 Y-10.504
X-115.531 Y-10.359
X-115.631 Y-10.248
X-115.76 Y-10.17
X-115.902 Y-10.123
X-116.051 Y-10.106
X-116.2 Y-10.126
X-116.227 Y-10.137
X-116.33 Y-10.206
X-116.396 Y-10.311
X-116.414 Y-10.433
X-116.404 Y-10.588
Y-10.64
X-116.397 Y-10.673
X-116.38 Y-10.701
X-116.354 Y-10.723
X-116.322 Y-10.734
X-116.289 Y-10.735
X-116.192 Y-10.719
X-115.574 Y-10.621
X-115.537 Y-10.607
X-115.508 Y-10.58
X-115.492 Y-10.543
Y-10.504
X-115.53 Y-10.33
X-115.548 Y-10.25
X-115.592 Y-10.107
X-115.698 Y-10
X-115.83 Y-9.93
X-115.976 Y-9.894
X-116.125 Y-9.889
X-116.272 Y-9.922
X-116.282 Y-9.928
X-116.375 Y-10.008
X-116.429 Y-10.118
X-116.434 Y-10.241
X-116.42 Y-10.335
X-116.414 Y-10.433
X-116.405 Y-10.466
X-116.386 Y-10.494
X-116.358 Y-10.514
X-116.326 Y-10.523
X-116.292 Y-10.521
X-116.239 Y-10.509
X-115.624 Y-10.367
X-115.589 Y-10.352
X-115.562 Y-10.324
X-115.548 Y-10.289
Y-10.25
X-115.612 Y-9.997
X-115.661 Y-9.855
X-115.774 Y-9.757
X-115.912 Y-9.696
X-116.06 Y-9.671
X-116.209 Y-9.678
X-116.269 Y-9.698
X-116.388 Y-9.773
X-116.46 Y-9.893
X-116.469 Y-10.034
X-116.434 Y-10.241
X-116.422 Y-10.273
X-116.4 Y-10.298
X-116.371 Y-10.315
X-116.338 Y-10.321
X-116.305 Y-10.316
X-116.286 Y-10.31
X-115.679 Y-10.113
X-115.647 Y-10.096
X-115.623 Y-10.068
X-115.611 Y-10.034
X-115.612 Y-9.997
X-115.69 Y-9.744
X-115.715 Y-9.673
X-115.814 Y-9.56
X-115.948 Y-9.492
X-116.094 Y-9.46
X-116.244 Y-9.471
X-116.387 Y-9.516
X-116.39 Y-9.518
X-116.472 Y-9.604
X-116.514 Y-9.715
X-116.51 Y-9.834
X-116.491 Y-9.913
X-116.469 Y-10.034
X-116.456 Y-10.066
X-116.433 Y-10.092
X-116.402 Y-10.109
X-116.367 Y-10.113
X-116.333 Y-10.106
X-115.748 Y-9.862
X-115.718 Y-9.842
X-115.697 Y-9.814
X-115.687 Y-9.779
X-115.69 Y-9.744
X-115.756 Y-9.528
X-115.778 Y-9.465
X-115.875 Y-9.351
X-116.009 Y-9.283
X-116.156 Y-9.256
X-116.306 Y-9.262
X-116.447 Y-9.313
X-116.465 Y-9.326
X-116.553 Y-9.426
X-116.59 Y-9.553
X-116.567 Y-9.684
X-116.543 Y-9.744
X-116.511 Y-9.828
X-116.51 Y-9.834
X-116.495 Y-9.865
X-116.471 Y-9.889
X-116.44 Y-9.904
X-116.405 Y-9.907
X-116.372 Y-9.898
X-115.811 Y-9.645
X-115.782 Y-9.626
X-115.762 Y-9.597
X-115.753 Y-9.563
X-115.756 Y-9.528
X-115.783 Y-9.437
X-115.79 Y-9.422
X-115.799 Y-9.406
X-115.889 Y-9.264
X-115.976 Y-9.142
X-116.111 Y-9.076
X-116.259 Y-9.055
X-116.408 Y-9.071
X-116.546 Y-9.131
X-116.561 Y-9.144
X-116.641 Y-9.245
X-116.671 Y-9.37
X-116.646 Y-9.497
X-116.612 Y-9.575
X-116.567 Y-9.684
X-116.548 Y-9.712
X-116.52 Y-9.732
X-116.487 Y-9.742
X-116.453 Y-9.74
X-116.422 Y-9.726
X-115.921 Y-9.399
X-115.893 Y-9.372
X-115.878 Y-9.338
X-115.876 Y-9.3
X-115.889 Y-9.264
X-116.037 Y-9.032
X-116.081 Y-8.97
X-116.209 Y-8.894
X-116.357 Y-8.869
X-116.506 Y-8.887
X-116.642 Y-8.951
X-116.661 Y-8.967
X-116.74 Y-9.074
X-116.765 Y-9.205
X-116.731 Y-9.333
X-116.646 Y-9.497
X-116.624 Y-9.526
X-116.594 Y-9.546
X-116.558 Y-9.553
X-116.522 Y-9.547
X-116.49 Y-9.529
X-116.058 Y-9.158
X-116.036 Y-9.131
X-116.025 Y-9.099
Y-9.064
X-116.037 Y-9.032
X-116.138 Y-8.873
X-116.181 Y-8.812
X-116.3 Y-8.72
X-116.447 Y-8.689
X-116.596 Y-8.704
X-116.732 Y-8.767
X-116.755 Y-8.786
X-116.838 Y-8.897
X-116.861 Y-9.034
X-116.821 Y-9.167
X-116.781 Y-9.237
X-116.731 Y-9.333
X-116.708 Y-9.36
X-116.678 Y-9.377
X-116.643 Y-9.383
X-116.609 Y-9.377
X-116.579 Y-9.359
X-116.159 Y-9
X-116.137 Y-8.973
X-116.126 Y-8.94
Y-8.906
X-116.138 Y-8.873
X-116.259 Y-8.684
X-116.283 Y-8.646
X-116.291 Y-8.633
X-116.346 Y-8.582
X-116.482 Y-8.52
X-116.632 Y-8.517
X-116.776 Y-8.559
X-116.901 Y-8.642
X-116.908 Y-8.65
X-116.963 Y-8.762
X-116.968 Y-8.885
X-116.923 Y-9.001
X-116.879 Y-9.068
X-116.821 Y-9.167
X-116.795 Y-9.194
X-116.762 Y-9.21
X-116.724 Y-9.213
X-116.689 Y-9.201
X-116.66 Y-9.178
X-116.3 Y-8.75
X-116.284 Y-8.723
X-116.277 Y-8.693
X-116.279 Y-8.662
X-116.291 Y-8.633
X-116.36 Y-8.561
X-116.446 Y-8.477
X-116.502 Y-8.427
X-116.639 Y-8.365
X-116.789 Y-8.368
X-116.931 Y-8.416
X-117.049 Y-8.51
X-117.057 Y-8.522
X-117.102 Y-8.65
X-117.087 Y-8.784
X-117.015 Y-8.898
X-116.968 Y-8.944
X-116.934 Y-8.984
X-116.923 Y-9.001
X-116.896 Y-9.026
X-116.862 Y-9.041
X-116.826 Y-9.042
X-116.791 Y-9.03
X-116.763 Y-9.006
X-116.441 Y-8.609
X-116.424 Y-8.577
X-116.419 Y-8.542
X-116.427 Y-8.507
X-116.446 Y-8.477
X-116.618 Y-8.308
X-116.674 Y-8.258
X-116.817 Y-8.212
X-116.966 Y-8.23
X-117.103 Y-8.291
X-117.21 Y-8.397
X-117.215 Y-8.408
X-117.249 Y-8.532
X-117.227 Y-8.659
X-117.154 Y-8.765
X-117.052 Y-8.861
X-117.015 Y-8.898
X-116.984 Y-8.917
X-116.949 Y-8.925
X-116.914 Y-8.919
X-116.883 Y-8.902
X-116.86 Y-8.874
X-116.604 Y-8.426
X-116.593 Y-8.396
X-116.592 Y-8.365
X-116.6 Y-8.334
X-116.618 Y-8.308
X-116.766 Y-8.162
X-116.822 Y-8.113
X-116.966 Y-8.069
X-117.115 Y-8.087
X-117.25 Y-8.152
X-117.356 Y-8.259
X-117.364 Y-8.275
X-117.399 Y-8.408
X-117.371 Y-8.543
X-117.285 Y-8.651
X-117.222 Y-8.702
X-117.154 Y-8.765
X-117.124 Y-8.783
X-117.089 Y-8.79
X-117.054 Y-8.783
X-117.023 Y-8.765
X-117.001 Y-8.737
X-116.751 Y-8.279
X-116.741 Y-8.25
X-116.74 Y-8.218
X-116.749 Y-8.188
X-116.766 Y-8.162
X-116.878 Y-8.054
X-116.894 Y-8.042
X-116.904 Y-8.036
X-116.968 Y-8.011
X-117.014 Y-7.993
X-117.157 Y-7.946
X-117.304 Y-7.976
X-117.434 Y-8.05
X-117.53 Y-8.165
X-117.54 Y-8.19
X-117.561 Y-8.326
X-117.52 Y-8.456
X-117.425 Y-8.555
X-117.391 Y-8.577
X-117.306 Y-8.636
X-117.285 Y-8.651
X-117.252 Y-8.667
X-117.215 Y-8.67
X-117.18 Y-8.659
X-117.151 Y-8.636
X-117.132 Y-8.604
X-116.959 Y-8.118
X-116.953 Y-8.081
X-116.962 Y-8.044
X-116.983 Y-8.014
X-117.014 Y-7.993
X-117.261 Y-7.898
X-117.332 Y-7.874
X-117.482 Y-7.888
X-117.611 Y-7.963
X-117.703 Y-8.082
X-117.708 Y-8.097
X-117.724 Y-8.233
X-117.678 Y-8.362
X-117.579 Y-8.457
X-117.547 Y-8.477
X-117.425 Y-8.555
X-117.388 Y-8.568
X-117.349 Y-8.566
X-117.314 Y-8.55
X-117.288 Y-8.521
X-117.275 Y-8.485
X-117.201 Y-8.005
X-117.202 Y-7.972
X-117.213 Y-7.941
X-117.233 Y-7.915
X-117.261 Y-7.898
X-117.437 Y-7.83
X-117.509 Y-7.807
X-117.659 Y-7.809
X-117.788 Y-7.886
X-117.875 Y-8.008
X-117.881 Y-8.028
X-117.888 Y-8.175
X-117.824 Y-8.308
X-117.705 Y-8.394
X-117.645 Y-8.418
X-117.579 Y-8.457
X-117.542 Y-8.469
X-117.503 Y-8.465
X-117.469 Y-8.448
X-117.444 Y-8.418
X-117.432 Y-8.381
X-117.377 Y-7.934
X-117.378 Y-7.902
X-117.39 Y-7.872
X-117.41 Y-7.847
X-117.437 Y-7.83
X-117.645 Y-7.75
X-117.666 Y-7.743
X-117.687 Y-7.738
X-117.762 Y-7.73
X-117.904 Y-7.778
X-118.013 Y-7.881
X-118.076 Y-8.017
X-118.077 Y-8.04
X-118.055 Y-8.174
X-117.976 Y-8.285
X-117.857 Y-8.349
X-117.767 Y-8.375
X-117.709 Y-8.392
X-117.705 Y-8.394
X-117.672 Y-8.4
X-117.639 Y-8.394
X-117.61 Y-8.379
X-117.587 Y-8.354
X-117.574 Y-8.323
X-117.572 Y-8.29
X-117.616 Y-7.824
X-117.627 Y-7.786
X-117.652 Y-7.756
X-117.687 Y-7.738
X-117.867 Y-7.711
X-117.942 Y-7.704
X-118.088 Y-7.737
X-118.199 Y-7.838
X-118.257 Y-7.976
X-118.258 Y-7.991
X-118.236 Y-8.128
X-118.155 Y-8.242
X-118.031 Y-8.305
X-117.898 Y-8.338
X-117.857 Y-8.349
X-117.819 Y-8.351
X-117.783 Y-8.338
X-117.754 Y-8.313
X-117.737 Y-8.278
X-117.735 Y-8.24
X-117.786 Y-7.798
X-117.795 Y-7.767
X-117.812 Y-7.741
X-117.837 Y-7.722
X-117.867 Y-7.711
X-118.068 Y-7.681
X-118.142 Y-7.674
X-118.215 Y-7.693
X-118.342 Y-7.772
X-118.421 Y-7.899
X-118.426 Y-7.923
X-118.423 Y-8.045
X-118.372 Y-8.156
X-118.28 Y-8.237
X-118.164 Y-8.275
X-118.128 Y-8.271
X-118.095 Y-8.255
X-118.071 Y-8.227
X-118.058 Y-8.193
X-117.987 Y-7.797
X-117.988 Y-7.758
X-118.003 Y-7.723
X-118.031 Y-7.696
X-118.068 Y-7.681
X-118.283 Y-7.649
X-118.321 Y-7.646
X-118.464 Y-7.69
X-118.567 Y-7.799
X-118.617 Y-7.94
Y-7.963
X-118.58 Y-8.101
X-118.484 Y-8.205
X-118.35 Y-8.254
X-118.164 Y-8.275
X-118.125 Y-8.27
X-118.091 Y-8.251
X-118.067 Y-8.22
X-118.057 Y-8.182
X-118.062 Y-8.143
X-118.207 Y-7.716
X-118.224 Y-7.685
X-118.25 Y-7.662
X-118.283 Y-7.649
X-118.453 Y-7.624
X-118.527 Y-7.617
X-118.666 Y-7.673
X-118.763 Y-7.788
X-118.803 Y-7.932
X-118.802 Y-7.957
X-118.775 Y-8.066
X-118.71 Y-8.158
X-118.616 Y-8.22
X-118.506 Y-8.242
X-118.491 Y-8.243
X-118.406 Y-8.248
X-118.35 Y-8.254
X-118.312 Y-8.25
X-118.278 Y-8.231
X-118.254 Y-8.201
X-118.243 Y-8.164
X-118.247 Y-8.126
X-118.375 Y-7.694
X-118.391 Y-7.662
X-118.418 Y-7.637
X-118.453 Y-7.624
X-118.575 Y-7.606
X-118.617 Y-7.601
X-118.766 Y-7.619
X-118.892 Y-7.702
X-118.969 Y-7.83
X-118.981 Y-7.901
X-118.972 Y-8.036
X-118.905 Y-8.153
X-118.793 Y-8.229
X-118.66 Y-8.249
X-118.575 Y-8.242
X-118.506
X-118.47 Y-8.235
X-118.439 Y-8.215
X-118.418 Y-8.186
X-118.408 Y-8.151
X-118.412 Y-8.115
X-118.538 Y-7.672
X-118.554 Y-7.639
X-118.582 Y-7.614
X-118.617 Y-7.601
X-118.66 Y-7.604
X-118.876 Y-7.626
X-118.95 Y-7.638
X-119.015 Y-7.674
X-119.121 Y-7.781
X-119.17 Y-7.923
X-119.162 Y-8.073
X-119.156 Y-8.085
X-119.082 Y-8.194
X-118.969 Y-8.26
X-118.838 Y-8.271
X-118.698 Y-8.253
X-118.66 Y-8.249
X-118.625 Y-8.236
X-118.597 Y-8.212
X-118.58 Y-8.18
X-118.576 Y-8.144
X-118.584 Y-8.108
X-118.778 Y-7.685
X-118.794 Y-7.659
X-118.817 Y-7.64
X-118.845 Y-7.629
X-118.876 Y-7.626
X-119.083 Y-7.649
X-119.157 Y-7.662
X-119.278 Y-7.75
X-119.345 Y-7.884
X-119.364 Y-8.033
X-119.356 Y-8.07
X-119.309 Y-8.176
X-119.225 Y-8.256
X-119.117 Y-8.298
X-119.001 Y-8.297
X-118.914 Y-8.281
X-118.838 Y-8.271
X-118.803 Y-8.258
X-118.775 Y-8.233
X-118.758 Y-8.2
X-118.755 Y-8.163
X-118.766 Y-8.127
X-118.986 Y-7.703
X-119.01 Y-7.673
X-119.044 Y-7.654
X-119.083 Y-7.649
X-119.252 Y-7.669
X-119.395 Y-7.714
X-119.497 Y-7.824
X-119.548 Y-7.965
X-119.547 Y-8.043
X-119.515 Y-8.175
X-119.428 Y-8.281
X-119.304 Y-8.338
X-119.167 Y-8.335
X-119.083 Y-8.314
X-119.001 Y-8.297
X-118.969 Y-8.282
X-118.943 Y-8.257
X-118.929 Y-8.225
X-118.926 Y-8.189
X-118.936 Y-8.155
X-119.154 Y-7.724
X-119.178 Y-7.693
X-119.213 Y-7.674
X-119.252 Y-7.669
X-119.473 Y-7.727
X-119.544 Y-7.75
X-119.606 Y-7.793
X-119.699 Y-7.91
X-119.732 Y-8.056
X-119.71 Y-8.205
X-119.691 Y-8.244
X-119.623 Y-8.337
X-119.524 Y-8.396
X-119.41 Y-8.415
X-119.298 Y-8.389
X-119.252 Y-8.368
X-119.167 Y-8.335
X-119.139 Y-8.317
X-119.119 Y-8.29
X-119.108 Y-8.258
X-119.109 Y-8.224
X-119.121 Y-8.193
X-119.364 Y-7.774
X-119.384 Y-7.75
X-119.411 Y-7.733
X-119.441 Y-7.725
X-119.473 Y-7.727
X-119.675 Y-7.78
X-119.746 Y-7.803
X-119.859 Y-7.902
X-119.912 Y-8.042
X-119.916 Y-8.192
X-119.873 Y-8.336
X-119.851 Y-8.369
X-119.747 Y-8.462
X-119.612 Y-8.499
X-119.476 Y-8.47
X-119.306 Y-8.392
X-119.298 Y-8.389
X-119.27 Y-8.368
X-119.251 Y-8.339
X-119.242 Y-8.305
X-119.246 Y-8.271
X-119.262 Y-8.239
X-119.573 Y-7.818
X-119.601 Y-7.792
X-119.637 Y-7.779
X-119.675 Y-7.78
X-119.76 Y-7.802
X-119.802 Y-7.816
X-119.887 Y-7.865
X-119.923 Y-7.885
X-119.986 Y-7.926
X-120.073 Y-8.048
X-120.102 Y-8.195
X-120.085 Y-8.344
X-120.021 Y-8.48
X-119.996 Y-8.506
X-119.883 Y-8.582
X-119.748 Y-8.6
X-119.619 Y-8.557
X-119.489 Y-8.477
X-119.476 Y-8.47
X-119.447 Y-8.448
X-119.428 Y-8.418
X-119.422 Y-8.382
X-119.428 Y-8.347
X-119.446 Y-8.316
X-119.8 Y-7.908
X-119.826 Y-7.887
X-119.857 Y-7.875
X-119.891
X-119.923 Y-7.885
X-120.098 Y-7.987
X-120.16 Y-8.03
X-120.251 Y-8.149
X-120.28 Y-8.296
X-120.262 Y-8.445
X-120.213 Y-8.546
X-120.13 Y-8.649
X-120.01 Y-8.705
X-119.878 Y-8.703
X-119.76 Y-8.644
X-119.619 Y-8.557
X-119.594 Y-8.533
X-119.578 Y-8.502
X-119.574 Y-8.468
X-119.583 Y-8.434
X-119.602 Y-8.405
X-119.978 Y-8.007
X-120.004 Y-7.987
X-120.035 Y-7.977
X-120.067
X-120.098 Y-7.987
X-120.183 Y-8.04
X-120.299 Y-8.121
X-120.358 Y-8.167
X-120.435 Y-8.296
X-120.449 Y-8.445
X-120.415 Y-8.591
X-120.342 Y-8.722
X-120.234 Y-8.826
X-120.225 Y-8.831
X-120.098 Y-8.86
X-119.971 Y-8.832
X-119.867 Y-8.754
X-119.814 Y-8.691
X-119.803 Y-8.68
X-119.76 Y-8.644
X-119.738 Y-8.618
X-119.727 Y-8.586
Y-8.552
X-119.739 Y-8.52
X-119.76 Y-8.494
X-120.179 Y-8.129
X-120.206 Y-8.113
X-120.237 Y-8.105
X-120.269 Y-8.108
X-120.299 Y-8.121
X-120.445 Y-8.223
X-120.468 Y-8.242
X-120.523 Y-8.292
X-120.601 Y-8.421
X-120.612 Y-8.571
X-120.58 Y-8.717
X-120.511 Y-8.85
X-120.407 Y-8.958
X-120.377 Y-8.975
X-120.245 Y-9.014
X-120.11 Y-8.991
X-119.999 Y-8.909
X-119.867 Y-8.754
X-119.85 Y-8.719
X-119.846 Y-8.681
X-119.858 Y-8.644
X-119.883 Y-8.614
X-120.345 Y-8.244
X-120.374 Y-8.228
X-120.406 Y-8.222
X-120.439 Y-8.227
X-120.468 Y-8.242
X-120.631 Y-8.375
X-120.686 Y-8.426
X-120.763 Y-8.555
X-120.775 Y-8.704
X-120.744 Y-8.851
X-120.676 Y-8.985
X-120.574 Y-9.095
X-120.523 Y-9.128
X-120.386 Y-9.175
X-120.244 Y-9.152
X-120.128 Y-9.066
X-119.999 Y-8.909
X-119.981 Y-8.874
X-119.978 Y-8.835
X-119.99 Y-8.798
X-120.015 Y-8.769
X-120.508 Y-8.377
X-120.537 Y-8.361
X-120.569 Y-8.355
X-120.602 Y-8.36
X-120.631 Y-8.375
X-120.755 Y-8.477
X-120.775 Y-8.5
X-120.841 Y-8.594
X-120.92 Y-8.721
X-120.928 Y-8.871
X-120.89 Y-9.016
X-120.818 Y-9.148
X-120.713 Y-9.255
X-120.588 Y-9.337
X-120.558 Y-9.345
X-120.429 Y-9.352
X-120.31 Y-9.304
X-120.221 Y-9.21
X-120.183 Y-9.146
X-120.128 Y-9.066
X-120.113 Y-9.037
X-120.107 Y-9.004
X-120.113 Y-8.972
X-120.129 Y-8.943
X-120.154 Y-8.921
X-120.17 Y-8.91
X-120.707 Y-8.57
X-120.742 Y-8.556
X-120.779
X-120.813 Y-8.569
X-120.841 Y-8.594
X-120.994 Y-8.815
X-121.033 Y-8.878
X-121.058 Y-9.026
X-121.027 Y-9.173
X-120.957 Y-9.306
X-120.859 Y-9.42
X-120.736 Y-9.505
X-120.683 Y-9.524
X-120.543 Y-9.539
X-120.411 Y-9.489
X-120.317 Y-9.384
X-120.237 Y-9.237
X-120.221 Y-9.21
X-120.21 Y-9.18
Y-9.147
X-120.22 Y-9.116
X-120.239 Y-9.09
X-120.266 Y-9.071
X-120.285 Y-9.062
X-120.871 Y-8.784
X-120.904 Y-8.775
X-120.938 Y-8.777
X-120.969 Y-8.791
X-120.994 Y-8.815
X-121.029 Y-8.865
X-121.113 Y-9.004
X-121.149 Y-9.07
X-121.176 Y-9.218
X-121.143 Y-9.364
X-121.071 Y-9.496
X-120.971 Y-9.608
X-120.845 Y-9.69
X-120.704 Y-9.741
X-120.7 Y-9.742
X-120.584 Y-9.725
X-120.483 Y-9.665
X-120.413 Y-9.572
X-120.375 Y-9.49
X-120.317 Y-9.384
X-120.308 Y-9.354
Y-9.322
X-120.319 Y-9.292
X-120.339 Y-9.266
X-120.366 Y-9.249
X-120.401 Y-9.233
X-120.988 Y-8.968
X-121.023 Y-8.959
X-121.058 Y-8.963
X-121.089 Y-8.979
X-121.113 Y-9.004
X-121.152 Y-9.068
X-121.2 Y-9.152
X-121.242 Y-9.237
X-121.272 Y-9.306
X-121.282 Y-9.455
X-121.236 Y-9.598
X-121.152 Y-9.723
X-121.043 Y-9.825
X-120.916 Y-9.905
X-120.772 Y-9.946
X-120.754
X-120.625 Y-9.917
X-120.521 Y-9.835
X-120.463 Y-9.717
X-120.444 Y-9.64
X-120.436 Y-9.621
X-120.413 Y-9.572
X-120.405 Y-9.54
X-120.408 Y-9.508
X-120.42 Y-9.478
X-120.442 Y-9.454
X-120.469 Y-9.438
X-120.519 Y-9.419
X-121.119 Y-9.191
X-121.154 Y-9.184
X-121.189 Y-9.191
X-121.22 Y-9.209
X-121.242 Y-9.237
X-121.338 Y-9.431
X-121.368 Y-9.5
X-121.382 Y-9.649
X-121.336 Y-9.792
X-121.254 Y-9.917
X-121.147 Y-10.023
X-121.02 Y-10.103
X-120.877 Y-10.149
X-120.819 Y-10.153
X-120.68 Y-10.128
X-120.567 Y-10.043
X-120.506 Y-9.915
X-120.469 Y-9.744
X-120.463 Y-9.717
X-120.462 Y-9.681
X-120.474 Y-9.646
X-120.498 Y-9.619
X-120.53 Y-9.601
X-120.603 Y-9.578
X-121.22 Y-9.383
X-121.254 Y-9.379
X-121.288 Y-9.386
X-121.317 Y-9.404
X-121.338 Y-9.431
X-121.368 Y-9.49
X-121.407 Y-9.575
X-121.428 Y-9.659
X-121.438 Y-9.706
X-121.463 Y-9.854
X-121.421 Y-9.998
X-121.34 Y-10.124
X-121.232 Y-10.228
X-121.106 Y-10.309
X-120.964 Y-10.357
X-120.815 Y-10.373
X-120.788 Y-10.369
X-120.673 Y-10.322
X-120.587 Y-10.234
X-120.544 Y-10.118
X-120.538 Y-10.082
X-120.521 Y-9.987
X-120.506 Y-9.915
X-120.507 Y-9.878
X-120.521 Y-9.843
X-120.548 Y-9.816
X-120.582 Y-9.801
X-120.703 Y-9.773
X-121.319 Y-9.633
X-121.357 Y-9.632
X-121.393 Y-9.645
X-121.421 Y-9.671
X-121.438 Y-9.706
X-121.494 Y-9.959
X-121.519 Y-10.107
X-121.47 Y-10.249
X-121.382 Y-10.37
X-121.268 Y-10.467
X-121.136 Y-10.538
X-120.993 Y-10.585
X-120.843 Y-10.593
X-120.813 Y-10.588
X-120.691 Y-10.536
X-120.603 Y-10.437
X-120.566 Y-10.31
X-120.562 Y-10.25
X-120.544 Y-10.118
X-120.547 Y-10.08
X-120.564 Y-10.046
X-120.592 Y-10.021
X-120.627 Y-10.008
X-120.752 Y-9.987
X-121.381 Y-9.885
X-121.418 Y-9.886
X-121.452 Y-9.9
X-121.478 Y-9.926
X-121.494 Y-9.959
X-121.502 Y-9.997
X-121.542 Y-10.224
X-121.551 Y-10.298
X-121.524 Y-10.446
X-121.443 Y-10.572
X-121.333 Y-10.674
X-121.205 Y-10.751
X-121.063 Y-10.802
X-120.914 Y-10.819
X-120.765 Y-10.802
X-120.671 Y-10.741
X-120.607 Y-10.65
X-120.58 Y-10.543
X-120.566 Y-10.31
X-120.572 Y-10.273
X-120.592 Y-10.241
X-120.622 Y-10.218
X-120.658 Y-10.208
X-120.797 Y-10.197
X-121.436 Y-10.145
X-121.472 Y-10.148
X-121.504 Y-10.164
X-121.528 Y-10.19
X-121.542 Y-10.224
X-121.547 Y-10.25
X-121.557 Y-10.335
X-121.571 Y-10.504
X-121.574 Y-10.579
X-121.53 Y-10.722
X-121.438 Y-10.841
X-121.321 Y-10.934
X-121.185 Y-10.999
X-121.04 Y-11.037
X-120.891 Y-11.05
X-120.827 Y-11.038
X-120.7 Y-10.982
X-120.611 Y-10.875
X-120.581 Y-10.739
X-120.582 Y-10.588
X-120.58 Y-10.543
X-120.586 Y-10.504
X-120.607 Y-10.471
X-120.639 Y-10.449
X-120.677 Y-10.44
X-120.832 Y-10.435
X-121.469 Y-10.416
X-121.505 Y-10.421
X-121.537 Y-10.44
X-121.56 Y-10.469
X-121.571 Y-10.504
X-121.589 Y-10.719
X-121.594 Y-10.869
X-121.527 Y-11.003
X-121.422 Y-11.111
X-121.296 Y-11.192
X-121.157 Y-11.247
X-121.009 Y-11.276
X-120.859 Y-11.271
X-120.802 Y-11.257
X-120.68 Y-11.194
X-120.599 Y-11.084
X-120.575 Y-10.949
X-120.58 Y-10.842
X-120.581 Y-10.739
X-120.589 Y-10.703
X-120.611 Y-10.672
X-120.642 Y-10.652
X-120.679 Y-10.644
X-120.85 Y-10.641
X-121.488 Y-10.631
X-121.524 Y-10.637
X-121.556 Y-10.656
X-121.578 Y-10.684
X-121.589 Y-10.719
X-121.599 Y-10.842
X-121.597 Y-10.926
X-121.586 Y-11.057
X-121.576 Y-11.132
X-121.506 Y-11.264
X-121.396 Y-11.367
X-121.266 Y-11.441
X-121.123 Y-11.487
X-120.975 Y-11.507
X-120.825 Y-11.493
X-120.771 Y-11.476
X-120.653 Y-11.408
X-120.578 Y-11.294
X-120.56 Y-11.159
X-120.567 Y-11.095
X-120.575 Y-10.949
X-120.586 Y-10.911
X-120.611 Y-10.88
X-120.646 Y-10.862
X-120.686 Y-10.859
X-120.867 Y-10.88
X-121.498 Y-10.953
X-121.533 Y-10.964
X-121.562 Y-10.988
X-121.581 Y-11.02
X-121.586 Y-11.057
X-121.566 Y-11.311
X-121.556 Y-11.385
X-121.481 Y-11.515
X-121.368 Y-11.613
X-121.235 Y-11.682
X-121.09 Y-11.722
X-120.941 Y-11.735
X-120.792 Y-11.716
X-120.728 Y-11.694
X-120.612 Y-11.62
X-120.541 Y-11.502
X-120.53 Y-11.365
X-120.558 Y-11.18
X-120.56 Y-11.159
X-120.573 Y-11.122
X-120.6 Y-11.092
X-120.636 Y-11.075
X-120.676 Y-11.074
X-120.85 Y-11.103
X-121.482 Y-11.207
X-121.516 Y-11.219
X-121.543 Y-11.243
X-121.561 Y-11.275
X-121.566 Y-11.311
X-121.556 Y-11.433
X-121.536 Y-11.533
X-121.528 Y-11.571
X-121.509 Y-11.643
X-121.43 Y-11.771
X-121.312 Y-11.864
X-121.176 Y-11.925
X-121.029 Y-11.957
X-120.879 Y-11.961
X-120.732 Y-11.933
X-120.671 Y-11.909
X-120.555 Y-11.824
X-120.492 Y-11.695
X-120.496 Y-11.552
X-120.505 Y-11.517
X-120.53 Y-11.365
X-120.545 Y-11.328
X-120.573 Y-11.3
X-120.61 Y-11.285
X-120.649
X-120.832 Y-11.324
X-121.451 Y-11.456
X-121.486 Y-11.471
X-121.513 Y-11.498
X-121.528 Y-11.533
Y-11.571
X-121.486 Y-11.771
X-121.475 Y-11.817
X-121.454 Y-11.889
X-121.373 Y-12.016
X-121.252 Y-12.105
X-121.113 Y-12.16
X-120.965 Y-12.186
X-120.815 Y-12.184
X-120.669 Y-12.15
X-120.533 Y-12.088
X-120.518 Y-12.075
X-120.444 Y-11.979
X-120.414 Y-11.862
X-120.433 Y-11.742
X-120.453 Y-11.686
X-120.482 Y-11.602
X-120.496 Y-11.552
X-120.514 Y-11.518
X-120.543 Y-11.494
X-120.58 Y-11.482
X-120.618 Y-11.485
X-120.79 Y-11.533
X-121.403 Y-11.702
X-121.437 Y-11.718
X-121.462 Y-11.745
X-121.475 Y-11.78
Y-11.817
X-121.426 Y-12.024
X-121.42 Y-12.045
X-121.41 Y-12.067
X-121.367 Y-12.145
X-121.288 Y-12.273
X-121.161 Y-12.352
X-121.018 Y-12.398
X-120.869 Y-12.413
X-120.72 Y-12.401
X-120.574 Y-12.364
X-120.442 Y-12.292
X-120.432 Y-12.283
X-120.361 Y-12.187
X-120.334 Y-12.071
X-120.354 Y-11.953
X-120.433 Y-11.742
X-120.454 Y-11.71
X-120.487 Y-11.688
X-120.526 Y-11.68
X-120.564 Y-11.688
X-120.744 Y-11.765
X-121.317 Y-12.008
X-121.344 Y-12.025
X-121.365 Y-12.051
X-121.376 Y-12.081
X-121.377 Y-12.114
X-121.367 Y-12.145
X-121.282 Y-12.299
X-121.245 Y-12.362
X-121.219 Y-12.405
X-121.134 Y-12.528
X-121 Y-12.594
X-120.853 Y-12.625
X-120.703 Y-12.627
X-120.556 Y-12.599
X-120.417 Y-12.543
X-120.295 Y-12.455
X-120.242 Y-12.352
X-120.233 Y-12.236
X-120.267 Y-12.126
X-120.319 Y-12.024
X-120.354 Y-11.953
X-120.371 Y-11.925
X-120.397 Y-11.905
X-120.428 Y-11.894
X-120.461 Y-11.893
X-120.492 Y-11.904
X-120.626 Y-11.975
X-121.179 Y-12.267
X-121.21 Y-12.292
X-121.228 Y-12.327
X-121.232 Y-12.367
X-121.219 Y-12.405
X-121.089 Y-12.616
X-120.99 Y-12.728
X-120.859 Y-12.802
X-120.712 Y-12.831
X-120.562 Y-12.826
X-120.417 Y-12.789
X-120.28 Y-12.727
X-120.235 Y-12.689
X-120.153 Y-12.581
X-120.128 Y-12.447
X-120.164 Y-12.316
X-120.267 Y-12.126
X-120.293 Y-12.097
X-120.329 Y-12.08
X-120.368 Y-12.078
X-120.405 Y-12.091
X-120.513 Y-12.156
X-121.054 Y-12.48
X-121.082 Y-12.506
X-121.099 Y-12.541
X-121.101 Y-12.579
X-121.089 Y-12.616
X-120.888 Y-12.869
X-120.838 Y-12.925
X-120.708 Y-12.999
X-120.56 Y-13.024
X-120.41 Y-13.013
X-120.267 Y-12.97
X-120.138 Y-12.892
X-120.1 Y-12.855
X-120.023 Y-12.728
X-120.016 Y-12.58
X-120.08 Y-12.447
X-120.105 Y-12.427
X-120.134 Y-12.416
X-120.166 Y-12.414
X-120.196 Y-12.422
X-120.296 Y-12.468
X-120.849 Y-12.718
X-120.878 Y-12.739
X-120.898 Y-12.768
X-120.907 Y-12.802
X-120.904 Y-12.837
X-120.888 Y-12.869
X-120.801 Y-12.979
X-120.788 Y-12.993
X-120.775 Y-13.004
X-120.646 Y-13.096
X-120.52 Y-13.178
X-120.372 Y-13.199
X-120.224 Y-13.175
X-120.085 Y-13.118
X-119.967 Y-13.026
X-119.874 Y-12.908
X-119.873 Y-12.905
X-119.851 Y-12.781
X-119.881 Y-12.66
X-119.959 Y-12.561
X-120.013 Y-12.516
X-120.08 Y-12.447
X-120.107 Y-12.428
X-120.138 Y-12.419
X-120.17 Y-12.421
X-120.2 Y-12.432
X-120.225 Y-12.453
X-120.251 Y-12.483
X-120.66 Y-12.952
X-120.677 Y-12.979
X-120.685 Y-13.011
X-120.682 Y-13.043
X-120.668 Y-13.073
X-120.646 Y-13.096
X-120.436 Y-13.248
X-120.303 Y-13.316
X-120.154 Y-13.334
X-120.008 Y-13.299
X-119.877 Y-13.227
X-119.765 Y-13.127
X-119.736 Y-13.081
X-119.693 Y-12.947
X-119.716 Y-12.807
X-119.8 Y-12.694
X-119.959 Y-12.561
X-119.988 Y-12.546
X-120.02 Y-12.54
X-120.052 Y-12.546
X-120.081 Y-12.561
X-120.103 Y-12.585
X-120.104 Y-12.586
X-120.458 Y-13.113
X-120.473 Y-13.147
X-120.474 Y-13.185
X-120.461 Y-13.22
X-120.436 Y-13.248
X-120.183 Y-13.393
X-120.048 Y-13.458
X-119.898 Y-13.448
X-119.758 Y-13.394
X-119.64 Y-13.302
X-119.55 Y-13.182
X-119.538 Y-13.148
X-119.522 Y-13.011
X-119.57 Y-12.882
X-119.67 Y-12.787
X-119.76 Y-12.727
X-119.8 Y-12.694
X-119.831 Y-12.677
X-119.866 Y-12.673
X-119.9 Y-12.681
X-119.93 Y-12.7
X-119.951 Y-12.728
X-120.219 Y-13.263
X-120.23 Y-13.298
X-120.226 Y-13.335
X-120.21 Y-13.368
X-120.183 Y-13.393
X-120.058 Y-13.46
X-119.967 Y-13.508
X-119.929 Y-13.527
X-119.783 Y-13.561
X-119.636 Y-13.53
X-119.507 Y-13.453
X-119.405 Y-13.343
X-119.339 Y-13.209
X-119.337 Y-13.199
X-119.343 Y-13.079
X-119.397 Y-12.971
X-119.488 Y-12.892
X-119.67 Y-12.787
X-119.704 Y-12.777
X-119.74 Y-12.778
X-119.773 Y-12.793
X-119.799 Y-12.818
X-119.814 Y-12.851
X-119.96 Y-13.417
X-119.962 Y-13.455
X-119.951 Y-13.49
X-119.927 Y-13.519
X-119.894 Y-13.537
X-119.844 Y-13.551
X-119.675 Y-13.594
X-119.528 Y-13.624
X-119.385 Y-13.579
X-119.267 Y-13.486
X-119.223 Y-13.425
X-119.172 Y-13.304
X-119.176 Y-13.173
X-119.234 Y-13.056
X-119.337 Y-12.974
X-119.378 Y-12.953
X-119.488 Y-12.892
X-119.523 Y-12.882
X-119.559 Y-12.885
X-119.592 Y-12.9
X-119.617 Y-12.927
X-119.631 Y-12.96
X-119.744 Y-13.477
X-119.745 Y-13.514
X-119.733 Y-13.549
X-119.708 Y-13.577
X-119.675 Y-13.594
X-119.59 Y-13.616
X-119.532 Y-13.629
X-119.421 Y-13.648
X-119.347 Y-13.657
X-119.199 Y-13.632
X-119.081 Y-13.54
X-119.003 Y-13.411
X-118.994 Y-13.372
X-118.99 Y-13.256
X-119.03 Y-13.146
X-119.109 Y-13.06
X-119.215 Y-13.011
X-119.252 Y-13.002
X-119.337 Y-12.974
X-119.372 Y-12.97
X-119.406 Y-12.978
X-119.436 Y-12.998
X-119.456 Y-13.028
X-119.465 Y-13.062
X-119.501 Y-13.543
X-119.497 Y-13.578
X-119.481 Y-13.61
X-119.454 Y-13.635
X-119.421 Y-13.648
X-119.252 Y-13.676
X-119.167 Y-13.686
X-119.093 Y-13.69
X-118.954 Y-13.633
X-118.853 Y-13.522
X-118.797 Y-13.383
X-118.796 Y-13.36
X-118.822 Y-13.225
X-118.905 Y-13.116
X-119.028 Y-13.055
X-119.215 Y-13.011
X-119.254
X-119.29 Y-13.025
X-119.318 Y-13.052
X-119.333 Y-13.088
X-119.334 Y-13.126
X-119.251 Y-13.604
X-119.241 Y-13.633
X-119.222 Y-13.658
X-119.197 Y-13.676
X-119.167 Y-13.686
X-118.998 Y-13.705
X-118.923 Y-13.703
X-118.85 Y-13.685
X-118.722 Y-13.608
X-118.636 Y-13.485
X-118.605 Y-13.338
Y-13.335
X-118.652 Y-13.214
X-118.745 Y-13.124
X-118.868 Y-13.082
X-118.914 Y-13.077
X-118.998 Y-13.062
X-119.028 Y-13.055
X-119.066
X-119.101 Y-13.069
X-119.129 Y-13.095
X-119.145 Y-13.129
X-119.147 Y-13.167
X-119.082 Y-13.62
X-119.073 Y-13.651
X-119.054 Y-13.677
X-119.029 Y-13.695
X-118.998 Y-13.705
X-118.914 Y-13.706
X-118.744 Y-13.704
X-118.67 Y-13.697
X-118.536 Y-13.629
X-118.448 Y-13.507
X-118.438 Y-13.459
X-118.439 Y-13.334
X-118.491 Y-13.22
X-118.585 Y-13.137
X-118.704 Y-13.1
X-118.744 Y-13.096
X-118.868 Y-13.082
X-118.906 Y-13.087
X-118.94 Y-13.105
X-118.964 Y-13.136
X-118.975 Y-13.173
X-118.971 Y-13.212
X-118.838 Y-13.634
X-118.824 Y-13.662
X-118.802 Y-13.684
X-118.775 Y-13.698
X-118.744 Y-13.704
X-118.66 Y-13.7
X-118.529 Y-13.683
X-118.455 Y-13.67
X-118.39 Y-13.632
X-118.292 Y-13.519
X-118.255 Y-13.373
X-118.304 Y-13.242
X-118.406 Y-13.147
X-118.54 Y-13.109
X-118.66 Y-13.104
X-118.704 Y-13.1
X-118.738 Y-13.104
X-118.768 Y-13.119
X-118.792 Y-13.143
X-118.807 Y-13.174
X-118.81 Y-13.208
X-118.801 Y-13.241
X-118.629 Y-13.625
X-118.612 Y-13.651
X-118.588 Y-13.67
X-118.559 Y-13.681
X-118.529 Y-13.683
X-118.406 Y-13.668
X-118.321 Y-13.647
X-118.25 Y-13.623
X-118.192 Y-13.576
X-118.147 Y-13.515
X-118.132 Y-13.376
X-118.181 Y-13.245
X-118.285 Y-13.151
X-118.419 Y-13.114
X-118.54 Y-13.109
X-118.575 Y-13.115
X-118.605 Y-13.132
X-118.628 Y-13.159
X-118.64 Y-13.192
X-118.639 Y-13.227
X-118.627 Y-13.26
X-118.429 Y-13.6
X-118.409 Y-13.624
X-118.383 Y-13.641
X-118.353 Y-13.649
X-118.321 Y-13.647
X-118.152 Y-13.599
X-118.082 Y-13.572
X-118.033 Y-13.516
X-117.977 Y-13.376
X-118.01 Y-13.263
X-118.085 Y-13.171
X-118.19 Y-13.115
X-118.307 Y-13.104
X-118.406 Y-13.114
X-118.419
X-118.456 Y-13.121
X-118.488 Y-13.141
X-118.51 Y-13.172
X-118.519 Y-13.208
X-118.514 Y-13.245
X-118.496 Y-13.278
X-118.252 Y-13.567
X-118.224 Y-13.59
X-118.189 Y-13.601
X-118.152 Y-13.599
X-118.068 Y-13.572
X-118.003 Y-13.545
X-117.935 Y-13.512
X-117.886 Y-13.456
X-117.86 Y-13.385
X-117.877 Y-13.266
X-117.943 Y-13.165
X-118.046 Y-13.102
X-118.165 Y-13.089
X-118.307 Y-13.104
X-118.342 Y-13.116
X-118.371 Y-13.139
X-118.389 Y-13.172
X-118.393 Y-13.208
X-118.384 Y-13.244
X-118.363 Y-13.274
X-118.108 Y-13.523
X-118.076 Y-13.543
X-118.04 Y-13.551
X-118.003 Y-13.545
X-117.898 Y-13.501
X-117.84 Y-13.475
X-117.812 Y-13.46
X-117.768 Y-13.4
X-117.745 Y-13.328
X-117.769 Y-13.214
X-117.841 Y-13.121
X-117.946 Y-13.069
X-118.063 Y-13.068
X-118.152 Y-13.087
X-118.165 Y-13.089
X-118.203 Y-13.102
X-118.232 Y-13.128
X-118.249 Y-13.164
X-118.25 Y-13.203
X-118.236 Y-13.24
X-118.21 Y-13.269
X-117.936 Y-13.464
X-117.906 Y-13.478
X-117.873 Y-13.482
X-117.84 Y-13.475
X-117.768 Y-13.442
X-117.749 Y-13.431
X-117.729 Y-13.418
X-117.67 Y-13.373
X-117.61 Y-13.235
X-117.672 Y-13.115
X-117.785 Y-13.043
X-117.92 Y-13.037
X-118.063 Y-13.068
X-118.097 Y-13.085
X-118.123 Y-13.113
X-118.137 Y-13.149
X-118.135 Y-13.187
X-118.12 Y-13.222
X-118.092 Y-13.249
X-117.835 Y-13.416
X-117.801 Y-13.431
X-117.764
X-117.729 Y-13.418
X-117.645 Y-13.359
X-117.56 Y-13.291
X-117.469 Y-13.207
X-117.222 Y-12.943
X-117.2 Y-12.925
X-117.137 Y-12.884
X-116.922 Y-12.649
X-116.633 Y-12.332
X-116.612 Y-12.299
X-116.605 Y-12.26
X-116.611 Y-12.221
X-116.631 Y-12.187
X-116.662 Y-12.162
X-116.699 Y-12.15
X-116.738 Y-12.151
X-116.775 Y-12.166
X-116.803 Y-12.193
X-116.883 Y-12.309
X-116.923 Y-12.362
X-117.09 Y-12.531
X-117.26 Y-12.7
X-117.322 Y-12.754
X-117.338 Y-12.767
X-117.56 Y-12.891
X-117.645 Y-12.933
X-117.814 Y-13.002
X-117.898 Y-13.032
X-117.92 Y-13.037
X-117.954 Y-13.053
X-117.98 Y-13.082
X-117.994 Y-13.118
X-117.992 Y-13.156
X-117.977 Y-13.191
X-117.949 Y-13.218
X-117.913 Y-13.232
X-117.875
X-117.84 Y-13.217
X-117.474 Y-12.975
X-116.613 Y-12.405
X-116.586 Y-12.379
X-116.571 Y-12.345
X-116.569 Y-12.308
X-116.58 Y-12.273
X-116.604 Y-12.245
X-116.636 Y-12.227
X-116.673 Y-12.222
X-116.709 Y-12.23
X-116.74 Y-12.252
X-116.76 Y-12.283
X-116.768 Y-12.319
X-116.762 Y-12.356
G3 X-116.417 Y-13.061 I3.429 J1.239
G1 X-116.404 Y-13.08
X-116.38 Y-13.122
X-116.376 Y-13.133
X-116.347 Y-13.207
X-116.336 Y-13.249
X-116.327 Y-13.285
X-116.224 Y-13.395
X-116.087 Y-13.455
X-115.939 Y-13.478
X-115.789 Y-13.47
X-115.643 Y-13.436
X-115.503 Y-13.381
X-115.489 Y-13.373
X-115.417 Y-13.312
X-115.367 Y-13.231
X-115.345 Y-13.14
X-115.344 Y-13.122
X-115.335 Y-12.831
X-115.34 Y-12.798
X-115.357 Y-12.768
X-115.382 Y-12.746
X-115.414 Y-12.734
X-115.447 Y-12.732
X-115.48 Y-12.742
X-115.692 Y-12.849
X-116.282 Y-13.145
X-116.308 Y-13.163
X-116.326 Y-13.188
X-116.336 Y-13.218
Y-13.249
X-116.329 Y-13.291
X-116.324 Y-13.376
X-116.322 Y-13.413
X-116.253 Y-13.547
X-116.131 Y-13.633
X-115.989 Y-13.681
X-115.839 Y-13.697
X-115.69 Y-13.687
X-115.543 Y-13.653
X-115.455 Y-13.593
X-115.394 Y-13.507
X-115.367 Y-13.406
X-115.345 Y-13.14
X-115.351 Y-13.102
X-115.37 Y-13.069
X-115.401 Y-13.046
X-115.438 Y-13.036
X-115.475 Y-13.04
X-115.619 Y-13.086
X-116.254 Y-13.288
X-116.289 Y-13.307
X-116.313 Y-13.338
X-116.324 Y-13.376
X-116.327 Y-13.46
X-116.33 Y-13.507
X-116.331 Y-13.582
X-116.277 Y-13.722
X-116.165 Y-13.821
X-116.029 Y-13.885
X-115.883 Y-13.919
X-115.733 Y-13.926
X-115.585 Y-13.905
X-115.582 Y-13.904
X-115.488 Y-13.847
X-115.421 Y-13.759
X-115.39 Y-13.653
X-115.367 Y-13.406
X-115.371 Y-13.371
X-115.388 Y-13.34
X-115.414 Y-13.316
X-115.447 Y-13.303
X-115.482 Y-13.302
X-115.6 Y-13.32
X-116.246 Y-13.417
X-116.277 Y-13.428
X-116.303 Y-13.448
X-116.322 Y-13.475
X-116.33 Y-13.507
X-116.344 Y-13.714
X-116.346 Y-13.789
X-116.286 Y-13.926
X-116.176 Y-14.028
X-116.043 Y-14.099
X-115.9 Y-14.142
X-115.751 Y-14.158
X-115.676 Y-14.149
X-115.551 Y-14.104
X-115.458 Y-14.009
X-115.415 Y-13.884
X-115.393 Y-13.68
X-115.39 Y-13.653
X-115.394 Y-13.618
X-115.409 Y-13.587
X-115.434 Y-13.563
X-115.466 Y-13.549
X-115.5 Y-13.547
X-115.608 Y-13.558
X-116.255 Y-13.625
X-116.287 Y-13.634
X-116.315 Y-13.654
X-116.334 Y-13.681
X-116.344 Y-13.714
X-116.36 Y-13.929
X-116.362 Y-14.004
X-116.298 Y-14.14
X-116.19 Y-14.244
X-116.06 Y-14.318
X-115.918 Y-14.366
X-115.769 Y-14.381
X-115.72 Y-14.376
X-115.601 Y-14.337
X-115.508 Y-14.253
X-115.458 Y-14.138
X-115.44 Y-14.051
X-115.424 Y-13.967
X-115.415 Y-13.884
X-115.418 Y-13.85
X-115.433 Y-13.819
X-115.457 Y-13.794
X-115.489 Y-13.78
X-115.523 Y-13.777
X-115.623 Y-13.785
X-116.269 Y-13.841
X-116.302 Y-13.849
X-116.33 Y-13.869
X-116.35 Y-13.896
X-116.36 Y-13.929
X-116.363 Y-13.967
X-116.379 Y-14.112
X-116.383 Y-14.187
X-116.335 Y-14.329
X-116.236 Y-14.442
X-116.111 Y-14.526
X-115.972 Y-14.581
X-115.824 Y-14.603
X-115.777 Y-14.6
X-115.653 Y-14.564
X-115.556 Y-14.479
X-115.504 Y-14.361
X-115.458 Y-14.138
Y-14.104
X-115.47 Y-14.071
X-115.492 Y-14.045
X-115.523 Y-14.027
X-115.557 Y-14.022
X-115.637
X-116.28 Y-14.026
X-116.315 Y-14.033
X-116.345 Y-14.051
X-116.368 Y-14.079
X-116.379 Y-14.112
X-116.39 Y-14.22
X-116.402 Y-14.305
X-116.41 Y-14.379
X-116.373 Y-14.525
X-116.28 Y-14.643
X-116.16 Y-14.733
X-116.023 Y-14.794
X-115.876 Y-14.82
X-115.831 Y-14.818
X-115.708 Y-14.786
X-115.609 Y-14.705
X-115.553 Y-14.591
X-115.545 Y-14.558
X-115.504 Y-14.361
Y-14.327
X-115.515 Y-14.295
X-115.537 Y-14.269
X-115.566 Y-14.251
X-115.599 Y-14.244
X-115.658 Y-14.243
X-116.301 Y-14.223
X-116.336 Y-14.228
X-116.367 Y-14.245
X-116.39 Y-14.272
X-116.402 Y-14.305
X-116.428 Y-14.474
X-116.436 Y-14.52
X-116.445 Y-14.595
X-116.406 Y-14.739
X-116.315 Y-14.858
X-116.195 Y-14.949
X-116.058 Y-15.011
X-115.91 Y-15.036
X-115.88 Y-15.034
X-115.759 Y-15.001
X-115.662 Y-14.92
X-115.607 Y-14.807
X-115.553 Y-14.591
X-115.552 Y-14.556
X-115.562 Y-14.523
X-115.583 Y-14.496
X-115.613 Y-14.478
X-115.646 Y-14.47
X-115.69 Y-14.468
X-116.334 Y-14.441
X-116.369 Y-14.446
X-116.4 Y-14.462
X-116.423 Y-14.488
X-116.436 Y-14.52
X-116.443 Y-14.558
X-116.476 Y-14.727
X-116.487 Y-14.801
X-116.449 Y-14.947
X-116.36 Y-15.067
X-116.242 Y-15.159
X-116.106 Y-15.223
X-115.958 Y-15.25
X-115.94 Y-15.248
X-115.821 Y-15.216
X-115.726 Y-15.14
X-115.669 Y-15.031
X-115.614 Y-14.838
X-115.607 Y-14.807
X-115.605 Y-14.773
X-115.616 Y-14.74
X-115.637 Y-14.713
X-115.666 Y-14.694
X-115.699 Y-14.686
X-115.727 Y-14.685
X-116.373 Y-14.651
X-116.407 Y-14.655
X-116.438 Y-14.67
X-116.462 Y-14.696
X-116.476 Y-14.727
X-116.493 Y-14.812
X-116.523 Y-14.943
X-116.537 Y-15.016
X-116.495 Y-15.161
X-116.405 Y-15.28
X-116.287 Y-15.373
X-116.151 Y-15.437
X-116.004 Y-15.462
X-115.993 Y-15.461
X-115.878 Y-15.427
X-115.785 Y-15.351
X-115.73 Y-15.244
X-115.669 Y-15.031
X-115.667 Y-14.996
X-115.677 Y-14.963
X-115.697 Y-14.935
X-115.726 Y-14.915
X-115.76 Y-14.907
X-115.773
X-116.421 Y-14.869
X-116.455 Y-14.873
X-116.485 Y-14.888
X-116.509 Y-14.912
X-116.523 Y-14.943
X-116.545 Y-15.03
X-116.566 Y-15.112
X-116.581 Y-15.185
X-116.564 Y-15.334
X-116.485 Y-15.461
X-116.375 Y-15.563
X-116.243 Y-15.635
X-116.17 Y-15.653
X-116.041 Y-15.656
X-115.923 Y-15.605
X-115.837 Y-15.509
X-115.778 Y-15.403
X-115.773 Y-15.392
X-115.763 Y-15.361
X-115.73 Y-15.244
X-115.727 Y-15.211
X-115.736 Y-15.178
X-115.755 Y-15.151
X-115.782 Y-15.131
X-115.815 Y-15.121
X-115.818
X-116.458 Y-15.041
X-116.493 Y-15.043
X-116.525 Y-15.056
X-116.55 Y-15.08
X-116.566 Y-15.112
X-116.62 Y-15.318
X-116.636 Y-15.392
X-116.617 Y-15.541
X-116.54 Y-15.669
X-116.429 Y-15.771
X-116.295 Y-15.838
X-116.27 Y-15.843
X-116.143 Y-15.844
X-116.027 Y-15.793
X-115.943 Y-15.698
X-115.837 Y-15.509
X-115.826 Y-15.473
X-115.829 Y-15.436
X-115.845 Y-15.403
X-115.872 Y-15.378
X-115.907 Y-15.364
X-116.505 Y-15.25
X-116.542 Y-15.249
X-116.576 Y-15.262
X-116.603 Y-15.286
X-116.62 Y-15.318
X-116.629 Y-15.354
X-116.646 Y-15.403
X-116.685 Y-15.487
X-116.715 Y-15.556
X-116.708 Y-15.706
X-116.64 Y-15.839
X-116.535 Y-15.947
X-116.404 Y-16.02
X-116.382 Y-16.025
X-116.252 Y-16.029
X-116.133 Y-15.978
X-116.047 Y-15.882
X-115.943 Y-15.698
X-115.933 Y-15.662
X-115.935 Y-15.626
X-115.951 Y-15.593
X-115.978 Y-15.568
X-116.012 Y-15.554
X-116.577 Y-15.438
X-116.609 Y-15.436
X-116.639 Y-15.445
X-116.666 Y-15.462
X-116.685 Y-15.487
X-116.77 Y-15.656
X-116.801 Y-15.725
X-116.802 Y-15.875
X-116.74 Y-16.011
X-116.64 Y-16.123
X-116.51 Y-16.199
X-116.488 Y-16.205
X-116.357 Y-16.21
X-116.236 Y-16.16
X-116.148 Y-16.062
X-116.047 Y-15.882
X-116.036 Y-15.847
X-116.038 Y-15.811
X-116.053 Y-15.778
X-116.079 Y-15.753
X-116.112 Y-15.738
X-116.659 Y-15.607
X-116.692 Y-15.605
X-116.723 Y-15.613
X-116.75 Y-15.631
X-116.77 Y-15.656
X-116.855 Y-15.825
X-116.886 Y-15.894
X-116.898 Y-16.043
X-116.841 Y-16.182
X-116.745 Y-16.297
X-116.617 Y-16.375
X-116.593 Y-16.382
X-116.465 Y-16.39
X-116.346 Y-16.345
X-116.256 Y-16.253
X-116.148 Y-16.062
X-116.138 Y-16.028
X-116.14 Y-15.993
X-116.154 Y-15.96
X-116.179 Y-15.935
X-116.211 Y-15.92
X-116.742 Y-15.777
X-116.775 Y-15.774
X-116.807 Y-15.781
X-116.835 Y-15.799
X-116.855 Y-15.825
X-116.899 Y-15.91
X-116.952 Y-15.994
X-116.992 Y-16.058
X-117.004 Y-16.207
X-116.952 Y-16.348
X-116.859 Y-16.465
X-116.733 Y-16.547
X-116.72 Y-16.551
X-116.599 Y-16.565
X-116.482 Y-16.528
X-116.389 Y-16.447
X-116.365 Y-16.417
X-116.291 Y-16.309
X-116.256 Y-16.253
X-116.244 Y-16.219
X-116.245 Y-16.183
X-116.258 Y-16.149
X-116.283 Y-16.123
X-116.316 Y-16.107
X-116.846 Y-15.959
X-116.885 Y-15.956
X-116.922 Y-15.969
X-116.952 Y-15.994
X-116.968 Y-16.016
X-117.052 Y-16.12
X-117.097 Y-16.18
X-117.13 Y-16.326
X-117.093 Y-16.472
X-117.011 Y-16.597
X-116.897 Y-16.694
X-116.874 Y-16.704
X-116.744 Y-16.73
X-116.615 Y-16.697
X-116.513 Y-16.611
X-116.389 Y-16.447
X-116.374 Y-16.415
X-116.371 Y-16.379
X-116.381 Y-16.345
X-116.403 Y-16.316
X-116.433 Y-16.297
X-116.94 Y-16.093
X-116.97 Y-16.086
X-117 Y-16.088
X-117.029 Y-16.1
X-117.052 Y-16.12
X-117.176 Y-16.271
X-117.222 Y-16.331
X-117.255 Y-16.477
X-117.221 Y-16.623
X-117.145 Y-16.752
X-117.031 Y-16.85
X-117.027 Y-16.852
X-116.912 Y-16.881
X-116.796 Y-16.864
X-116.695 Y-16.803
X-116.673 Y-16.773
X-116.665 Y-16.736
X-116.67 Y-16.699
X-116.689 Y-16.667
X-117.026 Y-16.273
X-117.052 Y-16.251
X-117.084 Y-16.239
X-117.118
X-117.15 Y-16.25
X-117.176 Y-16.271
X-117.228 Y-16.332
X-117.286 Y-16.399
X-117.332 Y-16.458
X-117.386 Y-16.599
X-117.366 Y-16.747
X-117.298 Y-16.881
X-117.19 Y-16.987
X-117.094 Y-17.02
X-116.992 Y-17.018
X-116.896 Y-16.983
X-116.883 Y-16.975
X-116.589 Y-16.707
X-116.572 Y-16.688
X-116.513 Y-16.611
X-116.499 Y-16.581
X-116.495 Y-16.547
X-116.503 Y-16.514
X-116.522 Y-16.486
X-116.549 Y-16.465
X-116.581 Y-16.455
X-117.199 Y-16.369
X-117.231
X-117.261 Y-16.38
X-117.286 Y-16.399
X-117.306 Y-16.422
X-117.327 Y-16.444
X-117.348 Y-16.461
X-117.405 Y-16.501
X-117.466 Y-16.544
X-117.534 Y-16.678
X-117.531 Y-16.828
X-117.479 Y-16.968
X-117.458 Y-16.997
X-117.348 Y-17.088
X-117.209 Y-17.118
X-117.072 Y-17.081
X-116.939 Y-17.008
X-116.896 Y-16.983
X-116.868 Y-16.956
X-116.853 Y-16.921
X-116.851 Y-16.883
X-116.864 Y-16.847
X-116.89 Y-16.818
X-117.301 Y-16.511
X-117.334 Y-16.495
X-117.37 Y-16.491
X-117.405 Y-16.501
X-117.475 Y-16.538
X-117.56 Y-16.58
X-117.593 Y-16.599
X-117.685 Y-16.717
X-117.706 Y-16.866
X-117.675 Y-17.013
X-117.647 Y-17.059
X-117.553 Y-17.159
X-117.424 Y-17.206
X-117.287 Y-17.191
X-117.247 Y-17.177
X-117.222 Y-17.164
X-117.072 Y-17.081
X-117.043 Y-17.055
X-117.026 Y-17.021
X-117.024 Y-16.983
X-117.035 Y-16.947
X-117.06 Y-16.918
X-117.455 Y-16.594
X-117.488 Y-16.576
X-117.524 Y-16.572
X-117.56 Y-16.58
X-117.703 Y-16.651
X-117.768 Y-16.688
X-117.857 Y-16.809
X-117.88 Y-16.957
X-117.845 Y-17.103
X-117.835 Y-17.12
X-117.742 Y-17.219
X-117.616 Y-17.267
X-117.481 Y-17.255
X-117.287 Y-17.191
X-117.255 Y-17.17
X-117.232 Y-17.138
X-117.224 Y-17.1
X-117.231 Y-17.062
X-117.251 Y-17.029
X-117.589 Y-16.673
X-117.613 Y-16.655
X-117.642 Y-16.644
X-117.673 Y-16.643
X-117.703 Y-16.651
X-117.839 Y-16.718
X-117.872 Y-16.734
X-117.938 Y-16.769
X-118.03 Y-16.887
X-118.054 Y-17.036
X-118.04 Y-17.091
X-117.99 Y-17.197
X-117.903 Y-17.276
X-117.792 Y-17.315
X-117.674 Y-17.309
X-117.646 Y-17.295
X-117.623 Y-17.273
X-117.608 Y-17.244
X-117.603 Y-17.213
X-117.608 Y-17.181
X-117.737 Y-16.794
X-117.753 Y-16.765
X-117.777 Y-16.742
X-117.807 Y-16.729
X-117.84 Y-16.726
X-117.872 Y-16.734
X-117.898 Y-16.746
X-117.92 Y-16.754
X-117.983 Y-16.774
X-118.03 Y-16.784
X-118.066 Y-16.795
X-118.123 Y-16.843
X-118.166 Y-16.904
X-118.216 Y-17.046
X-118.201 Y-17.195
X-118.121 Y-17.295
X-118.007 Y-17.352
X-117.879 Y-17.357
X-117.814 Y-17.345
X-117.56 Y-17.279
X-117.481 Y-17.255
X-117.449 Y-17.236
X-117.426 Y-17.206
X-117.416 Y-17.169
X-117.42 Y-17.132
X-117.438 Y-17.099
X-117.467 Y-17.074
X-117.962 Y-16.795
X-117.995 Y-16.784
X-118.03
X-118.152 Y-16.811
X-118.225 Y-16.831
X-118.283 Y-16.877
X-118.369 Y-17.001
X-118.397 Y-17.148
X-118.393 Y-17.163
X-118.347 Y-17.265
X-118.266 Y-17.343
X-118.162 Y-17.386
X-118.05 Y-17.387
X-117.879 Y-17.357
X-117.843 Y-17.341
X-117.816 Y-17.314
X-117.802 Y-17.278
Y-17.239
X-117.817 Y-17.203
X-118.051 Y-16.854
X-118.079 Y-16.827
X-118.114 Y-16.812
X-118.152 Y-16.811
X-118.321 Y-16.848
X-118.394 Y-16.867
X-118.511 Y-16.961
X-118.569 Y-17.099
X-118.567 Y-17.136
X-118.534 Y-17.258
X-118.454 Y-17.356
X-118.341 Y-17.412
X-118.215 Y-17.416
X-118.05 Y-17.387
X-118.014 Y-17.372
X-117.987 Y-17.344
X-117.972 Y-17.308
X-117.973 Y-17.269
X-117.988 Y-17.233
X-118.221 Y-16.89
X-118.248 Y-16.863
X-118.283 Y-16.848
X-118.321
X-118.406 Y-16.866
X-118.491 Y-16.882
X-118.564 Y-16.899
X-118.626 Y-16.941
X-118.718 Y-17.059
X-118.739 Y-17.208
X-118.733 Y-17.229
X-118.662 Y-17.357
X-118.538 Y-17.437
X-118.391 Y-17.447
X-118.215 Y-17.416
X-118.179 Y-17.401
X-118.152 Y-17.372
X-118.138 Y-17.336
X-118.139 Y-17.296
X-118.155 Y-17.26
X-118.395 Y-16.923
X-118.421 Y-16.898
X-118.454 Y-16.884
X-118.491 Y-16.882
X-118.554 Y-16.894
X-118.575
X-118.622
X-118.697 Y-16.896
X-118.764 Y-16.929
X-118.871 Y-17.035
X-118.915 Y-17.178
X-118.898 Y-17.327
X-118.818 Y-17.422
X-118.706 Y-17.477
X-118.582 Y-17.481
X-118.549 Y-17.468
X-118.523 Y-17.444
X-118.507 Y-17.412
X-118.503 Y-17.377
X-118.527 Y-16.987
X-118.535 Y-16.952
X-118.556 Y-16.922
X-118.586 Y-16.902
X-118.622 Y-16.894
X-118.66 Y-16.893
X-118.744 Y-16.887
X-118.791 Y-16.883
X-118.828 Y-16.881
X-118.9 Y-16.904
X-119.021 Y-16.992
X-119.087 Y-17.127
X-119.106 Y-17.276
X-119.052 Y-17.383
X-118.96 Y-17.46
X-118.845 Y-17.495
X-118.744 Y-17.504
X-118.723 Y-17.505
X-118.702 Y-17.502
X-118.391 Y-17.447
X-118.358 Y-17.434
X-118.331 Y-17.409
X-118.316 Y-17.376
X-118.312 Y-17.34
X-118.322 Y-17.306
X-118.344 Y-17.277
X-118.735 Y-16.909
X-118.761 Y-16.892
X-118.791 Y-16.883
X-118.914 Y-16.871
X-118.96 Y-16.864
X-118.997 Y-16.86
X-119.139 Y-16.91
X-119.237 Y-17.023
X-119.295 Y-17.162
X-119.294 Y-17.181
X-119.259 Y-17.32
X-119.164 Y-17.426
X-119.03 Y-17.476
X-118.914 Y-17.489
X-118.845 Y-17.495
X-118.807 Y-17.49
X-118.773 Y-17.471
X-118.75 Y-17.44
X-118.739 Y-17.403
X-118.744 Y-17.365
X-118.884 Y-16.932
X-118.901 Y-16.9
X-118.927 Y-16.877
X-118.96 Y-16.864
X-118.998 Y-16.858
X-119.083 Y-16.84
X-119.157 Y-16.827
X-119.303 Y-16.862
X-119.413 Y-16.964
X-119.473 Y-17.101
X-119.475 Y-17.134
X-119.462 Y-17.247
X-119.408 Y-17.347
X-119.32 Y-17.42
X-119.212 Y-17.455
X-119.177 Y-17.451
X-119.145 Y-17.436
X-119.12 Y-17.41
X-119.106 Y-17.377
X-119.01 Y-16.959
X-119.009 Y-16.921
X-119.022 Y-16.884
X-119.048 Y-16.856
X-119.083 Y-16.84
X-119.22 Y-16.81
X-119.252 Y-16.796
X-119.287 Y-16.782
X-119.362 Y-16.784
X-119.504 Y-16.832
X-119.609 Y-16.94
X-119.662 Y-17.08
X-119.663 Y-17.109
X-119.636 Y-17.244
X-119.551 Y-17.352
X-119.427 Y-17.412
X-119.39
X-119.356 Y-17.398
X-119.329 Y-17.372
X-119.313 Y-17.339
X-119.199 Y-16.911
X-119.196 Y-16.877
X-119.205 Y-16.844
X-119.224 Y-16.816
X-119.252 Y-16.796
X-119.387 Y-16.736
X-119.457 Y-16.709
X-119.606 Y-16.724
X-119.73 Y-16.809
X-119.819 Y-16.93
X-119.858 Y-17.075
X-119.857 Y-17.091
X-119.832 Y-17.2
X-119.769 Y-17.292
X-119.677 Y-17.354
X-119.59 Y-17.376
X-119.252 Y-17.45
X-119.03 Y-17.476
X-118.993 Y-17.472
X-118.959 Y-17.455
X-118.935 Y-17.426
X-118.923 Y-17.389
X-118.925 Y-17.351
X-118.942 Y-17.317
X-119.351 Y-16.766
X-119.367 Y-16.749
X-119.387 Y-16.736
X-119.421 Y-16.721
X-119.506 Y-16.679
X-119.52 Y-16.67
X-119.586 Y-16.633
X-119.736 Y-16.626
X-119.87 Y-16.693
X-119.971 Y-16.804
X-120.039 Y-16.938
X-120.041 Y-16.951
X-120.032 Y-17.079
X-119.971 Y-17.192
X-119.867 Y-17.269
X-119.833 Y-17.277
X-119.798 Y-17.272
X-119.767 Y-17.255
X-119.744 Y-17.228
X-119.491 Y-16.804
X-119.478 Y-16.768
X-119.479 Y-16.731
X-119.494 Y-16.696
X-119.52 Y-16.67
X-119.675 Y-16.572
X-119.74 Y-16.536
X-119.89 Y-16.525
X-120.027 Y-16.587
X-120.138 Y-16.687
X-120.213 Y-16.817
X-120.219 Y-16.844
Y-16.98
X-120.159 Y-17.103
X-120.051 Y-17.186
X-120.017 Y-17.194
X-119.983 Y-17.189
X-119.952 Y-17.173
X-119.929 Y-17.148
X-119.647 Y-16.709
X-119.633 Y-16.673
Y-16.635
X-119.648 Y-16.6
X-119.675 Y-16.572
X-119.76 Y-16.519
X-119.785 Y-16.501
X-119.817 Y-16.474
X-119.877 Y-16.429
X-120.026 Y-16.41
X-120.168 Y-16.459
X-120.287 Y-16.55
X-120.375 Y-16.672
X-120.389 Y-16.712
X-120.404 Y-16.847
X-120.358 Y-16.975
X-120.26 Y-17.07
X-120.226 Y-17.081
X-120.191 Y-17.08
X-120.158 Y-17.067
X-120.132 Y-17.043
X-119.804 Y-16.609
X-119.788 Y-16.576
X-119.784 Y-16.539
X-119.795 Y-16.503
X-119.817 Y-16.474
X-119.844 Y-16.451
X-119.878 Y-16.417
X-119.906 Y-16.385
X-119.958 Y-16.331
X-120.098 Y-16.277
X-120.247 Y-16.299
X-120.38 Y-16.368
X-120.491 Y-16.469
X-120.568 Y-16.598
X-120.575 Y-16.623
X-120.583 Y-16.751
X-120.536 Y-16.871
X-120.444 Y-16.96
X-120.413 Y-16.971
X-120.38 Y-16.972
X-120.349 Y-16.962
X-120.322 Y-16.942
X-119.912 Y-16.518
X-119.892 Y-16.488
X-119.884 Y-16.452
X-119.889 Y-16.417
X-119.906 Y-16.385
X-120.013 Y-16.263
X-120.026 Y-16.248
X-120.073 Y-16.19
X-120.212 Y-16.133
X-120.362 Y-16.145
X-120.501 Y-16.202
X-120.62 Y-16.293
X-120.715 Y-16.409
X-120.725 Y-16.433
X-120.75 Y-16.549
X-120.729 Y-16.666
X-120.663 Y-16.765
X-120.634 Y-16.784
X-120.599 Y-16.792
X-120.564 Y-16.787
X-120.532 Y-16.77
X-120.046 Y-16.382
X-120.022 Y-16.354
X-120.009 Y-16.319
X-120.011 Y-16.282
X-120.026 Y-16.248
X-120.088 Y-16.163
X-120.124 Y-16.11
X-120.168 Y-16.05
X-120.301 Y-15.98
X-120.451 Y-15.977
X-120.595 Y-16.02
X-120.724 Y-16.096
X-120.834 Y-16.199
X-120.859 Y-16.24
X-120.903 Y-16.365
X-120.888 Y-16.497
X-120.818 Y-16.61
X-120.789 Y-16.628
X-120.756 Y-16.636
X-120.723 Y-16.633
X-120.692 Y-16.619
X-120.673 Y-16.605
X-120.152 Y-16.245
X-120.125 Y-16.218
X-120.111 Y-16.183
X-120.11 Y-16.145
X-120.124 Y-16.11
X-120.183 Y-16.021
X-120.199 Y-15.994
X-120.212 Y-15.969
X-120.229 Y-15.936
X-120.243 Y-15.91
X-120.272 Y-15.871
X-120.304 Y-15.852
X-120.341 Y-15.845
X-120.377 Y-15.852
X-120.408 Y-15.873
X-120.43 Y-15.903
X-120.439 Y-15.938
X-120.435 Y-15.975
X-120.417 Y-16.008
X-120.41 Y-16.016
X-120.383 Y-16.039
X-120.349 Y-16.052
X-120.313 Y-16.051
X-120.28 Y-16.037
X-120.253 Y-16.013
X-120.237 Y-15.98
X-120.234 Y-15.945
X-120.243 Y-15.91
X-120.267 Y-15.876
X-120.278 Y-15.866
X-120.288 Y-15.858
X-120.299 Y-15.852
X-120.318 Y-15.845
X-120.346
X-120.372 Y-15.856
X-120.39 Y-15.878
X-120.397 Y-15.905
X-120.391 Y-15.933
X-120.375 Y-15.955
X-120.35 Y-15.968
X-120.322 Y-15.969
X-120.32
X-120.292 Y-15.956
X-120.274 Y-15.932
X-120.268 Y-15.902
X-120.277 Y-15.874
X-120.299 Y-15.852
X-120.31 Y-15.848
X-120.32 Y-15.845
X-120.331 Y-15.843
X-120.352 Y-15.842
X-120.483
X-120.633 Y-15.85
X-120.776 Y-15.893
X-120.905 Y-15.97
X-120.953 Y-16.021
X-121.021 Y-16.139
X-121.03 Y-16.275
X-120.978 Y-16.4
X-120.953 Y-16.423
X-120.923 Y-16.436
X-120.889 Y-16.439
X-120.857 Y-16.43
X-120.829 Y-16.411
X-120.814 Y-16.397
X-120.417 Y-16.014
X-120.395 Y-15.983
X-120.386 Y-15.945
X-120.393 Y-15.907
X-120.414 Y-15.874
X-120.445 Y-15.851
X-120.483 Y-15.842
X-120.859
X-120.906
X-120.944
X-120.981 Y-15.844
X-120.988 Y-15.849
X-121.073 Y-15.933
X-121.118 Y-16.044
X-121.117 Y-16.164
X-121.068 Y-16.274
X-121.039 Y-16.299
X-121.002 Y-16.312
X-120.964 Y-16.31
X-120.929 Y-16.293
X-120.903 Y-16.264
X-120.89 Y-16.228
X-120.849 Y-15.957
Y-15.924
X-120.861 Y-15.892
X-120.882 Y-15.867
X-120.911 Y-15.849
X-120.944 Y-15.842
X-121.029
X-121.071
X-121.092
X-121.112 Y-15.845
X-121.139 Y-15.858
X-121.159 Y-15.88
X-121.168 Y-15.909
X-121.164 Y-15.939
X-121.148 Y-15.965
X-121.123 Y-15.981
X-121.093 Y-15.987
X-121.064 Y-15.979
X-121.063 Y-15.978
X-121.038 Y-15.959
X-121.025 Y-15.93
X-121.024 Y-15.899
X-121.038 Y-15.87
X-121.062 Y-15.85
X-121.092 Y-15.842
X-121.103 Y-15.843
X-121.113 Y-15.845
X-121.133 Y-15.852
X-121.152 Y-15.865
X-121.164 Y-15.876
X-121.184 Y-15.898
X-121.191 Y-15.91
X-121.198 Y-15.923
X-121.203 Y-15.941
X-121.205 Y-15.959
X-121.204 Y-15.976
X-121.198 Y-15.997
X-121.133 Y-16.175
X-121.127 Y-16.186
X-121.113 Y-16.21
X-120.859 Y-16.566
X-120.842 Y-16.585
X-120.521 Y-16.908
X-120.503 Y-16.923
X-120.436 Y-16.964
X-120.183 Y-17.116
X-120.098 Y-17.165
X-119.76 Y-17.317
X-119.677 Y-17.354
X-119.668 Y-17.351
X-119.633 Y-17.335 Z-0.982
X-119.603 Y-17.322 Z-0.961
X-119.584 Y-17.314 Z-0.928
X-119.577 Y-17.311 Z-0.89
G0 Z2
X-112.778 Y-12.654
Z0.5
G3 X-112.294 Y-12.779 Z0.29 I0.242 J-0.062 F333.3
X-112.778 Y-12.654 Z0.079 I-0.242 J0.062
X-112.294 Y-12.779 Z-0.131 I0.242 J-0.062
X-112.778 Y-12.654 Z-0.342 I-0.242 J0.062
X-112.294 Y-12.779 Z-0.552 I0.242 J-0.062
X-112.778 Y-12.654 Z-0.763 I-0.242 J0.062
X-112.568 Y-12.965 Z-0.876 I0.242 J-0.062
X-112.286 Y-12.717 Z-0.99 I0.031 J0.248
X-112.786 I-0.25
X-112.286 I0.25
G1 X-112.249 Y-12.571 F1000
X-112.262 Y-12.497
X-112.299 Y-12.432
X-112.406 Y-12.327
X-112.55 Y-12.287
X-112.699 Y-12.309
X-112.829 Y-12.383
X-112.926 Y-12.497
X-112.978 Y-12.638
X-112.98 Y-12.788
X-112.933 Y-12.93
X-112.841 Y-13.049
X-112.715 Y-13.13
X-112.569 Y-13.166
X-112.42 Y-13.152
X-112.283 Y-13.09
X-112.175 Y-12.987
X-112.097 Y-12.859
X-112.047 Y-12.717
X-112.036 Y-12.568
X-112.071 Y-12.422
X-112.142 Y-12.29
X-112.25 Y-12.186
X-112.381 Y-12.112
X-112.527 Y-12.079
X-112.677 Y-12.086
X-112.821 Y-12.127
X-112.951 Y-12.203
X-113.057 Y-12.309
X-113.139 Y-12.434
X-113.189 Y-12.576
X-113.204 Y-12.725
X-113.187 Y-12.874
X-113.137 Y-13.016
X-113.054 Y-13.141
X-112.948 Y-13.247
X-112.82 Y-13.325
X-112.677 Y-13.372
X-112.528 Y-13.388
X-112.379 Y-13.37
X-112.239 Y-13.317
X-112.112 Y-13.237
X-112.003 Y-13.134
X-111.916 Y-13.012
X-111.853 Y-12.876
X-111.815 Y-12.731
X-111.807 Y-12.581
X-111.824 Y-12.469
X-111.851 Y-12.38
X-111.904 Y-12.304
X-111.976 Y-12.246
X-112.068 Y-12.193
X-112.107 Y-12.162
X-112.146 Y-12.125
X-112.159 Y-12.109
X-112.178 Y-12.086
X-112.277 Y-11.973
X-112.409 Y-11.903
X-112.556 Y-11.869
X-112.706 Y-11.868
X-112.852 Y-11.899
X-112.99 Y-11.958
X-113.115 Y-12.041
X-113.134 Y-12.059
X-113.183 Y-12.119
X-113.215 Y-12.191
X-113.228 Y-12.268
X-113.235 Y-12.531
X-113.238 Y-12.784
X-113.237 Y-12.869
X-113.234 Y-13.038
X-113.223 Y-13.187
X-113.153 Y-13.32
X-113.053 Y-13.431
X-112.93 Y-13.518
X-112.792 Y-13.578
X-112.646 Y-13.611
X-112.496 Y-13.62
X-112.347 Y-13.602
X-112.297 Y-13.587
X-112.205 Y-13.542
X-112.134 Y-13.469
X-112.092 Y-13.376
X-112.077 Y-13.338
X-112.061 Y-13.3
X-111.961 Y-13.122
X-111.864 Y-12.953
X-111.807 Y-12.868
X-111.739 Y-12.784
X-111.649 Y-12.664
X-111.643 Y-12.63
X-111.644 Y-12.512
X-111.69 Y-12.405
X-111.773 Y-12.323
X-111.882 Y-12.279
X-111.921 Y-12.281
X-111.956 Y-12.297
X-111.983 Y-12.326
X-111.996 Y-12.363
X-111.994 Y-12.402
X-111.911 Y-12.742
X-111.896 Y-12.775
X-111.87 Y-12.801
X-111.838 Y-12.815
X-111.801 Y-12.818
X-111.767 Y-12.807
X-111.739 Y-12.784
X-111.6 Y-12.616
X-111.574 Y-12.586
X-111.553 Y-12.561
X-111.53 Y-12.532
X-111.556 Y-12.416
X-111.637 Y-12.329
X-111.751 Y-12.296
X-111.789 Y-12.304
X-111.823 Y-12.322
X-111.85 Y-12.351
X-111.866 Y-12.386
G3 X-111.553 Y-12.561 I0.177 J-0.051
G1 X-111.495 Y-12.495
X-111.469 Y-12.465
X-111.451 Y-12.447
X-111.438 Y-12.423
X-111.435 Y-12.415
X-111.44 Y-12.407
X-111.465 Y-12.382
X-111.497 Y-12.366
X-111.532 Y-12.363
X-111.566 Y-12.372
X-112.142 Y-12.637
X-112.196 Y-12.662
X-112.226 Y-12.684
X-112.247 Y-12.715
X-112.254 Y-12.752
X-112.248 Y-12.788
X-112.229 Y-12.82
X-112.199 Y-12.843
X-112.163 Y-12.853
X-112.126 Y-12.849
G3 X-111.451 Y-12.447 I-0.448 J1.518
G1 X-111.444 Y-12.436
X-111.439 Y-12.425
X-111.435 Y-12.415
X-111.433 Y-12.404
X-111.432 Y-12.394
X-111.431 Y-12.383
X-111.436 Y-12.358
X-111.439 Y-12.348
X-111.457 Y-12.327
X-111.483 Y-12.316
X-111.51
X-111.539 Y-12.33
X-111.557 Y-12.356
X-111.561 Y-12.388
X-111.55 Y-12.417
X-111.526 Y-12.438
X-111.494 Y-12.445
X-111.464 Y-12.436
X-111.441 Y-12.414
X-111.431 Y-12.383
X-111.432 Y-12.373
X-111.434 Y-12.362
X-111.439 Y-12.348
X-111.446 Y-12.334
X-111.456 Y-12.32
X-111.469 Y-12.307
X-111.486 Y-12.289
X-111.504 Y-12.278
X-111.516 Y-12.272
X-111.529 Y-12.269
X-111.541 Y-12.267
X-111.553
X-111.565 Y-12.268
X-111.576 Y-12.271
X-111.6 Y-12.278
X-111.638 Y-12.287
X-111.723 Y-12.297
X-111.765 Y-12.296
X-111.807 Y-12.293
X-111.892 Y-12.277
X-111.976 Y-12.246
X-112.005 Y-12.241
X-112.034 Y-12.244
X-112.06 Y-12.256
X-112.604 Y-12.593
X-113.186 Y-12.954
X-113.211 Y-12.976
X-113.228 Y-13.005
X-113.234 Y-13.038
X-113.232 Y-13.122
X-113.222 Y-13.338
X-113.208 Y-13.487
X-113.125 Y-13.612
X-113.012 Y-13.71
X-112.881 Y-13.783
X-112.739 Y-13.831
X-112.591 Y-13.855
X-112.441 Y-13.857
X-112.391 Y-13.848
X-112.283 Y-13.806
X-112.198 Y-13.726
X-112.151 Y-13.62
X-112.114 Y-13.46
X-112.092 Y-13.376
X-112.09 Y-13.341
X-112.101 Y-13.307
X-112.123 Y-13.279
X-112.153 Y-13.261
X-112.188 Y-13.254
X-112.495 Y-13.248
X-113.121 Y-13.237
X-113.16 Y-13.244
X-113.193 Y-13.266
X-113.215 Y-13.299
X-113.222 Y-13.338
X-113.211 Y-13.591
X-113.197 Y-13.74
X-113.112 Y-13.864
X-112.996 Y-13.959
X-112.863 Y-14.028
X-112.72 Y-14.073
X-112.571 Y-14.096
X-112.422 Y-14.088
X-112.409 Y-14.085
X-112.308 Y-14.035
X-112.233 Y-13.951
X-112.194 Y-13.846
X-112.172 Y-13.714
X-112.151 Y-13.62
X-112.15 Y-13.585
X-112.162 Y-13.552
X-112.184 Y-13.525
X-112.213 Y-13.508
X-112.248 Y-13.501
X-112.484 Y-13.498
X-113.11 Y-13.49
X-113.149 Y-13.498
X-113.182 Y-13.519
X-113.204 Y-13.552
X-113.211 Y-13.591
X-113.205 Y-13.714
X-113.192 Y-13.845
X-113.169 Y-13.993
X-113.083 Y-14.116
X-112.966 Y-14.209
X-112.831 Y-14.275
X-112.686 Y-14.315
X-112.537 Y-14.33
X-112.48 Y-14.322
X-112.355 Y-14.275
X-112.263 Y-14.178
X-112.222 Y-14.051
X-112.214 Y-13.967
X-112.194 Y-13.846
X-112.195 Y-13.812
X-112.208 Y-13.78
X-112.23 Y-13.755
X-112.26 Y-13.738
X-112.294 Y-13.732
X-112.47 Y-13.734
X-113.092 Y-13.738
X-113.124 Y-13.744
X-113.153 Y-13.759
X-113.175 Y-13.783
X-113.188 Y-13.812
X-113.192 Y-13.845
X-113.179 Y-13.967
X-113.161 Y-14.111
X-113.134 Y-14.259
X-113.041 Y-14.377
X-112.919 Y-14.464
X-112.781 Y-14.523
X-112.634 Y-14.553
X-112.484 Y-14.548
X-112.452 Y-14.539
X-112.341 Y-14.48
X-112.264 Y-14.381
X-112.235 Y-14.259
X-112.234 Y-14.22
X-112.222 Y-14.051
X-112.226 Y-14.017
X-112.24 Y-13.987
X-112.265 Y-13.963
X-112.295 Y-13.949
X-112.329 Y-13.946
X-112.444 Y-13.954
X-113.069 Y-14.002
X-113.107 Y-14.013
X-113.138 Y-14.037
X-113.157 Y-14.072
X-113.161 Y-14.111
X-113.129 Y-14.351
X-113.102 Y-14.499
X-113.009 Y-14.617
X-112.885 Y-14.702
X-112.745 Y-14.754
X-112.597 Y-14.777
X-112.505 Y-14.768
X-112.368 Y-14.718
X-112.271 Y-14.61
X-112.236 Y-14.469
Y-14.305
X-112.235 Y-14.259
X-112.241 Y-14.226
X-112.257 Y-14.197
X-112.282 Y-14.175
X-112.313 Y-14.162
X-112.346 Y-14.16
X-112.415 Y-14.169
X-113.041 Y-14.242
X-113.078 Y-14.254
X-113.107 Y-14.279
X-113.125 Y-14.313
X-113.129 Y-14.351
X-113.113 Y-14.474
X-113.101 Y-14.558
X-113.078 Y-14.643
X-113.031 Y-14.785
X-112.922 Y-14.889
X-112.789 Y-14.958
X-112.642 Y-14.991
X-112.493 Y-14.988
X-112.442 Y-14.973
X-112.323 Y-14.907
X-112.246 Y-14.796
X-112.225 Y-14.662
X-112.233 Y-14.558
X-112.236 Y-14.469
X-112.243 Y-14.435
X-112.262 Y-14.405
X-112.29 Y-14.384
X-112.323 Y-14.373
X-112.358 Y-14.375
X-112.391 Y-14.383
X-113.002 Y-14.522
X-113.038 Y-14.538
X-113.065 Y-14.567
X-113.079 Y-14.604
X-113.078 Y-14.643
X-113.031 Y-14.812
X-113.007 Y-14.896
X-112.982 Y-14.967
X-112.891 Y-15.086
X-112.762 Y-15.162
X-112.617 Y-15.2
X-112.467 Y-15.195
X-112.421 Y-15.182
X-112.294 Y-15.109
X-112.217 Y-14.985
X-112.208 Y-14.839
X-112.213 Y-14.812
X-112.225 Y-14.662
X-112.236 Y-14.628
X-112.257 Y-14.599
X-112.287 Y-14.58
X-112.322 Y-14.573
X-112.357 Y-14.578
X-112.942 Y-14.777
X-112.974 Y-14.795
X-112.998 Y-14.824
X-113.009 Y-14.859
X-113.007 Y-14.896
X-112.942 Y-15.112
X-112.917 Y-15.182
X-112.827 Y-15.302
X-112.695 Y-15.374
X-112.549 Y-15.405
X-112.399 Y-15.39
X-112.361 Y-15.375
X-112.246 Y-15.298
X-112.178 Y-15.178
X-112.171 Y-15.04
X-112.208 Y-14.839
X-112.221 Y-14.807
X-112.245 Y-14.781
X-112.275 Y-14.765
X-112.31 Y-14.761
X-112.344 Y-14.768
X-112.884 Y-14.994
X-112.914 Y-15.013
X-112.935 Y-15.042
X-112.945 Y-15.076
X-112.942 Y-15.112
X-112.88 Y-15.318
X-112.822 Y-15.457
X-112.706 Y-15.552
X-112.564 Y-15.599
X-112.414 Y-15.602
X-112.347 Y-15.584
X-112.245 Y-15.535
X-112.168 Y-15.451
X-112.128 Y-15.344
X-112.131 Y-15.231
X-112.166 Y-15.065
X-112.171 Y-15.04
X-112.184 Y-15.008
X-112.209 Y-14.982
X-112.24 Y-14.966
X-112.275 Y-14.962
X-112.31 Y-14.971
X-112.825 Y-15.202
X-112.853 Y-15.222
X-112.874 Y-15.25
X-112.883 Y-15.284
X-112.88 Y-15.318
X-112.85 Y-15.403
X-112.78 Y-15.572
X-112.747 Y-15.64
X-112.638 Y-15.742
X-112.496 Y-15.791
X-112.346
X-112.203 Y-15.746
X-112.194 Y-15.739
X-112.101 Y-15.638
X-112.062 Y-15.507
X-112.086 Y-15.372
X-112.109 Y-15.318
X-112.131 Y-15.231
X-112.147 Y-15.197
X-112.174 Y-15.171
X-112.208 Y-15.157
X-112.245
X-112.28 Y-15.17
X-112.738 Y-15.451
X-112.764 Y-15.474
X-112.781 Y-15.504
X-112.786 Y-15.538
X-112.78 Y-15.572
X-112.699 Y-15.766
X-112.666 Y-15.834
X-112.556 Y-15.936
X-112.413 Y-15.98
X-112.263 Y-15.979
X-112.122 Y-15.928
X-112.102 Y-15.914
X-112.014 Y-15.811
X-111.98 Y-15.68
X-112.007 Y-15.548
X-112.072 Y-15.403
X-112.086 Y-15.372
X-112.106 Y-15.344
X-112.135 Y-15.324
X-112.169 Y-15.315
X-112.204 Y-15.319
X-112.235 Y-15.334
X-112.664 Y-15.651
X-112.687 Y-15.674
X-112.701 Y-15.703
X-112.705 Y-15.735
X-112.699 Y-15.766
X-112.628 Y-15.935
X-112.596 Y-16.003
X-112.497 Y-16.115
X-112.356 Y-16.168
X-112.206 Y-16.171
X-112.063 Y-16.126
X-112.025 Y-16.101
X-111.925 Y-15.992
X-111.89 Y-15.849
X-111.926 Y-15.706
X-111.976 Y-15.614
X-112.007 Y-15.548
X-112.027 Y-15.52
X-112.055 Y-15.501
X-112.088 Y-15.493
X-112.123 Y-15.496
X-112.154 Y-15.51
X-112.592 Y-15.818
X-112.615 Y-15.841
X-112.63 Y-15.871
X-112.635 Y-15.903
X-112.628 Y-15.935
X-112.604 Y-15.994
X-112.569 Y-16.074
X-112.566 Y-16.079
X-112.455 Y-16.218
X-112.405 Y-16.274
X-112.271 Y-16.34
X-112.121 Y-16.348
X-111.978 Y-16.304
X-111.851 Y-16.223
X-111.795 Y-16.113
X-111.787 Y-15.991
X-111.829 Y-15.877
X-111.861 Y-15.825
X-111.926 Y-15.706
X-111.951 Y-15.678
X-111.984 Y-15.661
X-112.021 Y-15.657
X-112.057 Y-15.667
X-112.087 Y-15.69
X-112.449 Y-16.091
X-112.467 Y-16.12
X-112.475 Y-16.154
X-112.47 Y-16.187
X-112.455 Y-16.218
X-112.337 Y-16.366
X-112.287 Y-16.422
X-112.16 Y-16.502
X-112.01 Y-16.511
X-111.865 Y-16.475
X-111.739 Y-16.391
X-111.683 Y-16.278
X-111.677 Y-16.152
X-111.724 Y-16.035
X-111.809 Y-15.91
X-111.829 Y-15.877
X-111.854 Y-15.851
X-111.887 Y-15.835
X-111.923 Y-15.833
X-111.957 Y-15.843
X-111.986 Y-15.864
X-112.33 Y-16.239
X-112.349 Y-16.268
X-112.356 Y-16.301
X-112.352 Y-16.335
X-112.337 Y-16.366
X-112.209 Y-16.527
X-112.159 Y-16.583
X-112.031 Y-16.661
X-111.882 Y-16.671
X-111.805 Y-16.65
X-111.673 Y-16.577
X-111.591 Y-16.451
X-111.578 Y-16.3
X-111.638 Y-16.162
X-111.653 Y-16.141
X-111.724 Y-16.035
X-111.75 Y-16.01
X-111.783 Y-15.996
X-111.819 Y-15.995
X-111.853 Y-16.006
X-111.881 Y-16.028
X-112.204 Y-16.401
X-112.222 Y-16.43
X-112.229 Y-16.463
X-112.224 Y-16.497
X-112.209 Y-16.527
X-112.095 Y-16.67
X-112.078 Y-16.688
X-112.061 Y-16.703
X-112.027 Y-16.731
X-111.967 Y-16.776
X-111.823 Y-16.819
X-111.675 Y-16.798
X-111.546 Y-16.721
X-111.51 Y-16.679
X-111.452 Y-16.58
X-111.437 Y-16.465
X-111.465 Y-16.354
X-111.534 Y-16.261
X-111.62 Y-16.179
X-111.638 Y-16.162
X-111.668 Y-16.143
X-111.702 Y-16.136
X-111.737 Y-16.141
X-111.768 Y-16.157
X-111.791 Y-16.184
X-112.046 Y-16.605
X-112.058 Y-16.637
X-112.059 Y-16.671
X-112.048 Y-16.704
X-112.027 Y-16.731
X-111.866 Y-16.865
X-111.806 Y-16.91
X-111.662 Y-16.951
X-111.515 Y-16.92
X-111.39 Y-16.838
X-111.358 Y-16.796
X-111.298 Y-16.661
X-111.311 Y-16.514
X-111.392 Y-16.391
X-111.534 Y-16.261
X-111.566 Y-16.242
X-111.602 Y-16.237
X-111.638 Y-16.245
X-111.669 Y-16.266
X-111.69 Y-16.296
X-111.891 Y-16.75
X-111.899 Y-16.78
X-111.897 Y-16.811
X-111.886 Y-16.841
X-111.866 Y-16.865
X-111.723 Y-16.984
X-111.663 Y-17.03
X-111.592 Y-17.054
X-111.442 Y-17.061
X-111.303 Y-17.004
X-111.193 Y-16.902
X-111.177 Y-16.873
X-111.143 Y-16.731
X-111.179 Y-16.589
X-111.278 Y-16.482
X-111.3 Y-16.468
X-111.363 Y-16.417
X-111.392 Y-16.391
X-111.424 Y-16.372
X-111.46 Y-16.367
X-111.496 Y-16.375
X-111.527 Y-16.395
X-111.548 Y-16.426
X-111.747 Y-16.869
X-111.755 Y-16.899
X-111.754 Y-16.931
X-111.742 Y-16.96
X-111.723 Y-16.984
X-111.571 Y-17.11
X-111.553 Y-17.125
X-111.532 Y-17.137
X-111.403 Y-17.184
X-111.395 Y-17.179
X-111.365 Y-17.155
X-111.347 Y-17.121
X-111.343 Y-17.082
X-111.353 Y-17.045
X-111.601 Y-16.57
X-111.623 Y-16.541
X-111.655 Y-16.522
X-111.691 Y-16.516
X-111.727 Y-16.523
X-111.758 Y-16.543
X-111.779 Y-16.572
X-111.789 Y-16.607
G3 X-111.532 Y-17.137 I0.574 J-0.049
G1 X-111.511 Y-17.146
X-111.384 Y-17.19
X-111.348 Y-17.201
X-111.204 Y-17.16
X-111.081 Y-17.074
X-110.993 Y-16.952
X-110.987 Y-16.932
X-110.976 Y-16.805
X-111.02 Y-16.684
X-111.109 Y-16.593
X-111.278 Y-16.482
X-111.311 Y-16.469
X-111.345
X-111.378 Y-16.48
X-111.405 Y-16.501
X-111.423 Y-16.53
X-111.43 Y-16.564
X-111.448 Y-17.094
X-111.444 Y-17.124
X-111.431 Y-17.152
X-111.411 Y-17.175
X-111.384 Y-17.19
X-111.253 Y-17.236
X-111.181 Y-17.257
X-111.032 Y-17.239
X-110.906 Y-17.158
X-110.821 Y-17.034
X-110.82 Y-17.03
X-110.812 Y-16.898
X-110.861 Y-16.775
X-110.959 Y-16.685
X-111.046 Y-16.634
X-111.109 Y-16.593
X-111.147 Y-16.579
X-111.186 Y-16.581
X-111.222 Y-16.599
X-111.248 Y-16.629
X-111.26 Y-16.666
X-111.316 Y-17.131
X-111.315 Y-17.164
X-111.303 Y-17.194
X-111.281 Y-17.219
X-111.253 Y-17.236
X-111.084 Y-17.295
X-111.012 Y-17.316
X-110.937 Y-17.315
X-110.794 Y-17.268
X-110.686 Y-17.165
X-110.671 Y-17.132
X-110.645 Y-17.011
X-110.671 Y-16.89
X-110.743 Y-16.789
X-110.85 Y-16.726
X-110.94 Y-16.696
X-110.959 Y-16.685
X-110.996 Y-16.674
X-111.035 Y-16.678
X-111.069 Y-16.696
X-111.093 Y-16.727
X-111.105 Y-16.764
X-111.147 Y-17.192
X-111.145 Y-17.224
X-111.133 Y-17.254
X-111.112 Y-17.278
X-111.084 Y-17.295
X-110.877 Y-17.366
X-110.802 Y-17.375
X-110.728 Y-17.364
X-110.59 Y-17.304
X-110.497 Y-17.187
X-110.485 Y-17.146
X-110.476 Y-17.03
X-110.511 Y-16.918
X-110.587 Y-16.829
X-110.691 Y-16.776
X-110.764 Y-16.754
X-110.85 Y-16.726
X-110.888 Y-16.723
X-110.925 Y-16.734
X-110.955 Y-16.758
X-110.974 Y-16.792
X-110.978 Y-16.83
X-110.941 Y-17.281
X-110.931 Y-17.317
X-110.908 Y-17.347
X-110.877 Y-17.366
X-110.792 Y-17.38
X-110.661 Y-17.398
X-110.586 Y-17.405
X-110.514 Y-17.385
X-110.478 Y-17.364
X-110.378 Y-17.269
X-110.331 Y-17.138
X-110.348 Y-17
X-110.426 Y-16.885
X-110.546 Y-16.817
X-110.691 Y-16.776
X-110.73 Y-16.774
X-110.767 Y-16.787
X-110.796 Y-16.814
X-110.813 Y-16.85
X-110.814 Y-16.889
X-110.742 Y-17.316
X-110.733 Y-17.345
X-110.715 Y-17.37
X-110.69 Y-17.388
X-110.661 Y-17.398
X-110.492 Y-17.421
X-110.417 Y-17.428
X-110.346 Y-17.403
X-110.224 Y-17.316
X-110.16 Y-17.18
X-110.158 Y-17.164
X-110.17 Y-17.051
X-110.223 Y-16.95
X-110.31 Y-16.877
X-110.418 Y-16.841
X-110.454 Y-16.836
X-110.538 Y-16.819
X-110.546 Y-16.817
X-110.58 Y-16.815
X-110.613 Y-16.824
X-110.641 Y-16.843
X-110.661 Y-16.87
X-110.67 Y-16.903
X-110.668 Y-16.937
X-110.572 Y-17.346
X-110.556 Y-17.381
X-110.528 Y-17.408
X-110.492 Y-17.421
X-110.322 Y-17.445
X-110.248 Y-17.451
X-110.107 Y-17.399
X-110.01 Y-17.285
X-109.97 Y-17.14
Y-17.136
X-110.012 Y-17.008
X-110.105 Y-16.911
X-110.231 Y-16.865
X-110.418 Y-16.841
X-110.456 Y-16.845
X-110.491 Y-16.863
X-110.515 Y-16.893
X-110.527 Y-16.93
X-110.523 Y-16.969
X-110.401 Y-17.375
X-110.384 Y-17.408
X-110.357 Y-17.432
X-110.322 Y-17.445
X-110.153 Y-17.468
X-110.115 Y-17.473
X-110.073 Y-17.478
X-110.036 Y-17.474
X-109.902 Y-17.406
X-109.813 Y-17.285
X-109.804 Y-17.237
X-109.807 Y-17.11
X-109.862 Y-16.996
X-109.959 Y-16.915
X-110.081 Y-16.881
X-110.115 Y-16.879
X-110.231 Y-16.865
X-110.266 Y-16.868
X-110.297 Y-16.882
X-110.321 Y-16.906
X-110.336 Y-16.937
X-110.34 Y-16.971
X-110.332 Y-17.005
X-110.151 Y-17.419
X-110.132 Y-17.447
X-110.105 Y-17.467
X-110.073 Y-17.478
X-110.031 Y-17.475
X-109.899 Y-17.465
X-109.825 Y-17.455
X-109.76 Y-17.418
X-109.659 Y-17.306
X-109.62 Y-17.162
X-109.623 Y-17.139
X-109.657 Y-17.028
X-109.732 Y-16.938
X-109.835 Y-16.884
X-109.951 Y-16.873
X-110.031 Y-16.881
X-110.081
X-110.115 Y-16.886
X-110.144 Y-16.902
X-110.167 Y-16.926
X-110.181 Y-16.957
X-110.183 Y-16.991
X-110.174 Y-17.023
X-109.994 Y-17.407
X-109.971 Y-17.439
X-109.938 Y-17.459
X-109.899 Y-17.465
X-109.73 Y-17.451
X-109.656 Y-17.441
X-109.527 Y-17.364
X-109.454 Y-17.233
X-109.441 Y-17.084
X-109.446 Y-17.067
X-109.515 Y-16.945
X-109.633 Y-16.867
X-109.772 Y-16.852
X-109.951 Y-16.873
X-109.987 Y-16.886
X-110.016 Y-16.911
X-110.034 Y-16.945
X-110.037 Y-16.983
X-110.026 Y-17.019
X-109.823 Y-17.398
X-109.799 Y-17.427
X-109.767 Y-17.446
X-109.73 Y-17.451
X-109.523 Y-17.434
X-109.449 Y-17.423
X-109.327 Y-17.335
X-109.262 Y-17.2
X-109.259 Y-17.05
X-109.266 Y-17.027
X-109.32 Y-16.927
X-109.406 Y-16.854
X-109.514 Y-16.818
X-109.627 Y-16.825
X-109.692 Y-16.842
X-109.772 Y-16.852
X-109.809 Y-16.866
X-109.837 Y-16.892
X-109.853 Y-16.927
X-109.855 Y-16.965
X-109.842 Y-17.002
X-109.614 Y-17.385
X-109.59 Y-17.412
X-109.559 Y-17.429
X-109.523 Y-17.434
X-109.438 Y-17.426
X-109.354 Y-17.415
X-109.282 Y-17.393
X-109.216 Y-17.357
X-109.116 Y-17.246
X-109.073 Y-17.102
X-109.088 Y-16.953
X-109.095 Y-16.938
X-109.181 Y-16.832
X-109.304 Y-16.774
X-109.44 Y-16.777
X-109.627 Y-16.825
X-109.659 Y-16.841
X-109.684 Y-16.868
X-109.697 Y-16.902
Y-16.938
X-109.685 Y-16.972
X-109.45 Y-17.366
X-109.425 Y-17.394
X-109.391 Y-17.411
X-109.354 Y-17.415
X-109.138 Y-17.363
X-109.066 Y-17.341
X-108.95 Y-17.247
X-108.893 Y-17.108
X-108.89 Y-16.958
X-108.903 Y-16.919
X-108.96 Y-16.819
X-109.051 Y-16.747
X-109.162 Y-16.716
X-109.277 Y-16.728
X-109.36 Y-16.754
X-109.44 Y-16.777
X-109.473 Y-16.794
X-109.497 Y-16.822
X-109.51 Y-16.856
Y-16.893
X-109.496 Y-16.928
X-109.242 Y-17.319
X-109.214 Y-17.347
X-109.178 Y-17.363
X-109.138
X-108.931 Y-17.313
X-108.859 Y-17.291
X-108.752 Y-17.186
X-108.701 Y-17.045
X-108.708 Y-16.895
X-108.763 Y-16.755
X-108.773 Y-16.743
X-108.886 Y-16.656
X-109.027 Y-16.632
X-109.163 Y-16.675
X-109.187 Y-16.697
X-109.202 Y-16.726
X-109.208 Y-16.759
X-109.202 Y-16.791
X-109.045 Y-17.247
X-109.028 Y-17.278
X-109 Y-17.301
X-108.967 Y-17.313
X-108.931
X-108.804 Y-17.282
X-108.783 Y-17.276
X-108.755 Y-17.261
X-108.712 Y-17.236
X-108.649 Y-17.195
X-108.554 Y-17.079
X-108.521 Y-16.932
X-108.533 Y-16.783
X-108.598 Y-16.648
X-108.622 Y-16.622
X-108.739 Y-16.542
X-108.879 Y-16.525
X-109.012 Y-16.574
X-109.163 Y-16.675
X-109.188 Y-16.698
X-109.203 Y-16.729
X-109.208 Y-16.763
X-109.2 Y-16.796
X-109.182 Y-16.825
X-108.834 Y-17.215
X-108.808 Y-17.236
X-108.777 Y-17.247
X-108.743
X-108.712 Y-17.236
X-108.508 Y-17.116
X-108.445 Y-17.074
X-108.365 Y-16.948
X-108.344 Y-16.799
X-108.37 Y-16.651
X-108.444 Y-16.521
X-108.469 Y-16.496
X-108.591 Y-16.421
X-108.735 Y-16.412
X-108.866 Y-16.471
X-108.904 Y-16.501
X-109.012 Y-16.574
X-109.036 Y-16.599
X-109.051 Y-16.631
X-109.053 Y-16.666
X-109.043 Y-16.7
X-109.022 Y-16.728
X-108.624 Y-17.101
X-108.598 Y-17.118
X-108.568 Y-17.127
X-108.537 Y-17.126
X-108.508 Y-17.116
X-108.338 Y-17.016
X-108.28 Y-16.978
X-108.193 Y-16.856
X-108.167 Y-16.708
X-108.191 Y-16.56
X-108.259 Y-16.426
X-108.36 Y-16.315
X-108.378 Y-16.305
X-108.5 Y-16.267
X-108.626 Y-16.284
X-108.735 Y-16.352
X-108.801 Y-16.417
X-108.846 Y-16.456
X-108.866 Y-16.471
X-108.888 Y-16.497
X-108.9 Y-16.529
X-108.901 Y-16.563
X-108.89 Y-16.595
X-108.869 Y-16.622
X-108.454 Y-17.002
X-108.428 Y-17.019
X-108.398 Y-17.027
X-108.368 Y-17.026
X-108.338 Y-17.016
X-108.254 Y-16.966
X-108.203 Y-16.923
X-108.135 Y-16.863
X-108.081 Y-16.811
X-108.013 Y-16.678
X-108.009 Y-16.528
X-108.05 Y-16.383
X-108.124 Y-16.253
X-108.235 Y-16.152
X-108.243 Y-16.148
X-108.365 Y-16.118
X-108.488 Y-16.14
X-108.592 Y-16.21
X-108.628 Y-16.248
X-108.735 Y-16.352
X-108.753 Y-16.379
X-108.762 Y-16.411
X-108.759 Y-16.444
X-108.746 Y-16.475
X-108.724 Y-16.499
X-108.26 Y-16.865
X-108.23 Y-16.881
X-108.197 Y-16.886
X-108.164 Y-16.88
X-108.135 Y-16.863
X-107.974 Y-16.723
X-107.921 Y-16.671
X-107.855 Y-16.536
X-107.852 Y-16.386
X-107.891 Y-16.242
X-107.965 Y-16.111
X-108.075 Y-16.009
X-108.111 Y-15.99
X-108.219 Y-15.957
X-108.332 Y-15.966
X-108.433 Y-16.016
X-108.508 Y-16.1
X-108.52 Y-16.136
X-108.517 Y-16.175
X-108.5 Y-16.209
X-108.499 Y-16.211
X-108.117 Y-16.707
X-108.087 Y-16.733
X-108.049 Y-16.745
X-108.01 Y-16.742
X-107.974 Y-16.723
X-107.817 Y-16.585
X-107.794 Y-16.566
X-107.776 Y-16.55
X-107.748 Y-16.516
X-107.734 Y-16.495
X-107.722 Y-16.459
X-107.724 Y-16.421
X-107.74 Y-16.386
X-107.768 Y-16.36
X-107.804 Y-16.347
X-107.842
X-107.877 Y-16.363
X-107.904 Y-16.39
X-107.922 Y-16.417
X-107.936 Y-16.449
X-107.938 Y-16.485
X-107.928 Y-16.518
X-107.906 Y-16.546
X-107.876 Y-16.565
X-107.842 Y-16.572
X-107.807 Y-16.567
X-107.776 Y-16.55
X-107.76 Y-16.532
X-107.746 Y-16.514
X-107.722 Y-16.475
X-107.685 Y-16.41
X-107.683 Y-16.26
X-107.721 Y-16.115
X-107.793 Y-15.983
X-107.896 Y-15.874
X-108.022 Y-15.793
X-108.055 Y-15.784
X-108.185 Y-15.775
X-108.306 Y-15.822
X-108.397 Y-15.916
X-108.508 Y-16.1
X-108.519 Y-16.131
X-108.52 Y-16.164
X-108.509 Y-16.195
X-108.489 Y-16.222
X-108.461 Y-16.24
X-108.437 Y-16.251
X-107.845 Y-16.511
X-107.812 Y-16.519
X-107.777 Y-16.516
X-107.746 Y-16.5
X-107.722 Y-16.475
X-107.632 Y-16.332
X-107.56 Y-16.201
X-107.558 Y-16.051
X-107.605 Y-15.908
X-107.686 Y-15.782
X-107.792 Y-15.676
X-107.924 Y-15.604
X-107.963 Y-15.593
X-108.1 Y-15.589
X-108.224 Y-15.645
X-108.31 Y-15.751
X-108.346 Y-15.825
X-108.397 Y-15.916
X-108.409 Y-15.954
X-108.405 Y-15.993
X-108.387 Y-16.028
X-108.356 Y-16.053
X-108.328 Y-16.068
X-107.762 Y-16.365
X-107.727 Y-16.375
X-107.691 Y-16.373
X-107.658 Y-16.358
X-107.632 Y-16.332
X-107.577 Y-16.242
X-107.492 Y-16.102
X-107.457 Y-16.035
X-107.44 Y-15.886
X-107.48 Y-15.742
X-107.556 Y-15.612
X-107.66 Y-15.504
X-107.788 Y-15.425
X-107.93 Y-15.379
X-107.94
X-108.058 Y-15.4
X-108.158 Y-15.466
X-108.224 Y-15.566
X-108.254 Y-15.636
X-108.31 Y-15.751
X-108.319 Y-15.782
X-108.317 Y-15.815
X-108.304 Y-15.844
X-108.284 Y-15.869
X-108.256 Y-15.885
X-108.216 Y-15.901
X-107.613 Y-16.14
X-107.58 Y-16.147
X-107.546 Y-16.142
X-107.516 Y-16.127
X-107.492 Y-16.102
X-107.428 Y-15.994
X-107.376 Y-15.884
X-107.348 Y-15.815
X-107.338 Y-15.665
X-107.385 Y-15.522
X-107.469 Y-15.398
X-107.578 Y-15.296
X-107.706 Y-15.216
X-107.85 Y-15.175
X-107.859
X-107.983 Y-15.198
X-108.086 Y-15.271
X-108.15 Y-15.379
X-108.158 Y-15.403
X-108.224 Y-15.566
X-108.23 Y-15.605
X-108.221 Y-15.643
X-108.198 Y-15.674
X-108.164 Y-15.694
X-108.102 Y-15.717
X-107.499 Y-15.933
X-107.464 Y-15.939
X-107.429 Y-15.932
X-107.398 Y-15.913
X-107.376 Y-15.884
X-107.271 Y-15.656
X-107.243 Y-15.587
X-107.245 Y-15.437
X-107.301 Y-15.297
X-107.39 Y-15.177
X-107.503 Y-15.078
X-107.633 Y-15.004
X-107.779 Y-14.967
X-107.813
X-107.944 Y-14.998
X-108.049 Y-15.082
X-108.106 Y-15.204
X-108.13 Y-15.318
X-108.15 Y-15.379
X-108.154 Y-15.418
X-108.142 Y-15.455
X-108.117 Y-15.485
X-108.083 Y-15.503
X-108.009 Y-15.525
X-107.389 Y-15.707
X-107.354 Y-15.711
X-107.321 Y-15.703
X-107.292 Y-15.684
X-107.271 Y-15.656
X-107.232 Y-15.572
X-107.194 Y-15.487
X-107.174 Y-15.403
X-107.149 Y-15.255
X-107.198 Y-15.113
X-107.283 Y-14.99
X-107.392 Y-14.886
X-107.52 Y-14.808
X-107.662 Y-14.761
X-107.812 Y-14.748
X-107.831 Y-14.752
X-107.943 Y-14.8
X-108.027 Y-14.888
X-108.069 Y-15.002
X-108.085 Y-15.104
X-108.106 Y-15.204
X-108.105 Y-15.243
X-108.09 Y-15.278
X-108.063 Y-15.305
X-108.028 Y-15.32
X-107.912 Y-15.344
X-107.291 Y-15.474
X-107.253 Y-15.475
X-107.218 Y-15.461
X-107.191 Y-15.436
X-107.174 Y-15.403
X-107.118 Y-15.15
X-107.095 Y-15.001
X-107.149 Y-14.861
X-107.24 Y-14.742
X-107.357 Y-14.648
X-107.49 Y-14.578
X-107.633 Y-14.534
X-107.783 Y-14.528
X-107.8 Y-14.532
X-107.918 Y-14.584
X-108.003 Y-14.68
X-108.04 Y-14.803
Y-14.812
X-108.069 Y-15.002
X-108.066 Y-15.04
X-108.049 Y-15.074
X-108.02 Y-15.1
X-107.984 Y-15.112
X-107.861 Y-15.13
X-107.229 Y-15.223
X-107.193 Y-15.222
X-107.159 Y-15.208
X-107.133 Y-15.182
X-107.118 Y-15.15
X-107.084 Y-14.981
X-107.069 Y-14.903
X-107.059 Y-14.829
X-107.084 Y-14.681
X-107.164 Y-14.554
X-107.273 Y-14.451
X-107.401 Y-14.372
X-107.542 Y-14.321
X-107.691 Y-14.301
X-107.757 Y-14.308
X-107.888 Y-14.354
X-107.984 Y-14.454
X-108.025 Y-14.587
X-108.04 Y-14.803
X-108.034 Y-14.841
X-108.015 Y-14.873
X-107.985 Y-14.896
X-107.949 Y-14.907
X-107.815 Y-14.92
X-107.176 Y-14.98
X-107.141 Y-14.977
X-107.108 Y-14.962
X-107.084 Y-14.936
X-107.069 Y-14.903
X-107.054 Y-14.812
X-107.038 Y-14.643
X-107.031 Y-14.493
X-107.099 Y-14.359
X-107.202 Y-14.25
X-107.326 Y-14.166
X-107.464 Y-14.107
X-107.611 Y-14.078
X-107.761 Y-14.082
X-107.808 Y-14.095
X-107.922 Y-14.158
X-107.999 Y-14.263
X-108.024 Y-14.391
X-108.022 Y-14.474
X-108.023 Y-14.558
X-108.025 Y-14.587
X-108.019 Y-14.625
X-107.998 Y-14.657
X-107.967 Y-14.68
X-107.93 Y-14.689
X-107.777 Y-14.697
X-107.142 Y-14.73
X-107.105 Y-14.725
X-107.073 Y-14.707
X-107.049 Y-14.678
X-107.038 Y-14.643
X-107.014 Y-14.389
X-107.01 Y-14.314
X-107.053 Y-14.171
X-107.145 Y-14.052
X-107.263 Y-13.96
X-107.398 Y-13.894
X-107.543 Y-13.855
X-107.693 Y-13.847
X-107.84 Y-13.872
X-107.859 Y-13.881
X-107.956 Y-13.952
X-108.017 Y-14.055
X-108.033 Y-14.174
X-108.03 Y-14.22
X-108.026 Y-14.305
X-108.024 Y-14.391
X-108.015 Y-14.427
X-107.993 Y-14.458
X-107.961 Y-14.478
X-107.924 Y-14.485
X-107.754 Y-14.483
X-107.112 Y-14.476
X-107.077 Y-14.47
X-107.046 Y-14.451
X-107.024 Y-14.423
X-107.014 Y-14.389
X-107.006 Y-14.305
X-107.004 Y-14.263
X-107.019 Y-14.089
X-107.041 Y-13.941
X-107.131 Y-13.821
X-107.25 Y-13.73
X-107.385 Y-13.665
X-107.53 Y-13.627
X-107.68 Y-13.614
X-107.782 Y-13.629
X-107.894 Y-13.668
X-107.983 Y-13.745
X-108.037 Y-13.85
X-108.049 Y-13.967
X-108.042 Y-14.051
X-108.033 Y-14.174
X-108.022 Y-14.211
X-107.998 Y-14.241
X-107.964 Y-14.259
X-107.925 Y-14.263
X-107.74 Y-14.248
X-107.111 Y-14.195
X-107.074 Y-14.184
X-107.044 Y-14.161
X-107.025 Y-14.127
X-107.019 Y-14.089
X-107.043 Y-13.836
X-107.053 Y-13.762
X-107.118 Y-13.626
X-107.227 Y-13.524
X-107.358 Y-13.45
X-107.5 Y-13.403
X-107.649 Y-13.386
X-107.799 Y-13.398
X-107.941 Y-13.446
X-107.956 Y-13.456
X-108.04 Y-13.538
X-108.086 Y-13.646
X-108.087 Y-13.763
X-108.049 Y-13.967
X-108.035 Y-14.001
X-108.009 Y-14.027
X-107.975 Y-14.042
X-107.939 Y-14.045
X-107.76 Y-14.022
X-107.13 Y-13.941
X-107.094 Y-13.929
X-107.066 Y-13.906
X-107.047 Y-13.873
X-107.043 Y-13.836
X-107.055 Y-13.714
X-107.07 Y-13.629
X-107.089 Y-13.545
X-107.131 Y-13.4
X-107.238 Y-13.295
X-107.368 Y-13.222
X-107.511 Y-13.176
X-107.66 Y-13.157
X-107.81 Y-13.165
X-107.954 Y-13.206
X-107.983 Y-13.223
X-108.079 Y-13.307
X-108.131 Y-13.423
X-108.13 Y-13.55
X-108.112 Y-13.629
X-108.087 Y-13.763
X-108.071 Y-13.798
X-108.043 Y-13.825
X-108.007 Y-13.839
X-107.968 Y-13.838
X-107.782 Y-13.797
X-107.166 Y-13.662
X-107.131 Y-13.646
X-107.104 Y-13.619
X-107.089 Y-13.583
Y-13.545
X-107.148 Y-13.291
X-107.169 Y-13.219
X-107.255 Y-13.096
X-107.378 Y-13.011
X-107.518 Y-12.957
X-107.666 Y-12.931
X-107.816 Y-12.933
X-107.962 Y-12.967
X-108.097 Y-13.032
X-108.116 Y-13.049
X-108.19 Y-13.15
X-108.217 Y-13.273
X-108.19 Y-13.396
X-108.167 Y-13.426
X-108.134 Y-13.446
X-108.096 Y-13.451
X-107.855 Y-13.44
X-107.242 Y-13.41
X-107.208 Y-13.403
X-107.179 Y-13.385
X-107.158 Y-13.358
X-107.148 Y-13.325
Y-13.291
X-107.178 Y-13.165
X-107.185 Y-13.143
X-107.195 Y-13.122
X-107.268 Y-12.98
X-107.343 Y-12.85
X-107.469 Y-12.769
X-107.612 Y-12.721
X-107.761 Y-12.705
X-107.91 Y-12.717
X-108.056 Y-12.754
X-108.187 Y-12.827
X-108.209 Y-12.846
X-108.284 Y-12.95
X-108.308 Y-13.076
X-108.278 Y-13.201
X-108.162 Y-13.46
X-108.131 Y-13.545
X-108.13 Y-13.55
X-108.113 Y-13.585
X-108.084 Y-13.611
X-108.047 Y-13.624
X-108.009 Y-13.622
X-107.973 Y-13.605
X-107.819 Y-13.49
X-107.299 Y-13.102
X-107.275 Y-13.078
X-107.262 Y-13.046
X-107.259 Y-13.012
X-107.268 Y-12.98
X-107.369 Y-12.784
X-107.408 Y-12.723
X-107.494 Y-12.6
X-107.626 Y-12.529
X-107.772 Y-12.495
X-107.922 Y-12.492
X-108.069 Y-12.519
X-108.209 Y-12.573
X-108.332 Y-12.659
X-108.344 Y-12.674
X-108.403 Y-12.785
X-108.411 Y-12.911
X-108.366 Y-13.029
X-108.361 Y-13.038
X-108.316 Y-13.122
X-108.278 Y-13.201
X-108.253 Y-13.231
X-108.218 Y-13.25
X-108.179 Y-13.253
X-108.142 Y-13.241
X-107.995 Y-13.161
X-107.446 Y-12.86
X-107.416 Y-12.835
X-107.398 Y-12.8
X-107.395 Y-12.76
X-107.408 Y-12.723
X-107.528 Y-12.531
X-107.555 Y-12.491
X-107.646 Y-12.372
X-107.781 Y-12.307
X-107.929 Y-12.283
X-108.079 Y-12.292
X-108.224 Y-12.331
X-108.359 Y-12.396
X-108.474 Y-12.492
X-108.481 Y-12.503
X-108.529 Y-12.612
X-108.532 Y-12.73
X-108.489 Y-12.84
X-108.366 Y-13.029
X-108.339 Y-13.056
X-108.303 Y-13.07
X-108.264
X-108.229 Y-13.056
X-108.11 Y-12.976
X-107.584 Y-12.628
X-107.557 Y-12.601
X-107.542 Y-12.566
X-107.541 Y-12.527
X-107.555 Y-12.491
X-107.586 Y-12.447
X-107.707 Y-12.278
X-107.729 Y-12.248
X-107.746 Y-12.224
X-107.765 Y-12.203
X-107.787 Y-12.182
X-107.821 Y-12.165
X-107.859 Y-12.161
X-107.895 Y-12.172
X-107.925 Y-12.196
X-107.944 Y-12.228
X-107.949 Y-12.266
X-107.94 Y-12.303
X-107.918 Y-12.334
X-107.898 Y-12.352
X-107.868 Y-12.372
X-107.832 Y-12.379
X-107.796 Y-12.373
X-107.765 Y-12.355
X-107.742 Y-12.327
X-107.73 Y-12.293
X-107.732 Y-12.257
X-107.746 Y-12.224
X-107.758 Y-12.208
X-107.774 Y-12.193
X-107.805 Y-12.167
X-107.865 Y-12.122
X-108.011 Y-12.088
X-108.161 Y-12.091
X-108.308 Y-12.122
X-108.446 Y-12.182
X-108.567 Y-12.27
X-108.592 Y-12.3
X-108.655 Y-12.424
Y-12.563
X-108.592 Y-12.687
X-108.565 Y-12.708
X-108.533 Y-12.719
X-108.499 Y-12.718
X-108.467 Y-12.706
X-108.337 Y-12.63
X-107.822 Y-12.327
X-107.794 Y-12.303
X-107.776 Y-12.27
X-107.773 Y-12.233
X-107.783 Y-12.197
X-107.805 Y-12.167
X-107.979 Y-12.024
X-108.1 Y-11.935
X-108.249 Y-11.914
X-108.398 Y-11.931
X-108.539 Y-11.981
X-108.665 Y-12.062
X-108.768 Y-12.171
X-108.785 Y-12.205
X-108.818 Y-12.332
X-108.793 Y-12.461
X-108.715 Y-12.567
X-108.66 Y-12.616
X-108.592 Y-12.687
X-108.581 Y-12.7
X-108.508 Y-12.81
X-108.489 Y-12.84
X-108.465 Y-12.864
X-108.434 Y-12.879
X-108.401 Y-12.883
X-108.368 Y-12.875
X-108.339 Y-12.856
X-108.318 Y-12.829
X-108.262 Y-12.722
X-107.957 Y-12.146
X-107.946 Y-12.115
X-107.947 Y-12.081
X-107.958 Y-12.05
X-107.979 Y-12.024
X-108.085 Y-11.939
X-108.196 Y-11.855
X-108.326 Y-11.781
X-108.475 Y-11.765
X-108.622 Y-11.795
X-108.757 Y-11.861
X-108.873 Y-11.956
X-108.961 Y-12.077
X-108.967 Y-12.093
X-108.985 Y-12.214
X-108.953 Y-12.333
X-108.876 Y-12.428
X-108.848 Y-12.444
X-108.816 Y-12.449
X-108.784 Y-12.444
X-108.755 Y-12.429
X-108.68 Y-12.373
X-108.198 Y-12.014
X-108.173 Y-11.988
X-108.159 Y-11.954
Y-11.917
X-108.171 Y-11.883
X-108.196 Y-11.855
X-108.254 Y-11.818
X-108.455 Y-11.702
X-108.522 Y-11.667
X-108.67 Y-11.643
X-108.816 Y-11.674
X-108.949 Y-11.745
X-109.062 Y-11.843
X-109.143 Y-11.97
X-109.147 Y-11.984
X-109.156 Y-12.113
X-109.111 Y-12.234
X-109.018 Y-12.324
X-108.958 Y-12.362
X-108.931 Y-12.383
X-108.846 Y-12.453
X-108.715 Y-12.567
X-108.686 Y-12.584
X-108.652 Y-12.59
X-108.619 Y-12.584
X-108.589 Y-12.567
X-108.567 Y-12.541
X-108.554 Y-12.51
X-108.544 Y-12.457
X-108.41 Y-11.806
X-108.409 Y-11.776
X-108.416 Y-11.747
X-108.432 Y-11.721
X-108.455 Y-11.702
X-108.613 Y-11.61
X-108.634 Y-11.602
X-108.761 Y-11.568
X-108.908 Y-11.537
X-109.052 Y-11.581
X-109.176 Y-11.664
X-109.278 Y-11.775
X-109.343 Y-11.911
X-109.336 Y-12.03
X-109.284 Y-12.137
X-109.195 Y-12.215
X-109.162 Y-12.226
X-109.127 Y-12.224
X-109.095 Y-12.211
X-109.069 Y-12.188
X-108.711 Y-11.725
X-108.694 Y-11.69
X-108.691 Y-11.652
X-108.703 Y-11.615
X-108.727 Y-11.586
X-108.761 Y-11.568
X-109.015 Y-11.501
X-109.084 Y-11.487
X-109.233 Y-11.506
X-109.363 Y-11.581
X-109.466 Y-11.69
X-109.491 Y-11.743
X-109.517 Y-11.865
X-109.492 Y-11.986
X-109.42 Y-12.088
X-109.313 Y-12.151
X-109.279 Y-12.155
X-109.246 Y-12.147
X-109.217 Y-12.129
X-109.196 Y-12.102
X-108.956 Y-11.643
X-108.945 Y-11.61
X-108.947 Y-11.575
X-108.96 Y-11.543
X-108.984 Y-11.517
X-109.015 Y-11.501
X-109.1 Y-11.479
X-109.269 Y-11.459
X-109.344 Y-11.454
X-109.491 Y-11.484
X-109.608 Y-11.578
X-109.686 Y-11.706
X-109.694 Y-11.746
X-109.688 Y-11.894
X-109.612 Y-12.021
X-109.484 Y-12.096
X-109.449 Y-12.098
X-109.414 Y-12.088
X-109.386 Y-12.066
X-109.367 Y-12.036
X-109.192 Y-11.595
X-109.184 Y-11.56
X-109.19 Y-11.524
X-109.208 Y-11.493
X-109.235 Y-11.471
X-109.269 Y-11.459
X-109.438 Y-11.439
X-109.498 Y-11.433
X-109.573 Y-11.429
X-109.716 Y-11.474
X-109.824 Y-11.578
X-109.883 Y-11.716
X-109.884 Y-11.736
X-109.862 Y-11.869
X-109.785 Y-11.979
X-109.667 Y-12.044
X-109.629 Y-12.046
X-109.594 Y-12.034
X-109.565 Y-12.01
X-109.547 Y-11.977
X-109.417 Y-11.562
X-109.412 Y-11.528
X-109.419 Y-11.494
X-109.438 Y-11.465
X-109.465 Y-11.444
X-109.498 Y-11.433
X-109.607 Y-11.421
X-109.692 Y-11.415
X-109.842 Y-11.427
X-109.968 Y-11.507
X-110.048 Y-11.634
X-110.054 Y-11.668
X-110.052 Y-11.789
X-110.003 Y-11.899
X-109.914 Y-11.981
X-109.8 Y-12.021
X-109.764 Y-12.018
X-109.731 Y-12.002
X-109.706 Y-11.976
X-109.692 Y-11.942
X-109.606 Y-11.535
X-109.604 Y-11.502
X-109.614 Y-11.47
X-109.633 Y-11.443
X-109.66 Y-11.424
X-109.692 Y-11.415
X-109.777 Y-11.417
X-109.861 Y-11.421
X-109.946 Y-11.427
X-110.02 Y-11.439
X-110.087 Y-11.473
X-110.194 Y-11.578
X-110.204 Y-11.61
X-110.216 Y-11.741
X-110.171 Y-11.864
X-110.078 Y-11.956
X-109.955 Y-12
X-109.922 Y-11.997
X-109.892 Y-11.984
X-109.868 Y-11.962
X-109.852 Y-11.933
X-109.846 Y-11.901
X-109.843 Y-11.528
X-109.848 Y-11.496
X-109.862 Y-11.467
X-109.885 Y-11.445
X-109.914 Y-11.431
X-109.946 Y-11.427
X-110 Y-11.433
X-110.162 Y-11.458
X-110.198 Y-11.466
X-110.264 Y-11.503
X-110.313 Y-11.559
X-110.344 Y-11.698
X-110.307 Y-11.835
X-110.21 Y-11.94
X-110.076 Y-11.987
X-110.039 Y-11.982
X-110.006 Y-11.964
X-109.982 Y-11.935
X-109.971 Y-11.9
X-109.972 Y-11.863
X-110.052 Y-11.534
X-110.067 Y-11.501
X-110.093 Y-11.475
X-110.126 Y-11.46
X-110.162 Y-11.458
X-110.2 Y-11.464
X-110.284 Y-11.48
X-110.331 Y-11.493
X-110.366 Y-11.505
X-110.423 Y-11.555
X-110.494 Y-11.687
X-110.472 Y-11.804
X-110.405 Y-11.903
X-110.304 Y-11.967
X-110.186 Y-11.986
X-110.15 Y-11.976
X-110.121 Y-11.954
X-110.101 Y-11.923
X-110.094 Y-11.887
X-110.101 Y-11.851
X-110.213 Y-11.555
X-110.232 Y-11.524
X-110.26 Y-11.502
X-110.295 Y-11.491
X-110.331 Y-11.493
X-110.454 Y-11.528
X-110.524 Y-11.553
X-110.578 Y-11.605
X-110.61 Y-11.673
X-110.601 Y-11.8
X-110.536 Y-11.911
X-110.429 Y-11.981
X-110.302 Y-11.996
X-110.268 Y-11.984
X-110.24 Y-11.961
X-110.222 Y-11.93
X-110.217 Y-11.894
X-110.224 Y-11.859
X-110.337 Y-11.587
X-110.356 Y-11.557
X-110.384 Y-11.536
X-110.418 Y-11.526
X-110.454 Y-11.528
X-110.538 Y-11.553
X-110.623 Y-11.586
X-110.758 Y-11.651
X-110.817 Y-11.723
X-110.81 Y-11.768
X-110.769 Y-11.876
X-110.69 Y-11.961
X-110.585 Y-12.01
X-110.47 Y-12.015
X-110.436 Y-12.002
X-110.41 Y-11.979
X-110.393 Y-11.947
X-110.388 Y-11.912
X-110.396 Y-11.877
X-110.498 Y-11.641
X-110.518 Y-11.61
X-110.549 Y-11.589
X-110.586 Y-11.58
X-110.623 Y-11.586
X-110.707 Y-11.622
X-110.827 Y-11.686
X-110.877 Y-11.717
X-111.13 Y-11.908
X-111.167 Y-11.94
X-111.249 Y-12.024
X-111.315 Y-12.093
X-111.326 Y-12.109
X-111.331 Y-12.119
X-111.334 Y-12.13
X-111.337 Y-12.14
X-111.338 Y-12.151
Y-12.162
X-111.337 Y-12.172
X-111.335 Y-12.183
X-111.332 Y-12.193
X-111.326 Y-12.206
X-111.318 Y-12.219
X-111.3 Y-12.244
X-111.289 Y-12.254
X-111.278 Y-12.262
X-111.268 Y-12.268
X-111.257 Y-12.272
X-111.247 Y-12.275
X-111.236 Y-12.277
X-111.225
X-111.215
X-111.204 Y-12.275
X-111.194 Y-12.272
X-111.183 Y-12.268
X-111.173 Y-12.262
X-111.13 Y-12.236
X-111.041 Y-12.193
X-110.852 Y-12.109
X-110.792 Y-12.084
X-110.623 Y-12.045
X-110.533 Y-12.024
X-110.454 Y-12.013
X-110.284 Y-11.994
X-110.2 Y-11.987
X-110.115 Y-11.983
X-110.031 Y-11.991
X-109.946 Y-12.001
X-109.773 Y-12.024
X-109.692 Y-12.036
X-109.438 Y-12.109
X-109.301 Y-12.155
X-109.184 Y-12.221
X-109.018 Y-12.324
X-108.981 Y-12.337
X-108.943 Y-12.334
X-108.908 Y-12.317
X-108.882 Y-12.288
X-108.863 Y-12.254 Z-0.982
X-108.846 Y-12.226 Z-0.961
X-108.836 Y-12.208 Z-0.928
X-108.832 Y-12.201 Z-0.89
G0 Z2
X-111.869 Y-12.912
Z-0.79
G1 Z-0.89 F1000
X-111.87 Y-12.905 Z-0.928
X-111.873 Y-12.883 Z-0.961
X-111.877 Y-12.851 Z-0.982
X-111.882 Y-12.813 Z-0.99
G3 X-112.178 Y-12.086 I-1.568 J-0.213
G1 X-112.193 Y-12.067
X-112.22 Y-12.024
X-112.23 Y-12.007
X-112.247 Y-11.974
X-112.26 Y-11.94
X-112.273 Y-11.893
X-112.285 Y-11.858
X-112.385 Y-11.746
X-112.52 Y-11.681
X-112.668 Y-11.655
X-112.818 Y-11.662
X-112.964 Y-11.696
X-113.031 Y-11.723
X-113.126 Y-11.784
X-113.191 Y-11.875
X-113.218 Y-11.984
X-113.22 Y-12.024
X-113.228 Y-12.268
X-113.22 Y-12.307
X-113.198 Y-12.339
X-113.164 Y-12.361
X-113.125 Y-12.367
X-113.086 Y-12.358
X-112.916 Y-12.28
X-112.328 Y-12.008
X-112.3 Y-11.989
X-112.28 Y-11.961
X-112.271 Y-11.928
X-112.273 Y-11.893
X-112.284 Y-11.855
X-112.291 Y-11.813
X-112.295 Y-11.771
X-112.302 Y-11.696
X-112.382 Y-11.569
X-112.508 Y-11.489
X-112.652 Y-11.447
X-112.802 Y-11.436
X-112.951 Y-11.453
X-112.993 Y-11.466
X-113.096 Y-11.524
X-113.169 Y-11.616
X-113.201 Y-11.73
X-113.215 Y-11.94
X-113.218 Y-11.984
X-113.212 Y-12.021
X-113.192 Y-12.054
X-113.162 Y-12.076
X-113.126 Y-12.086
X-113.089 Y-12.082
X-113 Y-12.055
X-112.365 Y-11.86
X-112.338 Y-11.847
X-112.316 Y-11.826
X-112.301 Y-11.8
X-112.295 Y-11.771
X-112.292 Y-11.686
X-112.285 Y-11.602
X-112.283 Y-11.527
X-112.352 Y-11.394
X-112.469 Y-11.3
X-112.607 Y-11.241
X-112.754 Y-11.212
X-112.904 Y-11.214
X-112.951 Y-11.225
X-113.064 Y-11.278
X-113.146 Y-11.373
X-113.182 Y-11.493
X-113.201 Y-11.73
X-113.195 Y-11.766
X-113.178 Y-11.797
X-113.151 Y-11.82
X-113.117 Y-11.833
X-113.081 Y-11.832
X-113.012 Y-11.818
X-112.365 Y-11.688
X-112.336 Y-11.677
X-112.311 Y-11.658
X-112.294 Y-11.632
X-112.285 Y-11.602
X-112.271 Y-11.433
X-112.268 Y-11.358
X-112.318 Y-11.217
X-112.425 Y-11.111
X-112.556 Y-11.038
X-112.699 Y-10.995
X-112.849 Y-10.984
X-112.907 Y-10.993
X-113.029 Y-11.041
X-113.119 Y-11.136
X-113.16 Y-11.261
X-113.18 Y-11.466
X-113.182 Y-11.493
X-113.177 Y-11.527
X-113.162 Y-11.558
X-113.137 Y-11.581
X-113.105 Y-11.595
X-113.071 Y-11.597
X-113.008 Y-11.59
X-112.36 Y-11.52
X-112.328 Y-11.511
X-112.3 Y-11.492
X-112.281 Y-11.465
X-112.271 Y-11.433
X-112.251 Y-11.218
X-112.248 Y-11.143
X-112.305 Y-11.004
X-112.41 Y-10.897
X-112.54 Y-10.822
X-112.683 Y-10.775
X-112.832 Y-10.764
X-112.876 Y-10.77
X-112.994 Y-10.814
X-113.085 Y-10.903
X-113.13 Y-11.021
X-113.142 Y-11.095
X-113.152 Y-11.18
X-113.16 Y-11.261
X-113.156 Y-11.295
X-113.141 Y-11.326
X-113.117 Y-11.35
X-113.086 Y-11.364
X-113.052 Y-11.367
X-112.989 Y-11.361
X-112.342 Y-11.305
X-112.309 Y-11.296
X-112.281 Y-11.277
X-112.261 Y-11.25
X-112.251 Y-11.218
X-112.248 Y-11.18
X-112.23 Y-11.037
X-112.224 Y-10.962
X-112.265 Y-10.818
X-112.362 Y-10.703
X-112.485 Y-10.618
X-112.625 Y-10.563
X-112.773 Y-10.542
X-112.824 Y-10.547
X-112.948 Y-10.586
X-113.044 Y-10.674
X-113.094 Y-10.794
X-113.102 Y-10.842
X-113.13 Y-11.021
X-113.128 Y-11.055
X-113.115 Y-11.086
X-113.093 Y-11.111
X-113.063 Y-11.128
X-113.029 Y-11.133
X-112.973 Y-11.132
X-112.327 Y-11.121
X-112.293 Y-11.114
X-112.263 Y-11.097
X-112.242 Y-11.07
X-112.23 Y-11.037
X-112.216 Y-10.926
X-112.204 Y-10.842
X-112.196 Y-10.767
X-112.228 Y-10.621
X-112.319 Y-10.501
X-112.439 Y-10.411
X-112.576 Y-10.35
X-112.724 Y-10.325
X-112.775 Y-10.328
X-112.899 Y-10.362
X-112.998 Y-10.446
X-113.052 Y-10.563
X-113.058 Y-10.588
X-113.094 Y-10.794
X-113.093 Y-10.827
X-113.08 Y-10.859
X-113.059 Y-10.884
X-113.03 Y-10.901
X-112.997 Y-10.908
X-112.95 Y-10.909
X-112.304 Y-10.922
X-112.27 Y-10.917
X-112.239 Y-10.9
X-112.216 Y-10.874
X-112.204 Y-10.842
X-112.169 Y-10.626
X-112.16 Y-10.552
X-112.196 Y-10.406
X-112.286 Y-10.287
X-112.406 Y-10.196
X-112.543 Y-10.134
X-112.691 Y-10.109
X-112.726 Y-10.111
X-112.849 Y-10.145
X-112.947 Y-10.227
X-113.001 Y-10.342
X-113.046 Y-10.537
X-113.052 Y-10.563
X-113.053 Y-10.597
X-113.041 Y-10.63
X-113.02 Y-10.656
X-112.991 Y-10.674
X-112.957 Y-10.681
X-112.915 Y-10.683
X-112.27 Y-10.706
X-112.236 Y-10.701
X-112.205 Y-10.685
X-112.182 Y-10.659
X-112.169 Y-10.626
X-112.162 Y-10.588
X-112.126 Y-10.419
X-112.115 Y-10.345
X-112.151 Y-10.2
X-112.24 Y-10.079
X-112.358 Y-9.986
X-112.494 Y-9.922
X-112.641 Y-9.895
X-112.672 Y-9.897
X-112.795 Y-9.93
X-112.893 Y-10.01
X-112.948 Y-10.124
X-113.001 Y-10.342
X-113.002 Y-10.377
X-112.991 Y-10.409
X-112.97 Y-10.436
X-112.942 Y-10.454
X-112.908 Y-10.462
X-112.875 Y-10.463
X-112.228 Y-10.495
X-112.194 Y-10.491
X-112.164 Y-10.476
X-112.14 Y-10.451
X-112.126 Y-10.419
X-112.109 Y-10.335
X-112.088 Y-10.25
X-112.074 Y-10.177
X-112.085 Y-10.027
X-112.162 Y-9.899
X-112.272 Y-9.797
X-112.403 Y-9.724
X-112.548 Y-9.685
X-112.585 Y-9.684
X-112.705 Y-9.706
X-112.806 Y-9.774
X-112.872 Y-9.877
X-112.917 Y-9.997
X-112.948 Y-10.124
X-112.95 Y-10.157
X-112.94 Y-10.189
X-112.921 Y-10.216
X-112.894 Y-10.235
X-112.862 Y-10.244
X-112.836 Y-10.247
X-112.196 Y-10.322
X-112.161 Y-10.32
X-112.129 Y-10.306
X-112.103 Y-10.282
X-112.088 Y-10.25
X-112.046 Y-10.082
X-112.034 Y-10.035
X-112.018 Y-9.962
X-112.037 Y-9.813
X-112.115 Y-9.685
X-112.226 Y-9.584
X-112.357 Y-9.511
X-112.502 Y-9.475
X-112.512
X-112.628 Y-9.499
X-112.726 Y-9.565
X-112.79 Y-9.665
X-112.853 Y-9.828
X-112.872 Y-9.877
X-112.877 Y-9.912
X-112.87 Y-9.946
X-112.852 Y-9.976
X-112.825 Y-9.997
X-112.792 Y-10.008
X-112.78 Y-10.01
X-112.144 Y-10.105
X-112.109 Y-10.104
X-112.076 Y-10.091
X-112.05 Y-10.067
X-112.034 Y-10.035
X-111.978 Y-9.828
X-111.961 Y-9.755
X-111.981 Y-9.606
X-112.059 Y-9.478
X-112.169 Y-9.376
X-112.299 Y-9.302
X-112.363 Y-9.287
X-112.503 Y-9.288
X-112.627 Y-9.351
X-112.709 Y-9.464
X-112.79 Y-9.665
X-112.796 Y-9.699
X-112.789 Y-9.733
X-112.772 Y-9.763
X-112.745 Y-9.786
X-112.712 Y-9.797
X-112.089 Y-9.897
X-112.053
X-112.02 Y-9.883
X-111.994 Y-9.86
X-111.978 Y-9.828
X-111.954 Y-9.744
X-111.923 Y-9.659
X-111.897 Y-9.589
X-111.898 Y-9.439
X-111.966 Y-9.305
X-112.067 Y-9.194
X-112.196 Y-9.117
X-112.34 Y-9.074
X-112.449 Y-9.095
X-112.543 Y-9.155
X-112.608 Y-9.245
X-112.684 Y-9.406
X-112.709 Y-9.464
X-112.715 Y-9.498
X-112.709 Y-9.532
X-112.692 Y-9.563
X-112.666 Y-9.585
X-112.633 Y-9.597
X-112.03 Y-9.711
X-111.998
X-111.968 Y-9.702
X-111.942 Y-9.684
X-111.923 Y-9.659
X-111.881 Y-9.575
X-111.838 Y-9.49
X-111.807 Y-9.422
X-111.803 Y-9.272
X-111.862 Y-9.134
X-111.959 Y-9.019
X-112.081 Y-8.932
X-112.136 Y-8.911
X-112.272 Y-8.894
X-112.402 Y-8.939
X-112.498 Y-9.038
X-112.517 Y-9.068
X-112.564 Y-9.152
X-112.608 Y-9.245
X-112.616 Y-9.278
X-112.613 Y-9.312
X-112.598 Y-9.343
X-112.573 Y-9.367
X-112.542 Y-9.382
X-111.951 Y-9.538
X-111.918 Y-9.541
X-111.886 Y-9.534
X-111.859 Y-9.516
X-111.838 Y-9.49
X-111.752 Y-9.321
X-111.721 Y-9.253
X-111.705 Y-9.104
X-111.758 Y-8.963
X-111.848 Y-8.843
X-111.969 Y-8.755
X-112.018 Y-8.735
X-112.155 Y-8.713
X-112.286 Y-8.755
X-112.385 Y-8.851
X-112.415 Y-8.899
X-112.498 Y-9.038
X-112.51 Y-9.071
X-112.509 Y-9.106
X-112.496 Y-9.138
X-112.473 Y-9.165
X-112.442 Y-9.181
X-111.87 Y-9.368
X-111.836 Y-9.373
X-111.802 Y-9.366
X-111.773 Y-9.348
X-111.752 Y-9.321
X-111.708 Y-9.237
X-111.662 Y-9.152
X-111.626 Y-9.087
X-111.602 Y-8.939
X-111.648 Y-8.796
X-111.735 Y-8.673
X-111.854 Y-8.582
X-111.888 Y-8.566
X-112.016 Y-8.541
X-112.142 Y-8.573
X-112.243 Y-8.654
X-112.304 Y-8.73
X-112.362 Y-8.815
X-112.385 Y-8.851
X-112.397 Y-8.884
X-112.398 Y-8.919
X-112.385 Y-8.952
X-112.363 Y-8.979
X-112.332 Y-8.996
X-111.778 Y-9.19
X-111.746 Y-9.196
X-111.713 Y-9.191
X-111.685 Y-9.176
X-111.662 Y-9.152
X-111.638 Y-9.114
X-111.553 Y-9.007
X-111.509 Y-8.947
X-111.478 Y-8.8
X-111.514 Y-8.654
X-111.593 Y-8.527
X-111.706 Y-8.427
X-111.735 Y-8.413
X-111.86 Y-8.38
X-111.987 Y-8.403
X-112.093 Y-8.478
X-112.146 Y-8.536
X-112.167 Y-8.561
X-112.243 Y-8.654
X-112.259 Y-8.686
X-112.263 Y-8.722
X-112.253 Y-8.757
X-112.232 Y-8.786
X-112.202 Y-8.806
X-111.667 Y-9.033
X-111.637 Y-9.04
X-111.606 Y-9.038
X-111.577 Y-9.027
X-111.553 Y-9.007
X-111.443 Y-8.873
X-111.399 Y-8.813
X-111.35 Y-8.672
X-111.374 Y-8.524
X-111.443 Y-8.391
X-111.549 Y-8.284
X-111.571 Y-8.271
X-111.69 Y-8.232
X-111.815 Y-8.245
X-111.923 Y-8.307
X-111.976 Y-8.355
X-112.015 Y-8.392
X-112.093 Y-8.478
X-112.111 Y-8.509
X-112.117 Y-8.544
X-112.11 Y-8.579
X-112.091 Y-8.609
X-112.063 Y-8.631
X-111.565 Y-8.896
X-111.534 Y-8.906
X-111.501
X-111.469 Y-8.894
X-111.443 Y-8.873
X-111.3 Y-8.699
X-111.252 Y-8.641
X-111.221 Y-8.494
