%
(1001)
(T1  D=1 CR=0 - ZMIN=-2 - flat end mill)
G90 G94
G17
G21
G28 G91 Z0
G90

(Clear 15)
M9
T1 M6
S5000 M3
G54
M8
G0 X-120.974 Y-9.475
Z12
Z2
Z0.5
G3 X-120.49 Y-9.599 Z0.29 I0.242 J-0.062 F333.3
X-120.974 Y-9.475 Z0.079 I-0.242 J0.062
X-120.49 Y-9.599 Z-0.131 I0.242 J-0.062
X-120.974 Y-9.475 Z-0.342 I-0.242 J0.062
X-120.49 Y-9.599 Z-0.552 I0.242 J-0.062
X-120.974 Y-9.475 Z-0.763 I-0.242 J0.062
X-120.764 Y-9.785 Z-0.876 I0.242 J-0.062
X-120.482 Y-9.537 Z-0.99 I0.031 J0.248
X-120.982 I-0.25
X-120.482 I0.25
G1 X-120.445 Y-9.392 F1000
X-120.458 Y-9.318
X-120.495 Y-9.253
X-120.602 Y-9.147
X-120.747 Y-9.108
X-120.895 Y-9.129
X-121.026 Y-9.203
X-121.122 Y-9.318
X-121.174 Y-9.458
X-121.176 Y-9.608
X-121.129 Y-9.751
X-121.037 Y-9.869
X-120.911 Y-9.951
X-120.765 Y-9.987
X-120.616 Y-9.973
X-120.48 Y-9.911
X-120.371 Y-9.807
X-120.293 Y-9.679
X-120.243 Y-9.538
X-120.232 Y-9.388
X-120.267 Y-9.242
X-120.338 Y-9.11
X-120.446 Y-9.006
X-120.577 Y-8.933
X-120.723 Y-8.9
X-120.873 Y-8.907
X-120.908 Y-8.917
X-120.959 Y-8.936
X-121.006 Y-8.965
X-121.047 Y-9.002
X-121.108 Y-9.068
X-121.181 Y-9.132
X-121.288 Y-9.237
X-121.357 Y-9.37
X-121.388 Y-9.517
X-121.383 Y-9.667
X-121.339 Y-9.81
X-121.32 Y-9.843
X-121.291 Y-9.885
X-121.254 Y-9.921
X-121.212 Y-9.951
X-121.174 Y-9.962
X-121.135 Y-9.958
X-121.1 Y-9.939
X-121.076 Y-9.908
X-121.065 Y-9.87
X-121.058 Y-9.768
X-121.018 Y-9.217
X-121.022 Y-9.179
X-121.041 Y-9.145
X-121.071 Y-9.121
X-121.108 Y-9.11
X-121.147 Y-9.114
X-121.181 Y-9.132
X-121.282 Y-9.219
X-121.399 Y-9.303
X-121.517 Y-9.396
X-121.574 Y-9.534
X-121.579 Y-9.588
X-121.566 Y-9.702
X-121.512 Y-9.803
X-121.424 Y-9.876
X-121.315 Y-9.911
X-121.28 Y-9.908
X-121.249 Y-9.893
X-121.225 Y-9.869
X-121.21 Y-9.837
X-121.207 Y-9.803
X-121.244 Y-9.378
X-121.253 Y-9.344
X-121.272 Y-9.316
X-121.3 Y-9.296
X-121.333 Y-9.287
X-121.367 Y-9.289
X-121.399 Y-9.303
X-121.536 Y-9.399
X-121.587 Y-9.431
X-121.649 Y-9.473
X-121.689 Y-9.536
X-121.7 Y-9.667
X-121.65 Y-9.787
X-121.551 Y-9.873
X-121.425 Y-9.904
X-121.387 Y-9.896
X-121.356 Y-9.875
X-121.335 Y-9.843
X-121.327 Y-9.806
X-121.334 Y-9.768
X-121.445 Y-9.482
X-121.462 Y-9.453
X-121.489 Y-9.431
X-121.521 Y-9.42
X-121.555 Y-9.419
X-121.587 Y-9.431
X-121.621 Y-9.451
X-121.705 Y-9.489
X-121.739 Y-9.506
X-121.79 Y-9.561
X-121.803 Y-9.681
X-121.759 Y-9.795
X-121.668 Y-9.875
X-121.55 Y-9.904
X-121.517 Y-9.897
X-121.488 Y-9.88
X-121.467 Y-9.854
X-121.455 Y-9.822
X-121.454 Y-9.789
X-121.465 Y-9.757
X-121.581 Y-9.536
X-121.603 Y-9.508
X-121.634 Y-9.489
X-121.67 Y-9.483
X-121.705 Y-9.489
X-121.79 Y-9.525
X-121.824 Y-9.54
X-121.882 Y-9.589
X-121.898 Y-9.698
X-121.86 Y-9.802
X-121.778 Y-9.877
X-121.67 Y-9.904
X-121.642 Y-9.899
X-121.615 Y-9.886
G3 X-121.79 Y-9.525 I-0.11 J0.169
G1 X-121.875 Y-9.557
X-121.903 Y-9.567
X-121.938 Y-9.581
X-121.987 Y-9.638
X-121.992 Y-9.733
X-121.955 Y-9.82
X-121.882 Y-9.882
X-121.79 Y-9.904
X-121.761 Y-9.898
X-121.736 Y-9.884
G3 X-121.903 Y-9.567 I-0.114 J0.142
G1 X-122.006 Y-9.602
X-122.041 Y-9.616
X-122.086 Y-9.676
X-122.078 Y-9.785
X-122.009 Y-9.871
X-121.905 Y-9.904
X-121.88 Y-9.899
X-121.857 Y-9.886
G3 X-122.006 Y-9.602 I-0.101 J0.128
G1 X-122.09 Y-9.63
X-122.125 Y-9.644
X-122.173 Y-9.702
X-122.162 Y-9.799
X-122.1 Y-9.875
X-122.005 Y-9.904
X-121.985 Y-9.9
X-121.967 Y-9.891
G3 X-122.09 Y-9.63 I-0.083 J0.12
G1 X-122.128 Y-9.643
X-122.171 Y-9.652
X-122.208 Y-9.661
X-122.256 Y-9.719
X-122.246 Y-9.808
X-122.188 Y-9.878
X-122.102 Y-9.904
X-122.081 Y-9.899
X-122.063 Y-9.889
G3 X-122.171 Y-9.652 I-0.085 J0.104
G1 X-122.26 Y-9.67
X-122.298 Y-9.678
X-122.344 Y-9.689
X-122.37 Y-9.696
X-122.357 Y-9.797
X-122.29 Y-9.875
X-122.192 Y-9.904
X-122.168 Y-9.897
X-122.148 Y-9.881
X-122.136 Y-9.858
X-122.135 Y-9.833
G3 X-122.344 Y-9.689 I-0.177 J-0.032
G1 X-122.382 Y-9.697
X-122.396 Y-9.703
X-122.41 Y-9.711
X-122.427 Y-9.728
X-122.438 Y-9.744
X-122.443 Y-9.754
X-122.447 Y-9.765
X-122.45 Y-9.785
G0 Z2
X-122.447 Y-9.765
Z0.6
G1 Z0.5 F1000
Z-0.99 F333.3
X-122.449 Y-9.775 F1000
X-122.45 Y-9.786
X-122.451 Y-9.807
X-122.45 Y-9.818
X-122.441 Y-9.846
X-122.424 Y-9.863
X-122.4 Y-9.872
X-122.375 Y-9.87
X-122.35 Y-9.856
X-122.336 Y-9.831
X-122.335 Y-9.802
X-122.347 Y-9.777
X-122.371 Y-9.76
X-122.399 Y-9.757
X-122.426 Y-9.767
X-122.444 Y-9.79
X-122.45 Y-9.818
X-122.448 Y-9.828
X-122.441 Y-9.846
X-122.431 Y-9.863
X-122.419 Y-9.877
X-122.407 Y-9.887
X-122.394 Y-9.894
X-122.382 Y-9.899
X-122.372 Y-9.901
X-122.361 Y-9.903
X-122.128 Y-9.904
X-121.452
X-121.367 Y-9.905
X-121.302 Y-9.913
X-121.272 Y-9.919
X-121.261 Y-9.922
X-121.012 Y-10.067
X-120.995 Y-10.082
X-120.938 Y-10.13
X-120.797 Y-10.18
X-120.647 Y-10.187
X-120.5 Y-10.157
X-120.364 Y-10.093
X-120.247 Y-10
X-120.203 Y-9.949
X-120.165 Y-9.89
X-120.141 Y-9.824
X-120.132 Y-9.755
Y-9.275
X-120.14 Y-9.125
X-120.195 Y-8.986
X-120.288 Y-8.868
X-120.407 Y-8.777
X-120.543 Y-8.713
X-120.591 Y-8.701
X-120.708 Y-8.697
X-120.817 Y-8.737
X-120.903 Y-8.817
X-120.918 Y-8.853
Y-8.892
X-120.904 Y-8.928
X-120.876 Y-8.956
X-120.762 Y-9.033
X-120.288 Y-9.354
X-120.256 Y-9.369
X-120.221 Y-9.371
X-120.187 Y-9.361
X-120.159 Y-9.339
X-120.14 Y-9.309
X-120.132 Y-9.275
Y-8.937
X-120.136 Y-8.862
X-120.194 Y-8.724
X-120.294 Y-8.613
X-120.422 Y-8.534
X-120.455 Y-8.523
X-120.588 Y-8.512
X-120.712 Y-8.56
X-120.804 Y-8.657
X-120.814 Y-8.687
X-120.815 Y-8.72
X-120.805 Y-8.751
X-120.785 Y-8.776
X-120.759 Y-8.795
X-120.275 Y-9.024
X-120.237 Y-9.033
X-120.198 Y-9.028
X-120.164 Y-9.007
X-120.141 Y-8.975
X-120.132 Y-8.937
Y-8.684
X-120.136 Y-8.609
X-120.202 Y-8.474
X-120.316 Y-8.377
X-120.346 Y-8.364
X-120.461 Y-8.342
X-120.576 Y-8.365
X-120.673 Y-8.431
X-120.737 Y-8.528
X-120.743 Y-8.561
X-120.739 Y-8.593
X-120.724 Y-8.622
X-120.7 Y-8.645
X-120.671 Y-8.659
X-120.26 Y-8.776
X-120.224 Y-8.78
X-120.189 Y-8.77
X-120.16 Y-8.749
X-120.14 Y-8.719
X-120.132 Y-8.684
Y-8.477
Y-8.43
Y-8.392
X-120.134 Y-8.365
X-120.221 Y-8.243
X-120.227 Y-8.24
X-120.273 Y-8.219
X-120.322 Y-8.206
X-120.373 Y-8.202
G3 X-120.535 Y-8.488 I0.007 J-0.193
X-120.132 Y-8.392 I0.188 J0.104
G1 X-120.133 Y-8.308
X-120.136 Y-8.288
X-120.145 Y-8.268
X-120.159 Y-8.248
X-120.189 Y-8.223
X-120.209 Y-8.211
X-120.228 Y-8.205
X-120.248 Y-8.202
X-120.483
X-120.538 Y-8.203
X-120.555 Y-8.206
X-120.572 Y-8.213
X-120.589 Y-8.223
X-120.606 Y-8.238
X-120.623 Y-8.255
X-120.633 Y-8.273
X-120.69 Y-8.413
X-120.751 Y-8.561
X-120.797 Y-8.646
X-120.847 Y-8.73
X-120.902 Y-8.815
X-120.944 Y-8.873
X-121.03 Y-8.984
X-121.047 Y-9.002
X-121.066 Y-9.035
X-121.071 Y-9.073
X-121.057 Y-9.302
X-121.014 Y-10.029
X-121.009 Y-10.056
X-120.995 Y-10.082
X-120.944 Y-10.147
X-120.933 Y-10.166
X-120.92 Y-10.192
X-120.883 Y-10.257
X-120.761 Y-10.344
X-120.614 Y-10.376
X-120.465 Y-10.365
X-120.322 Y-10.319
X-120.288 Y-10.301
X-120.205 Y-10.234
X-120.151 Y-10.142
X-120.132 Y-10.038
Y-9.755
X-120.14 Y-9.72
X-120.158 Y-9.691
X-120.186 Y-9.669
X-120.22 Y-9.659
X-120.255 Y-9.661
X-120.287 Y-9.674
X-120.346 Y-9.713
X-120.884 Y-10.066
X-120.909 Y-10.09
X-120.925 Y-10.122
X-120.929 Y-10.157
X-120.92 Y-10.192
X-120.89 Y-10.25
X-120.875 Y-10.293
X-120.864 Y-10.335
X-120.844 Y-10.407
X-120.738 Y-10.514
X-120.597 Y-10.564
X-120.447 Y-10.572
X-120.372 Y-10.557
X-120.249 Y-10.501
X-120.163 Y-10.396
X-120.132 Y-10.263
Y-10.038
X-120.139 Y-10.005
X-120.156 Y-9.976
X-120.182 Y-9.955
X-120.213 Y-9.943
X-120.247 Y-9.942
X-120.279 Y-9.953
X-120.811 Y-10.232
X-120.836 Y-10.25
X-120.854 Y-10.275
X-120.863 Y-10.304
X-120.864 Y-10.335
X-120.859 Y-10.359
X-120.852 Y-10.419
X-120.851 Y-10.466
X-120.846 Y-10.541
X-120.765 Y-10.667
X-120.635 Y-10.743
X-120.489 Y-10.775
X-120.339 Y-10.765
X-120.326 Y-10.76
X-120.225 Y-10.696
X-120.156 Y-10.597
X-120.132 Y-10.48
Y-10.263
X-120.141 Y-10.226
X-120.162 Y-10.195
X-120.194 Y-10.174
X-120.231 Y-10.167
X-120.268 Y-10.173
X-120.787 Y-10.374
X-120.82 Y-10.395
X-120.843 Y-10.427
X-120.851 Y-10.466
X-120.85 Y-10.504
Y-10.635
X-120.846 Y-10.71
X-120.778 Y-10.843
X-120.657 Y-10.931
X-120.514 Y-10.977
X-120.364 Y-10.979
X-120.351 Y-10.975
X-120.238 Y-10.915
X-120.16 Y-10.812
X-120.132 Y-10.686
Y-10.48
X-120.14 Y-10.444
X-120.16 Y-10.414
X-120.19 Y-10.393
X-120.225 Y-10.383
X-120.261 Y-10.387
X-120.779 Y-10.543
X-120.807 Y-10.556
X-120.829 Y-10.577
X-120.844 Y-10.604
X-120.85 Y-10.635
Y-10.842
X-120.846 Y-10.917
X-120.771 Y-11.047
X-120.65 Y-11.134
X-120.508 Y-11.183
X-120.358 Y-11.182
X-120.348 Y-11.179
X-120.236 Y-11.118
X-120.159 Y-11.016
X-120.132 Y-10.891
Y-10.686
X-120.14 Y-10.651
X-120.16 Y-10.621
X-120.19 Y-10.599
X-120.225 Y-10.59
X-120.261 Y-10.594
X-120.779 Y-10.749
X-120.807 Y-10.763
X-120.829 Y-10.784
X-120.844 Y-10.811
X-120.85 Y-10.842
Y-11.011
X-120.846 Y-11.086
X-120.792 Y-11.225
X-120.679 Y-11.324
X-120.54 Y-11.38
X-120.39 Y-11.391
X-120.368 Y-11.386
X-120.247 Y-11.329
X-120.162 Y-11.224
X-120.132 Y-11.093
Y-10.891
X-120.14 Y-10.857
X-120.158 Y-10.827
X-120.186 Y-10.806
X-120.22 Y-10.796
X-120.255 Y-10.797
X-120.773 Y-10.917
X-120.803 Y-10.929
X-120.827 Y-10.951
X-120.844 Y-10.979
X-120.85 Y-11.011
Y-11.226
X-120.846 Y-11.301
X-120.783 Y-11.437
X-120.667 Y-11.531
X-120.527 Y-11.586
X-120.377 Y-11.591
X-120.359 Y-11.586
X-120.242 Y-11.527
X-120.161 Y-11.424
X-120.132 Y-11.295
Y-11.093
X-120.14 Y-11.058
X-120.159 Y-11.028
X-120.188 Y-11.007
X-120.222 Y-10.997
X-120.257 Y-11
X-120.775 Y-11.133
X-120.804 Y-11.146
X-120.828 Y-11.167
X-120.844 Y-11.195
X-120.85 Y-11.226
Y-11.433
X-120.846 Y-11.508
X-120.78 Y-11.642
X-120.663 Y-11.737
X-120.523 Y-11.79
X-120.373 Y-11.793
X-120.357 Y-11.789
X-120.241 Y-11.729
X-120.161 Y-11.626
X-120.132 Y-11.499
Y-11.295
X-120.14 Y-11.261
X-120.159 Y-11.231
X-120.188 Y-11.209
X-120.222 Y-11.199
X-120.258 Y-11.202
X-120.776 Y-11.34
X-120.805 Y-11.353
X-120.828 Y-11.374
X-120.844 Y-11.402
X-120.85 Y-11.433
Y-11.648
X-120.846 Y-11.723
X-120.773 Y-11.854
X-120.653 Y-11.944
X-120.512 Y-11.994
X-120.362 Y-11.995
X-120.35 Y-11.991
X-120.237 Y-11.93
X-120.16 Y-11.828
X-120.132 Y-11.703
Y-11.499
X-120.14 Y-11.463
X-120.16 Y-11.433
X-120.189 Y-11.412
X-120.224 Y-11.402
X-120.26 Y-11.406
X-120.778 Y-11.556
X-120.806 Y-11.569
X-120.829 Y-11.59
X-120.844 Y-11.618
X-120.85 Y-11.648
Y-11.817
X-120.846 Y-11.892
X-120.795 Y-12.033
X-120.684 Y-12.134
X-120.545 Y-12.191
X-120.396 Y-12.203
X-120.371 Y-12.198
X-120.248 Y-12.141
X-120.163 Y-12.036
X-120.132 Y-11.904
Y-11.703
X-120.14 Y-11.669
X-120.158 Y-11.639
X-120.186 Y-11.618
X-120.219 Y-11.607
X-120.254 Y-11.609
X-120.772 Y-11.723
X-120.802 Y-11.735
X-120.827 Y-11.757
X-120.844 Y-11.785
X-120.85 Y-11.817
Y-12.024
X-120.846 Y-12.099
X-120.792 Y-12.239
X-120.679 Y-12.337
X-120.541 Y-12.395
X-120.391 Y-12.404
X-120.368 Y-12.399
X-120.246 Y-12.341
X-120.162 Y-12.237
X-120.132 Y-12.106
Y-11.904
X-120.14 Y-11.87
X-120.158 Y-11.84
X-120.186 Y-11.819
X-120.22 Y-11.809
X-120.255 Y-11.81
X-120.773 Y-11.93
X-120.803 Y-11.943
X-120.827 Y-11.964
X-120.844 Y-11.992
X-120.85 Y-12.024
Y-12.24
X-120.846 Y-12.315
X-120.783 Y-12.451
X-120.667 Y-12.545
X-120.527 Y-12.6
X-120.377 Y-12.604
X-120.359 Y-12.6
X-120.242 Y-12.54
X-120.161 Y-12.437
X-120.132 Y-12.309
Y-12.106
X-120.14 Y-12.071
X-120.159 Y-12.041
X-120.188 Y-12.02
X-120.222 Y-12.01
X-120.257 Y-12.012
X-120.775 Y-12.146
X-120.805 Y-12.159
X-120.828 Y-12.181
X-120.844 Y-12.208
X-120.85 Y-12.24
Y-12.447
X-120.846 Y-12.522
X-120.78 Y-12.656
X-120.663 Y-12.75
X-120.523 Y-12.803
X-120.373 Y-12.807
X-120.357 Y-12.802
X-120.241 Y-12.743
X-120.161 Y-12.639
X-120.132 Y-12.512
Y-12.309
X-120.14 Y-12.274
X-120.159 Y-12.244
X-120.188 Y-12.222
X-120.222 Y-12.213
X-120.258 Y-12.216
X-120.776 Y-12.353
X-120.805 Y-12.366
X-120.828 Y-12.388
X-120.844 Y-12.415
X-120.85 Y-12.447
Y-12.662
X-120.846 Y-12.737
X-120.773 Y-12.868
X-120.653 Y-12.958
X-120.512 Y-13.008
X-120.362
X-120.349 Y-13.005
X-120.237 Y-12.944
X-120.16 Y-12.842
X-120.132 Y-12.716
Y-12.512
X-120.14 Y-12.477
X-120.16 Y-12.446
X-120.189 Y-12.425
X-120.224 Y-12.416
X-120.26 Y-12.419
X-120.778 Y-12.569
X-120.806 Y-12.583
X-120.829 Y-12.604
X-120.844 Y-12.631
X-120.85 Y-12.662
Y-12.831
X-120.846 Y-12.906
X-120.795 Y-13.047
X-120.684 Y-13.147
X-120.545 Y-13.205
X-120.395 Y-13.217
X-120.371 Y-13.211
X-120.248 Y-13.155
X-120.163 Y-13.05
X-120.132 Y-12.918
Y-12.716
X-120.14 Y-12.682
X-120.158 Y-12.653
X-120.186 Y-12.631
X-120.219 Y-12.621
X-120.254 Y-12.622
X-120.772 Y-12.737
X-120.802 Y-12.749
X-120.827 Y-12.77
X-120.844 Y-12.799
X-120.85 Y-12.831
Y-13.038
X-120.846 Y-13.113
X-120.792 Y-13.253
X-120.679 Y-13.351
X-120.54 Y-13.409
X-120.391 Y-13.417
X-120.367 Y-13.412
X-120.246 Y-13.355
X-120.162 Y-13.25
X-120.132 Y-13.119
Y-12.918
X-120.14 Y-12.883
X-120.158 Y-12.854
X-120.186 Y-12.832
X-120.22 Y-12.822
X-120.255 Y-12.824
X-120.773 Y-12.944
X-120.803 Y-12.956
X-120.827 Y-12.978
X-120.844 Y-13.006
X-120.85 Y-13.038
Y-13.253
X-120.846 Y-13.328
X-120.783 Y-13.464
X-120.667 Y-13.559
X-120.527 Y-13.613
X-120.377 Y-13.618
X-120.359 Y-13.613
X-120.242 Y-13.554
X-120.161 Y-13.45
X-120.132 Y-13.322
Y-13.119
X-120.14 Y-13.084
X-120.159 Y-13.055
X-120.188 Y-13.033
X-120.222 Y-13.023
X-120.257 Y-13.026
X-120.775 Y-13.16
X-120.805 Y-13.173
X-120.828 Y-13.194
X-120.844 Y-13.222
X-120.85 Y-13.253
Y-13.46
X-120.846 Y-13.535
X-120.78 Y-13.67
X-120.663 Y-13.764
X-120.523 Y-13.817
X-120.373 Y-13.82
X-120.357 Y-13.816
X-120.241 Y-13.756
X-120.161 Y-13.653
X-120.132 Y-13.525
Y-13.322
X-120.14 Y-13.287
X-120.159 Y-13.257
X-120.188 Y-13.236
X-120.222 Y-13.226
X-120.258 Y-13.229
X-120.776 Y-13.367
X-120.805 Y-13.38
X-120.828 Y-13.401
X-120.844 Y-13.429
X-120.85 Y-13.46
Y-13.676
X-120.846 Y-13.75
X-120.773 Y-13.881
X-120.653 Y-13.971
X-120.512 Y-14.021
X-120.362 Y-14.022
X-120.349 Y-14.018
X-120.237 Y-13.957
X-120.16 Y-13.855
X-120.132 Y-13.73
Y-13.525
X-120.14 Y-13.49
X-120.16 Y-13.46
X-120.189 Y-13.439
X-120.224 Y-13.429
X-120.26 Y-13.433
X-120.778 Y-13.583
X-120.806 Y-13.596
X-120.829 Y-13.618
X-120.844 Y-13.645
X-120.85 Y-13.676
Y-13.845
X-120.846 Y-13.919
X-120.795 Y-14.06
X-120.683 Y-14.161
X-120.545 Y-14.218
X-120.395 Y-14.23
X-120.371 Y-14.225
X-120.248 Y-14.168
X-120.163 Y-14.063
X-120.132 Y-13.931
Y-13.73
X-120.14 Y-13.696
X-120.158 Y-13.666
X-120.186 Y-13.645
X-120.219 Y-13.634
X-120.254 Y-13.636
X-120.772 Y-13.75
X-120.802 Y-13.763
X-120.827 Y-13.784
X-120.844 Y-13.812
X-120.85 Y-13.845
Y-14.051
X-120.846 Y-14.126
X-120.792 Y-14.266
X-120.679 Y-14.364
X-120.54 Y-14.422
X-120.391 Y-14.431
X-120.367 Y-14.426
X-120.246 Y-14.368
X-120.162 Y-14.263
X-120.132 Y-14.133
Y-13.931
X-120.14 Y-13.897
X-120.158 Y-13.867
X-120.186 Y-13.846
X-120.22 Y-13.836
X-120.255 Y-13.837
X-120.773 Y-13.958
X-120.803 Y-13.97
X-120.827 Y-13.991
X-120.844 Y-14.02
X-120.85 Y-14.051
Y-14.267
X-120.846 Y-14.342
X-120.783 Y-14.478
X-120.667 Y-14.573
X-120.527 Y-14.627
X-120.377 Y-14.631
X-120.358 Y-14.626
X-120.242 Y-14.567
X-120.161 Y-14.464
X-120.132 Y-14.336
Y-14.133
X-120.14 Y-14.098
X-120.159 Y-14.068
X-120.188 Y-14.047
X-120.222 Y-14.037
X-120.257 Y-14.039
X-120.775 Y-14.174
X-120.805 Y-14.186
X-120.828 Y-14.208
X-120.844 Y-14.236
X-120.85 Y-14.267
Y-14.474
X-120.846 Y-14.549
X-120.78 Y-14.683
X-120.663 Y-14.777
X-120.523 Y-14.83
X-120.373 Y-14.833
X-120.357 Y-14.829
X-120.241 Y-14.77
X-120.161 Y-14.666
X-120.132 Y-14.539
Y-14.336
X-120.14 Y-14.301
X-120.159 Y-14.271
X-120.188 Y-14.249
X-120.222 Y-14.24
X-120.258 Y-14.243
X-120.776 Y-14.381
X-120.805 Y-14.394
X-120.828 Y-14.415
X-120.844 Y-14.443
X-120.85 Y-14.474
Y-14.689
X-120.846 Y-14.764
X-120.773 Y-14.895
X-120.653 Y-14.985
X-120.512 Y-15.035
X-120.362
X-120.349 Y-15.032
X-120.237 Y-14.971
X-120.16 Y-14.868
X-120.132 Y-14.743
Y-14.539
X-120.14 Y-14.504
X-120.16 Y-14.473
X-120.189 Y-14.452
X-120.224 Y-14.443
X-120.26 Y-14.446
X-120.778 Y-14.597
X-120.806 Y-14.61
X-120.829 Y-14.631
X-120.844 Y-14.659
X-120.85 Y-14.689
Y-14.858
X-120.846 Y-14.933
X-120.795 Y-15.074
X-120.683 Y-15.174
X-120.545 Y-15.232
X-120.395 Y-15.244
X-120.371 Y-15.238
X-120.248 Y-15.182
X-120.163 Y-15.077
X-120.132 Y-14.945
Y-14.743
X-120.14 Y-14.709
X-120.158 Y-14.68
X-120.186 Y-14.658
X-120.219 Y-14.648
X-120.254 Y-14.649
X-120.772 Y-14.764
X-120.802 Y-14.776
X-120.827 Y-14.798
X-120.844 Y-14.826
X-120.85 Y-14.858
Y-15.065
X-120.846 Y-15.14
X-120.792 Y-15.28
X-120.679 Y-15.378
X-120.54 Y-15.436
X-120.39 Y-15.444
X-120.367 Y-15.439
X-120.246 Y-15.382
X-120.162 Y-15.277
X-120.132 Y-15.146
Y-14.945
X-120.14 Y-14.91
X-120.158 Y-14.881
X-120.186 Y-14.859
X-120.22 Y-14.849
X-120.255 Y-14.851
X-120.773 Y-14.971
X-120.803 Y-14.984
X-120.827 Y-15.005
X-120.844 Y-15.033
X-120.85 Y-15.065
Y-15.28
X-120.846 Y-15.355
X-120.783 Y-15.491
X-120.667 Y-15.586
X-120.527 Y-15.64
X-120.377 Y-15.645
X-120.358 Y-15.64
X-120.241 Y-15.581
X-120.161 Y-15.477
X-120.132 Y-15.349
Y-15.146
X-120.14 Y-15.112
X-120.159 Y-15.082
X-120.188 Y-15.06
X-120.222 Y-15.05
X-120.257 Y-15.053
X-120.775 Y-15.187
X-120.805 Y-15.2
X-120.828 Y-15.221
X-120.844 Y-15.249
X-120.85 Y-15.28
Y-15.487
X-120.846 Y-15.562
X-120.78 Y-15.697
X-120.663 Y-15.791
X-120.523 Y-15.844
X-120.373 Y-15.847
X-120.357 Y-15.843
X-120.241 Y-15.783
X-120.161 Y-15.68
X-120.132 Y-15.552
Y-15.349
X-120.14 Y-15.314
X-120.159 Y-15.284
X-120.188 Y-15.263
X-120.222 Y-15.253
X-120.258 Y-15.256
X-120.776 Y-15.394
X-120.805 Y-15.407
X-120.828 Y-15.429
X-120.844 Y-15.456
X-120.85 Y-15.487
Y-15.703
X-120.846 Y-15.778
X-120.773 Y-15.908
X-120.653 Y-15.999
X-120.511 Y-16.048
X-120.361 Y-16.049
X-120.349 Y-16.045
X-120.237 Y-15.984
X-120.16 Y-15.882
X-120.132 Y-15.757
Y-15.552
X-120.14 Y-15.517
X-120.16 Y-15.487
X-120.189 Y-15.466
X-120.224 Y-15.456
X-120.26 Y-15.46
X-120.778 Y-15.61
X-120.806 Y-15.623
X-120.829 Y-15.645
X-120.844 Y-15.672
X-120.85 Y-15.703
Y-15.872
Y-15.91
Y-15.956
X-120.848 Y-16.002
X-120.783 Y-16.07
X-120.7 Y-16.114
X-120.607 Y-16.129
G3 X-120.463 Y-15.842 I-0.006 J0.183
X-120.85 Y-15.956 I-0.175 J-0.121
G1 Y-16.026
X-120.849 Y-16.036
X-120.846 Y-16.047
X-120.842 Y-16.058
X-120.837 Y-16.068
X-120.83 Y-16.079
X-120.817 Y-16.093
X-120.802 Y-16.107
X-120.789 Y-16.116
X-120.775 Y-16.123
X-120.764 Y-16.126
X-120.754 Y-16.128
X-120.733 Y-16.129
X-120.305
X-120.267
X-120.246
X-120.226 Y-16.126
X-120.199 Y-16.112
X-120.182 Y-16.087
X-120.178 Y-16.057
X-120.188 Y-16.028
X-120.21 Y-16.008
X-120.24 Y-16
X-120.269 Y-16.006
X-120.272 Y-16.007
X-120.294 Y-16.024
X-120.307 Y-16.05
Y-16.078
X-120.295 Y-16.104
X-120.273 Y-16.122
X-120.246 Y-16.129
X-120.235 Y-16.128
X-120.225 Y-16.126
X-120.214 Y-16.122
X-120.204 Y-16.118
X-120.183 Y-16.105
X-120.168 Y-16.095
X-120.153 Y-16.079
X-120.146 Y-16.068
X-120.14 Y-16.058
X-120.137 Y-16.047
X-120.134 Y-16.036
X-120.133 Y-16.026
X-120.132 Y-15.757
X-120.137 Y-15.729
X-120.15 Y-15.703
X-120.179 Y-15.687 Z-0.983
X-120.204 Y-15.672 Z-0.966
X-120.223 Y-15.661 Z-0.939
X-120.232 Y-15.66 Z-0.916
X-120.236 Z-0.89
G0 Z2
X-111.85 Y-12.215
Z0.5
G3 X-111.366 Y-12.339 Z0.29 I0.242 J-0.062 F333.3
X-111.85 Y-12.215 Z0.079 I-0.242 J0.062
X-111.366 Y-12.339 Z-0.131 I0.242 J-0.062
X-111.85 Y-12.215 Z-0.342 I-0.242 J0.062
X-111.366 Y-12.339 Z-0.552 I0.242 J-0.062
X-111.85 Y-12.215 Z-0.763 I-0.242 J0.062
X-111.639 Y-12.525 Z-0.876 I0.242 J-0.062
X-111.358 Y-12.277 Z-0.99 I0.031 J0.248
X-111.858 I-0.25
X-111.358 I0.25
G1 X-111.321 Y-12.132 F1000
X-111.334 Y-12.058
X-111.371 Y-11.993
X-111.478 Y-11.887
X-111.622 Y-11.848
X-111.771 Y-11.869
X-111.901 Y-11.943
X-111.942 Y-12.004
X-111.966 Y-12.071
X-111.974 Y-12.141
X-111.973 Y-12.278
Y-12.324
X-111.968 Y-12.474
X-111.889 Y-12.602
X-111.766 Y-12.687
X-111.62 Y-12.721
X-111.471 Y-12.703
X-111.337 Y-12.635
X-111.331 Y-12.628
X-111.287 Y-12.57
X-111.259 Y-12.503
X-111.248 Y-12.431
X-111.243 Y-12.278
X-111.25 Y-12.024
X-111.256 Y-11.95
X-111.31 Y-11.81
X-111.423 Y-11.711
X-111.564 Y-11.659
X-111.714 Y-11.649
X-111.735 Y-11.653
X-111.859 Y-11.71
X-111.946 Y-11.817
X-111.976 Y-11.95
X-111.974 Y-12.141
X-111.966 Y-12.175
X-111.948 Y-12.204
X-111.92 Y-12.225
X-111.887 Y-12.236
X-111.853 Y-12.234
X-111.329 Y-12.121
X-111.298 Y-12.109
X-111.272 Y-12.087
X-111.256 Y-12.057
X-111.25 Y-12.024
X-111.257 Y-11.809
X-111.263 Y-11.734
X-111.325 Y-11.598
X-111.443 Y-11.506
X-111.584 Y-11.453
X-111.734 Y-11.449
X-111.754 Y-11.455
X-111.872 Y-11.516
X-111.951 Y-11.621
X-111.978 Y-11.751
X-111.976 Y-11.95
X-111.968 Y-11.985
X-111.948 Y-12.015
X-111.92 Y-12.036
X-111.885 Y-12.045
X-111.85 Y-12.043
X-111.331 Y-11.905
X-111.301 Y-11.892
X-111.277 Y-11.87
X-111.262 Y-11.841
X-111.257 Y-11.809
X-111.263 Y-11.602
X-111.269 Y-11.527
X-111.336 Y-11.393
X-111.454 Y-11.3
X-111.595 Y-11.249
X-111.745 Y-11.248
X-111.765 Y-11.254
X-111.882 Y-11.317
X-111.96 Y-11.424
X-111.985 Y-11.555
X-111.979 Y-11.686
X-111.978 Y-11.751
X-111.97 Y-11.786
X-111.95 Y-11.815
X-111.921 Y-11.836
X-111.887 Y-11.845
X-111.851 Y-11.842
X-111.336 Y-11.698
X-111.307 Y-11.684
X-111.284 Y-11.662
X-111.268 Y-11.634
X-111.263 Y-11.602
X-111.269 Y-11.433
X-111.273 Y-11.387
X-111.284 Y-11.312
X-111.356 Y-11.181
X-111.477 Y-11.092
X-111.619 Y-11.045
X-111.769 Y-11.049
X-111.785 Y-11.054
X-111.898 Y-11.12
X-111.972 Y-11.228
X-111.994 Y-11.357
X-111.99 Y-11.433
X-111.985 Y-11.555
X-111.976 Y-11.589
X-111.955 Y-11.618
X-111.926 Y-11.639
X-111.891 Y-11.647
X-111.856 Y-11.643
X-111.344 Y-11.488
X-111.314 Y-11.473
X-111.291 Y-11.45
X-111.277 Y-11.42
X-111.273 Y-11.387
X-111.286 Y-11.264
X-111.295 Y-11.18
X-111.307 Y-11.106
X-111.379 Y-10.974
X-111.501 Y-10.887
X-111.645 Y-10.843
X-111.795 Y-10.851
X-111.805 Y-10.854
X-111.916 Y-10.923
X-111.987 Y-11.032
X-112.005 Y-11.161
X-111.994 Y-11.357
X-111.984 Y-11.391
X-111.963 Y-11.42
X-111.934 Y-11.439
X-111.899 Y-11.447
X-111.864 Y-11.443
X-111.364 Y-11.282
X-111.335 Y-11.267
X-111.312 Y-11.243
X-111.298 Y-11.213
X-111.295 Y-11.18
X-111.32 Y-10.964
X-111.333 Y-10.89
X-111.411 Y-10.762
X-111.536 Y-10.68
X-111.681 Y-10.642
X-111.831 Y-10.655
X-111.837 Y-10.658
X-111.941 Y-10.729
X-112.006 Y-10.836
X-112.022 Y-10.961
X-112.005 Y-11.161
X-111.995 Y-11.195
X-111.973 Y-11.224
X-111.942 Y-11.243
X-111.907 Y-11.25
X-111.871 Y-11.244
X-111.386 Y-11.066
X-111.357 Y-11.05
X-111.336 Y-11.026
X-111.323 Y-10.997
X-111.32 Y-10.964
X-111.341 Y-10.795
X-111.345 Y-10.757
X-111.359 Y-10.683
X-111.439 Y-10.557
X-111.566 Y-10.477
X-111.712 Y-10.441
X-111.861 Y-10.457
X-111.867 Y-10.46
X-111.971 Y-10.536
X-112.034 Y-10.648
X-112.044 Y-10.777
X-112.035 Y-10.842
X-112.025 Y-10.926
X-112.022 Y-10.961
X-112.011 Y-10.996
X-111.989 Y-11.024
X-111.958 Y-11.043
X-111.923 Y-11.049
X-111.887 Y-11.042
X-111.409 Y-10.86
X-111.381 Y-10.844
X-111.36 Y-10.819
X-111.348 Y-10.79
X-111.345 Y-10.757
X-111.367 Y-10.588
X-111.376 Y-10.548
X-111.397 Y-10.476
X-111.479 Y-10.35
X-111.608 Y-10.274
X-111.755 Y-10.242
X-111.903 Y-10.264
X-111.906 Y-10.265
X-112.005 Y-10.342
X-112.064 Y-10.453
X-112.072 Y-10.579
X-112.044 Y-10.777
X-112.031 Y-10.81
X-112.008 Y-10.837
X-111.977 Y-10.854
X-111.942 Y-10.86
X-111.907 Y-10.852
X-111.437 Y-10.66
X-111.408 Y-10.642
X-111.387 Y-10.615
X-111.376 Y-10.582
Y-10.548
X-111.387 Y-10.504
X-111.447 Y-10.289
X-111.471 Y-10.217
X-111.577 Y-10.111
X-111.718 Y-10.059
X-111.868 Y-10.052
X-111.89 Y-10.059
X-112.012 Y-10.131
X-112.087 Y-10.25
X-112.1 Y-10.39
X-112.072 Y-10.579
X-112.058 Y-10.614
X-112.032 Y-10.642
X-111.997 Y-10.658
X-111.959 Y-10.66
X-111.923 Y-10.647
X-111.494 Y-10.399
X-111.47 Y-10.378
X-111.453 Y-10.351
X-111.445 Y-10.32
X-111.447 Y-10.289
X-111.494 Y-10.12
X-111.518 Y-10.048
X-111.611 Y-9.93
X-111.747 Y-9.868
X-111.897 Y-9.867
X-111.924 Y-9.875
X-112.049 Y-9.95
X-112.124 Y-10.076
X-112.13 Y-10.222
X-112.108 Y-10.335
X-112.1 Y-10.39
X-112.086 Y-10.425
X-112.06 Y-10.452
X-112.026 Y-10.469
X-111.988 Y-10.471
X-111.953 Y-10.459
X-111.543 Y-10.23
X-111.518 Y-10.21
X-111.5 Y-10.183
X-111.492 Y-10.152
X-111.494 Y-10.12
X-111.552 Y-9.913
X-111.553 Y-9.908
X-111.581 Y-9.839
X-111.684 Y-9.73
X-111.825 Y-9.681
X-111.975 Y-9.692
X-111.993 Y-9.7
X-112.102 Y-9.78
X-112.165 Y-9.9
X-112.169 Y-10.036
X-112.13 Y-10.222
X-112.114 Y-10.257
X-112.086 Y-10.284
X-112.05 Y-10.297
X-112.011 Y-10.296
X-111.976 Y-10.281
X-111.593 Y-10.014
X-111.566 Y-9.985
X-111.552 Y-9.948
X-111.553 Y-9.908
X-111.609 Y-9.744
X-111.625 Y-9.701
X-111.655 Y-9.632
X-111.769 Y-9.535
X-111.914 Y-9.498
X-111.961 Y-9.506
X-112.073 Y-9.549
X-112.158 Y-9.633
X-112.205 Y-9.743
Y-9.863
X-112.169 Y-10.036
X-112.156 Y-10.067
X-112.133 Y-10.091
X-112.104 Y-10.107
X-112.071 Y-10.113
X-112.038 Y-10.107
X-112.009 Y-10.091
X-111.658 Y-9.811
X-111.637 Y-9.788
X-111.624 Y-9.761
X-111.62 Y-9.731
X-111.625 Y-9.701
X-111.641 Y-9.659
X-111.697 Y-9.517
X-111.729 Y-9.449
X-111.786 Y-9.4
X-111.923 Y-9.341
X-112.073 Y-9.348
X-112.185 Y-9.434
X-112.245 Y-9.559
X-112.242 Y-9.698
X-112.23 Y-9.744
X-112.205 Y-9.863
X-112.191 Y-9.894
X-112.167 Y-9.919
X-112.137 Y-9.935
X-112.102 Y-9.939
X-112.069 Y-9.931
X-112.04 Y-9.913
X-111.724 Y-9.624
X-111.701 Y-9.593
X-111.692 Y-9.555
X-111.697 Y-9.517
X-111.765 Y-9.348
X-111.796 Y-9.28
X-111.916 Y-9.19
X-112.065 Y-9.168
X-112.093 Y-9.177
X-112.205 Y-9.237
X-112.281 Y-9.337
X-112.31 Y-9.461
X-112.285 Y-9.585
X-112.252 Y-9.659
X-112.242 Y-9.698
X-112.227 Y-9.728
X-112.202 Y-9.752
X-112.171 Y-9.766
X-112.137 Y-9.769
X-112.104 Y-9.76
X-112.076 Y-9.74
X-111.788 Y-9.452
X-111.767 Y-9.421
X-111.759 Y-9.385
X-111.765 Y-9.348
X-111.832 Y-9.179
X-111.853 Y-9.133
X-111.906 Y-9.081
X-111.973 Y-9.046
X-112.12 Y-9.019
X-112.265 Y-9.06
X-112.355 Y-9.166
X-112.388 Y-9.301
X-112.356 Y-9.436
X-112.315 Y-9.519
X-112.285 Y-9.585
X-112.265 Y-9.612
X-112.238 Y-9.631
X-112.206 Y-9.641
X-112.173 Y-9.639
X-112.142 Y-9.627
X-112.117 Y-9.605
X-111.849 Y-9.276
X-111.832 Y-9.246
X-111.826 Y-9.213
X-111.832 Y-9.179
X-111.86 Y-9.11
X-111.873 Y-9.089
X-111.892 Y-9.065
X-111.963 Y-8.984
X-112.016 Y-8.93
X-112.154 Y-8.872
X-112.303 Y-8.887
X-112.311 Y-8.891
X-112.397 Y-8.964
X-112.45 Y-9.064
X-112.462 Y-9.177
X-112.431 Y-9.286
X-112.356 Y-9.436
X-112.335 Y-9.463
X-112.306 Y-9.481
X-112.273 Y-9.488
X-112.239 Y-9.484
X-112.208 Y-9.469
X-112.185 Y-9.444
X-111.958 Y-9.102
X-111.944 Y-9.073
X-111.941 Y-9.042
X-111.948 Y-9.011
X-111.963 Y-8.984
X-112.089 Y-8.841
X-112.141 Y-8.787
X-112.21 Y-8.756
X-112.284 Y-8.751
X-112.432 Y-8.777
X-112.509 Y-8.863
X-112.547 Y-8.972
X-112.54 Y-9.087
X-112.489 Y-9.191
X-112.465 Y-9.212
X-112.435 Y-9.224
X-112.403 Y-9.227
X-112.372 Y-9.219
X-112.345 Y-9.201
X-112.099 Y-8.978
X-112.076 Y-8.948
X-112.066 Y-8.911
X-112.071 Y-8.874
X-112.089 Y-8.841
X-112.186 Y-8.73
X-112.21 Y-8.702
X-112.23 Y-8.68
X-112.267 Y-8.648
X-112.274 Y-8.643
X-112.282 Y-8.645
X-112.315 Y-8.657
X-112.342 Y-8.68
X-112.359 Y-8.711
X-112.364 Y-8.746
X-112.357 Y-8.78
X-112.134 Y-9.336
X-112.089 Y-9.447
X-112.07 Y-9.478
X-112.04 Y-9.5
X-112.005 Y-9.51
X-111.968 Y-9.506
X-111.936 Y-9.489
X-111.911 Y-9.462
X-111.898 Y-9.428
Y-9.391
G3 X-112.23 Y-8.68 I-1.555 J-0.292
G1 X-112.25 Y-8.66
X-112.295 Y-8.627
X-112.326 Y-8.607
X-112.476 Y-8.615
X-112.497 Y-8.627
X-112.591 Y-8.714
X-112.64 Y-8.832
X-112.636 Y-8.96
X-112.578 Y-9.075
X-112.489 Y-9.191
X-112.459 Y-9.215
X-112.423 Y-9.226
X-112.384 Y-9.223
X-112.35 Y-9.206
X-112.325 Y-9.176
X-112.313 Y-9.14
X-112.258 Y-8.719
X-112.259 Y-8.685
X-112.272 Y-8.653
X-112.295 Y-8.627
X-112.384 Y-8.561
X-112.415 Y-8.54
X-112.488 Y-8.524
X-112.563 Y-8.534
X-112.665 Y-8.614
X-112.721 Y-8.732
X-112.719 Y-8.862
X-112.659 Y-8.978
X-112.578 Y-9.075
X-112.549 Y-9.098
X-112.513 Y-9.109
X-112.475 Y-9.105
X-112.442 Y-9.088
X-112.417 Y-9.06
X-112.404 Y-9.024
X-112.347 Y-8.655
X-112.348 Y-8.62
X-112.361 Y-8.587
X-112.384 Y-8.561
X-112.484 Y-8.487
X-112.515 Y-8.467
X-112.589 Y-8.453
X-112.663 Y-8.464
X-112.668 Y-8.466
X-112.761 Y-8.546
X-112.808 Y-8.659
X-112.8 Y-8.781
X-112.738 Y-8.886
X-112.659 Y-8.978
X-112.628 Y-9.001
X-112.592 Y-9.01
X-112.554 Y-9.005
X-112.521 Y-8.987
X-112.497 Y-8.958
X-112.486 Y-8.922
X-112.447 Y-8.577
X-112.449 Y-8.543
X-112.462 Y-8.512
X-112.484 Y-8.487
X-112.593 Y-8.407
X-112.634 Y-8.38
X-112.709 Y-8.377
X-112.781 Y-8.399
X-112.865 Y-8.487
X-112.901 Y-8.604
X-112.88 Y-8.724
X-112.806 Y-8.822
X-112.773 Y-8.838
X-112.735 Y-8.842
X-112.699 Y-8.831
X-112.67 Y-8.808
X-112.651 Y-8.775
X-112.561 Y-8.518
X-112.555 Y-8.488
X-112.559 Y-8.458
X-112.572 Y-8.43
X-112.593 Y-8.407
X-112.653 Y-8.363
X-112.664 Y-8.357
X-112.695 Y-8.345
X-112.738 Y-8.333
X-112.811 Y-8.315
X-112.883 Y-8.336
X-113.005 Y-8.423
X-113.03 Y-8.552
X-112.989 Y-8.677
X-112.892 Y-8.766
X-112.86 Y-8.776
X-112.825 Y-8.774
X-112.794 Y-8.761
X-112.769 Y-8.737
X-112.753 Y-8.707
X-112.674 Y-8.458
X-112.669 Y-8.42
X-112.68 Y-8.382
X-112.704 Y-8.352
X-112.738 Y-8.333
X-112.87 Y-8.295
X-112.942 Y-8.277
X-113.017 Y-8.289
X-113.102 Y-8.39
X-113.124 Y-8.519
X-113.079 Y-8.643
X-112.977 Y-8.726
X-112.907 Y-8.759
X-112.892 Y-8.766
X-112.857 Y-8.776
X-112.821 Y-8.773
X-112.788 Y-8.756
X-112.763 Y-8.729
X-112.75 Y-8.695
Y-8.659
X-112.802 Y-8.372
X-112.815 Y-8.338
X-112.838 Y-8.311
X-112.87 Y-8.295
X-112.992 Y-8.259
X-113.028 Y-8.25
X-113.103 Y-8.257
X-113.191 Y-8.351
X-113.217 Y-8.477
X-113.175 Y-8.599
X-113.076 Y-8.681
X-112.977 Y-8.726
X-112.941 Y-8.734
X-112.904 Y-8.727
X-112.872 Y-8.708
X-112.85 Y-8.678
X-112.84 Y-8.642
X-112.843 Y-8.605
X-112.927 Y-8.325
X-112.941 Y-8.297
X-112.963 Y-8.274
X-112.992 Y-8.259
X-113.115 Y-8.223
X-113.162 Y-8.212
X-113.233 Y-8.238
X-113.3 Y-8.336
X-113.312 Y-8.455
X-113.265 Y-8.565
X-113.171 Y-8.639
X-113.076 Y-8.681
X-113.038 Y-8.689
X-113 Y-8.681
X-112.968 Y-8.66
X-112.946 Y-8.628
X-112.938 Y-8.59
X-112.945 Y-8.552
X-113.053 Y-8.281
X-113.067 Y-8.256
X-113.089 Y-8.236
X-113.115 Y-8.223
X-113.161 Y-8.21
X-113.182 Y-8.205
X-113.203 Y-8.201
X-113.245 Y-8.197
X-113.283 Y-8.196
X-113.351 Y-8.227
X-113.407 Y-8.328
X-113.406 Y-8.444
X-113.349 Y-8.545
X-113.25 Y-8.605
X-113.21 Y-8.607
X-113.173 Y-8.594
X-113.144 Y-8.568
X-113.127 Y-8.532
X-113.126 Y-8.492
X-113.16 Y-8.281
X-113.17 Y-8.25
X-113.189 Y-8.225
X-113.215 Y-8.206
X-113.245 Y-8.197
X-113.33 Y-8.189
X-113.367 Y-8.187
X-113.439 Y-8.208
X-113.441 Y-8.21
X-113.5 Y-8.312
X-113.497 Y-8.429
X-113.435 Y-8.528
X-113.33 Y-8.581
X-113.25 Y-8.605
X-113.212 Y-8.607
X-113.175 Y-8.595
X-113.146 Y-8.57
X-113.128 Y-8.536
X-113.125 Y-8.497
X-113.136 Y-8.461
X-113.255 Y-8.241
X-113.274 Y-8.216
X-113.3 Y-8.198
X-113.33 Y-8.189
X-113.461 Y-8.176
X-113.499 Y-8.174
X-113.563 Y-8.213
X-113.604 Y-8.316
X-113.591 Y-8.426
X-113.525 Y-8.516
X-113.424 Y-8.563
X-113.33 Y-8.581
X-113.29 Y-8.579
X-113.255 Y-8.562
X-113.228 Y-8.533
X-113.215 Y-8.496
X-113.218 Y-8.456
X-113.235 Y-8.421
X-113.395 Y-8.214
X-113.424 Y-8.189
X-113.461 Y-8.176
X-113.546 Y-8.168
X-113.583 Y-8.166
X-113.652 Y-8.197
X-113.696 Y-8.298
X-113.685 Y-8.408
X-113.621 Y-8.498
X-113.521 Y-8.545
X-113.424 Y-8.563
X-113.385 Y-8.56
X-113.35 Y-8.543
X-113.324 Y-8.514
X-113.311 Y-8.477
X-113.313 Y-8.438
X-113.33 Y-8.403
X-113.479 Y-8.207
X-113.509 Y-8.181
X-113.546 Y-8.168
X-113.63 Y-8.16
X-113.668 Y-8.158
X-113.738 Y-8.184
X-113.786 Y-8.283
X-113.776 Y-8.393
X-113.713 Y-8.483
X-113.614 Y-8.529
X-113.521 Y-8.545
X-113.482 Y-8.543
X-113.447 Y-8.526
X-113.421 Y-8.498
X-113.408 Y-8.461
X-113.41 Y-8.422
X-113.426 Y-8.387
X-113.563 Y-8.2
X-113.581 Y-8.18
X-113.604 Y-8.167
X-113.63 Y-8.16
X-113.753 Y-8.148
X-113.786 Y-8.146
X-113.85 Y-8.186
X-113.886 Y-8.285
X-113.869 Y-8.389
X-113.804 Y-8.473
X-113.706 Y-8.514
X-113.614 Y-8.529
X-113.579 Y-8.527
X-113.547 Y-8.514
X-113.521 Y-8.491
X-113.505 Y-8.46
X-113.5 Y-8.426
X-113.508 Y-8.392
X-113.526 Y-8.363
X-113.692 Y-8.18
X-113.72 Y-8.158
X-113.753 Y-8.148
X-113.795 Y-8.144
X-113.838 Y-8.146
X-113.875 Y-8.151
X-113.942 Y-8.185
X-113.977 Y-8.285
X-113.957 Y-8.39
X-113.887 Y-8.47
X-113.787 Y-8.504
X-113.76 Y-8.501
X-113.736 Y-8.491
G3 X-113.838 Y-8.146 I-0.099 J0.158
G1 X-113.969 Y-8.159
X-114.006 Y-8.164
X-114.06 Y-8.216
X-114.09 Y-8.285
X-114.065 Y-8.403
X-113.977 Y-8.487
X-113.858 Y-8.507
X-113.827 Y-8.496
X-113.803 Y-8.474
G3 X-113.969 Y-8.159 I-0.154 J0.121
G1 X-114.053 Y-8.167
X-114.09 Y-8.172
X-114.123 Y-8.191
X-114.173 Y-8.247
X-114.199 Y-8.317
X-114.165 Y-8.431
X-114.073 Y-8.508
X-113.955 Y-8.521
X-113.922 Y-8.515
X-113.858 Y-8.507
X-113.829 Y-8.497
X-113.805 Y-8.477
X-113.79 Y-8.451
X-113.784 Y-8.42
G3 X-114.053 Y-8.167 I-0.253 J0.001
G1 X-114.176 Y-8.179
X-114.213 Y-8.184
X-114.273 Y-8.23
X-114.292 Y-8.346
X-114.248 Y-8.454
X-114.154 Y-8.525
X-114.038 Y-8.536
X-113.955 Y-8.521
X-113.92 Y-8.506
X-113.893 Y-8.48
X-113.878 Y-8.445
X-113.877 Y-8.407
X-113.891 Y-8.371
X-113.916 Y-8.343
X-114.11 Y-8.199
X-114.141 Y-8.183
X-114.176 Y-8.179
X-114.261 Y-8.187
X-114.298 Y-8.193
X-114.359 Y-8.235
X-114.384 Y-8.353
X-114.342 Y-8.466
X-114.247 Y-8.54
X-114.127 Y-8.552
X-114.038 Y-8.536
X-114.003 Y-8.521
X-113.976 Y-8.495
X-113.961 Y-8.46
X-113.96 Y-8.423
X-113.973 Y-8.387
X-113.997 Y-8.359
X-114.193 Y-8.208
X-114.225 Y-8.191
X-114.261 Y-8.187
X-114.345 Y-8.196
X-114.376 Y-8.201
X-114.441 Y-8.237
X-114.482 Y-8.3
X-114.481 Y-8.41
X-114.427 Y-8.505
X-114.334 Y-8.564
X-114.225 Y-8.57
X-114.127 Y-8.552
X-114.093 Y-8.538
X-114.066 Y-8.512
X-114.051 Y-8.478
X-114.049 Y-8.441
X-114.061 Y-8.406
X-114.084 Y-8.378
X-114.275 Y-8.219
X-114.308 Y-8.2
X-114.345 Y-8.196
X-114.43 Y-8.205
X-114.466 Y-8.215
X-114.501 Y-8.227
X-114.559 Y-8.275
X-114.593 Y-8.342
X-114.58 Y-8.453
X-114.516 Y-8.544
X-114.416 Y-8.594
X-114.304 Y-8.59
X-114.261 Y-8.577
X-114.225 Y-8.57
X-114.191 Y-8.556
X-114.165 Y-8.53
X-114.15 Y-8.496
X-114.148 Y-8.459
X-114.16 Y-8.424
X-114.184 Y-8.396
X-114.379 Y-8.235
X-114.405 Y-8.219
X-114.435 Y-8.213
X-114.466 Y-8.215
X-114.599 Y-8.253
X-114.634 Y-8.266
X-114.682 Y-8.324
X-114.706 Y-8.395
X-114.68 Y-8.505
X-114.605 Y-8.59
X-114.5 Y-8.631
X-114.387 Y-8.618
X-114.345 Y-8.602
X-114.304 Y-8.59
X-114.271 Y-8.571
X-114.247 Y-8.542
X-114.236 Y-8.506
X-114.239 Y-8.468
X-114.255 Y-8.435
X-114.283 Y-8.409
X-114.523 Y-8.265
X-114.56 Y-8.251
X-114.599 Y-8.253
X-114.684 Y-8.278
X-114.719 Y-8.29
X-114.779 Y-8.335
X-114.811 Y-8.403
X-114.789 Y-8.528
X-114.707 Y-8.625
X-114.589 Y-8.67
X-114.464 Y-8.649
X-114.43 Y-8.634
X-114.387 Y-8.618
X-114.357 Y-8.598
X-114.336 Y-8.569
X-114.326 Y-8.534
X-114.329 Y-8.499
X-114.345 Y-8.466
X-114.371 Y-8.442
X-114.605 Y-8.291
X-114.63 Y-8.279
X-114.656 Y-8.275
X-114.684 Y-8.278
X-114.823 Y-8.318
X-114.858 Y-8.331
X-114.901 Y-8.392
X-114.923 Y-8.464
X-114.888 Y-8.585
X-114.8 Y-8.675
X-114.68 Y-8.713
X-114.557 Y-8.691
X-114.464 Y-8.649
X-114.434 Y-8.627
X-114.415 Y-8.596
X-114.408 Y-8.56
X-114.415 Y-8.523
X-114.434 Y-8.492
X-114.463 Y-8.47
X-114.754 Y-8.326
X-114.788 Y-8.316
X-114.823 Y-8.318
X-114.899 Y-8.341
X-114.937 Y-8.353
X-114.953 Y-8.359
X-114.992 Y-8.388
X-115.024 Y-8.455
X-115.036 Y-8.529
X-114.991 Y-8.644
X-114.9 Y-8.727
X-114.781 Y-8.761
X-114.659 Y-8.737
X-114.557 Y-8.691
X-114.527 Y-8.668
X-114.507 Y-8.637
X-114.501 Y-8.6
X-114.508 Y-8.564
X-114.528 Y-8.532
X-114.558 Y-8.511
X-114.874 Y-8.362
X-114.9 Y-8.354
X-114.927 Y-8.353
X-114.953 Y-8.359
X-114.968 Y-8.369
X-115.08 Y-8.452
X-115.109 Y-8.475
X-115.134 Y-8.546
X-115.101 Y-8.679
X-115.005 Y-8.777
X-114.873 Y-8.813
X-114.741 Y-8.778
X-114.712 Y-8.751
X-114.696 Y-8.715
X-114.695 Y-8.676
X-114.71 Y-8.639
X-114.737 Y-8.611
X-114.967 Y-8.452
X-114.994 Y-8.439
X-115.023 Y-8.434
X-115.053 Y-8.439
X-115.08 Y-8.452
X-115.167 Y-8.516
X-115.196 Y-8.539
X-115.225 Y-8.609
X-115.223 Y-8.684
X-115.16 Y-8.799
X-115.048 Y-8.869
X-114.917 Y-8.875
X-114.799 Y-8.816
X-114.777 Y-8.786
X-114.767 Y-8.751
X-114.771 Y-8.714
X-114.788 Y-8.681
X-114.816 Y-8.657
X-115.059 Y-8.512
X-115.095 Y-8.499
X-115.132 Y-8.501
X-115.167 Y-8.516
X-115.255 Y-8.58
X-115.284 Y-8.604
X-115.314 Y-8.673
X-115.32 Y-8.747
X-115.249 Y-8.87
X-115.126 Y-8.942
X-114.984
X-114.861 Y-8.871
X-114.841 Y-8.84
X-114.834 Y-8.804
X-114.84 Y-8.768
X-114.858 Y-8.737
X-114.887 Y-8.714
X-115.151 Y-8.574
X-115.186 Y-8.564
X-115.222 Y-8.566
X-115.255 Y-8.58
X-115.343 Y-8.646
X-115.36 Y-8.658
X-115.379 Y-8.674
X-115.403 Y-8.703
X-115.416 Y-8.777
X-115.409 Y-8.852
X-115.342 Y-8.95
X-115.241 Y-9.013
X-115.123 Y-9.031
X-115.007 Y-9.001
X-114.913 Y-8.928
X-114.896 Y-8.894
X-114.892 Y-8.857
X-114.903 Y-8.821
X-114.926 Y-8.791
X-114.958 Y-8.772
X-115.281 Y-8.657
X-115.315 Y-8.651
X-115.349 Y-8.657
X-115.379 Y-8.674
X-115.445 Y-8.749
X-115.468 Y-8.778
X-115.497 Y-8.848
X-115.496 Y-8.923
X-115.445 Y-9.064
X-115.437 Y-9.071
X-115.333 Y-9.133
X-115.213 Y-9.148
X-115.096 Y-9.114
X-115.003 Y-9.037
X-114.937 Y-8.956
X-114.913 Y-8.928
X-114.897 Y-8.897
X-114.892 Y-8.862
X-114.899 Y-8.828
X-114.918 Y-8.799
X-114.946 Y-8.777
X-114.979 Y-8.767
X-115.36 Y-8.718
X-115.391 Y-8.719
X-115.42 Y-8.73
X-115.445 Y-8.749
X-115.53 Y-8.845
X-115.576 Y-8.903
X-115.596 Y-8.976
X-115.592 Y-9.051
X-115.537 Y-9.19
X-115.527 Y-9.198
X-115.423 Y-9.255
X-115.305 Y-9.268
X-115.191 Y-9.233
X-115.1 Y-9.157
X-115.003 Y-9.037
X-114.987 Y-9.006
X-114.983 Y-8.973
X-114.99 Y-8.939
X-115.008 Y-8.911
X-115.034 Y-8.889
X-115.066 Y-8.878
X-115.44 Y-8.815
X-115.473
X-115.504 Y-8.825
X-115.53 Y-8.845
X-115.635 Y-8.964
X-115.682 Y-9.023
X-115.698 Y-9.096
X-115.693 Y-9.171
X-115.636 Y-9.31
X-115.617 Y-9.326
X-115.5 Y-9.387
X-115.368 Y-9.391
X-115.248 Y-9.337
X-115.162 Y-9.237
X-115.15 Y-9.219
X-115.1 Y-9.157
X-115.084 Y-9.127
X-115.08 Y-9.093
X-115.087 Y-9.06
X-115.105 Y-9.031
X-115.131 Y-9.01
X-115.163 Y-8.998
X-115.546 Y-8.934
X-115.578
X-115.609 Y-8.945
X-115.635 Y-8.964
X-115.726 Y-9.068
X-115.744 Y-9.089
X-115.751 Y-9.1
X-115.756 Y-9.11
X-115.78 Y-9.181
X-115.79 Y-9.256
X-115.758 Y-9.402
X-115.658 Y-9.514
X-115.635 Y-9.524
X-115.524 Y-9.552
X-115.411 Y-9.536
X-115.311 Y-9.479
X-115.241 Y-9.389
X-115.162 Y-9.237
X-115.153 Y-9.2
X-115.158 Y-9.162
X-115.177 Y-9.129
X-115.207 Y-9.105
X-115.244 Y-9.094
X-115.66 Y-9.058
X-115.698 Y-9.062
X-115.732 Y-9.081
X-115.756 Y-9.11
X-115.84 Y-9.321
X-115.864 Y-9.392
X-115.855 Y-9.467
X-115.799 Y-9.606
X-115.682 Y-9.701
X-115.676 Y-9.703
X-115.536 Y-9.711
X-115.408 Y-9.655
X-115.319 Y-9.547
X-115.276 Y-9.458
X-115.241 Y-9.389
X-115.232 Y-9.356
X-115.234 Y-9.323
X-115.248 Y-9.291
X-115.271 Y-9.267
X-115.301 Y-9.251
X-115.335 Y-9.247
X-115.752 Y-9.261
X-115.788 Y-9.27
X-115.819 Y-9.291
X-115.84 Y-9.321
X-115.906 Y-9.49
X-115.93 Y-9.561
X-115.905 Y-9.709
X-115.812 Y-9.827
X-115.788 Y-9.838
X-115.66 Y-9.869
X-115.532 Y-9.843
X-115.427 Y-9.765
X-115.366 Y-9.649
X-115.364 Y-9.611
X-115.377 Y-9.575
X-115.402 Y-9.547
X-115.437 Y-9.53
X-115.788 Y-9.434
X-115.824 Y-9.431
X-115.858 Y-9.44
X-115.887 Y-9.461
X-115.906 Y-9.49
X-115.973 Y-9.659
X-115.995 Y-9.731
X-115.985 Y-9.805
X-115.92 Y-9.941
X-115.798 Y-10.028
X-115.766 Y-10.035
X-115.649 Y-10.038
X-115.539 Y-9.996
X-115.454 Y-9.916
X-115.407 Y-9.809
X-115.392 Y-9.744
X-115.366 Y-9.649
X-115.364 Y-9.61
X-115.378 Y-9.573
X-115.405 Y-9.545
X-115.441 Y-9.529
X-115.48 Y-9.528
X-115.899 Y-9.601
X-115.93 Y-9.612
X-115.955 Y-9.632
X-115.973 Y-9.659
X-116.004 Y-9.744
X-116.03 Y-9.828
X-116.05 Y-9.901
X-116.018 Y-10.047
X-115.92 Y-10.16
X-115.784 Y-10.223
X-115.759 Y-10.225
X-115.62 Y-10.201
X-115.506 Y-10.116
X-115.445 Y-9.988
X-115.407 Y-9.809
Y-9.771
X-115.421 Y-9.735
X-115.448 Y-9.708
X-115.483 Y-9.693
X-115.521 Y-9.691
X-115.953 Y-9.763
X-115.986 Y-9.775
X-116.013 Y-9.798
X-116.03 Y-9.828
X-116.084 Y-9.997
X-116.1 Y-10.07
X-116.089 Y-10.144
X-116.023 Y-10.279
X-115.907 Y-10.374
X-115.762 Y-10.415
X-115.756 Y-10.414
X-115.633 Y-10.378
X-115.538 Y-10.294
X-115.485 Y-10.177
X-115.445 Y-9.988
X-115.446 Y-9.951
X-115.46 Y-9.916
X-115.486 Y-9.889
X-115.52 Y-9.874
X-115.557 Y-9.872
X-116.003 Y-9.931
X-116.038 Y-9.943
X-116.066 Y-9.966
X-116.084 Y-9.997
X-116.131 Y-10.166
X-116.147 Y-10.239
X-116.122 Y-10.387
X-116.028 Y-10.504
X-115.9 Y-10.583
X-115.863 Y-10.589
X-115.745 Y-10.584
X-115.638 Y-10.535
X-115.558 Y-10.448
X-115.518 Y-10.337
X-115.485 Y-10.177
X-115.486 Y-10.141
X-115.499 Y-10.107
X-115.523 Y-10.081
X-115.556 Y-10.064
X-115.592 Y-10.06
X-116.043 Y-10.096
X-116.081 Y-10.107
X-116.112 Y-10.132
X-116.131 Y-10.166
X-116.19 Y-10.381
X-116.198 Y-10.418
X-116.178 Y-10.567
X-116.089 Y-10.687
X-115.958 Y-10.761
X-115.811 Y-10.789
X-115.807 Y-10.788
X-115.686 Y-10.745
X-115.594 Y-10.655
X-115.548 Y-10.535
X-115.518 Y-10.337
X-115.521 Y-10.3
X-115.537 Y-10.267
X-115.564 Y-10.241
X-115.598 Y-10.227
X-115.635
X-116.113 Y-10.313
X-116.146 Y-10.326
X-116.173 Y-10.35
X-116.19 Y-10.381
X-116.224 Y-10.504
X-116.235 Y-10.55
X-116.245 Y-10.588
X-116.252 Y-10.663
X-116.195 Y-10.802
X-116.086 Y-10.905
X-115.951 Y-10.971
X-115.901 Y-10.976
X-115.788 Y-10.966
X-115.687 Y-10.914
X-115.612 Y-10.828
X-115.575 Y-10.721
X-115.548 Y-10.535
X-115.55 Y-10.498
X-115.566 Y-10.465
X-115.594 Y-10.439
X-115.628 Y-10.425
X-115.665
X-116.166 Y-10.517
X-116.201 Y-10.53
X-116.228 Y-10.555
X-116.245 Y-10.588
X-116.257 Y-10.673
X-116.267 Y-10.757
X-116.272 Y-10.832
X-116.236 Y-10.978
X-116.137 Y-11.09
X-116.002 Y-11.156
X-115.853 Y-11.177
X-115.85 Y-11.176
X-115.731 Y-11.129
X-115.642 Y-11.036
X-115.601 Y-10.914
X-115.593 Y-10.842
X-115.575 Y-10.721
X-115.578 Y-10.685
X-115.593 Y-10.652
X-115.618 Y-10.627
X-115.651 Y-10.612
X-115.687 Y-10.611
X-116.18 Y-10.673
X-116.211 Y-10.682
X-116.238 Y-10.701
X-116.257 Y-10.727
X-116.267 Y-10.757
X-116.291 Y-10.968
X-116.296 Y-11.043
X-116.253 Y-11.187
X-116.146 Y-11.292
X-116.012 Y-11.359
X-115.863 Y-11.375
X-115.857 Y-11.374
X-115.74 Y-11.322
X-115.655 Y-11.226
X-115.618 Y-11.104
X-115.601 Y-10.914
X-115.605 Y-10.879
X-115.621 Y-10.847
X-115.647 Y-10.822
X-115.68 Y-10.809
X-115.716 Y-10.808
X-116.207 Y-10.884
X-116.237 Y-10.894
X-116.263 Y-10.913
X-116.281 Y-10.938
X-116.291 Y-10.968
X-116.315 Y-11.18
X-116.319 Y-11.254
X-116.265 Y-11.394
X-116.157 Y-11.498
X-116.021 Y-11.562
X-115.871 Y-11.574
X-115.865 Y-11.572
X-115.749 Y-11.518
X-115.665 Y-11.42
X-115.631 Y-11.297
X-115.624 Y-11.18
X-115.618 Y-11.104
X-115.623 Y-11.068
X-115.64 Y-11.037
X-115.667 Y-11.013
X-115.701 Y-11.001
X-115.737
X-116.235 Y-11.096
X-116.264 Y-11.106
X-116.288 Y-11.125
X-116.306 Y-11.15
X-116.315 Y-11.18
X-116.338 Y-11.395
X-116.341 Y-11.466
X-116.28 Y-11.603
X-116.169 Y-11.704
X-116.032 Y-11.764
X-115.882 Y-11.775
X-115.874 Y-11.773
X-115.757 Y-11.717
X-115.674 Y-11.618
X-115.641 Y-11.493
X-115.639 Y-11.433
X-115.631 Y-11.297
X-115.637 Y-11.261
X-115.655 Y-11.23
X-115.682 Y-11.207
X-115.717 Y-11.195
X-115.753 Y-11.197
X-116.261 Y-11.311
X-116.289 Y-11.322
X-116.312 Y-11.341
X-116.329 Y-11.366
X-116.338 Y-11.395
X-116.342 Y-11.433
X-116.347 Y-11.602
X-116.346 Y-11.677
X-116.283 Y-11.813
X-116.169 Y-11.911
X-116.03 Y-11.968
X-115.88 Y-11.974
X-115.874 Y-11.973
X-115.759 Y-11.915
X-115.68 Y-11.814
X-115.649 Y-11.689
X-115.641 Y-11.493
X-115.647 Y-11.458
X-115.666 Y-11.427
X-115.694 Y-11.404
X-115.728 Y-11.393
X-115.764 Y-11.395
X-116.27 Y-11.511
X-116.299 Y-11.523
X-116.323 Y-11.544
X-116.34 Y-11.571
X-116.347 Y-11.602
X-116.354 Y-11.817
X-116.352 Y-11.892
X-116.283 Y-12.025
X-116.166 Y-12.119
X-116.025 Y-12.172
X-115.875 Y-12.175
X-115.869 Y-12.173
X-115.757 Y-12.113
X-115.68 Y-12.012
X-115.652 Y-11.888
X-115.65 Y-11.726
X-115.649 Y-11.689
X-115.656 Y-11.653
X-115.675 Y-11.623
X-115.704 Y-11.601
X-115.739 Y-11.591
X-115.775 Y-11.593
X-116.28 Y-11.727
X-116.308 Y-11.74
X-116.331 Y-11.76
X-116.347 Y-11.787
X-116.354 Y-11.817
X-116.359 Y-11.986
X-116.357 Y-12.061
X-116.31 Y-12.204
X-116.201 Y-12.307
X-116.064 Y-12.367
X-115.915 Y-12.382
X-115.895 Y-12.378
X-115.772 Y-12.322
X-115.686 Y-12.218
X-115.654 Y-12.086
X-115.652 Y-11.888
X-115.659 Y-11.854
X-115.677 Y-11.824
X-115.704 Y-11.802
X-115.737 Y-11.791
X-115.772 Y-11.792
X-116.279 Y-11.895
X-116.309 Y-11.906
X-116.335 Y-11.927
X-116.352 Y-11.955
X-116.359 Y-11.986
X-116.365 Y-12.193
X-116.363 Y-12.268
X-116.312 Y-12.409
X-116.201 Y-12.51
X-116.064 Y-12.571
X-115.914 Y-12.582
X-115.893 Y-12.577
X-115.77 Y-12.519
X-115.685 Y-12.413
X-115.656 Y-12.279
X-115.654 Y-12.086
X-115.661 Y-12.052
X-115.68 Y-12.022
X-115.707 Y-12.001
X-115.74 Y-11.99
X-115.775 Y-11.991
X-116.286 Y-12.102
X-116.316 Y-12.113
X-116.341 Y-12.134
X-116.357 Y-12.162
X-116.365 Y-12.193
X-116.367 Y-12.278
X-116.363 Y-12.409
X-116.357 Y-12.483
X-116.3 Y-12.622
X-116.185 Y-12.719
X-116.046 Y-12.775
X-115.896 Y-12.78
X-115.878 Y-12.775
X-115.76 Y-12.714
X-115.68 Y-12.609
X-115.653 Y-12.48
X-115.656 Y-12.279
X-115.664 Y-12.245
X-115.683 Y-12.216
X-115.711 Y-12.195
X-115.745 Y-12.185
X-115.78 Y-12.187
X-116.286 Y-12.312
X-116.317 Y-12.325
X-116.341 Y-12.347
X-116.357 Y-12.376
X-116.363 Y-12.409
X-116.356 Y-12.616
X-116.35 Y-12.69
X-116.291 Y-12.828
X-116.176 Y-12.924
X-116.035 Y-12.977
X-115.885 Y-12.979
X-115.871 Y-12.975
X-115.755 Y-12.914
X-115.677 Y-12.81
X-115.65 Y-12.682
X-115.653 Y-12.48
X-115.661 Y-12.446
X-115.68 Y-12.416
X-115.709 Y-12.395
X-115.743 Y-12.386
X-115.778 Y-12.388
X-116.281 Y-12.519
X-116.311 Y-12.532
X-116.335 Y-12.555
X-116.351 Y-12.583
X-116.356 Y-12.616
X-116.349 Y-12.831
X-116.343 Y-12.906
X-116.276 Y-13.04
X-116.157 Y-13.131
X-116.015 Y-13.18
X-115.865 Y-13.178
X-115.855 Y-13.175
X-115.742 Y-13.109
X-115.668 Y-13.002
X-115.646 Y-12.873
X-115.649 Y-12.784
X-115.65 Y-12.682
X-115.658 Y-12.647
X-115.678 Y-12.617
X-115.707 Y-12.596
X-115.742 Y-12.587
X-115.778 Y-12.591
X-116.277 Y-12.735
X-116.306 Y-12.749
X-116.329 Y-12.771
X-116.344 Y-12.799
X-116.349 Y-12.831
X-116.341 Y-13.038
X-116.335 Y-13.113
X-116.265 Y-13.245
X-116.145 Y-13.335
X-116.002 Y-13.382
X-115.853 Y-13.378
X-115.841 Y-13.374
X-115.73 Y-13.308
X-115.657 Y-13.201
X-115.635 Y-13.073
X-115.646 Y-12.873
X-115.655 Y-12.838
X-115.676 Y-12.81
X-115.706 Y-12.79
X-115.74 Y-12.782
X-115.776 Y-12.786
X-116.271 Y-12.942
X-116.3 Y-12.956
X-116.322 Y-12.978
X-116.337 Y-13.007
X-116.341 Y-13.038
X-116.338 Y-13.122
X-116.324 Y-13.253
X-116.311 Y-13.327
X-116.237 Y-13.458
X-116.114 Y-13.542
X-115.97 Y-13.584
X-115.82 Y-13.574
X-115.815 Y-13.572
X-115.71 Y-13.504
X-115.642 Y-13.398
X-115.624 Y-13.274
X-115.635 Y-13.073
X-115.645 Y-13.039
X-115.666 Y-13.01
X-115.696 Y-12.99
X-115.731 Y-12.982
X-115.767 Y-12.987
X-116.256 Y-13.15
X-116.285 Y-13.166
X-116.307 Y-13.19
X-116.321 Y-13.22
X-116.324 Y-13.253
X-116.3 Y-13.46
X-116.288 Y-13.534
X-116.211 Y-13.663
X-116.086 Y-13.746
X-115.941 Y-13.785
X-115.791 Y-13.771
X-115.687 Y-13.698
X-115.622 Y-13.588
X-115.609 Y-13.461
X-115.614 Y-13.415
X-115.617 Y-13.376
X-115.624 Y-13.274
X-115.633 Y-13.24
X-115.655 Y-13.211
X-115.685 Y-13.191
X-115.721 Y-13.184
X-115.756 Y-13.19
X-116.233 Y-13.358
X-116.262 Y-13.374
X-116.284 Y-13.398
X-116.297 Y-13.428
X-116.3 Y-13.46
X-116.275 Y-13.676
X-116.263 Y-13.75
X-116.179 Y-13.874
X-116.051 Y-13.952
X-115.905 Y-13.986
X-115.847 Y-13.978
X-115.736 Y-13.941
X-115.649 Y-13.864
X-115.597 Y-13.759
X-115.589 Y-13.643
X-115.609 Y-13.461
X-115.621 Y-13.427
X-115.644 Y-13.399
X-115.675 Y-13.381
X-115.711 Y-13.376
X-115.746 Y-13.383
X-116.213 Y-13.575
X-116.24 Y-13.591
X-116.261 Y-13.615
X-116.273 Y-13.644
X-116.275 Y-13.676
X-116.261 Y-13.798
X-116.249 Y-13.883
X-116.23 Y-13.955
X-116.145 Y-14.079
X-116.015 Y-14.154
X-115.867 Y-14.176
X-115.808 Y-14.166
X-115.701 Y-14.125
X-115.617 Y-14.046
X-115.568 Y-13.942
X-115.563 Y-13.827
X-115.58 Y-13.714
X-115.589 Y-13.643
X-115.601 Y-13.608
X-115.625 Y-13.581
X-115.657 Y-13.564
X-115.694 Y-13.559
X-115.729 Y-13.568
X-116.191 Y-13.781
X-116.217 Y-13.798
X-116.236 Y-13.822
X-116.247 Y-13.851
X-116.249 Y-13.883
X-116.231 Y-13.967
X-116.206 Y-14.064
X-116.195 Y-14.104
X-116.172 Y-14.175
X-116.077 Y-14.291
X-115.941 Y-14.353
X-115.791 Y-14.362
X-115.749 Y-14.351
X-115.623 Y-14.279
X-115.546 Y-14.157
X-115.535 Y-14.012
X-115.555 Y-13.883
X-115.563 Y-13.827
X-115.576 Y-13.792
X-115.602 Y-13.765
X-115.636 Y-13.748
X-115.673 Y-13.746
X-115.709 Y-13.757
X-116.146 Y-13.992
X-116.171 Y-14.012
X-116.189 Y-14.039
X-116.198 Y-14.071
X-116.195 Y-14.104
X-116.14 Y-14.305
X-116.116 Y-14.376
X-116.017 Y-14.489
X-115.878 Y-14.545
X-115.728 Y-14.542
X-115.705 Y-14.535
X-115.586 Y-14.46
X-115.513 Y-14.34
X-115.503 Y-14.201
X-115.535 Y-14.012
X-115.549 Y-13.977
X-115.576 Y-13.95
X-115.611 Y-13.935
X-115.649 Y-13.934
X-115.685 Y-13.947
X-116.094 Y-14.196
X-116.118 Y-14.216
X-116.135 Y-14.243
X-116.142 Y-14.274
X-116.14 Y-14.305
X-116.08 Y-14.52
X-116.068 Y-14.556
X-116.022 Y-14.615
X-115.9 Y-14.702
X-115.753 Y-14.73
X-115.605 Y-14.703
X-115.515 Y-14.62
X-115.466 Y-14.507
Y-14.385
X-115.5 Y-14.22
X-115.503 Y-14.201
X-115.519 Y-14.164
X-115.547 Y-14.136
X-115.584 Y-14.122
X-115.624 Y-14.123
X-115.66 Y-14.139
X-116.041 Y-14.416
X-116.068 Y-14.445
X-116.082 Y-14.481
X-116.08 Y-14.52
X-116.069 Y-14.558
X-116.023 Y-14.694
X-115.996 Y-14.764
X-115.888 Y-14.869
X-115.745 Y-14.913
X-115.702 Y-14.909
X-115.58 Y-14.873
X-115.485 Y-14.79
X-115.432 Y-14.674
X-115.431 Y-14.548
X-115.466 Y-14.385
X-115.482 Y-14.35
X-115.511 Y-14.323
X-115.547 Y-14.31
X-115.585 Y-14.311
X-115.621 Y-14.327
X-115.985 Y-14.583
X-116.008 Y-14.605
X-116.022 Y-14.632
X-116.028 Y-14.663
X-116.023 Y-14.694
X-115.983 Y-14.812
X-115.953 Y-14.894
X-115.922 Y-14.962
X-115.864 Y-15.011
X-115.727 Y-15.071
X-115.577 Y-15.068
X-115.573 Y-15.066
X-115.461 Y-14.986
X-115.396 Y-14.863
X-115.393 Y-14.725
X-115.431 Y-14.548
X-115.445 Y-14.516
X-115.469 Y-14.492
X-115.499 Y-14.476
X-115.533 Y-14.472
X-115.566 Y-14.479
X-115.595 Y-14.497
X-115.924 Y-14.788
X-115.947 Y-14.818
X-115.957 Y-14.856
X-115.953 Y-14.894
X-115.885 Y-15.065
X-115.854 Y-15.133
X-115.734 Y-15.223
X-115.586 Y-15.247
X-115.558 Y-15.24
X-115.444 Y-15.181
X-115.365 Y-15.08
X-115.335 Y-14.955
X-115.36 Y-14.829
X-115.384 Y-14.798
X-115.417 Y-14.778
X-115.455 Y-14.773
X-115.493 Y-14.782
X-115.833 Y-14.941
X-115.863 Y-14.962
X-115.883 Y-14.993
X-115.891 Y-15.029
X-115.885 Y-15.065
X-115.818 Y-15.234
X-115.787 Y-15.302
X-115.729 Y-15.349
X-115.589 Y-15.405
X-115.44 Y-15.389
X-115.42 Y-15.378
X-115.312 Y-15.279
X-115.264 Y-15.139
X-115.288 Y-14.994
X-115.36 Y-14.829
X-115.384 Y-14.798
X-115.419 Y-14.778
X-115.458 Y-14.773
X-115.496 Y-14.784
X-115.527 Y-14.809
X-115.801 Y-15.136
X-115.818 Y-15.166
X-115.824 Y-15.2
X-115.818 Y-15.234
X-115.759 Y-15.383
X-115.754 Y-15.393
X-115.747 Y-15.403
X-115.721 Y-15.435
X-115.67 Y-15.491
X-115.604 Y-15.526
X-115.459 Y-15.563
X-115.418 Y-15.552
X-115.302 Y-15.492
X-115.223 Y-15.388
X-115.195 Y-15.261
X-115.224 Y-15.134
X-115.257 Y-15.065
X-115.288 Y-14.994
X-115.308 Y-14.967
X-115.335 Y-14.947
X-115.368 Y-14.938
X-115.401 Y-14.94
X-115.432 Y-14.953
X-115.457 Y-14.976
X-115.72 Y-15.313
X-115.736 Y-15.342
X-115.741 Y-15.374
X-115.736 Y-15.406
X-115.721 Y-15.435
X-115.699 Y-15.462
X-115.58 Y-15.596
X-115.527 Y-15.65
X-115.455 Y-15.672
X-115.306 Y-15.68
X-115.295 Y-15.675
X-115.194 Y-15.597
X-115.134 Y-15.485
X-115.127 Y-15.358
X-115.173 Y-15.239
X-115.197 Y-15.215
X-115.228 Y-15.2
X-115.262 Y-15.197
X-115.295 Y-15.205
X-115.323 Y-15.224
X-115.571 Y-15.46
X-115.593 Y-15.49
X-115.602 Y-15.527
X-115.598 Y-15.564
X-115.58 Y-15.596
X-115.467 Y-15.724
X-115.414 Y-15.777
X-115.342 Y-15.799
X-115.192 Y-15.794
X-115.179 Y-15.786
X-115.088 Y-15.699
X-115.04 Y-15.582
X-115.045 Y-15.456
X-115.101 Y-15.342
X-115.12 Y-15.318
X-115.173 Y-15.239
X-115.198 Y-15.214
X-115.231 Y-15.199
X-115.267 Y-15.198
X-115.302 Y-15.209
X-115.33 Y-15.231
X-115.348 Y-15.262
X-115.483 Y-15.625
X-115.49 Y-15.659
X-115.484 Y-15.693
X-115.467 Y-15.724
X-115.375 Y-15.825
X-115.36 Y-15.838
X-115.335 Y-15.857
X-115.272 Y-15.898
X-115.198 Y-15.908
X-115.05 Y-15.884
X-114.975 Y-15.793
X-114.94 Y-15.682
X-114.951 Y-15.566
X-115.005 Y-15.463
X-115.101 Y-15.342
X-115.129 Y-15.32
X-115.164 Y-15.309
X-115.2 Y-15.31
X-115.233 Y-15.325
X-115.259 Y-15.35
X-115.274 Y-15.383
X-115.369 Y-15.753
X-115.372 Y-15.791
X-115.36 Y-15.828
X-115.335 Y-15.857
X-115.191 Y-15.962
X-115.16 Y-15.983
X-115.088 Y-16.003
X-114.96 Y-15.947
X-114.878 Y-15.834
X-114.864 Y-15.696
X-114.92 Y-15.568
X-115.005 Y-15.463
X-115.034 Y-15.439
X-115.071 Y-15.429
X-115.109 Y-15.432
X-115.143 Y-15.45
X-115.167 Y-15.478
X-115.18 Y-15.514
X-115.228 Y-15.87
X-115.227 Y-15.904
X-115.214 Y-15.936
X-115.191 Y-15.962
X-115.107 Y-16.024
X-115.075 Y-16.045
X-115.004 Y-16.067
X-114.88 Y-16.01
X-114.803 Y-15.898
X-114.793 Y-15.762
X-114.855 Y-15.64
X-114.92 Y-15.568
X-114.95 Y-15.545
X-114.986 Y-15.534
X-115.023 Y-15.537
X-115.057 Y-15.554
X-115.082 Y-15.583
X-115.094 Y-15.618
X-115.143 Y-15.93
Y-15.965
X-115.13 Y-15.998
X-115.107 Y-16.024
X-115.022 Y-16.086
X-114.979 Y-16.114
X-114.906 Y-16.129
X-114.833 Y-16.111
X-114.767 Y-16.076
X-114.707 Y-15.984
X-114.692 Y-15.875
X-114.723 Y-15.77
X-114.795 Y-15.687
X-114.827 Y-15.673
X-114.862 Y-15.67
X-114.895 Y-15.679
X-114.923 Y-15.7
X-114.943 Y-15.728
X-115.051 Y-15.966
X-115.06 Y-15.998
X-115.057 Y-16.031
X-115.044 Y-16.061
X-115.022 Y-16.086
X-114.959 Y-16.132
X-114.948 Y-16.138
X-114.937 Y-16.142
X-114.853 Y-16.167
X-114.78 Y-16.185
X-114.708 Y-16.164
X-114.623 Y-16.068
X-114.595 Y-15.942
X-114.633 Y-15.819
X-114.726 Y-15.731
X-114.762 Y-15.72
X-114.798 Y-15.723
X-114.831 Y-15.739
X-114.856 Y-15.766
X-114.87 Y-15.8
X-114.92 Y-16.053
Y-16.089
X-114.908 Y-16.123
X-114.884 Y-16.15
X-114.853 Y-16.167
X-114.722 Y-16.205
X-114.685 Y-16.214
X-114.611 Y-16.201
X-114.527 Y-16.103
X-114.503 Y-15.977
X-114.546 Y-15.855
X-114.645 Y-15.771
X-114.708 Y-15.741
X-114.726 Y-15.731
X-114.763 Y-15.72
X-114.801 Y-15.724
X-114.835 Y-15.742
X-114.859 Y-15.772
X-114.871 Y-15.808
X-114.868 Y-15.847
X-114.787 Y-16.137
X-114.773 Y-16.167
X-114.751 Y-16.19
X-114.722 Y-16.205
X-114.599 Y-16.241
X-114.562 Y-16.249
X-114.491 Y-16.225
X-114.422 Y-16.127
X-114.408 Y-16.007
X-114.453 Y-15.895
X-114.546 Y-15.818
X-114.645 Y-15.771
X-114.683 Y-15.763
X-114.721 Y-15.77
X-114.754 Y-15.792
X-114.776 Y-15.824
X-114.784 Y-15.862
X-114.777 Y-15.901
X-114.66 Y-16.184
X-114.646 Y-16.208
X-114.625 Y-16.228
X-114.599 Y-16.241
X-114.514 Y-16.265
X-114.483 Y-16.272
X-114.41 Y-16.259
X-114.335 Y-16.168
X-114.316 Y-16.052
X-114.357 Y-15.941
X-114.447 Y-15.865
X-114.546 Y-15.818
X-114.584 Y-15.81
X-114.623 Y-15.817
X-114.655 Y-15.838
X-114.678 Y-15.87
X-114.686 Y-15.908
X-114.679 Y-15.946
X-114.576 Y-16.207
X-114.562 Y-16.232
X-114.541 Y-16.252
X-114.514 Y-16.265
X-114.43 Y-16.289
X-114.355 Y-16.293
X-114.285 Y-16.265
X-114.229 Y-16.174
X-114.223 Y-16.066
X-114.268 Y-15.969
X-114.355 Y-15.904
X-114.43 Y-15.873
X-114.447 Y-15.865
X-114.484 Y-15.857
X-114.522 Y-15.864
X-114.555 Y-15.884
X-114.577 Y-15.916
X-114.586 Y-15.953
X-114.58 Y-15.991
X-114.493 Y-16.228
X-114.479 Y-16.254
X-114.457 Y-16.275
X-114.43 Y-16.289
X-114.299 Y-16.303
X-114.261 Y-16.304
X-114.19 Y-16.282
X-114.134 Y-16.185
Y-16.074
X-114.191 Y-15.978
X-114.288 Y-15.923
X-114.315 Y-15.921
X-114.341 Y-15.927
G3 X-114.299 Y-16.303 I0.068 J-0.183
G1 X-114.176 Y-16.315
X-114.138 Y-16.316
X-114.073 Y-16.28
X-114.031 Y-16.182
X-114.043 Y-16.076
X-114.104 Y-15.989
X-114.2 Y-15.942
X-114.261 Y-15.93
X-114.288 Y-15.923
X-114.323 Y-15.922
X-114.355 Y-15.932
X-114.383 Y-15.953
X-114.401 Y-15.982
X-114.409 Y-16.016
X-114.405 Y-16.05
X-114.389 Y-16.081
X-114.243 Y-16.276
X-114.213 Y-16.302
X-114.176 Y-16.315
X-114.091 Y-16.323
X-114.054 Y-16.325
X-113.985 Y-16.295
X-113.941 Y-16.199
X-113.951 Y-16.093
X-114.011 Y-16.006
X-114.107 Y-15.96
X-114.2 Y-15.942
X-114.233 Y-15.943
X-114.264 Y-15.956
X-114.288 Y-15.979
X-114.303 Y-16.009
G3 X-114.091 Y-16.323 I0.245 J-0.064
G1 X-114.007 Y-16.331
X-113.969 Y-16.333
X-113.899 Y-16.308
X-113.854 Y-16.214
X-113.862 Y-16.11
X-113.921 Y-16.024
X-114.014 Y-15.978
X-114.107 Y-15.96
X-114.138 Y-15.961
X-114.168 Y-15.973
X-114.191 Y-15.994
X-114.205 Y-16.022
G3 X-114.007 Y-16.331 I0.23 J-0.07
G1 X-113.876 Y-16.344
X-113.829 Y-16.346
X-113.77 Y-16.252
X-113.769 Y-16.14
X-113.827 Y-16.045
X-113.927 Y-15.995
X-114.014 Y-15.978
X-114.05 Y-15.98
X-114.082 Y-15.997
X-114.105 Y-16.025
X-114.114 Y-16.059
G3 X-113.876 Y-16.344 I0.274 J-0.012
G1 X-113.838 Y-16.348
X-113.795 Y-16.35
X-113.758 Y-16.344
X-113.692 Y-16.257
X-113.686 Y-16.147
X-113.743 Y-16.053
X-113.843 Y-16.007
X-113.927 Y-15.995
X-113.961 Y-15.997
X-113.992 Y-16.012
X-114.015 Y-16.038
X-114.025 Y-16.07
G3 X-113.795 Y-16.35 I0.25 J-0.028
G1 X-113.706 Y-16.341
X-113.669 Y-16.336
X-113.611 Y-16.288
X-113.575 Y-16.223
X-113.592 Y-16.113
X-113.669 Y-16.031
X-113.777 Y-16.007
X-113.797 Y-16.011
X-113.815 Y-16.021
G3 X-113.706 Y-16.341 I0.098 J-0.145
G1 X-113.612 Y-16.332
X-113.575 Y-16.327
X-113.542 Y-16.308
X-113.492 Y-16.252
X-113.466 Y-16.182
X-113.498 Y-16.078
X-113.582 Y-16.009
X-113.689 Y-15.995
X-113.753 Y-16.005
X-113.777 Y-16.007
X-113.804 Y-16.014
X-113.827 Y-16.031
X-113.844 Y-16.054
X-113.851 Y-16.081
G3 X-113.612 Y-16.332 I0.225 J-0.025
G1 X-113.499 Y-16.321
X-113.462 Y-16.316
X-113.431 Y-16.295
X-113.38 Y-16.24
X-113.373 Y-16.138
X-113.418 Y-16.046
X-113.503 Y-15.988
X-113.605 Y-15.98
X-113.689 Y-15.995
X-113.716 Y-16.005
X-113.739 Y-16.024
X-113.753 Y-16.049
X-113.758 Y-16.078
G3 X-113.499 Y-16.321 I0.244
G1 X-113.368 Y-16.308
X-113.331 Y-16.303
X-113.28 Y-16.247
X-113.273 Y-16.136
X-113.322 Y-16.035
X-113.415 Y-15.973
X-113.527 Y-15.965
X-113.605 Y-15.98
X-113.641 Y-15.996
X-113.668 Y-16.024
X-113.682 Y-16.061
X-113.681 Y-16.1
X-113.665 Y-16.136
X-113.636 Y-16.162
X-113.427 Y-16.293
X-113.399 Y-16.305
X-113.368 Y-16.308
X-113.283 Y-16.3
X-113.249 Y-16.295
X-113.193 Y-16.246
X-113.178 Y-16.13
X-113.225 Y-16.024
X-113.32 Y-15.956
X-113.436 Y-15.947
X-113.527 Y-15.965
X-113.562 Y-15.981
X-113.589 Y-16.009
X-113.603 Y-16.046
X-113.602 Y-16.084
X-113.586 Y-16.12
X-113.558 Y-16.147
X-113.344 Y-16.285
X-113.315 Y-16.297
X-113.283 Y-16.3
X-113.203 Y-16.292
X-113.152 Y-16.28
X-113.097 Y-16.229
X-113.085 Y-16.11
X-113.136 Y-16.002
X-113.235 Y-15.936
X-113.354 Y-15.93
X-113.436 Y-15.947
X-113.471 Y-15.963
X-113.497 Y-15.99
X-113.512 Y-16.025
Y-16.063
X-113.498 Y-16.098
X-113.472 Y-16.126
X-113.268 Y-16.274
X-113.237 Y-16.289
X-113.203 Y-16.292
X-113.161 Y-16.284
X-113.076 Y-16.259
X-113.041 Y-16.247
X-112.992 Y-16.19
Y-16.071
X-113.051 Y-15.968
X-113.154 Y-15.909
X-113.273
X-113.33 Y-15.924
X-113.354 Y-15.93
X-113.389 Y-15.947
X-113.415 Y-15.976
X-113.428 Y-16.012
X-113.426 Y-16.051
X-113.409 Y-16.087
X-113.38 Y-16.113
X-113.152 Y-16.248
X-113.115 Y-16.261
X-113.076 Y-16.259
X-112.992 Y-16.235
X-112.956 Y-16.223
X-112.904 Y-16.169
X-112.901 Y-16.038
X-112.971 Y-15.927
X-113.089 Y-15.872
X-113.219 Y-15.89
X-113.249 Y-15.913
X-113.268 Y-15.945
X-113.275 Y-15.982
X-113.266 Y-16.019
X-113.245 Y-16.05
X-113.087 Y-16.209
X-113.059 Y-16.228
X-113.026 Y-16.238
X-112.992 Y-16.235
X-112.907 Y-16.211
X-112.871 Y-16.198
X-112.817 Y-16.147
X-112.791 Y-16.077
X-112.817 Y-15.957
X-112.898 Y-15.866
X-113.014 Y-15.827
X-113.134 Y-15.851
X-113.193 Y-15.878
X-113.219 Y-15.89
X-113.248 Y-15.911
X-113.267 Y-15.942
X-113.275 Y-15.977
X-113.269 Y-16.013
X-113.251 Y-16.044
X-113.223 Y-16.067
X-112.98 Y-16.201
X-112.944 Y-16.213
X-112.907 Y-16.211
X-112.778 Y-16.173
X-112.746 Y-16.162
X-112.702 Y-16.102
X-112.68 Y-16.03
X-112.716 Y-15.908
X-112.806 Y-15.818
X-112.928 Y-15.783
X-113.052 Y-15.81
X-113.134 Y-15.851
X-113.163 Y-15.873
X-113.181 Y-15.905
X-113.187 Y-15.941
X-113.18 Y-15.977
X-113.16 Y-16.007
X-113.131 Y-16.029
X-112.846 Y-16.167
X-112.813 Y-16.176
X-112.778 Y-16.173
X-112.695 Y-16.15
X-112.674 Y-16.143
X-112.664 Y-16.138
X-112.636 Y-16.119
X-112.635 Y-16.11
X-112.637 Y-16.073
X-112.653 Y-16.039
X-112.68 Y-16.014
X-112.715 Y-16
X-112.911 Y-15.962
X-112.998 Y-15.945
X-113.035
X-113.069 Y-15.958
X-113.096 Y-15.982
X-113.113 Y-16.015
X-113.117 Y-16.051
X-113.108 Y-16.086
X-113.087 Y-16.116
X-113.056 Y-16.136
G3 X-112.664 Y-16.138 I0.199 J0.472
G1 X-112.653 Y-16.132
X-112.613 Y-16.103
X-112.584 Y-16.079
X-112.563 Y-16.007
X-112.6 Y-15.874
X-112.696 Y-15.776
X-112.829 Y-15.736
X-112.964 Y-15.766
X-113.052 Y-15.81
X-113.081 Y-15.834
X-113.099 Y-15.868
X-113.104 Y-15.905
X-113.094 Y-15.942
X-113.071 Y-15.972
X-113.038 Y-15.992
X-112.703 Y-16.114
X-112.673 Y-16.12
X-112.641 Y-16.116
X-112.613 Y-16.103
X-112.543 Y-16.051
X-112.514 Y-16.028
X-112.48 Y-15.961
X-112.506 Y-15.828
X-112.596 Y-15.727
X-112.724 Y-15.684
X-112.856 Y-15.711
X-112.964 Y-15.766
X-112.993 Y-15.79
X-113.011 Y-15.823
X-113.015 Y-15.861
X-113.005 Y-15.897
X-112.982 Y-15.928
X-112.95 Y-15.947
X-112.634 Y-16.063
X-112.603 Y-16.069
X-112.571 Y-16.065
X-112.543 Y-16.051
X-112.465 Y-15.994
X-112.436 Y-15.97
X-112.397 Y-15.906
X-112.414 Y-15.79
X-112.481 Y-15.694
X-112.584 Y-15.637
X-112.701 Y-15.633
X-112.808 Y-15.681
X-112.831 Y-15.709
X-112.843 Y-15.744
X-112.841 Y-15.781
X-112.827 Y-15.814
X-112.801 Y-15.84
X-112.578 Y-15.994
X-112.551 Y-16.007
X-112.522 Y-16.012
X-112.492 Y-16.007
X-112.465 Y-15.994
X-112.372 Y-15.926
X-112.343 Y-15.902
X-112.31 Y-15.835
X-112.306 Y-15.76
X-112.341 Y-15.614
X-112.433 Y-15.55
X-112.541 Y-15.528
X-112.649 Y-15.552
X-112.738 Y-15.618
X-112.756 Y-15.647
X-112.764 Y-15.68
X-112.76 Y-15.714
X-112.744 Y-15.745
X-112.72 Y-15.769
X-112.484 Y-15.926
X-112.448 Y-15.941
X-112.409
X-112.372 Y-15.926
X-112.291 Y-15.866
X-112.262 Y-15.844
X-112.238 Y-15.825
X-112.19 Y-15.767
X-112.178 Y-15.693
X-112.188 Y-15.619
X-112.246 Y-15.48
X-112.347 Y-15.426
X-112.461 Y-15.415
X-112.571 Y-15.449
X-112.658 Y-15.523
X-112.697 Y-15.572
X-112.738 Y-15.618
X-112.755 Y-15.648
X-112.761 Y-15.682
X-112.754 Y-15.717
X-112.737 Y-15.747
X-112.71 Y-15.769
X-112.677 Y-15.78
X-112.312 Y-15.842
X-112.273 Y-15.841
X-112.238 Y-15.825
X-112.146 Y-15.721
X-112.099 Y-15.663
X-112.081 Y-15.59
X-112.083 Y-15.515
X-112.135 Y-15.374
X-112.139 Y-15.371
X-112.244 Y-15.312
X-112.363 Y-15.299
X-112.478 Y-15.334
X-112.57 Y-15.412
X-112.658 Y-15.523
X-112.673 Y-15.553
X-112.678 Y-15.586
X-112.671 Y-15.619
X-112.654 Y-15.648
X-112.628 Y-15.669
X-112.597 Y-15.681
X-112.237 Y-15.751
X-112.204 Y-15.752
X-112.172 Y-15.741
X-112.146 Y-15.721
X-112.035 Y-15.596
X-111.988 Y-15.537
X-111.973 Y-15.464
X-111.98 Y-15.389
X-112.038 Y-15.251
X-112.05 Y-15.242
X-112.159 Y-15.185
X-112.282 Y-15.177
X-112.398 Y-15.219
X-112.487 Y-15.304
X-112.497 Y-15.318
X-112.57 Y-15.412
X-112.586 Y-15.442
X-112.59 Y-15.476
X-112.582 Y-15.509
X-112.564 Y-15.538
X-112.537 Y-15.559
X-112.504 Y-15.57
X-112.122 Y-15.626
X-112.09
X-112.06 Y-15.615
X-112.035 Y-15.596
X-111.939 Y-15.487
X-111.9 Y-15.438
X-111.879 Y-15.366
X-111.878 Y-15.291
X-111.924 Y-15.148
X-112.032 Y-15.044
X-112.038 Y-15.042
X-112.148 Y-15.02
X-112.258 Y-15.04
X-112.354 Y-15.099
X-112.421 Y-15.189
X-112.443 Y-15.234
X-112.487 Y-15.304
X-112.501 Y-15.341
X-112.5 Y-15.38
X-112.484 Y-15.416
X-112.455 Y-15.443
X-112.418 Y-15.457
X-112.027 Y-15.517
X-111.995
X-111.965 Y-15.507
X-111.939 Y-15.487
X-111.892 Y-15.434
X-111.869 Y-15.403
X-111.856 Y-15.382
X-111.818 Y-15.286
X-111.794 Y-15.215
X-111.803 Y-15.065
X-111.882 Y-14.937
X-112.007 Y-14.856
X-112.143 Y-14.857
X-112.262 Y-14.918
X-112.344 Y-15.024
X-112.401 Y-15.15
X-112.421 Y-15.189
X-112.429 Y-15.227
X-112.423 Y-15.265
X-112.402 Y-15.298
X-112.371 Y-15.32
X-112.333 Y-15.329
X-111.913 Y-15.345
X-111.874 Y-15.339
X-111.841 Y-15.318
X-111.818 Y-15.286
X-111.74 Y-15.092
X-111.716 Y-15.021
X-111.736 Y-14.872
X-111.824 Y-14.75
X-111.861 Y-14.73
X-111.981 Y-14.695
X-112.105 Y-14.712
X-112.211 Y-14.778
X-112.281 Y-14.881
X-112.315 Y-14.961
X-112.344 Y-15.024
X-112.351 Y-15.063
X-112.343 Y-15.101
X-112.321 Y-15.134
X-112.288 Y-15.155
X-112.249 Y-15.162
X-111.829 Y-15.151
X-111.793 Y-15.143
X-111.762 Y-15.122
X-111.74 Y-15.092
X-111.677 Y-14.934
X-111.653 Y-14.863
X-111.656 Y-14.788
X-111.707 Y-14.647
X-111.822 Y-14.55
X-111.853 Y-14.54
X-111.977 Y-14.528
X-112.095 Y-14.567
X-112.187 Y-14.65
X-112.238 Y-14.764
X-112.237 Y-14.8
X-112.224 Y-14.834
X-112.2 Y-14.861
X-112.168 Y-14.877
X-111.798 Y-14.989
X-111.762 Y-14.994
X-111.727 Y-14.985
X-111.698 Y-14.964
X-111.677 Y-14.934
X-111.638 Y-14.834
X-111.614 Y-14.765
X-111.592 Y-14.693
X-111.6 Y-14.619
X-111.626 Y-14.548
X-111.711 Y-14.425
X-111.843 Y-14.353
X-111.871 Y-14.35
X-112.016 Y-14.368
X-112.135 Y-14.454
X-112.2 Y-14.585
X-112.238 Y-14.764
X-112.237 Y-14.801
X-112.223 Y-14.836
X-112.198 Y-14.862
X-112.164 Y-14.878
X-112.127 Y-14.881
X-111.694 Y-14.828
X-111.661 Y-14.817
X-111.632 Y-14.795
X-111.614 Y-14.765
X-111.561 Y-14.616
X-111.541 Y-14.547
Y-14.472
X-111.587 Y-14.33
X-111.691 Y-14.221
X-111.831 Y-14.166
X-111.852 Y-14.165
X-111.991 Y-14.191
X-112.102 Y-14.277
X-112.162 Y-14.405
X-112.2 Y-14.585
Y-14.621
X-112.187 Y-14.654
X-112.163 Y-14.681
X-112.132 Y-14.698
X-112.096 Y-14.703
X-111.649 Y-14.68
X-111.612 Y-14.671
X-111.581 Y-14.648
X-111.561 Y-14.616
X-111.553 Y-14.594
X-111.496 Y-14.389
X-111.479 Y-14.316
X-111.513 Y-14.17
X-111.612 Y-14.058
X-111.746 Y-13.989
X-111.787 Y-13.983
X-111.9 Y-13.988
X-112.004 Y-14.035
X-112.083 Y-14.116
X-112.125 Y-14.221
X-112.162 Y-14.405
Y-14.442
X-112.147 Y-14.476
X-112.122 Y-14.503
X-112.088 Y-14.518
X-112.051 Y-14.52
X-111.578 Y-14.458
X-111.543 Y-14.446
X-111.514 Y-14.422
X-111.496 Y-14.389
X-111.449 Y-14.22
X-111.432 Y-14.147
X-111.455 Y-13.999
X-111.548 Y-13.882
X-111.68 Y-13.809
X-111.827 Y-13.781
X-111.833 Y-13.782
X-111.954 Y-13.824
X-112.047 Y-13.912
X-112.094 Y-14.031
X-112.125 Y-14.221
Y-14.258
X-112.111 Y-14.291
X-112.086 Y-14.318
X-112.053 Y-14.334
X-112.017 Y-14.337
X-111.534 Y-14.29
X-111.497 Y-14.279
X-111.467 Y-14.254
X-111.449 Y-14.22
X-111.392 Y-14.016
X-111.384 Y-13.988
X-111.376 Y-13.913
X-111.432 Y-13.774
X-111.54 Y-13.67
X-111.673 Y-13.601
X-111.823 Y-13.583
X-111.937 Y-13.63
X-112.022 Y-13.719
X-112.065 Y-13.835
X-112.09 Y-14.002
X-112.094 Y-14.031
X-112.092 Y-14.068
X-112.077 Y-14.102
X-112.05 Y-14.128
X-112.016 Y-14.142
X-111.979 Y-14.143
X-111.463 Y-14.057
X-111.429 Y-14.044
X-111.401 Y-14.02
X-111.384 Y-13.988
X-111.354 Y-13.798
X-111.347 Y-13.752
X-111.341 Y-13.714
X-111.33 Y-13.564
X-111.333 Y-13.471
X-111.302 Y-13.287
X-111.293 Y-13.26
X-111.286 Y-13.233
X-111.281 Y-13.205
X-111.285 Y-13.166
X-111.304 Y-13.133
X-111.334 Y-13.108
X-111.371 Y-13.097
X-111.409 Y-13.101
X-111.443 Y-13.119
X-111.468 Y-13.148
X-111.48 Y-13.185
X-111.483 Y-13.207
X-111.538 Y-13.683
X-111.535 Y-13.721
X-111.518 Y-13.755
X-111.49 Y-13.78
X-111.454 Y-13.793
X-111.416 Y-13.792
X-111.381 Y-13.776
X-111.355 Y-13.749
X-111.341 Y-13.714
X-111.281 Y-13.207
X-111.272 Y-13.122
X-111.267 Y-13.038
X-111.248 Y-12.431
X-111.254 Y-12.397
X-111.271 Y-12.367
X-111.297 Y-12.345
X-111.329 Y-12.333
X-111.854 Y-12.231
X-111.889 Y-12.23
X-111.921 Y-12.241
X-111.948 Y-12.262
X-111.966 Y-12.291
X-111.973 Y-12.324
X-111.977 Y-12.581
Y-12.616
X-111.98 Y-12.784
X-111.982 Y-12.869
X-112 Y-13.207
X-112.01 Y-13.376
X-112.026 Y-13.545
X-112.035 Y-13.629
X-112.065 Y-13.835
X-112.064 Y-13.863
X-112.055 Y-13.89
X-112.028 Y-13.911 Z-0.983
X-112.005 Y-13.929 Z-0.966
X-111.989 Y-13.943 Z-0.939
X-111.979 Y-13.944 Z-0.915
X-111.976 Y-13.945 Z-0.89
G0 Z2
X-106.788 Y-9.464
Z0.5
G3 X-106.303 Y-9.589 Z0.29 I0.242 J-0.062 F333.3
X-106.788 Y-9.464 Z0.079 I-0.242 J0.062
X-106.303 Y-9.589 Z-0.131 I0.242 J-0.062
X-106.788 Y-9.464 Z-0.342 I-0.242 J0.062
X-106.303 Y-9.589 Z-0.552 I0.242 J-0.062
X-106.788 Y-9.464 Z-0.763 I-0.242 J0.062
X-106.577 Y-9.775 Z-0.876 I0.242 J-0.062
X-106.296 Y-9.527 Z-0.99 I0.031 J0.248
X-106.796 I-0.25
X-106.296 I0.25
G1 X-106.258 Y-9.381 F1000
X-106.271 Y-9.307
X-106.308 Y-9.242
X-106.415 Y-9.137
X-106.56 Y-9.097
X-106.708 Y-9.119
X-106.839 Y-9.193
X-106.935 Y-9.307
X-106.988 Y-9.448
X-106.99 Y-9.598
X-106.942 Y-9.74
X-106.85 Y-9.859
X-106.724 Y-9.94
X-106.579 Y-9.976
X-106.429 Y-9.962
X-106.293 Y-9.9
X-106.184 Y-9.797
X-106.106 Y-9.669
X-106.056 Y-9.527
X-106.045 Y-9.378
X-106.08 Y-9.232
X-106.151 Y-9.099
X-106.26 Y-8.996
X-106.39 Y-8.922
X-106.537 Y-8.889
X-106.686 Y-8.896
X-106.714 Y-8.904
X-106.768 Y-8.925
X-106.816 Y-8.956
X-106.858 Y-8.995
X-106.9 Y-9.044
X-106.924 Y-9.068
X-106.985 Y-9.12
X-107.096 Y-9.22
X-107.167 Y-9.353
X-107.201 Y-9.499
X-107.197 Y-9.649
X-107.155 Y-9.793
X-107.127 Y-9.843
X-107.085 Y-9.901
X-107.03 Y-9.946
X-106.967 Y-9.978
X-106.93 Y-9.983
X-106.894 Y-9.973
X-106.864 Y-9.952
X-106.844 Y-9.921
X-106.836 Y-9.885
X-106.834 Y-9.763
X-106.824 Y-9.201
X-106.831 Y-9.165
X-106.85 Y-9.133
X-106.879 Y-9.11
X-106.915 Y-9.1
X-106.952 Y-9.103
X-106.985 Y-9.12
X-107.154 Y-9.258
X-107.238 Y-9.321
X-107.298 Y-9.367
X-107.339 Y-9.439
X-107.38 Y-9.574
X-107.36 Y-9.714
X-107.284 Y-9.832
X-107.165 Y-9.907
X-107.132 Y-9.912
X-107.099 Y-9.905
X-107.07 Y-9.889
X-107.049 Y-9.863
X-107.036 Y-9.832
X-107.035 Y-9.799
X-107.086 Y-9.394
X-107.099 Y-9.356
X-107.125 Y-9.326
X-107.161 Y-9.309
X-107.201 Y-9.308
X-107.238 Y-9.321
X-107.323 Y-9.378
X-107.408 Y-9.429
X-107.44 Y-9.449
X-107.487 Y-9.564
X-107.482 Y-9.688
X-107.425 Y-9.799
X-107.327 Y-9.876
X-107.206 Y-9.904
X-107.173 Y-9.898
X-107.144 Y-9.881
X-107.122 Y-9.855
X-107.11 Y-9.823
X-107.109 Y-9.789
X-107.12 Y-9.757
X-107.274 Y-9.47
X-107.299 Y-9.441
X-107.333 Y-9.422
X-107.371 Y-9.418
X-107.408 Y-9.429
X-107.492 Y-9.476
X-107.558 Y-9.513
X-107.598 Y-9.576
Y-9.695
X-107.546 Y-9.803
X-107.453 Y-9.877
X-107.337 Y-9.904
X-107.298 Y-9.894
X-107.267 Y-9.871
X-107.246 Y-9.837
X-107.241 Y-9.797
X-107.251 Y-9.759
X-107.368 Y-9.525
X-107.39 Y-9.496
X-107.421 Y-9.476
X-107.456 Y-9.47
X-107.492 Y-9.476
X-107.603 Y-9.522
X-107.636 Y-9.538
X-107.688 Y-9.593
X-107.698 Y-9.703
X-107.656 Y-9.805
X-107.572 Y-9.878
X-107.465 Y-9.904
X-107.432 Y-9.897
X-107.403 Y-9.88
X-107.382 Y-9.854
X-107.37 Y-9.822
X-107.369 Y-9.789
X-107.38 Y-9.757
X-107.479 Y-9.569
X-107.501 Y-9.541
X-107.532 Y-9.522
X-107.567 Y-9.516
X-107.603 Y-9.522
X-107.698 Y-9.562
X-107.732 Y-9.578
X-107.784 Y-9.633
X-107.791 Y-9.729
X-107.753 Y-9.819
X-107.68 Y-9.881
X-107.585 Y-9.904
X-107.556 Y-9.898
X-107.529 Y-9.885
G3 X-107.698 Y-9.562 I-0.105 J0.151
G1 X-107.746 Y-9.582
X-107.793 Y-9.596
X-107.828 Y-9.609
X-107.878 Y-9.664
X-107.875 Y-9.778
X-107.806 Y-9.869
X-107.698 Y-9.904
X-107.674 Y-9.899
X-107.652 Y-9.888
G3 X-107.793 Y-9.596 I-0.099 J0.132
G1 X-107.877 Y-9.622
X-107.913 Y-9.634
X-107.964 Y-9.689
X-107.958 Y-9.792
X-107.895 Y-9.873
X-107.797 Y-9.904
X-107.778 Y-9.9
X-107.76 Y-9.892
G3 X-107.877 Y-9.622 I-0.079 J0.127
G1 X-107.962 Y-9.647
X-107.997 Y-9.66
X-108.022 Y-9.688
X-108.036 Y-9.786
X-107.985 Y-9.87
X-107.892 Y-9.904
X-107.861 Y-9.895
G3 X-107.962 Y-9.647 I-0.066 J0.117
G1 X-108.002 Y-9.659
X-108.048 Y-9.669
X-108.085 Y-9.676
X-108.131 Y-9.684
X-108.176 Y-9.694
X-108.155 Y-9.798
X-108.083 Y-9.875
X-107.981 Y-9.904
X-107.957 Y-9.897
X-107.937 Y-9.881
X-107.926 Y-9.858
X-107.925 Y-9.833
G3 X-108.131 Y-9.684 I-0.182 J-0.035
G1 X-108.19 Y-9.694
X-108.201 Y-9.696
X-108.212 Y-9.7
X-108.227 Y-9.708
X-108.243 Y-9.72
G0 Z2
X-107.849 Y-9.851
Z1.11
G1 Z1.01 F1000
Z-0.99
G3 X-108.212 Y-9.7 I-0.275 J-0.149
G1 X-108.222 Y-9.704
X-108.233 Y-9.711
X-108.243 Y-9.72
X-108.254 Y-9.731
X-108.262 Y-9.744
X-108.267 Y-9.754
X-108.274 Y-9.779
X-108.275 Y-9.786
X-108.266 Y-9.817
X-108.244 Y-9.84
X-108.214 Y-9.849
X-108.183 Y-9.844
X-108.158 Y-9.824
X-108.146 Y-9.794
X-108.149 Y-9.762
X-108.167 Y-9.736
X-108.195 Y-9.721
X-108.227 Y-9.722
X-108.25 Y-9.734
X-108.267 Y-9.754
X-108.271 Y-9.765
X-108.274 Y-9.775
X-108.275 Y-9.786
Y-9.796
X-108.274 Y-9.807
X-108.272 Y-9.818
X-108.269 Y-9.828
X-108.263 Y-9.841
X-108.254 Y-9.854
X-108.233 Y-9.877
X-108.222 Y-9.885
X-108.212 Y-9.892
X-108.201 Y-9.897
X-108.19 Y-9.9
X-108.18 Y-9.902
X-108.169 Y-9.904
X-107.239
X-107.196
X-107.175 Y-9.905
X-107.165 Y-9.907
X-106.914 Y-9.997
X-106.9 Y-10.005
X-106.875 Y-10.028
X-106.758 Y-10.122
X-106.616 Y-10.171
X-106.466 Y-10.178
X-106.319 Y-10.15
X-106.183 Y-10.087
X-106.065 Y-9.994
X-106.023 Y-9.946
X-105.983 Y-9.887
X-105.959 Y-9.82
X-105.95 Y-9.75
Y-9.237
X-105.958 Y-9.087
X-106.022 Y-8.951
X-106.12 Y-8.838
X-106.243 Y-8.752
X-106.381 Y-8.694
X-106.411 Y-8.688
X-106.53
X-106.639 Y-8.734
X-106.722 Y-8.819
X-106.736 Y-8.855
X-106.734 Y-8.894
X-106.718 Y-8.929
X-106.689 Y-8.956
X-106.593 Y-9.015
X-106.103 Y-9.318
X-106.071 Y-9.331
X-106.036 Y-9.332
X-106.003 Y-9.322
X-105.976 Y-9.3
X-105.958 Y-9.271
X-105.95 Y-9.237
Y-8.937
X-105.954 Y-8.862
X-106.006 Y-8.722
X-106.105 Y-8.609
X-106.231 Y-8.526
X-106.266 Y-8.515
X-106.4 Y-8.503
X-106.527 Y-8.551
X-106.619 Y-8.65
X-106.63 Y-8.688
X-106.626 Y-8.728
X-106.606 Y-8.762
X-106.575 Y-8.787
X-106.095 Y-9.023
X-106.056 Y-9.033
X-106.017 Y-9.028
X-105.983 Y-9.008
X-105.96 Y-8.976
X-105.95 Y-8.937
Y-8.684
X-105.954 Y-8.609
X-106.014 Y-8.471
X-106.126 Y-8.371
X-106.157 Y-8.358
X-106.273 Y-8.334
X-106.388 Y-8.357
X-106.487 Y-8.422
X-106.552 Y-8.52
X-106.558 Y-8.552
X-106.554 Y-8.584
X-106.54 Y-8.613
X-106.517 Y-8.636
X-106.488 Y-8.651
X-106.08 Y-8.776
X-106.043 Y-8.78
X-106.008 Y-8.771
X-105.978 Y-8.75
X-105.958 Y-8.719
X-105.95 Y-8.684
Y-8.477
Y-8.43
Y-8.392
X-105.952 Y-8.365
X-105.971 Y-8.336
X-106.038 Y-8.265
X-106.124 Y-8.218
X-106.221 Y-8.202
G3 X-106.378 Y-8.52 I0.007 J-0.202
X-105.95 Y-8.392 I0.192 J0.136
G1 X-105.951 Y-8.308
X-105.953 Y-8.295
X-105.956 Y-8.283
X-105.962 Y-8.27
X-105.97 Y-8.258
X-105.987 Y-8.239
X-106.004 Y-8.223
X-106.017 Y-8.215
X-106.029 Y-8.209
X-106.042 Y-8.205
X-106.054 Y-8.203
X-106.308 Y-8.202
X-106.361 Y-8.203
X-106.372 Y-8.204
X-106.382 Y-8.207
X-106.393 Y-8.212
X-106.412 Y-8.223
X-106.423 Y-8.234
X-106.432 Y-8.244
X-106.448 Y-8.266
X-106.569 Y-8.561
X-106.646 Y-8.698
X-106.665 Y-8.73
X-106.731 Y-8.832
X-106.848 Y-8.984
X-106.858 Y-8.995
X-106.874 Y-9.024
X-106.881 Y-9.056
X-106.886 Y-9.251
X-106.906 Y-9.953
X-106.902 Y-9.98
X-106.892 Y-10.006
X-106.875 Y-10.028
X-106.814 Y-10.082
X-106.78 Y-10.124
X-106.751 Y-10.166
X-106.731 Y-10.2
X-106.693 Y-10.265
X-106.565 Y-10.343
X-106.418 Y-10.369
X-106.268 Y-10.355
X-106.126 Y-10.307
X-106.102 Y-10.293
X-106.021 Y-10.226
X-105.969 Y-10.136
X-105.95 Y-10.033
Y-9.75
X-105.958 Y-9.715
X-105.977 Y-9.685
X-106.006 Y-9.664
X-106.04 Y-9.654
X-106.075 Y-9.656
X-106.107 Y-9.671
X-106.162 Y-9.709
X-106.696 Y-10.08
X-106.72 Y-10.103
X-106.734 Y-10.134
X-106.738 Y-10.167
X-106.731 Y-10.2
X-106.708 Y-10.25
X-106.693 Y-10.293
X-106.681 Y-10.335
X-106.671 Y-10.371
X-106.578 Y-10.489
X-106.441 Y-10.549
X-106.291 Y-10.564
X-106.143 Y-10.543
X-106.136 Y-10.541
X-106.038 Y-10.476
X-105.973 Y-10.378
X-105.95 Y-10.263
Y-10.033
X-105.957 Y-10
X-105.975 Y-9.971
X-106.001 Y-9.949
X-106.032 Y-9.938
X-106.066
X-106.098 Y-9.948
X-106.63 Y-10.238
X-106.659 Y-10.262
X-106.677 Y-10.296
X-106.681 Y-10.335
X-106.67 Y-10.419
X-106.669 Y-10.466
X-106.666 Y-10.503
X-106.634 Y-10.571
X-106.535 Y-10.683
X-106.399 Y-10.746
X-106.25 Y-10.769
X-106.203 Y-10.762
X-106.074 Y-10.708
X-105.983 Y-10.602
X-105.95 Y-10.466
Y-10.263
X-105.959 Y-10.226
X-105.98 Y-10.195
X-106.012 Y-10.174
X-106.049 Y-10.167
X-106.086 Y-10.174
X-106.605 Y-10.374
X-106.638 Y-10.395
X-106.661 Y-10.427
X-106.669 Y-10.466
X-106.668 Y-10.504
Y-10.635
X-106.665 Y-10.71
X-106.586 Y-10.838
X-106.463 Y-10.924
X-106.32 Y-10.967
X-106.17 Y-10.964
X-106.154 Y-10.959
X-106.048 Y-10.896
X-105.976 Y-10.796
X-105.95 Y-10.675
Y-10.466
X-105.958 Y-10.43
X-105.979 Y-10.399
X-106.009 Y-10.378
X-106.045 Y-10.369
X-106.081 Y-10.374
X-106.599 Y-10.543
X-106.627 Y-10.557
X-106.648 Y-10.578
X-106.663 Y-10.605
X-106.668 Y-10.635
Y-10.804
X-106.665 Y-10.879
X-106.606 Y-11.017
X-106.491 Y-11.112
X-106.351 Y-11.166
X-106.201 Y-11.175
X-106.181 Y-11.17
X-106.062 Y-11.112
X-105.98 Y-11.008
X-105.95 Y-10.878
Y-10.675
X-105.958 Y-10.64
X-105.977 Y-10.611
X-106.005 Y-10.589
X-106.039 Y-10.579
X-106.074 Y-10.581
X-106.592 Y-10.71
X-106.622 Y-10.723
X-106.646 Y-10.744
X-106.662 Y-10.772
X-106.668 Y-10.804
Y-11.011
X-106.665 Y-11.086
X-106.602 Y-11.222
X-106.485 Y-11.316
X-106.345 Y-11.371
X-106.195 Y-11.376
X-106.178 Y-11.372
X-106.06 Y-11.313
X-105.979 Y-11.209
X-105.95 Y-11.081
Y-10.878
X-105.958 Y-10.844
X-105.977 Y-10.814
X-106.006 Y-10.792
X-106.04 Y-10.782
X-106.075 Y-10.785
X-106.593 Y-10.917
X-106.622 Y-10.93
X-106.646 Y-10.951
X-106.662 Y-10.979
X-106.668 Y-11.011
Y-11.226
X-106.665 Y-11.301
X-106.593 Y-11.433
X-106.474 Y-11.525
X-106.334 Y-11.576
X-106.184 Y-11.577
X-106.17 Y-11.573
X-106.056 Y-11.513
X-105.978 Y-11.41
X-105.95 Y-11.284
Y-11.081
X-105.958 Y-11.045
X-105.978 Y-11.015
X-106.007 Y-10.994
X-106.042 Y-10.984
X-106.077 Y-10.988
X-106.595 Y-11.133
X-106.624 Y-11.146
X-106.647 Y-11.168
X-106.662 Y-11.195
X-106.668 Y-11.226
Y-11.395
X-106.665 Y-11.47
X-106.616 Y-11.612
X-106.505 Y-11.713
X-106.367 Y-11.772
X-106.218 Y-11.785
X-106.192 Y-11.78
X-106.068 Y-11.724
X-105.981 Y-11.618
X-105.95 Y-11.486
Y-11.284
X-105.958 Y-11.25
X-105.976 Y-11.221
X-106.003 Y-11.2
X-106.037 Y-11.189
X-106.071 Y-11.19
X-106.589 Y-11.301
X-106.62 Y-11.313
X-106.645 Y-11.334
X-106.662 Y-11.363
X-106.668 Y-11.395
Y-11.602
X-106.665 Y-11.677
X-106.613 Y-11.818
X-106.501 Y-11.917
X-106.363 Y-11.976
X-106.213 Y-11.986
X-106.188 Y-11.98
X-106.066 Y-11.923
X-105.981 Y-11.818
X-105.95 Y-11.687
Y-11.486
X-105.958 Y-11.452
X-105.976 Y-11.422
X-106.004 Y-11.401
X-106.037 Y-11.39
X-106.072 Y-11.392
X-106.59 Y-11.508
X-106.621 Y-11.52
X-106.645 Y-11.542
X-106.662 Y-11.57
X-106.668 Y-11.602
Y-11.817
X-106.665 Y-11.892
X-106.604 Y-12.029
X-106.488 Y-12.125
X-106.349 Y-12.18
X-106.199 Y-12.186
X-106.179 Y-12.181
X-106.061 Y-12.122
X-105.979 Y-12.018
X-105.95 Y-11.89
Y-11.687
X-105.958 Y-11.652
X-105.977 Y-11.622
X-106.005 Y-11.601
X-106.039 Y-11.591
X-106.075 Y-11.593
X-106.593 Y-11.724
X-106.622 Y-11.737
X-106.646 Y-11.758
X-106.662 Y-11.786
X-106.668 Y-11.817
Y-12.024
X-106.665 Y-12.099
X-106.601 Y-12.235
X-106.484 Y-12.33
X-106.344 Y-12.384
X-106.195 Y-12.388
X-106.177 Y-12.383
X-106.06 Y-12.324
X-105.979 Y-12.221
X-105.95 Y-12.093
Y-11.89
X-105.958 Y-11.855
X-105.977 Y-11.825
X-106.006 Y-11.804
X-106.04 Y-11.794
X-106.076 Y-11.796
X-106.594 Y-11.931
X-106.623 Y-11.944
X-106.646 Y-11.965
X-106.662 Y-11.993
X-106.668 Y-12.024
Y-12.24
X-106.665 Y-12.315
X-106.593 Y-12.446
X-106.474 Y-12.538
X-106.333 Y-12.588
X-106.183 Y-12.589
X-106.169 Y-12.586
X-106.056 Y-12.525
X-105.978 Y-12.422
X-105.95 Y-12.297
Y-12.093
X-105.958 Y-12.057
X-105.978 Y-12.027
X-106.007 Y-12.006
X-106.042 Y-11.996
X-106.078 Y-12
X-106.596 Y-12.147
X-106.624 Y-12.16
X-106.647 Y-12.181
X-106.662 Y-12.209
X-106.668 Y-12.24
Y-12.409
X-106.665 Y-12.484
X-106.615 Y-12.625
X-106.505 Y-12.726
X-106.366 Y-12.785
X-106.217 Y-12.797
X-106.191 Y-12.792
X-106.067 Y-12.736
X-105.981 Y-12.631
X-105.95 Y-12.498
Y-12.297
X-105.958 Y-12.263
X-105.976 Y-12.233
X-106.004 Y-12.212
X-106.037 Y-12.201
X-106.071 Y-12.202
X-106.589 Y-12.314
X-106.62 Y-12.326
X-106.645 Y-12.348
X-106.662 Y-12.376
X-106.668 Y-12.409
Y-12.616
X-106.665 Y-12.69
X-106.612 Y-12.831
X-106.5 Y-12.93
X-106.362 Y-12.989
X-106.212 Y-12.998
X-106.187 Y-12.993
X-106.065 Y-12.936
X-105.981 Y-12.831
X-105.95 Y-12.699
Y-12.498
X-105.958 Y-12.464
X-105.976 Y-12.434
X-106.004 Y-12.413
X-106.038 Y-12.402
X-106.072 Y-12.404
X-106.59 Y-12.521
X-106.621 Y-12.534
X-106.645 Y-12.555
X-106.662 Y-12.584
X-106.668 Y-12.616
Y-12.831
X-106.665 Y-12.906
X-106.603 Y-13.043
X-106.487 Y-13.138
X-106.348 Y-13.193
X-106.198 Y-13.198
X-106.178 Y-13.193
X-106.06 Y-13.134
X-105.979 Y-13.031
X-105.95 Y-12.902
Y-12.699
X-105.958 Y-12.665
X-105.977 Y-12.635
X-106.005 Y-12.614
X-106.04 Y-12.604
X-106.075 Y-12.606
X-106.593 Y-12.737
X-106.622 Y-12.75
X-106.646 Y-12.772
X-106.662 Y-12.799
X-106.668 Y-12.831
Y-13.038
X-106.665 Y-13.113
X-106.6 Y-13.248
X-106.484 Y-13.343
X-106.343 Y-13.396
X-106.193 Y-13.4
X-106.176 Y-13.396
X-106.059 Y-13.337
X-105.979 Y-13.233
X-105.95 Y-13.105
Y-12.902
X-105.958 Y-12.867
X-105.977 Y-12.837
X-106.006 Y-12.816
X-106.04 Y-12.806
X-106.076 Y-12.809
X-106.594 Y-12.945
X-106.623 Y-12.957
X-106.646 Y-12.979
X-106.662 Y-13.007
X-106.668 Y-13.038
Y-13.253
X-106.665 Y-13.328
X-106.592 Y-13.46
X-106.473 Y-13.551
X-106.332 Y-13.601
X-106.182 Y-13.602
X-106.169 Y-13.598
X-106.055 Y-13.538
X-105.978 Y-13.435
X-105.95 Y-13.31
Y-13.105
X-105.958 Y-13.07
X-105.978 Y-13.04
X-106.007 Y-13.019
X-106.042 Y-13.009
X-106.078 Y-13.013
X-106.596 Y-13.161
X-106.624 Y-13.174
X-106.647 Y-13.195
X-106.662 Y-13.223
X-106.668 Y-13.253
Y-13.422
X-106.665 Y-13.497
X-106.615 Y-13.639
X-106.504 Y-13.739
X-106.365 Y-13.798
X-106.216 Y-13.81
X-106.19 Y-13.805
X-106.067 Y-13.748
X-105.981 Y-13.643
X-105.95 Y-13.511
Y-13.31
X-105.958 Y-13.275
X-105.976 Y-13.246
X-106.004 Y-13.225
X-106.037 Y-13.214
X-106.072 Y-13.215
X-106.59 Y-13.328
X-106.62 Y-13.34
X-106.645 Y-13.362
X-106.662 Y-13.39
X-106.668 Y-13.422
Y-13.629
X-106.665 Y-13.704
X-106.612 Y-13.844
X-106.499 Y-13.943
X-106.361 Y-14.002
X-106.211 Y-14.011
X-106.187 Y-14.005
X-106.065 Y-13.948
X-105.981 Y-13.843
X-105.95 Y-13.712
Y-13.511
X-105.958 Y-13.477
X-105.976 Y-13.447
X-106.004 Y-13.426
X-106.038 Y-13.415
X-106.073 Y-13.417
X-106.591 Y-13.535
X-106.621 Y-13.547
X-106.645 Y-13.569
X-106.662 Y-13.597
X-106.668 Y-13.629
Y-13.845
X-106.665 Y-13.919
X-106.602 Y-14.056
X-106.487 Y-14.151
X-106.347 Y-14.206
X-106.197 Y-14.211
X-106.178 Y-14.206
X-106.06 Y-14.147
X-105.979 Y-14.043
X-105.95 Y-13.915
Y-13.712
X-105.958 Y-13.678
X-105.977 Y-13.648
X-106.006 Y-13.626
X-106.04 Y-13.616
X-106.075 Y-13.619
X-106.593 Y-13.751
X-106.622 Y-13.764
X-106.646 Y-13.785
X-106.662 Y-13.813
X-106.668 Y-13.845
Y-14.051
X-106.665 Y-14.126
X-106.599 Y-14.261
X-106.483 Y-14.356
X-106.343 Y-14.409
X-106.193 Y-14.413
X-106.176 Y-14.409
X-106.059 Y-14.349
X-105.979 Y-14.246
X-105.95 Y-14.118
Y-13.915
X-105.958 Y-13.88
X-105.977 Y-13.85
X-106.006 Y-13.829
X-106.04 Y-13.819
X-106.076 Y-13.822
X-106.594 Y-13.958
X-106.623 Y-13.971
X-106.646 Y-13.993
X-106.662 Y-14.02
X-106.668 Y-14.051
Y-14.267
X-106.665 Y-14.342
X-106.592 Y-14.473
X-106.472 Y-14.564
X-106.331 Y-14.614
X-106.181 Y-14.615
X-106.168 Y-14.611
X-106.055 Y-14.55
X-105.978 Y-14.448
X-105.95 Y-14.322
Y-14.118
X-105.958 Y-14.083
X-105.978 Y-14.053
X-106.007 Y-14.032
X-106.042 Y-14.022
X-106.078 Y-14.026
X-106.596 Y-14.174
X-106.624 Y-14.187
X-106.647 Y-14.209
X-106.662 Y-14.236
X-106.668 Y-14.267
Y-14.436
X-106.665 Y-14.511
X-106.614 Y-14.652
X-106.503 Y-14.753
X-106.365 Y-14.811
X-106.215 Y-14.823
X-106.19 Y-14.818
X-106.067 Y-14.761
X-105.981 Y-14.656
X-105.95 Y-14.524
Y-14.322
X-105.958 Y-14.288
X-105.976 Y-14.259
X-106.004 Y-14.238
X-106.037 Y-14.227
X-106.072 Y-14.228
X-106.59 Y-14.342
X-106.62 Y-14.354
X-106.645 Y-14.375
X-106.662 Y-14.404
X-106.668 Y-14.436
Y-14.643
X-106.665 Y-14.718
X-106.611 Y-14.858
X-106.498 Y-14.956
X-106.36 Y-15.015
X-106.21 Y-15.024
X-106.186 Y-15.018
X-106.065 Y-14.961
X-105.981 Y-14.856
X-105.95 Y-14.725
Y-14.524
X-105.958 Y-14.49
X-105.976 Y-14.46
X-106.004 Y-14.439
X-106.038 Y-14.428
X-106.073 Y-14.43
X-106.591 Y-14.549
X-106.621 Y-14.561
X-106.645 Y-14.583
X-106.662 Y-14.611
X-106.668 Y-14.643
Y-14.858
X-106.665 Y-14.933
X-106.602 Y-15.069
X-106.486 Y-15.165
X-106.346 Y-15.219
X-106.196 Y-15.224
X-106.177 Y-15.219
X-106.06 Y-15.16
X-105.979 Y-15.056
X-105.95 Y-14.928
Y-14.725
X-105.958 Y-14.691
X-105.977 Y-14.661
X-106.006 Y-14.639
X-106.04 Y-14.629
X-106.075 Y-14.632
X-106.593 Y-14.765
X-106.622 Y-14.778
X-106.646 Y-14.799
X-106.662 Y-14.827
X-106.668 Y-14.858
Y-15.065
X-106.665 Y-15.14
X-106.599 Y-15.275
X-106.482 Y-15.369
X-106.342 Y-15.422
X-106.192 Y-15.426
X-106.176 Y-15.422
X-106.059 Y-15.362
X-105.979 Y-15.259
X-105.95 Y-15.131
Y-14.928
X-105.958 Y-14.893
X-105.977 Y-14.863
X-106.006 Y-14.842
X-106.04 Y-14.832
X-106.076 Y-14.835
X-106.594 Y-14.972
X-106.623 Y-14.985
X-106.647 Y-15.006
X-106.662 Y-15.034
X-106.668 Y-15.065
Y-15.28
X-106.665 Y-15.355
X-106.592 Y-15.486
X-106.472 Y-15.577
X-106.331 Y-15.627
X-106.181 Y-15.628
X-106.168 Y-15.624
X-106.055 Y-15.563
X-105.978 Y-15.461
X-105.95 Y-15.336
Y-15.131
X-105.958 Y-15.096
X-105.978 Y-15.066
X-106.007 Y-15.045
X-106.042 Y-15.035
X-106.078 Y-15.039
X-106.596 Y-15.188
X-106.624 Y-15.201
X-106.647 Y-15.222
X-106.662 Y-15.25
X-106.668 Y-15.28
Y-15.449
X-106.665 Y-15.524
X-106.614 Y-15.665
X-106.503 Y-15.766
X-106.364 Y-15.824
X-106.215 Y-15.836
X-106.19 Y-15.831
X-106.067 Y-15.774
X-105.981 Y-15.669
X-105.95 Y-15.537
Y-15.336
X-105.958 Y-15.302
X-105.976 Y-15.272
X-106.004 Y-15.251
X-106.037 Y-15.24
X-106.072 Y-15.241
X-106.59 Y-15.355
X-106.62 Y-15.367
X-106.645 Y-15.389
X-106.662 Y-15.417
X-106.668 Y-15.449
Y-15.656
X-106.665 Y-15.731
X-106.611 Y-15.871
X-106.498 Y-15.97
X-106.359 Y-16.028
X-106.21 Y-16.037
X-106.186 Y-16.032
X-106.065 Y-15.974
X-105.98 Y-15.869
X-105.95 Y-15.738
Y-15.537
X-105.958 Y-15.503
X-105.976 Y-15.473
X-106.004 Y-15.452
X-106.038 Y-15.441
X-106.073 Y-15.443
X-106.591 Y-15.562
X-106.621 Y-15.575
X-106.645 Y-15.596
X-106.662 Y-15.624
X-106.668 Y-15.656
Y-15.872
Y-15.91
Y-15.956
X-106.666 Y-16.002
X-106.661 Y-16.008
X-106.595 Y-16.073
X-106.512 Y-16.115
X-106.421 Y-16.129
G3 X-106.278 Y-15.838 I-0.006 J0.184
X-106.668 Y-15.956 I-0.175 J-0.126
G1 Y-16.026
X-106.667 Y-16.036
X-106.664 Y-16.047
X-106.66 Y-16.058
X-106.655 Y-16.068
X-106.646 Y-16.081
X-106.636 Y-16.092
X-106.625 Y-16.1
X-106.604 Y-16.114
X-106.594 Y-16.12
X-106.583 Y-16.124
X-106.572 Y-16.127
X-106.562 Y-16.129
X-106.139
X-106.092
X-106.054
X-106.035 Y-16.124
X-106.008 Y-16.108
X-105.991 Y-16.082
X-105.988 Y-16.051
X-105.998 Y-16.021
X-106.02 Y-15.999
X-106.05 Y-15.99
X-106.081 Y-15.994
X-106.107 Y-16.012
X-106.123 Y-16.039
X-106.124 Y-16.07
X-106.112 Y-16.099
X-106.089 Y-16.12
X-106.072 Y-16.126
X-106.054 Y-16.129
X-106.044 Y-16.127
X-106.033 Y-16.124
X-106.023 Y-16.119
X-106.012 Y-16.114
X-105.992 Y-16.099
X-105.981 Y-16.09
X-105.97 Y-16.077
X-105.963 Y-16.067
X-105.958 Y-16.056
X-105.954 Y-16.046
X-105.952 Y-16.036
X-105.951 Y-16.025
X-105.95 Y-15.738
X-105.955 Y-15.71
X-105.968 Y-15.685
X-105.997 Y-15.668 Z-0.983
X-106.022 Y-15.653 Z-0.966
X-106.041 Y-15.642 Z-0.939
X-106.05 Z-0.916
X-106.054 Z-0.89
G0 Z2
X-96.381 Y-9.465
Z0.5
G3 X-95.897 Y-9.59 Z0.29 I0.242 J-0.062 F333.3
X-96.381 Y-9.465 Z0.079 I-0.242 J0.062
X-95.897 Y-9.59 Z-0.131 I0.242 J-0.062
X-96.381 Y-9.465 Z-0.342 I-0.242 J0.062
X-95.897 Y-9.59 Z-0.552 I0.242 J-0.062
X-96.381 Y-9.465 Z-0.763 I-0.242 J0.062
X-96.171 Y-9.775 Z-0.876 I0.242 J-0.062
X-95.889 Y-9.527 Z-0.99 I0.031 J0.248
X-96.389 I-0.25
X-95.889 I0.25
G1 X-95.852 Y-9.382 F1000
X-95.865 Y-9.308
X-95.902 Y-9.243
X-96.009 Y-9.138
X-96.153 Y-9.098
X-96.302 Y-9.119
X-96.432 Y-9.193
X-96.529 Y-9.308
X-96.581 Y-9.448
X-96.583 Y-9.598
X-96.536 Y-9.741
X-96.444 Y-9.859
X-96.318 Y-9.941
X-96.172 Y-9.977
X-96.023 Y-9.963
X-95.886 Y-9.901
X-95.778 Y-9.797
X-95.7 Y-9.669
X-95.65 Y-9.528
X-95.639 Y-9.378
X-95.674 Y-9.232
X-95.745 Y-9.1
X-95.853 Y-8.996
X-95.984 Y-8.923
X-96.13 Y-8.89
X-96.28 Y-8.897
X-96.312 Y-8.906
X-96.366 Y-8.927
X-96.415 Y-8.958
X-96.457 Y-8.998
X-96.518 Y-9.068
X-96.579 Y-9.12
X-96.69 Y-9.221
X-96.761 Y-9.353
X-96.794 Y-9.5
X-96.791 Y-9.65
X-96.749 Y-9.794
X-96.719 Y-9.846
X-96.679 Y-9.901
X-96.627 Y-9.946
X-96.566 Y-9.978
X-96.529 Y-9.983
X-96.492 Y-9.975
X-96.462 Y-9.953
X-96.441 Y-9.922
X-96.433 Y-9.886
X-96.43 Y-9.763
X-96.418 Y-9.202
X-96.424 Y-9.165
X-96.443 Y-9.133
X-96.473 Y-9.11
X-96.509 Y-9.1
X-96.546 Y-9.103
X-96.579 Y-9.12
X-96.748 Y-9.259
X-96.832 Y-9.321
X-96.892 Y-9.366
X-96.965 Y-9.497
X-96.988 Y-9.645
X-96.987 Y-9.654
X-96.948 Y-9.771
X-96.863 Y-9.861
X-96.748 Y-9.908
X-96.714 Y-9.914
X-96.681 Y-9.907
X-96.651 Y-9.89
X-96.629 Y-9.864
X-96.617 Y-9.832
Y-9.798
X-96.681 Y-9.391
X-96.694 Y-9.354
X-96.721 Y-9.325
X-96.756 Y-9.309
X-96.795 Y-9.308
X-96.832 Y-9.321
X-96.917 Y-9.378
X-97.002 Y-9.43
X-97.066 Y-9.469
X-97.145 Y-9.597
X-97.127 Y-9.713
X-97.064 Y-9.813
X-96.967 Y-9.88
X-96.852 Y-9.904
X-96.816 Y-9.895
X-96.785 Y-9.874
X-96.764 Y-9.843
X-96.755 Y-9.807
X-96.761 Y-9.77
X-96.863 Y-9.486
X-96.88 Y-9.457
X-96.905 Y-9.434
X-96.936 Y-9.422
X-96.97 Y-9.42
X-97.002 Y-9.43
X-97.087 Y-9.476
X-97.149 Y-9.502
X-97.182 Y-9.518
X-97.23 Y-9.576
X-97.242 Y-9.692
X-97.199 Y-9.8
X-97.111 Y-9.876
X-96.999 Y-9.904
X-96.966 Y-9.897
X-96.937 Y-9.88
X-96.915 Y-9.854
X-96.904 Y-9.822
X-96.903 Y-9.789
X-96.914 Y-9.757
X-97.025 Y-9.548
X-97.047 Y-9.52
X-97.078 Y-9.502
X-97.113 Y-9.495
X-97.149 Y-9.502
X-97.256 Y-9.547
X-97.29 Y-9.564
X-97.336 Y-9.623
X-97.34 Y-9.724
X-97.299 Y-9.816
X-97.222 Y-9.881
X-97.123 Y-9.904
X-97.092 Y-9.897
X-97.064 Y-9.882
G3 X-97.256 Y-9.547 I-0.122 J0.152
G1 X-97.321 Y-9.575
X-97.34 Y-9.581
X-97.376 Y-9.594
X-97.427 Y-9.648
X-97.433 Y-9.74
X-97.397 Y-9.824
X-97.327 Y-9.883
X-97.238 Y-9.904
X-97.212 Y-9.899
X-97.188 Y-9.886
G3 X-97.34 Y-9.581 I-0.107 J0.137
G1 X-97.425 Y-9.607
X-97.46 Y-9.62
X-97.515 Y-9.672
X-97.514 Y-9.781
X-97.449 Y-9.87
X-97.345 Y-9.904
X-97.327 Y-9.901
X-97.31 Y-9.894
G3 X-97.425 Y-9.607 I-0.074 J0.137
G1 X-97.51 Y-9.633
X-97.545 Y-9.646
X-97.572 Y-9.672
X-97.611 Y-9.736
X-97.594 Y-9.819
X-97.536 Y-9.881
X-97.454 Y-9.904
X-97.424 Y-9.897
G3 X-97.51 Y-9.633 I-0.05 J0.13
G1 X-97.596 Y-9.659
X-97.641 Y-9.669
X-97.679 Y-9.677
X-97.713 Y-9.684
X-97.708 Y-9.789
X-97.643 Y-9.872
X-97.543 Y-9.904
X-97.52 Y-9.898
X-97.501 Y-9.884
X-97.488 Y-9.864
X-97.484 Y-9.84
G3 X-97.679 Y-9.677 I-0.172 J-0.007
G1 X-97.725 Y-9.684
X-97.763 Y-9.691
X-97.785 Y-9.694
X-97.809 Y-9.703
X-97.816 Y-9.707
X-97.815 Y-9.716
X-97.804 Y-9.746
X-97.784 Y-9.77
X-97.758 Y-9.788
X-97.728 Y-9.796
X-97.082 Y-9.872
X-97.02 Y-9.88
X-96.981 Y-9.876
X-96.946 Y-9.858
X-96.921 Y-9.828
X-96.909 Y-9.791
X-96.913 Y-9.751
X-96.931 Y-9.717
X-96.962 Y-9.692
X-96.999 Y-9.681
G3 X-97.785 Y-9.694 I-0.33 J-3.631
G1 X-97.795 Y-9.697
X-97.806 Y-9.701
X-97.816 Y-9.707
X-97.827 Y-9.715
X-97.839 Y-9.727
X-97.848 Y-9.739
X-97.851 Y-9.744
X-97.856 Y-9.754
X-97.859 Y-9.765
X-97.863 Y-9.789
Y-9.796
X-97.853 Y-9.824
X-97.831 Y-9.844
X-97.804 Y-9.852
X-97.775 Y-9.848
X-97.751 Y-9.831
X-97.737 Y-9.806
X-97.735 Y-9.777
X-97.746 Y-9.75
X-97.768 Y-9.731
X-97.796 Y-9.723
X-97.824 Y-9.728
X-97.846 Y-9.743
X-97.859 Y-9.765
X-97.862 Y-9.775
X-97.863 Y-9.786
Y-9.796
X-97.862 Y-9.807
X-97.86 Y-9.818
X-97.856 Y-9.828
X-97.848 Y-9.844
X-97.84 Y-9.855
X-97.818 Y-9.878
X-97.806 Y-9.888
X-97.795 Y-9.894
X-97.785 Y-9.898
X-97.774 Y-9.901
X-97.763 Y-9.903
X-97.51 Y-9.904
X-96.833
X-96.79
X-96.759 Y-9.906
X-96.748 Y-9.908
X-96.494 Y-10.005
X-96.473 Y-10.021
X-96.452 Y-10.038
X-96.336 Y-10.133
X-96.193 Y-10.177
X-96.043 Y-10.179
X-95.897 Y-10.145
X-95.762 Y-10.079
X-95.646 Y-9.984
X-95.613 Y-9.943
X-95.575 Y-9.885
X-95.552 Y-9.82
X-95.544 Y-9.752
Y-9.237
X-95.552 Y-9.087
X-95.616 Y-8.951
X-95.714 Y-8.838
X-95.837 Y-8.752
X-95.975 Y-8.695
X-96.006 Y-8.689
X-96.124
X-96.234 Y-8.735
X-96.317 Y-8.82
X-96.33 Y-8.856
X-96.328 Y-8.895
X-96.312 Y-8.93
X-96.284 Y-8.956
X-96.187 Y-9.016
X-95.697 Y-9.319
X-95.665 Y-9.331
X-95.63 Y-9.332
X-95.597 Y-9.322
X-95.57 Y-9.3
X-95.551 Y-9.271
X-95.544 Y-9.237
Y-8.937
X-95.548 Y-8.862
X-95.6 Y-8.722
X-95.7 Y-8.609
X-95.825 Y-8.526
X-95.859 Y-8.515
X-95.995 Y-8.503
X-96.121 Y-8.552
X-96.213 Y-8.652
X-96.224 Y-8.69
X-96.22 Y-8.729
X-96.2 Y-8.764
X-96.169 Y-8.788
X-95.688 Y-9.023
X-95.65 Y-9.033
X-95.611 Y-9.028
X-95.577 Y-9.007
X-95.553 Y-8.976
X-95.544 Y-8.937
Y-8.684
X-95.548 Y-8.609
X-95.609 Y-8.472
X-95.72 Y-8.372
X-95.751 Y-8.358
X-95.867 Y-8.334
X-95.983 Y-8.357
X-96.081 Y-8.422
X-96.146 Y-8.521
X-96.152 Y-8.553
X-96.148 Y-8.585
X-96.134 Y-8.614
X-96.111 Y-8.637
X-96.082 Y-8.651
X-95.673 Y-8.776
X-95.637 Y-8.78
X-95.602 Y-8.771
X-95.572 Y-8.75
X-95.552 Y-8.719
X-95.544 Y-8.684
Y-8.477
Y-8.43
Y-8.392
X-95.546 Y-8.365
X-95.565 Y-8.336
X-95.632 Y-8.264
X-95.718 Y-8.218
X-95.815 Y-8.202
G3 X-95.972 Y-8.52 I0.007 J-0.202
X-95.544 Y-8.392 I0.192 J0.136
G1 X-95.545 Y-8.308
X-95.547 Y-8.295
X-95.55 Y-8.282
X-95.556 Y-8.27
X-95.564 Y-8.257
X-95.579 Y-8.24
X-95.598 Y-8.223
X-95.61 Y-8.215
X-95.623 Y-8.209
X-95.636 Y-8.205
X-95.648 Y-8.203
X-95.902 Y-8.202
X-95.944
X-95.955 Y-8.203
X-95.966 Y-8.205
X-95.976 Y-8.209
X-95.987 Y-8.213
X-96.002 Y-8.223
X-96.025 Y-8.244
X-96.034 Y-8.255
X-96.041 Y-8.266
X-96.163 Y-8.561
X-96.241 Y-8.7
X-96.259 Y-8.73
X-96.325 Y-8.833
X-96.41 Y-8.943
X-96.457 Y-8.998
X-96.473 Y-9.028
X-96.479 Y-9.061
Y-9.26
Y-9.969
X-96.472 Y-10.006
X-96.452 Y-10.038
X-96.408 Y-10.082
X-96.374 Y-10.124
X-96.345 Y-10.166
X-96.325 Y-10.2
X-96.287 Y-10.264
X-96.16 Y-10.344
X-96.013 Y-10.371
X-95.863 Y-10.356
X-95.721 Y-10.308
X-95.697 Y-10.295
X-95.616 Y-10.228
X-95.563 Y-10.137
X-95.544 Y-10.033
Y-9.752
X-95.552 Y-9.718
X-95.571 Y-9.688
X-95.599 Y-9.666
X-95.633 Y-9.656
X-95.669 Y-9.659
X-95.701 Y-9.673
X-95.755 Y-9.71
X-96.289 Y-10.079
X-96.314 Y-10.103
X-96.329 Y-10.133
X-96.333 Y-10.167
X-96.325 Y-10.2
X-96.302 Y-10.25
X-96.287 Y-10.293
X-96.276 Y-10.335
X-96.266 Y-10.371
X-96.174 Y-10.489
X-96.036 Y-10.549
X-95.887 Y-10.565
X-95.739 Y-10.545
X-95.731 Y-10.541
X-95.633 Y-10.476
X-95.567 Y-10.379
X-95.544 Y-10.264
Y-10.033
X-95.551 Y-10
X-95.568 Y-9.972
X-95.594 Y-9.95
X-95.626 Y-9.938
X-95.66
X-95.692 Y-9.949
X-96.224 Y-10.236
X-96.254 Y-10.261
X-96.273 Y-10.296
X-96.276 Y-10.335
X-96.263 Y-10.419
Y-10.466
X-96.261 Y-10.503
X-96.229 Y-10.571
X-96.13 Y-10.684
X-95.994 Y-10.747
X-95.846 Y-10.77
X-95.798 Y-10.763
X-95.668 Y-10.709
X-95.577 Y-10.603
X-95.544 Y-10.466
Y-10.264
X-95.553 Y-10.227
X-95.574 Y-10.196
X-95.606 Y-10.175
X-95.643 Y-10.167
X-95.68 Y-10.174
X-96.199 Y-10.375
X-96.232 Y-10.396
X-96.255 Y-10.428
X-96.263 Y-10.466
X-96.262 Y-10.635
X-96.258 Y-10.71
X-96.181 Y-10.838
X-96.058 Y-10.924
X-95.914 Y-10.967
X-95.764 Y-10.965
X-95.749 Y-10.96
X-95.642 Y-10.897
X-95.57 Y-10.797
X-95.544 Y-10.676
Y-10.466
X-95.552 Y-10.43
X-95.573 Y-10.4
X-95.603 Y-10.379
X-95.639 Y-10.37
X-95.675 Y-10.375
X-96.193 Y-10.543
X-96.22 Y-10.557
X-96.242 Y-10.578
X-96.256 Y-10.605
X-96.262 Y-10.635
Y-10.804
X-96.258 Y-10.879
X-96.201 Y-11.017
X-96.085 Y-11.113
X-95.945 Y-11.167
X-95.795 Y-11.176
X-95.775 Y-11.171
X-95.656 Y-11.113
X-95.574 Y-11.008
X-95.544 Y-10.879
Y-10.676
X-95.552 Y-10.641
X-95.571 Y-10.611
X-95.599 Y-10.59
X-95.633 Y-10.58
X-95.668 Y-10.582
X-96.186 Y-10.71
X-96.216 Y-10.723
X-96.24 Y-10.744
X-96.256 Y-10.772
X-96.262 Y-10.804
Y-11.011
X-96.258 Y-11.086
X-96.196 Y-11.222
X-96.079 Y-11.317
X-95.94 Y-11.372
X-95.79 Y-11.377
X-95.772 Y-11.372
X-95.654 Y-11.313
X-95.573 Y-11.21
X-95.544 Y-11.081
Y-10.879
X-95.552 Y-10.844
X-95.571 Y-10.814
X-95.599 Y-10.793
X-95.633 Y-10.783
X-95.669 Y-10.785
X-96.187 Y-10.917
X-96.216 Y-10.93
X-96.24 Y-10.951
X-96.256 Y-10.979
X-96.262 Y-11.011
Y-11.226
X-96.258 Y-11.301
X-96.188 Y-11.433
X-96.069 Y-11.525
X-95.928 Y-11.576
X-95.778 Y-11.578
X-95.764 Y-11.574
X-95.65 Y-11.514
X-95.572 Y-11.411
X-95.544 Y-11.285
Y-11.081
X-95.552 Y-11.046
X-95.572 Y-11.016
X-95.601 Y-10.995
X-95.635 Y-10.985
X-95.671 Y-10.988
X-96.189 Y-11.133
X-96.218 Y-11.146
X-96.241 Y-11.168
X-96.256 Y-11.195
X-96.262 Y-11.226
Y-11.395
X-96.258 Y-11.47
X-96.21 Y-11.612
X-96.1 Y-11.714
X-95.962 Y-11.773
X-95.813 Y-11.786
X-95.786 Y-11.781
X-95.662 Y-11.724
X-95.575 Y-11.619
X-95.544 Y-11.486
Y-11.285
X-95.551 Y-11.251
X-95.57 Y-11.222
X-95.597 Y-11.2
X-95.63 Y-11.189
X-95.665 Y-11.191
X-96.183 Y-11.301
X-96.214 Y-11.313
X-96.239 Y-11.334
X-96.256 Y-11.363
X-96.262 Y-11.395
Y-11.602
X-96.258 Y-11.677
X-96.207 Y-11.818
X-96.095 Y-11.917
X-95.957 Y-11.977
X-95.808 Y-11.986
X-95.782 Y-11.981
X-95.66 Y-11.924
X-95.575 Y-11.819
X-95.544 Y-11.687
Y-11.486
X-95.552 Y-11.452
X-95.57 Y-11.423
X-95.598 Y-11.401
X-95.631 Y-11.391
X-95.666 Y-11.392
X-96.184 Y-11.508
X-96.214 Y-11.52
X-96.239 Y-11.542
X-96.256 Y-11.57
X-96.262 Y-11.602
Y-11.817
X-96.258 Y-11.892
X-96.198 Y-12.029
X-96.083 Y-12.126
X-95.943 Y-12.181
X-95.793 Y-12.186
X-95.773 Y-12.181
X-95.655 Y-12.123
X-95.573 Y-12.019
X-95.544 Y-11.89
Y-11.687
X-95.552 Y-11.653
X-95.571 Y-11.623
X-95.599 Y-11.602
X-95.633 Y-11.592
X-95.668 Y-11.594
X-96.186 Y-11.724
X-96.216 Y-11.737
X-96.24 Y-11.758
X-96.256 Y-11.786
X-96.262 Y-11.817
Y-12.024
X-96.258 Y-12.099
X-96.195 Y-12.235
X-96.079 Y-12.33
X-95.939 Y-12.384
