%
(1001)
(T1  D=1 CR=0 - ZMIN=-2 - flat end mill)
G90 G94
G17
G21
G28 G91 Z0
G90

(Clear 18)
M9
T1 M6
S5000 M3
G54
M8
G0 X-121.634 Y-9.452
Z12
Z2
Z0.5
G3 X-121.15 Y-9.577 Z0.29 I0.242 J-0.062 F333.3
X-121.634 Y-9.452 Z0.079 I-0.242 J0.062
X-121.15 Y-9.577 Z-0.131 I0.242 J-0.062
X-121.634 Y-9.452 Z-0.342 I-0.242 J0.062
X-121.15 Y-9.577 Z-0.552 I0.242 J-0.062
X-121.634 Y-9.452 Z-0.763 I-0.242 J0.062
X-121.423 Y-9.763 Z-0.876 I0.242 J-0.062
X-121.142 Y-9.515 Z-0.99 I0.031 J0.248
X-121.642 I-0.25
X-121.142 I0.25
G1 X-121.105 Y-9.369 F1000
X-121.118 Y-9.295
X-121.155 Y-9.23
X-121.262 Y-9.125
X-121.406 Y-9.085
X-121.555 Y-9.106
X-121.685 Y-9.18
X-121.782 Y-9.295
X-121.834 Y-9.436
X-121.836 Y-9.586
X-121.788 Y-9.728
X-121.697 Y-9.847
X-121.571 Y-9.928
X-121.425 Y-9.964
X-121.276 Y-9.95
X-121.139 Y-9.888
X-121.031 Y-9.784
X-120.953 Y-9.656
X-120.902 Y-9.515
X-120.892 Y-9.365
X-120.927 Y-9.22
X-120.998 Y-9.087
X-121.106 Y-8.984
X-121.237 Y-8.91
X-121.383 Y-8.877
X-121.533 Y-8.884
X-121.56 Y-8.892
X-121.614 Y-8.913
X-121.663 Y-8.944
X-121.705 Y-8.985
X-121.79 Y-9.072
X-121.837 Y-9.111
X-121.946 Y-9.214
X-122.016 Y-9.347
X-122.047 Y-9.493
X-122.042 Y-9.643
X-121.999 Y-9.787
X-121.982 Y-9.816
X-121.946 Y-9.866
X-121.901 Y-9.907
X-121.849 Y-9.938
X-121.811 Y-9.946
X-121.774 Y-9.939
X-121.742 Y-9.919
X-121.719 Y-9.888
X-121.71 Y-9.851
X-121.705 Y-9.751
X-121.675 Y-9.195
X-121.68 Y-9.158
X-121.699 Y-9.125
X-121.729 Y-9.101
X-121.765 Y-9.09
X-121.803 Y-9.094
X-121.837 Y-9.111
X-121.875 Y-9.143
X-122.078 Y-9.3
X-122.135 Y-9.348
X-122.213 Y-9.477
X-122.239 Y-9.625
X-122.238 Y-9.631
X-122.195 Y-9.759
X-122.1 Y-9.856
X-121.973 Y-9.9
X-121.938 Y-9.897
X-121.906 Y-9.881
X-121.882 Y-9.856
X-121.868 Y-9.823
X-121.866 Y-9.788
X-121.921 Y-9.368
X-121.931 Y-9.336
X-121.952 Y-9.308
X-121.98 Y-9.289
X-122.013 Y-9.281
X-122.047 Y-9.285
X-122.078 Y-9.3
X-122.128 Y-9.338
X-122.232 Y-9.406
X-122.295 Y-9.447
X-122.341 Y-9.506
X-122.356 Y-9.641
X-122.308 Y-9.768
X-122.207 Y-9.858
X-122.076 Y-9.892
X-122.039 Y-9.884
X-122.007 Y-9.863
X-121.986 Y-9.832
X-121.978 Y-9.796
X-121.983 Y-9.758
X-122.09 Y-9.46
X-122.107 Y-9.43
X-122.133 Y-9.408
X-122.165 Y-9.395
X-122.2
X-122.232 Y-9.406
X-122.298 Y-9.445
X-122.344 Y-9.465
X-122.411 Y-9.499
X-122.456 Y-9.559
X-122.462 Y-9.678
X-122.414 Y-9.787
X-122.323 Y-9.864
X-122.207 Y-9.891
X-122.169 Y-9.883
X-122.138 Y-9.86
X-122.117 Y-9.828
X-122.11 Y-9.79
X-122.118 Y-9.753
X-122.215 Y-9.52
X-122.236 Y-9.488
X-122.268 Y-9.466
X-122.306 Y-9.458
X-122.344 Y-9.465
X-122.402 Y-9.49
X-122.467 Y-9.515
X-122.501 Y-9.53
X-122.552 Y-9.585
X-122.561 Y-9.694
X-122.519 Y-9.795
X-122.437 Y-9.866
X-122.331 Y-9.891
X-122.298 Y-9.885
X-122.27 Y-9.868
G3 X-122.467 Y-9.515 I-0.13 J0.159
G1 X-122.551 Y-9.548
X-122.586 Y-9.563
X-122.641 Y-9.613
X-122.652 Y-9.711
X-122.616 Y-9.803
X-122.542 Y-9.868
X-122.447 Y-9.891
X-122.42 Y-9.887
X-122.395 Y-9.875
G3 X-122.551 Y-9.548 I-0.097 J0.155
G1 X-122.636 Y-9.581
X-122.683 Y-9.596
X-122.718 Y-9.609
X-122.739 Y-9.705
X-122.711 Y-9.798
X-122.64 Y-9.866
X-122.546 Y-9.891
X-122.518 Y-9.885
X-122.494 Y-9.87
X-122.476 Y-9.847
G3 X-122.683 Y-9.596 I-0.157 J0.082
G1 X-122.721 Y-9.608
X-122.767 Y-9.622
X-122.802 Y-9.635
X-122.821 Y-9.722
X-122.794 Y-9.807
X-122.73 Y-9.869
X-122.643 Y-9.891
X-122.617 Y-9.885
X-122.595 Y-9.871
X-122.579 Y-9.849
G3 X-122.767 Y-9.622 I-0.146 J0.07
G1 X-122.805 Y-9.634
X-122.841 Y-9.645
X-122.868 Y-9.671
X-122.905 Y-9.736
X-122.886 Y-9.813
X-122.831 Y-9.87
X-122.755 Y-9.891
X-122.731 Y-9.887
G3 X-122.805 Y-9.634 I-0.045 J0.124
G1 X-122.89 Y-9.656
X-122.905 Y-9.659
X-122.943 Y-9.666
X-122.972 Y-9.673
X-122.983 Y-9.773
X-122.929 Y-9.858
X-122.835 Y-9.891
X-122.81 Y-9.885
X-122.79 Y-9.868
X-122.778 Y-9.845
X-122.775 Y-9.798
X-122.787 Y-9.752
X-122.813 Y-9.712
X-122.851 Y-9.683
X-122.896 Y-9.667
X-122.943 Y-9.666
X-122.974 Y-9.672
X-123.017 Y-9.678
X-123.027 Y-9.68
X-123.045 Y-9.688
X-123.059 Y-9.695
X-123.072 Y-9.704
X-123.071 Y-9.713
X-123.062 Y-9.747
X-123.041 Y-9.776
X-123.012 Y-9.795
X-122.978 Y-9.804
X-122.344 Y-9.842
X-122.255 Y-9.847
X-122.217 Y-9.842
X-122.183 Y-9.822
X-122.159 Y-9.791
X-122.149 Y-9.754
X-122.155 Y-9.715
X-122.174 Y-9.681
X-122.205 Y-9.658
X-122.243 Y-9.648
G3 X-123.027 Y-9.68 I-0.241 J-3.638
G1 X-123.038 Y-9.684
X-123.048 Y-9.688
X-123.059 Y-9.694
X-123.072 Y-9.704
X-123.085 Y-9.719
X-123.093 Y-9.731
X-123.098 Y-9.744
X-123.103 Y-9.768
X-123.104 Y-9.775
X-123.094 Y-9.805
X-123.072 Y-9.827
X-123.041 Y-9.835
X-123.011 Y-9.828
X-122.987 Y-9.808
X-122.976 Y-9.778
X-122.981 Y-9.747
X-122.999 Y-9.722
X-123.027 Y-9.708
X-123.059 Y-9.71
X-123.082 Y-9.723
X-123.098 Y-9.744
X-123.101 Y-9.754
X-123.103 Y-9.765
X-123.104 Y-9.775
Y-9.786
X-123.102 Y-9.796
X-123.099 Y-9.807
X-123.096 Y-9.818
X-123.09 Y-9.828
X-123.076 Y-9.847
X-123.059 Y-9.866
X-123.048 Y-9.874
X-123.038 Y-9.88
X-123.027 Y-9.885
X-123.017 Y-9.888
X-123.006 Y-9.89
X-122.996 Y-9.891
X-122.213
X-122.082 Y-9.892
X-122.044
X-121.959 Y-9.902
X-121.916 Y-9.913
X-121.875 Y-9.926
X-121.79 Y-9.965
X-121.741 Y-9.997
X-121.705 Y-10.026
X-121.589 Y-10.12
X-121.446 Y-10.164
X-121.296 Y-10.166
X-121.149 Y-10.133
X-121.015 Y-10.066
X-120.899 Y-9.971
X-120.865 Y-9.93
X-120.828 Y-9.872
X-120.804 Y-9.807
X-120.797 Y-9.739
Y-9.237
X-120.804 Y-9.087
X-120.863 Y-8.949
X-120.959 Y-8.834
X-121.081 Y-8.746
X-121.218 Y-8.685
X-121.254 Y-8.677
X-121.374 Y-8.676
X-121.485 Y-8.721
X-121.569 Y-8.807
X-121.583 Y-8.843
X-121.581 Y-8.881
X-121.565 Y-8.916
X-121.538 Y-8.943
X-121.435 Y-9.008
X-120.95 Y-9.318
X-120.918 Y-9.331
X-120.883 Y-9.333
X-120.85 Y-9.322
X-120.822 Y-9.301
X-120.804 Y-9.271
X-120.797 Y-9.237
Y-8.937
X-120.804 Y-8.787
X-120.882 Y-8.659
X-120.993 Y-8.558
X-121.128 Y-8.492
X-121.14 Y-8.489
X-121.264 Y-8.49
X-121.378 Y-8.54
X-121.461 Y-8.633
X-121.472 Y-8.67
X-121.468 Y-8.709
X-121.45 Y-8.743
X-121.42 Y-8.768
X-120.944 Y-9.022
X-120.912 Y-9.032
X-120.878
X-120.847 Y-9.02
X-120.821 Y-8.999
X-120.803 Y-8.97
X-120.797 Y-8.937
Y-8.684
X-120.8 Y-8.609
X-120.853 Y-8.468
X-120.958 Y-8.361
X-120.996 Y-8.344
X-121.112 Y-8.318
X-121.229 Y-8.339
X-121.329 Y-8.403
X-121.396 Y-8.502
X-121.402 Y-8.541
X-121.393 Y-8.579
X-121.369 Y-8.611
X-121.335 Y-8.631
X-120.93 Y-8.774
X-120.893 Y-8.78
X-120.857 Y-8.772
X-120.826 Y-8.751
X-120.805 Y-8.72
X-120.797 Y-8.684
Y-8.43
Y-8.392
Y-8.346
X-120.798 Y-8.31
X-120.822 Y-8.285
X-120.885 Y-8.233
X-120.96 Y-8.201
X-121.041 Y-8.19
G3 X-121.167 Y-8.474 I0.006 J-0.173
X-120.797 Y-8.346 I0.16 J0.136
G1 Y-8.308
X-120.798 Y-8.287
X-120.799 Y-8.276
X-120.803 Y-8.266
X-120.807 Y-8.255
X-120.813 Y-8.244
X-120.822 Y-8.234
X-120.846 Y-8.211
X-120.859 Y-8.202
X-120.87 Y-8.197
X-120.881 Y-8.194
X-120.891 Y-8.191
X-120.902 Y-8.19
X-121.16
X-121.198
X-121.216 Y-8.192
X-121.235 Y-8.197
X-121.253 Y-8.207
X-121.271 Y-8.223
X-121.282 Y-8.235
X-121.295 Y-8.253
X-121.302 Y-8.271
X-121.315 Y-8.308
X-121.421 Y-8.561
X-121.468 Y-8.646
X-121.52 Y-8.73
X-121.575 Y-8.815
X-121.621 Y-8.877
X-121.705 Y-8.985
X-121.721 Y-9.014
X-121.727 Y-9.047
X-121.728 Y-9.247
X-121.733 Y-9.957
X-121.726 Y-9.994
X-121.705 Y-10.026
X-121.649 Y-10.082
X-121.621 Y-10.12
X-121.589 Y-10.166
X-121.577 Y-10.192
X-121.56 Y-10.225
X-121.442 Y-10.318
X-121.296 Y-10.354
X-121.146 Y-10.347
X-121.002 Y-10.306
X-120.961 Y-10.285
X-120.874 Y-10.218
X-120.817 Y-10.125
X-120.797 Y-10.017
Y-9.739
X-120.804 Y-9.704
X-120.823 Y-9.674
X-120.852 Y-9.653
X-120.886 Y-9.643
X-120.921 Y-9.646
X-120.954 Y-9.66
X-121.01 Y-9.7
X-121.542 Y-10.07
X-121.567 Y-10.094
X-121.581 Y-10.125
X-121.585 Y-10.158
X-121.577 Y-10.192
X-121.55 Y-10.251
X-121.536 Y-10.295
X-121.525 Y-10.335
X-121.516 Y-10.371
X-121.418 Y-10.485
X-121.278 Y-10.54
X-121.129 Y-10.553
X-120.981 Y-10.527
X-120.977 Y-10.525
X-120.882 Y-10.46
X-120.819 Y-10.363
X-120.797 Y-10.25
Y-10.017
X-120.804 Y-9.984
X-120.821 Y-9.955
X-120.848 Y-9.933
X-120.88 Y-9.922
X-120.915
X-120.947 Y-9.934
X-121.476 Y-10.241
X-121.504 Y-10.265
X-121.521 Y-10.298
X-121.525 Y-10.335
X-121.516 Y-10.419
X-121.515 Y-10.466
X-121.513 Y-10.503
X-121.441 Y-10.635
X-121.315 Y-10.717
X-121.17 Y-10.754
X-121.02 Y-10.752
X-121.008 Y-10.748
X-120.898 Y-10.687
X-120.823 Y-10.585
X-120.797 Y-10.461
Y-10.25
X-120.805 Y-10.213
X-120.827 Y-10.182
X-120.86 Y-10.161
X-120.897 Y-10.154
X-120.935 Y-10.161
X-121.453 Y-10.375
X-121.485 Y-10.397
X-121.507 Y-10.428
X-121.515 Y-10.466
X-121.514 Y-10.635
X-121.511 Y-10.71
X-121.429 Y-10.836
X-121.304 Y-10.918
X-121.16 Y-10.961
X-121.01 Y-10.956
X-121.004 Y-10.954
X-120.896 Y-10.892
X-120.823 Y-10.791
X-120.797 Y-10.669
Y-10.461
X-120.805 Y-10.425
X-120.825 Y-10.395
X-120.856 Y-10.374
X-120.892 Y-10.365
X-120.928 Y-10.37
X-121.446 Y-10.543
X-121.473 Y-10.557
X-121.495 Y-10.578
X-121.509 Y-10.605
X-121.514 Y-10.635
Y-10.804
X-121.511 Y-10.879
X-121.447 Y-11.015
X-121.331 Y-11.109
X-121.19 Y-11.161
X-121.04 Y-11.167
X-121.024 Y-11.163
X-120.906 Y-11.104
X-120.825 Y-11
X-120.797 Y-10.872
Y-10.669
X-120.804 Y-10.634
X-120.823 Y-10.604
X-120.852 Y-10.583
X-120.886 Y-10.573
X-120.922 Y-10.576
X-121.44 Y-10.71
X-121.469 Y-10.723
X-121.493 Y-10.745
X-121.508 Y-10.772
X-121.514 Y-10.804
Y-11.011
X-121.511 Y-11.086
X-121.444 Y-11.22
X-121.326 Y-11.313
X-121.185 Y-11.366
X-121.036 Y-11.369
X-121.02 Y-11.365
X-120.904 Y-11.305
X-120.825 Y-11.202
X-120.797 Y-11.075
Y-10.872
X-120.804 Y-10.837
X-120.824 Y-10.807
X-120.852 Y-10.786
X-120.887 Y-10.776
X-120.922 Y-10.779
X-121.44 Y-10.918
X-121.469 Y-10.931
X-121.493 Y-10.952
X-121.508 Y-10.98
X-121.514 Y-11.011
Y-11.226
X-121.511 Y-11.301
X-121.436 Y-11.431
X-121.316 Y-11.521
X-121.174 Y-11.571
X-121.024
X-121.013 Y-11.567
X-120.901 Y-11.506
X-120.824 Y-11.404
X-120.797 Y-11.279
Y-11.075
X-120.804 Y-11.039
X-120.824 Y-11.009
X-120.854 Y-10.988
X-120.889 Y-10.979
X-120.925 Y-10.982
X-121.443 Y-11.134
X-121.471 Y-11.147
X-121.494 Y-11.168
X-121.509 Y-11.195
X-121.514 Y-11.226
Y-11.395
X-121.511 Y-11.47
X-121.458 Y-11.61
X-121.346 Y-11.71
X-121.208 Y-11.768
X-121.058 Y-11.779
X-121.035 Y-11.774
X-120.912 Y-11.717
X-120.827 Y-11.612
X-120.797 Y-11.481
Y-11.279
X-120.804 Y-11.245
X-120.823 Y-11.215
X-120.85 Y-11.194
X-120.883 Y-11.184
X-120.918 Y-11.185
X-121.436 Y-11.301
X-121.467 Y-11.313
X-121.491 Y-11.335
X-121.508 Y-11.363
X-121.514 Y-11.395
Y-11.602
X-121.511 Y-11.677
X-121.455 Y-11.816
X-121.342 Y-11.914
X-121.203 Y-11.972
X-121.053 Y-11.98
X-121.031 Y-11.975
X-120.91 Y-11.917
X-120.826 Y-11.813
X-120.797 Y-11.682
Y-11.481
X-120.804 Y-11.446
X-120.823 Y-11.417
X-120.851 Y-11.395
X-120.884 Y-11.385
X-120.919 Y-11.387
X-121.437 Y-11.508
X-121.467 Y-11.521
X-121.492 Y-11.542
X-121.508 Y-11.57
X-121.514 Y-11.602
Y-11.817
X-121.511 Y-11.892
X-121.446 Y-12.028
X-121.33 Y-12.122
X-121.19 Y-12.176
X-121.04 Y-12.18
X-121.022 Y-12.176
X-120.905 Y-12.116
X-120.825 Y-12.013
X-120.797 Y-11.885
Y-11.682
X-120.804 Y-11.647
X-120.823 Y-11.617
X-120.852 Y-11.596
X-120.886 Y-11.586
X-120.922 Y-11.589
X-121.44 Y-11.724
X-121.469 Y-11.737
X-121.493 Y-11.758
X-121.508 Y-11.786
X-121.514 Y-11.817
Y-12.024
X-121.511 Y-12.099
X-121.444 Y-12.233
X-121.326 Y-12.327
X-121.186 Y-12.38
X-121.036 Y-12.383
X-121.02 Y-12.379
X-120.905 Y-12.319
X-120.825 Y-12.216
X-120.797 Y-12.088
Y-11.885
X-120.804 Y-11.85
X-120.824 Y-11.82
X-120.852 Y-11.799
X-120.887 Y-11.789
X-120.923 Y-11.792
X-121.44 Y-11.931
X-121.469 Y-11.944
X-121.493 Y-11.966
X-121.508 Y-11.993
X-121.514 Y-12.024
Y-12.24
X-121.511 Y-12.315
X-121.436 Y-12.445
X-121.316 Y-12.535
X-121.175 Y-12.584
X-121.025
X-121.013 Y-12.581
X-120.901 Y-12.52
X-120.824 Y-12.418
X-120.797 Y-12.293
Y-12.088
X-120.804 Y-12.053
X-120.824 Y-12.023
X-120.854 Y-12.002
X-120.889 Y-11.992
X-120.925 Y-11.996
X-121.443 Y-12.147
X-121.471 Y-12.16
X-121.493 Y-12.182
X-121.509 Y-12.209
X-121.514 Y-12.24
Y-12.409
X-121.511 Y-12.484
X-121.458 Y-12.624
X-121.347 Y-12.724
X-121.208 Y-12.781
X-121.058 Y-12.793
X-121.035 Y-12.788
X-120.912 Y-12.731
X-120.827 Y-12.626
X-120.797 Y-12.494
Y-12.293
X-120.804 Y-12.259
X-120.823 Y-12.229
X-120.85 Y-12.208
X-120.883 Y-12.197
X-120.918 Y-12.199
X-121.436 Y-12.314
X-121.467 Y-12.327
X-121.491 Y-12.348
X-121.508 Y-12.376
X-121.514 Y-12.409
Y-12.616
X-121.511 Y-12.69
X-121.456 Y-12.83
X-121.342 Y-12.928
X-121.203 Y-12.986
X-121.054 Y-12.994
X-121.031 Y-12.989
X-120.91 Y-12.931
X-120.826 Y-12.826
X-120.797 Y-12.696
Y-12.494
X-120.804 Y-12.46
X-120.823 Y-12.43
X-120.851 Y-12.409
X-120.884 Y-12.399
X-120.919 Y-12.401
X-121.437 Y-12.522
X-121.467 Y-12.534
X-121.492 Y-12.556
X-121.508 Y-12.584
X-121.514 Y-12.616
Y-12.831
X-121.511 Y-12.906
X-121.447 Y-13.041
X-121.33 Y-13.136
X-121.19 Y-13.19
X-121.04 Y-13.194
X-121.022 Y-13.19
X-120.906 Y-13.13
X-120.825 Y-13.027
X-120.797 Y-12.899
Y-12.696
X-120.804 Y-12.661
X-120.823 Y-12.631
X-120.852 Y-12.61
X-120.886 Y-12.6
X-120.922 Y-12.603
X-121.44 Y-12.738
X-121.469 Y-12.751
X-121.493 Y-12.772
X-121.508 Y-12.8
X-121.514 Y-12.831
Y-13.038
X-121.511 Y-13.113
X-121.444 Y-13.247
X-121.327 Y-13.341
X-121.186 Y-13.393
X-121.036 Y-13.397
X-121.02 Y-13.392
X-120.905 Y-13.333
X-120.825 Y-13.23
X-120.797 Y-13.102
Y-12.899
X-120.804 Y-12.864
X-120.824 Y-12.834
X-120.852 Y-12.813
X-120.887 Y-12.803
X-120.922 Y-12.806
X-121.44 Y-12.945
X-121.469 Y-12.958
X-121.493 Y-12.979
X-121.508 Y-13.007
X-121.514 Y-13.038
Y-13.253
X-121.511 Y-13.328
X-121.437 Y-13.459
X-121.317 Y-13.549
X-121.175 Y-13.598
X-121.025
X-121.013 Y-13.595
X-120.901 Y-13.534
X-120.824 Y-13.432
X-120.797 Y-13.307
Y-13.102
X-120.804 Y-13.067
X-120.824 Y-13.037
X-120.854 Y-13.015
X-120.889 Y-13.006
X-120.925 Y-13.01
X-121.443 Y-13.161
X-121.471 Y-13.174
X-121.493 Y-13.195
X-121.509 Y-13.223
X-121.514 Y-13.253
Y-13.422
X-121.511 Y-13.497
X-121.459 Y-13.638
X-121.347 Y-13.738
X-121.208 Y-13.795
X-121.059 Y-13.807
X-121.035 Y-13.802
X-120.912 Y-13.745
X-120.827 Y-13.64
X-120.797 Y-13.508
Y-13.307
X-120.804 Y-13.273
X-120.823 Y-13.243
X-120.85 Y-13.222
X-120.883 Y-13.211
X-120.918 Y-13.213
X-121.436 Y-13.328
X-121.467 Y-13.34
X-121.491 Y-13.362
X-121.508 Y-13.39
X-121.514 Y-13.422
Y-13.629
X-121.511 Y-13.704
X-121.456 Y-13.844
X-121.342 Y-13.942
X-121.204 Y-13.999
X-121.054 Y-14.008
X-121.031 Y-14.002
X-120.91 Y-13.945
X-120.827 Y-13.84
X-120.797 Y-13.71
Y-13.508
X-120.804 Y-13.474
X-120.823 Y-13.444
X-120.851 Y-13.423
X-120.884 Y-13.412
X-120.919 Y-13.414
X-121.437 Y-13.535
X-121.467 Y-13.548
X-121.492 Y-13.569
X-121.508 Y-13.597
X-121.514 Y-13.629
Y-13.845
X-121.511 Y-13.919
X-121.447 Y-14.055
X-121.33 Y-14.15
X-121.19 Y-14.204
X-121.04 Y-14.208
X-121.022 Y-14.203
X-120.906 Y-14.144
X-120.825 Y-14.041
X-120.797 Y-13.913
Y-13.71
X-120.804 Y-13.675
X-120.823 Y-13.645
X-120.852 Y-13.624
X-120.886 Y-13.614
X-120.922 Y-13.616
X-121.44 Y-13.751
X-121.469 Y-13.764
X-121.493 Y-13.785
X-121.508 Y-13.813
X-121.514 Y-13.845
Y-14.051
X-121.511 Y-14.126
X-121.444 Y-14.261
X-121.327 Y-14.354
X-121.186 Y-14.407
X-121.036 Y-14.41
X-121.021 Y-14.406
X-120.905 Y-14.347
X-120.825 Y-14.243
X-120.797 Y-14.116
Y-13.913
X-120.804 Y-13.878
X-120.824 Y-13.848
X-120.852 Y-13.826
X-120.887 Y-13.817
X-120.922 Y-13.82
X-121.44 Y-13.958
X-121.469 Y-13.971
X-121.493 Y-13.993
X-121.508 Y-14.02
X-121.514 Y-14.051
Y-14.267
X-121.511 Y-14.342
X-121.437 Y-14.472
X-121.317 Y-14.562
X-121.175 Y-14.612
X-121.025
X-121.013 Y-14.609
X-120.901 Y-14.548
X-120.824 Y-14.445
X-120.797 Y-14.32
Y-14.116
X-120.804 Y-14.081
X-120.824 Y-14.05
X-120.854 Y-14.029
X-120.889 Y-14.02
X-120.925 Y-14.023
X-121.443 Y-14.174
X-121.471 Y-14.188
X-121.493 Y-14.209
X-121.509 Y-14.236
X-121.514 Y-14.267
Y-14.436
X-121.511 Y-14.511
X-121.459 Y-14.651
X-121.347 Y-14.752
X-121.208 Y-14.809
X-121.059 Y-14.821
X-121.035 Y-14.816
X-120.912 Y-14.759
X-120.827 Y-14.654
X-120.797 Y-14.522
Y-14.32
X-120.804 Y-14.286
X-120.822 Y-14.257
X-120.85 Y-14.235
X-120.883 Y-14.225
X-120.918 Y-14.226
X-121.436 Y-14.342
X-121.467 Y-14.354
X-121.491 Y-14.375
X-121.508 Y-14.404
X-121.514 Y-14.436
Y-14.643
X-121.511 Y-14.718
X-121.456 Y-14.857
X-121.342 Y-14.955
X-121.204 Y-15.013
X-121.054 Y-15.021
X-121.031 Y-15.016
X-120.91 Y-14.959
X-120.827 Y-14.854
X-120.797 Y-14.723
Y-14.522
X-120.804 Y-14.488
X-120.823 Y-14.458
X-120.851 Y-14.437
X-120.884 Y-14.426
X-120.919 Y-14.428
X-121.437 Y-14.549
X-121.467 Y-14.561
X-121.492 Y-14.583
X-121.508 Y-14.611
X-121.514 Y-14.643
Y-14.858
X-121.511 Y-14.933
X-121.447 Y-15.069
X-121.33 Y-15.163
X-121.191 Y-15.217
X-121.041 Y-15.222
X-121.022 Y-15.217
X-120.906 Y-15.158
X-120.825 Y-15.054
X-120.797 Y-14.926
Y-14.723
X-120.804 Y-14.689
X-120.823 Y-14.659
X-120.852 Y-14.637
X-120.886 Y-14.627
X-120.922 Y-14.63
X-121.44 Y-14.765
X-121.469 Y-14.778
X-121.493 Y-14.799
X-121.508 Y-14.827
X-121.514 Y-14.858
Y-15.065
X-121.511 Y-15.14
X-121.444 Y-15.274
X-121.327 Y-15.368
X-121.187 Y-15.421
X-121.037 Y-15.424
X-121.021 Y-15.42
X-120.905 Y-15.36
X-120.825 Y-15.257
X-120.797 Y-15.13
Y-14.926
X-120.804 Y-14.891
X-120.824 Y-14.861
X-120.852 Y-14.84
X-120.887 Y-14.83
X-120.922 Y-14.833
X-121.44 Y-14.972
X-121.469 Y-14.985
X-121.493 Y-15.006
X-121.508 Y-15.034
X-121.514 Y-15.065
Y-15.28
X-121.511 Y-15.355
X-121.437 Y-15.486
X-121.317 Y-15.576
X-121.175 Y-15.626
X-121.025
X-121.013 Y-15.622
X-120.901 Y-15.561
X-120.824 Y-15.459
X-120.797 Y-15.334
Y-15.13
X-120.804 Y-15.094
X-120.824 Y-15.064
X-120.854 Y-15.043
X-120.888 Y-15.034
X-120.924 Y-15.037
X-121.442 Y-15.188
X-121.471 Y-15.201
X-121.493 Y-15.223
X-121.509 Y-15.25
X-121.514 Y-15.28
Y-15.449
X-121.511 Y-15.524
X-121.459 Y-15.665
X-121.347 Y-15.765
X-121.209 Y-15.823
X-121.059 Y-15.834
X-121.035 Y-15.829
X-120.912 Y-15.772
X-120.827 Y-15.667
X-120.797 Y-15.536
Y-15.334
X-120.804 Y-15.3
X-120.822 Y-15.27
X-120.85 Y-15.249
X-120.883 Y-15.239
X-120.918 Y-15.24
X-121.436 Y-15.355
X-121.467 Y-15.368
X-121.491 Y-15.389
X-121.508 Y-15.417
X-121.514 Y-15.449
Y-15.656
X-121.511 Y-15.731
X-121.456 Y-15.871
X-121.342 Y-15.969
X-121.204 Y-16.027
X-121.054 Y-16.035
X-121.031 Y-16.03
X-120.91 Y-15.972
X-120.827 Y-15.868
X-120.797 Y-15.737
Y-15.536
X-120.804 Y-15.501
X-120.823 Y-15.472
X-120.851 Y-15.45
X-120.884 Y-15.44
X-120.919 Y-15.442
X-121.437 Y-15.562
X-121.467 Y-15.575
X-121.492 Y-15.596
X-121.508 Y-15.624
X-121.514 Y-15.656
Y-15.872
Y-15.91
Y-15.956
X-121.513 Y-15.99
X-121.447 Y-16.058
X-121.363 Y-16.102
X-121.27 Y-16.117
G3 X-121.139 Y-15.831 I-0.006 J0.175
X-121.514 Y-15.956 I-0.164 J-0.132
G1 Y-15.994
X-121.513 Y-16.015
X-121.511 Y-16.026
X-121.507 Y-16.036
X-121.495 Y-16.058
X-121.481 Y-16.079
X-121.466 Y-16.094
X-121.452 Y-16.104
X-121.441 Y-16.109
X-121.43 Y-16.113
X-121.42 Y-16.115
X-121.409 Y-16.117
X-120.982
X-120.944
X-120.902
X-120.877 Y-16.112
X-120.87 Y-16.109
X-120.847 Y-16.088
X-120.836 Y-16.059
X-120.841 Y-16.028
X-120.859 Y-16.003
X-120.888 Y-15.99
X-120.919 Y-15.992
X-120.946 Y-16.008
X-120.961 Y-16.035
X-120.962 Y-16.066
X-120.948 Y-16.094
X-120.927 Y-16.11
X-120.902 Y-16.117
X-120.891 Y-16.115
X-120.881 Y-16.113
X-120.87 Y-16.109
X-120.859 Y-16.104
X-120.845 Y-16.094
X-120.83 Y-16.079
X-120.816 Y-16.058
X-120.804 Y-16.036
X-120.801 Y-16.026
X-120.798 Y-16.015
X-120.797 Y-15.994
Y-15.737
X-120.802 Y-15.709
X-120.814 Y-15.684
X-120.843 Y-15.667 Z-0.983
X-120.869 Y-15.652 Z-0.966
X-120.887 Y-15.641 Z-0.939
X-120.897 Z-0.916
X-120.9 Z-0.89
G0 Z2
X-112.515 Y-12.212
Z0.5
G3 X-112.031 Y-12.336 Z0.29 I0.242 J-0.062 F333.3
X-112.515 Y-12.212 Z0.079 I-0.242 J0.062
X-112.031 Y-12.336 Z-0.131 I0.242 J-0.062
X-112.515 Y-12.212 Z-0.342 I-0.242 J0.062
X-112.031 Y-12.336 Z-0.552 I0.242 J-0.062
X-112.515 Y-12.212 Z-0.763 I-0.242 J0.062
X-112.304 Y-12.522 Z-0.876 I0.242 J-0.062
X-112.023 Y-12.274 Z-0.99 I0.031 J0.248
X-112.523 I-0.25
X-112.023 I0.25
G1 X-111.985 Y-12.129 F1000
X-111.998 Y-12.055
X-112.035 Y-11.99
X-112.142 Y-11.884
X-112.287 Y-11.845
X-112.436 Y-11.866
X-112.566 Y-11.94
X-112.607 Y-12.001
X-112.63 Y-12.067
X-112.638 Y-12.137
X-112.637 Y-12.278
X-112.638 Y-12.324
X-112.635 Y-12.399
X-112.591 Y-12.542
X-112.487 Y-12.65
X-112.348 Y-12.708
X-112.198 Y-12.713
X-112.056 Y-12.666
X-112.027 Y-12.643
X-111.967 Y-12.58
X-111.928 Y-12.503
X-111.912 Y-12.417
X-111.908 Y-12.278
X-111.914 Y-12.024
X-111.92 Y-11.95
X-111.973 Y-11.809
X-112.085 Y-11.71
X-112.226 Y-11.657
X-112.375 Y-11.646
X-112.398 Y-11.65
X-112.523 Y-11.707
X-112.61 Y-11.813
X-112.64 Y-11.947
X-112.638 Y-12.137
X-112.631 Y-12.171
X-112.612 Y-12.2
X-112.585 Y-12.221
X-112.552 Y-12.232
X-112.518 Y-12.231
X-111.993 Y-12.121
X-111.962 Y-12.109
X-111.937 Y-12.087
X-111.92 Y-12.057
X-111.914 Y-12.024
X-111.921 Y-11.809
X-111.927 Y-11.734
X-111.987 Y-11.597
X-112.105 Y-11.504
X-112.245 Y-11.45
X-112.395 Y-11.446
X-112.417 Y-11.451
X-112.535 Y-11.512
X-112.615 Y-11.618
X-112.642 Y-11.748
X-112.64 Y-11.947
X-112.632 Y-11.982
X-112.613 Y-12.012
X-112.584 Y-12.033
X-112.55 Y-12.042
X-112.515 Y-12.04
X-111.995 Y-11.905
X-111.966 Y-11.892
X-111.942 Y-11.87
X-111.926 Y-11.841
X-111.921 Y-11.809
X-111.927 Y-11.602
X-111.933 Y-11.527
X-111.998 Y-11.392
X-112.116 Y-11.299
X-112.256 Y-11.247
X-112.406 Y-11.245
X-112.427 Y-11.251
X-112.545 Y-11.313
X-112.624 Y-11.421
X-112.649 Y-11.552
X-112.643 Y-11.686
X-112.642 Y-11.748
X-112.634 Y-11.783
X-112.614 Y-11.812
X-112.585 Y-11.833
X-112.551 Y-11.842
X-112.516 Y-11.839
X-112.001 Y-11.698
X-111.971 Y-11.685
X-111.948 Y-11.662
X-111.932 Y-11.634
X-111.927 Y-11.602
X-111.932 Y-11.433
X-111.937 Y-11.387
X-111.948 Y-11.312
X-112.018 Y-11.18
X-112.139 Y-11.091
X-112.281 Y-11.043
X-112.431 Y-11.046
X-112.448 Y-11.051
X-112.561 Y-11.117
X-112.636 Y-11.225
X-112.658 Y-11.354
X-112.653 Y-11.434
X-112.649 Y-11.552
X-112.64 Y-11.586
X-112.619 Y-11.615
X-112.59 Y-11.635
X-112.556 Y-11.644
X-112.52 Y-11.64
X-112.008 Y-11.489
X-111.978 Y-11.474
X-111.955 Y-11.45
X-111.941 Y-11.42
X-111.937 Y-11.387
X-111.958 Y-11.18
X-111.97 Y-11.106
X-112.041 Y-10.973
X-112.163 Y-10.886
X-112.306 Y-10.841
X-112.456 Y-10.848
X-112.467 Y-10.852
X-112.579 Y-10.92
X-112.65 Y-11.029
X-112.669 Y-11.158
X-112.658 Y-11.354
X-112.648 Y-11.389
X-112.627 Y-11.417
X-112.598 Y-11.437
X-112.563 Y-11.445
X-112.528 Y-11.441
X-112.028 Y-11.282
X-111.998 Y-11.267
X-111.976 Y-11.243
X-111.962 Y-11.213
X-111.958 Y-11.18
X-111.983 Y-10.964
X-111.995 Y-10.89
X-112.072 Y-10.761
X-112.198 Y-10.679
X-112.342 Y-10.639
X-112.492 Y-10.652
X-112.498 Y-10.655
X-112.603 Y-10.725
X-112.669 Y-10.833
X-112.685 Y-10.958
X-112.669 Y-11.158
X-112.659 Y-11.192
X-112.637 Y-11.221
X-112.606 Y-11.24
X-112.571 Y-11.247
X-112.536 Y-11.241
X-112.049 Y-11.066
X-112.021 Y-11.051
X-111.999 Y-11.026
X-111.986 Y-10.997
X-111.983 Y-10.964
X-112.008 Y-10.757
X-112.02 Y-10.683
X-112.1 Y-10.556
X-112.226 Y-10.475
X-112.372 Y-10.439
X-112.521 Y-10.454
X-112.528 Y-10.457
X-112.633 Y-10.533
X-112.697 Y-10.646
X-112.707 Y-10.775
X-112.697 Y-10.842
X-112.688 Y-10.926
X-112.685 Y-10.958
X-112.675 Y-10.992
X-112.652 Y-11.021
X-112.622 Y-11.04
X-112.586 Y-11.046
X-112.551 Y-11.04
X-112.072 Y-10.859
X-112.044 Y-10.843
X-112.023 Y-10.819
X-112.01 Y-10.789
X-112.008 Y-10.757
X-112.028 Y-10.588
X-112.039 Y-10.542
X-112.06 Y-10.47
X-112.144 Y-10.346
X-112.274 Y-10.271
X-112.421 Y-10.24
X-112.569 Y-10.263
X-112.571 Y-10.264
X-112.669 Y-10.341
X-112.727 Y-10.451
X-112.735 Y-10.575
X-112.707 Y-10.775
X-112.694 Y-10.809
X-112.671 Y-10.836
X-112.64 Y-10.853
X-112.604 Y-10.858
X-112.57 Y-10.85
X-112.099 Y-10.654
X-112.07 Y-10.636
X-112.049 Y-10.609
X-112.038 Y-10.576
X-112.039 Y-10.542
X-112.048 Y-10.504
X-112.108 Y-10.289
X-112.132 Y-10.217
X-112.238 Y-10.111
X-112.378 Y-10.058
X-112.528 Y-10.049
X-112.551 Y-10.056
X-112.673 Y-10.127
X-112.749 Y-10.246
X-112.762 Y-10.387
X-112.735 Y-10.575
X-112.721 Y-10.611
X-112.695 Y-10.639
X-112.661 Y-10.655
X-112.623 Y-10.657
X-112.587 Y-10.645
X-112.156 Y-10.399
X-112.131 Y-10.379
X-112.114 Y-10.352
X-112.106 Y-10.321
X-112.108 Y-10.289
X-112.157 Y-10.114
X-112.18 Y-10.043
X-112.275 Y-9.927
X-112.412 Y-9.865
X-112.562
X-112.588 Y-9.873
X-112.712 Y-9.948
X-112.786 Y-10.074
X-112.793 Y-10.22
X-112.77 Y-10.335
X-112.762 Y-10.387
X-112.749 Y-10.422
X-112.723 Y-10.45
X-112.688 Y-10.466
X-112.651 Y-10.468
X-112.615 Y-10.456
X-112.205 Y-10.225
X-112.18 Y-10.205
X-112.162 Y-10.178
X-112.154 Y-10.147
X-112.157 Y-10.114
X-112.189 Y-9.997
X-112.216 Y-9.913
X-112.242 Y-9.842
X-112.341 Y-9.729
X-112.482 Y-9.678
X-112.631 Y-9.688
X-112.65 Y-9.696
X-112.762 Y-9.775
X-112.827 Y-9.897
X-112.831 Y-10.034
X-112.793 Y-10.22
X-112.777 Y-10.254
X-112.749 Y-10.281
X-112.713 Y-10.294
X-112.675
X-112.64 Y-10.279
X-112.257 Y-10.022
X-112.234 Y-10.001
X-112.219 Y-9.974
X-112.212 Y-9.944
X-112.216 Y-9.913
X-112.269 Y-9.744
X-112.286 Y-9.697
X-112.315 Y-9.628
X-112.43 Y-9.532
X-112.576 Y-9.496
X-112.725 Y-9.521
X-112.818 Y-9.604
X-112.87 Y-9.718
Y-9.843
X-112.831 Y-10.034
X-112.818 Y-10.065
X-112.795 Y-10.09
X-112.766 Y-10.105
X-112.733 Y-10.111
X-112.7 Y-10.105
X-112.671 Y-10.089
X-112.319 Y-9.806
X-112.298 Y-9.784
X-112.286 Y-9.757
X-112.281 Y-9.727
X-112.286 Y-9.697
X-112.3 Y-9.659
X-112.357 Y-9.517
X-112.388 Y-9.449
X-112.501 Y-9.35
X-112.647 Y-9.317
X-112.679 Y-9.324
X-112.789 Y-9.372
X-112.871 Y-9.46
X-112.912 Y-9.573
X-112.905 Y-9.693
X-112.892 Y-9.744
X-112.87 Y-9.843
X-112.857 Y-9.874
X-112.834 Y-9.899
X-112.805 Y-9.914
X-112.771 Y-9.919
X-112.738 Y-9.913
X-112.709 Y-9.896
X-112.387 Y-9.627
X-112.367 Y-9.605
X-112.354 Y-9.577
X-112.351 Y-9.547
X-112.357 Y-9.517
X-112.435 Y-9.321
X-112.466 Y-9.253
X-112.527 Y-9.209
X-112.669 Y-9.162
X-112.817 Y-9.183
X-112.822 Y-9.185
X-112.93 Y-9.287
X-112.976 Y-9.429
X-112.948 Y-9.574
X-112.924 Y-9.605
X-112.889 Y-9.624
X-112.85 Y-9.628
X-112.812 Y-9.617
X-112.482 Y-9.444
X-112.454 Y-9.422
X-112.436 Y-9.391
X-112.429 Y-9.356
X-112.435 Y-9.321
X-112.484 Y-9.198
X-112.514 Y-9.132
X-112.565 Y-9.078
X-112.698 Y-9.007
X-112.848 Y-9.01
X-112.871 Y-9.02
X-112.969 Y-9.09
X-113.031 Y-9.193
X-113.049 Y-9.311
X-113.018 Y-9.428
X-112.987 Y-9.49
X-112.948 Y-9.574
X-112.925 Y-9.604
X-112.892 Y-9.623
X-112.854 Y-9.629
X-112.817 Y-9.62
X-112.786 Y-9.598
X-112.505 Y-9.3
X-112.486 Y-9.269
X-112.478 Y-9.234
X-112.484 Y-9.198
X-112.519 Y-9.11
X-112.528 Y-9.089
X-112.534 Y-9.079
X-112.543 Y-9.068
X-112.617 Y-8.984
X-112.669 Y-8.93
X-112.733 Y-8.891
X-112.88 Y-8.859
X-112.906 Y-8.867
X-113.018 Y-8.93
X-113.094 Y-9.035
X-113.119 Y-9.162
X-113.088 Y-9.287
X-113.018 Y-9.428
X-112.997 Y-9.454
X-112.969 Y-9.472
X-112.936 Y-9.48
X-112.903 Y-9.476
X-112.872 Y-9.462
X-112.849 Y-9.438
X-112.613 Y-9.105
X-112.598 Y-9.075
X-112.594 Y-9.043
X-112.601 Y-9.012
X-112.617 Y-8.984
X-112.765 Y-8.815
X-112.791 Y-8.788
X-112.86 Y-8.758
X-112.934 Y-8.75
X-113.082 Y-8.777
X-113.16 Y-8.861
X-113.199 Y-8.969
X-113.193 Y-9.084
X-113.143 Y-9.188
X-113.117 Y-9.211
X-113.085 Y-9.223
X-113.051 Y-9.224
X-113.018 Y-9.213
X-112.991 Y-9.192
X-112.768 Y-8.945
X-112.75 Y-8.915
X-112.742 Y-8.88
X-112.748 Y-8.845
X-112.765 Y-8.815
X-112.86 Y-8.707
X-112.894 Y-8.673
X-112.962 Y-8.641
X-113.036 Y-8.631
X-113.184 Y-8.659
X-113.259 Y-8.749
X-113.294 Y-8.861
X-113.283 Y-8.978
X-113.229 Y-9.082
X-113.161 Y-9.165
X-113.143 Y-9.188
X-113.117 Y-9.211
X-113.084 Y-9.223
X-113.049 Y-9.224
X-113.016 Y-9.212
X-112.989 Y-9.189
X-112.972 Y-9.159
X-112.842 Y-8.806
X-112.836 Y-8.771
X-112.842 Y-8.737
X-112.86 Y-8.707
X-112.907 Y-8.654
X-112.992 Y-8.591
X-113.054 Y-8.549
X-113.126 Y-8.528
X-113.238 Y-8.566
X-113.324 Y-8.647
X-113.369 Y-8.757
X-113.364 Y-8.876
X-113.31 Y-8.981
X-113.229 Y-9.082
X-113.201 Y-9.104
X-113.167 Y-9.115
X-113.131 Y-9.113
X-113.099 Y-9.1
X-113.073 Y-9.075
X-113.057 Y-9.043
X-112.958 Y-8.696
X-112.955 Y-8.658
X-112.966 Y-8.62
X-112.992 Y-8.591
X-113.114 Y-8.5
X-113.146 Y-8.479
X-113.218 Y-8.459
X-113.292 Y-8.467
X-113.392 Y-8.543
X-113.446 Y-8.655
X-113.444 Y-8.78
X-113.387 Y-8.891
X-113.33 Y-8.957
X-113.31 Y-8.981
X-113.281 Y-9.004
X-113.245 Y-9.015
X-113.208 Y-9.012
X-113.175 Y-8.995
X-113.15 Y-8.967
X-113.137 Y-8.933
X-113.078 Y-8.595
Y-8.56
X-113.091 Y-8.527
X-113.114 Y-8.5
X-113.245 Y-8.403
X-113.27 Y-8.387
X-113.345 Y-8.383
X-113.462 Y-8.456
X-113.526 Y-8.578
X-113.52 Y-8.716
X-113.445 Y-8.832
X-113.416 Y-8.849
X-113.383 Y-8.855
X-113.35 Y-8.85
X-113.321 Y-8.835
X-113.298 Y-8.811
X-113.284 Y-8.781
X-113.211 Y-8.507
X-113.208 Y-8.469
X-113.22 Y-8.432
X-113.245 Y-8.403
X-113.33 Y-8.343
X-113.341 Y-8.338
X-113.413 Y-8.319
X-113.486 Y-8.335
X-113.552 Y-8.371
X-113.619 Y-8.472
X-113.633 Y-8.592
X-113.591 Y-8.706
X-113.501 Y-8.788
X-113.467 Y-8.798
X-113.431 Y-8.795
X-113.398 Y-8.78
X-113.373 Y-8.754
X-113.359 Y-8.721
X-113.296 Y-8.449
X-113.294 Y-8.413
X-113.306 Y-8.378
X-113.33 Y-8.35
X-113.362 Y-8.332
X-113.499 Y-8.292
X-113.536 Y-8.283
X-113.609 Y-8.298
X-113.674 Y-8.336
X-113.731 Y-8.439
X-113.735 Y-8.556
X-113.687 Y-8.662
X-113.596 Y-8.736
X-113.584 Y-8.742
X-113.501 Y-8.788
X-113.465 Y-8.798
X-113.428 Y-8.794
X-113.394 Y-8.777
X-113.369 Y-8.748
X-113.357 Y-8.713
X-113.359 Y-8.675
X-113.433 Y-8.364
X-113.446 Y-8.333
X-113.469 Y-8.308
X-113.499 Y-8.292
X-113.63 Y-8.254
X-113.667 Y-8.245
X-113.738 Y-8.267
X-113.799 Y-8.312
X-113.844 Y-8.412
X-113.841 Y-8.523
X-113.79 Y-8.621
X-113.702 Y-8.687
X-113.668 Y-8.702
X-113.596 Y-8.736
X-113.558 Y-8.744
X-113.52 Y-8.738
X-113.488 Y-8.718
X-113.465 Y-8.686
X-113.456 Y-8.649
X-113.462 Y-8.611
X-113.567 Y-8.315
X-113.582 Y-8.289
X-113.603 Y-8.268
X-113.63 Y-8.254
X-113.736 Y-8.223
X-113.773 Y-8.215
X-113.845 Y-8.232
X-113.907 Y-8.275
X-113.951 Y-8.373
X-113.947 Y-8.48
X-113.897 Y-8.575
X-113.811 Y-8.639
X-113.702 Y-8.687
X-113.664 Y-8.694
X-113.627 Y-8.687
X-113.595 Y-8.666
X-113.573 Y-8.634
X-113.565 Y-8.597
X-113.571 Y-8.559
X-113.674 Y-8.283
X-113.688 Y-8.257
X-113.709 Y-8.237
X-113.736 Y-8.223
X-113.838 Y-8.194
X-113.912 Y-8.189
X-113.982 Y-8.218
X-114.041 Y-8.312
X-114.048 Y-8.423
X-114.003 Y-8.525
X-113.915 Y-8.593
X-113.811 Y-8.639
X-113.774 Y-8.646
X-113.736 Y-8.638
X-113.705 Y-8.617
X-113.683 Y-8.586
X-113.674 Y-8.549
X-113.68 Y-8.511
X-113.775 Y-8.255
X-113.789 Y-8.228
X-113.811 Y-8.208
X-113.838 Y-8.194
X-113.922 Y-8.184
X-113.969 Y-8.179
X-114.006 Y-8.177
X-114.078 Y-8.199
X-114.138 Y-8.302
X-114.137 Y-8.422
X-114.074 Y-8.523
X-113.968 Y-8.578
X-113.938
X-113.91 Y-8.57
G3 X-113.969 Y-8.179 I-0.086 J0.187
G1 X-114.091 Y-8.167
X-114.129 Y-8.165
X-114.195 Y-8.2
X-114.241 Y-8.303
X-114.23 Y-8.415
X-114.166 Y-8.508
X-114.065 Y-8.558
X-113.968 Y-8.578
X-113.929 Y-8.577
X-113.893 Y-8.561
X-113.866 Y-8.532
X-113.852 Y-8.496
X-113.854 Y-8.456
X-113.87 Y-8.421
X-114.023 Y-8.208
X-114.042 Y-8.188
X-114.065 Y-8.174
X-114.091 Y-8.167
X-114.176 Y-8.159
X-114.213 Y-8.157
X-114.283 Y-8.184
X-114.332 Y-8.285
X-114.324 Y-8.396
X-114.262 Y-8.488
X-114.163 Y-8.538
X-114.065 Y-8.558
X-114.026 Y-8.557
X-113.991 Y-8.541
X-113.964 Y-8.513
X-113.95 Y-8.476
X-113.951 Y-8.438
X-113.966 Y-8.402
X-114.107 Y-8.201
X-114.126 Y-8.18
X-114.149 Y-8.166
X-114.176 Y-8.159
X-114.307 Y-8.146
X-114.345 Y-8.144
X-114.404 Y-8.189
X-114.438 Y-8.291
X-114.419 Y-8.396
X-114.353 Y-8.48
X-114.255 Y-8.522
X-114.163 Y-8.538
X-114.128 Y-8.537
X-114.095 Y-8.525
X-114.068 Y-8.502
X-114.051 Y-8.471
X-114.046 Y-8.437
X-114.053 Y-8.402
X-114.072 Y-8.372
X-114.246 Y-8.178
X-114.274 Y-8.157
X-114.307 Y-8.146
X-114.379 Y-8.139
X-114.409 Y-8.137
X-114.479 Y-8.165
X-114.526 Y-8.265
X-114.516 Y-8.375
X-114.452 Y-8.464
X-114.351 Y-8.508
X-114.255 Y-8.522
X-114.216 Y-8.519
X-114.18 Y-8.502
X-114.155 Y-8.472
X-114.143 Y-8.434
X-114.146 Y-8.395
X-114.165 Y-8.36
X-114.315 Y-8.175
X-114.344 Y-8.151
X-114.379 Y-8.139
X-114.43 Y-8.134
X-114.472 Y-8.131
X-114.509 Y-8.136
X-114.578 Y-8.166
X-114.618 Y-8.264
X-114.605 Y-8.369
X-114.541 Y-8.453
X-114.444 Y-8.495
X-114.351 Y-8.508
X-114.318 Y-8.506
X-114.288 Y-8.492
X-114.265 Y-8.468
X-114.252 Y-8.438
G3 X-114.472 Y-8.131 I-0.246 J0.057
G1 X-114.599 Y-8.143
X-114.636 Y-8.148
X-114.694 Y-8.195
X-114.718 Y-8.298
X-114.686 Y-8.399
X-114.608 Y-8.47
X-114.505 Y-8.492
X-114.474 Y-8.484
X-114.449 Y-8.465
G3 X-114.599 Y-8.143 I-0.138 J0.132
G1 X-114.684 Y-8.151
X-114.721 Y-8.157
X-114.784 Y-8.197
X-114.808 Y-8.308
X-114.771 Y-8.414
X-114.683 Y-8.486
X-114.572 Y-8.501
X-114.541 Y-8.49
X-114.517 Y-8.468
G3 X-114.684 Y-8.151 I-0.154 J0.121
G1 X-114.815 Y-8.164
X-114.852 Y-8.169
X-114.9 Y-8.227
X-114.908 Y-8.34
X-114.858 Y-8.441
X-114.765 Y-8.505
X-114.652 Y-8.514
X-114.599 Y-8.505
X-114.572 Y-8.501
X-114.535 Y-8.486
X-114.506 Y-8.459
X-114.491 Y-8.422
Y-8.382
X-114.507 Y-8.346
X-114.536 Y-8.318
X-114.755 Y-8.179
X-114.784 Y-8.167
X-114.815 Y-8.164
X-114.899 Y-8.172
X-114.936 Y-8.178
X-114.991 Y-8.229
X-115.004 Y-8.346
X-114.956 Y-8.454
X-114.86 Y-8.522
X-114.742 Y-8.531
X-114.652 Y-8.514
X-114.616 Y-8.499
X-114.589 Y-8.471
X-114.575 Y-8.435
Y-8.396
X-114.591 Y-8.36
X-114.618 Y-8.333
X-114.838 Y-8.189
X-114.867 Y-8.175
X-114.899 Y-8.172
X-114.984 Y-8.181
X-115.021 Y-8.186
X-115.079 Y-8.233
X-115.099 Y-8.354
X-115.053 Y-8.467
X-114.954 Y-8.54
X-114.832 Y-8.549
X-114.742 Y-8.531
X-114.707 Y-8.516
X-114.68 Y-8.489
X-114.666 Y-8.454
Y-8.416
X-114.68 Y-8.38
X-114.706 Y-8.352
X-114.919 Y-8.199
X-114.95 Y-8.184
X-114.984 Y-8.181
X-115.064 Y-8.188
X-115.085 Y-8.191
X-115.117 Y-8.199
X-115.175 Y-8.246
X-115.194 Y-8.37
X-115.146 Y-8.485
X-115.045 Y-8.558
X-114.92 Y-8.567
X-114.832 Y-8.549
X-114.797 Y-8.533
X-114.771 Y-8.506
X-114.757 Y-8.471
X-114.756 Y-8.433
X-114.77 Y-8.398
X-114.796 Y-8.371
X-115.018 Y-8.21
X-115.05 Y-8.194
X-115.085 Y-8.191
X-115.107 Y-8.195
X-115.191 Y-8.22
X-115.227 Y-8.232
X-115.28 Y-8.285
X-115.304 Y-8.356
X-115.308 Y-8.432
X-115.243 Y-8.542
X-115.128 Y-8.599
X-115.001 Y-8.584
X-114.92 Y-8.567
X-114.885 Y-8.551
X-114.859 Y-8.523
X-114.845 Y-8.488
Y-8.45
X-114.86 Y-8.414
X-114.887 Y-8.387
X-115.11 Y-8.234
X-115.135 Y-8.222
X-115.163 Y-8.217
X-115.191 Y-8.22
X-115.322 Y-8.258
X-115.358 Y-8.27
X-115.406 Y-8.328
X-115.411 Y-8.436
X-115.368 Y-8.536
X-115.286 Y-8.607
X-115.182 Y-8.636
X-115.075 Y-8.616
X-115.001 Y-8.584
X-114.971 Y-8.562
X-114.951 Y-8.532
X-114.944 Y-8.496
X-114.95 Y-8.46
X-114.968 Y-8.428
X-114.996 Y-8.405
X-115.25 Y-8.267
X-115.285 Y-8.256
X-115.322 Y-8.258
X-115.407 Y-8.283
X-115.442 Y-8.295
X-115.496 Y-8.347
X-115.521 Y-8.418
X-115.496 Y-8.54
X-115.414 Y-8.635
X-115.297 Y-8.678
X-115.174 Y-8.659
X-115.075 Y-8.616
X-115.046 Y-8.595
X-115.026 Y-8.564
X-115.018 Y-8.529
X-115.024 Y-8.493
X-115.042 Y-8.461
X-115.07 Y-8.438
X-115.334 Y-8.292
X-115.37 Y-8.28
X-115.407 Y-8.283
X-115.494 Y-8.308
X-115.527 Y-8.319
X-115.59 Y-8.36
X-115.624 Y-8.427
X-115.607 Y-8.561
X-115.525 Y-8.668
X-115.4 Y-8.719
X-115.266 Y-8.699
X-115.174 Y-8.659
X-115.145 Y-8.638
X-115.126 Y-8.609
X-115.117 Y-8.575
X-115.121 Y-8.54
X-115.137 Y-8.509
X-115.163 Y-8.485
X-115.415 Y-8.321
X-115.44 Y-8.309
X-115.467 Y-8.305
X-115.494 Y-8.308
X-115.53 Y-8.318
X-115.614 Y-8.347
X-115.631 Y-8.356
X-115.689 Y-8.403
X-115.725 Y-8.469
X-115.704 Y-8.606
X-115.617 Y-8.714
X-115.486 Y-8.762
X-115.35 Y-8.738
X-115.266 Y-8.699
X-115.237 Y-8.678
X-115.217 Y-8.648
X-115.209 Y-8.613
X-115.214 Y-8.578
X-115.231 Y-8.546
X-115.258 Y-8.523
X-115.535 Y-8.359
X-115.566 Y-8.347
X-115.599 Y-8.346
X-115.631 Y-8.356
X-115.757 Y-8.448
X-115.786 Y-8.472
X-115.819 Y-8.54
X-115.788 Y-8.674
X-115.694 Y-8.775
X-115.561 Y-8.814
X-115.427 Y-8.78
X-115.36 Y-8.743
X-115.35 Y-8.738
X-115.32 Y-8.714
X-115.301 Y-8.681
X-115.296 Y-8.644
X-115.305 Y-8.607
X-115.327 Y-8.576
X-115.359 Y-8.556
X-115.664 Y-8.438
X-115.696 Y-8.431
X-115.728 Y-8.435
X-115.757 Y-8.448
X-115.835 Y-8.506
X-115.864 Y-8.53
X-115.901 Y-8.595
X-115.906 Y-8.67
X-115.891 Y-8.744
X-115.816 Y-8.835
X-115.707 Y-8.884
X-115.588 Y-8.879
X-115.485 Y-8.821
X-115.464 Y-8.793
X-115.455 Y-8.759
X-115.457 Y-8.724
X-115.472 Y-8.693
X-115.496 Y-8.668
X-115.721 Y-8.507
X-115.748 Y-8.494
X-115.778 Y-8.489
X-115.808 Y-8.493
X-115.835 Y-8.506
X-115.933 Y-8.578
X-115.962 Y-8.602
X-116.001 Y-8.667
X-116.008 Y-8.741
X-115.995 Y-8.815
X-115.908 Y-8.917
X-115.783 Y-8.966
X-115.65 Y-8.95
X-115.54 Y-8.873
X-115.523 Y-8.843
X-115.517 Y-8.809
X-115.524 Y-8.776
X-115.541 Y-8.746
X-115.567 Y-8.724
X-115.827 Y-8.574
X-115.862 Y-8.562
X-115.899 Y-8.564
X-115.933 Y-8.578
X-116.025 Y-8.646
X-116.037 Y-8.657
X-116.085 Y-8.715
X-116.106 Y-8.787
X-116.101 Y-8.861
X-116.052 Y-9.003
X-115.951 Y-9.064
X-115.835 Y-9.08
X-115.721 Y-9.049
X-115.629 Y-8.976
X-115.54 Y-8.873
X-115.523 Y-8.844
X-115.517 Y-8.811
X-115.523 Y-8.777
X-115.54 Y-8.748
X-115.565 Y-8.725
X-115.596 Y-8.713
X-115.953 Y-8.636
X-115.982 Y-8.634
X-116.012 Y-8.641
X-116.037 Y-8.657
X-116.122 Y-8.751
X-116.153 Y-8.786
X-116.2 Y-8.844
X-116.214 Y-8.918
X-116.205 Y-8.993
X-116.146 Y-9.13
X-116.144 Y-9.132
X-116.042 Y-9.186
X-115.926 Y-9.197
X-115.816 Y-9.164
X-115.726 Y-9.092
X-115.629 Y-8.976
X-115.613 Y-8.946
X-115.608 Y-8.912
X-115.615 Y-8.878
X-115.633 Y-8.849
X-115.659 Y-8.827
X-115.692 Y-8.816
X-116.064 Y-8.756
X-116.097
X-116.127 Y-8.766
X-116.153 Y-8.786
X-116.253 Y-8.899
X-116.299 Y-8.958
X-116.314 Y-9.031
X-116.309 Y-9.106
X-116.251 Y-9.245
X-116.242 Y-9.252
X-116.134 Y-9.309
X-116.012 Y-9.318
X-115.897 Y-9.277
X-115.807 Y-9.194
X-115.783 Y-9.161
X-115.726 Y-9.092
X-115.709 Y-9.061
X-115.704 Y-9.027
X-115.711 Y-8.994
X-115.729 Y-8.964
X-115.756 Y-8.943
X-115.788 Y-8.931
X-116.164 Y-8.869
X-116.196
X-116.227 Y-8.879
X-116.253 Y-8.899
X-116.354 Y-9.014
X-116.386 Y-9.054
X-116.409 Y-9.125
X-116.412 Y-9.2
X-116.368 Y-9.344
X-116.261 Y-9.448
X-116.253 Y-9.452
X-116.107 Y-9.473
X-115.968 Y-9.421
X-115.871 Y-9.31
X-115.834 Y-9.237
X-115.807 Y-9.194
X-115.794 Y-9.163
X-115.791 Y-9.13
X-115.799 Y-9.098
X-115.818 Y-9.07
X-115.845 Y-9.05
X-115.876 Y-9.04
X-116.267 Y-8.983
X-116.299 Y-8.984
X-116.329 Y-8.994
X-116.354 Y-9.014
X-116.402 Y-9.068
X-116.409 Y-9.079
X-116.426 Y-9.11
X-116.476 Y-9.237
X-116.5 Y-9.308
X-116.476 Y-9.456
X-116.384 Y-9.575
X-116.361 Y-9.588
X-116.246 Y-9.624
X-116.127 Y-9.612
X-116.022 Y-9.555
X-115.948 Y-9.461
X-115.871 Y-9.31
X-115.862 Y-9.278
X-115.865 Y-9.244
X-115.878 Y-9.213
X-115.901 Y-9.189
X-115.93 Y-9.173
X-115.964 Y-9.168
X-116.386 Y-9.177
X-116.423 Y-9.185
X-116.454 Y-9.206
X-116.476 Y-9.237
X-116.542 Y-9.406
X-116.566 Y-9.477
X-116.557 Y-9.551
X-116.495 Y-9.688
X-116.375 Y-9.778
X-116.371 Y-9.779
X-116.227 Y-9.783
X-116.097 Y-9.718
X-116.013 Y-9.6
X-116.003 Y-9.575
X-115.948 Y-9.461
X-115.939 Y-9.428
X-115.942 Y-9.394
X-115.956 Y-9.363
X-115.98 Y-9.338
X-116.011 Y-9.323
X-116.045 Y-9.319
X-116.457 Y-9.346
X-116.492 Y-9.355
X-116.522 Y-9.376
X-116.542 Y-9.406
X-116.609 Y-9.575
X-116.621 Y-9.61
X-116.62 Y-9.685
X-116.597 Y-9.757
X-116.559 Y-9.821
X-116.449 Y-9.923
X-116.44 Y-9.926
X-116.32 Y-9.941
X-116.204 Y-9.908
X-116.11 Y-9.831
X-116.054 Y-9.723
X-116.037 Y-9.659
X-116.013 Y-9.6
X-116.007 Y-9.567
X-116.013 Y-9.533
X-116.029 Y-9.504
X-116.054 Y-9.482
X-116.086 Y-9.469
X-116.119 Y-9.467
X-116.529 Y-9.515
X-116.562 Y-9.525
X-116.59 Y-9.546
X-116.609 Y-9.575
X-116.642 Y-9.659
X-116.659 Y-9.706
X-116.681 Y-9.777
X-116.663 Y-9.926
X-116.574 Y-10.047
X-116.441 Y-10.117
X-116.418 Y-10.12
X-116.273 Y-10.101
X-116.154 Y-10.015
X-116.09 Y-9.884
X-116.06 Y-9.744
X-116.054 Y-9.723
X-116.053 Y-9.685
X-116.065 Y-9.649
X-116.09 Y-9.621
X-116.124 Y-9.603
X-116.162 Y-9.6
X-116.576 Y-9.643
X-116.611 Y-9.653
X-116.64 Y-9.675
X-116.659 Y-9.706
X-116.673 Y-9.744
X-116.725 Y-9.913
X-116.744 Y-9.985
X-116.708 Y-10.131
X-116.607 Y-10.242
X-116.469 Y-10.3
X-116.446 Y-10.302
X-116.305 Y-10.279
X-116.19 Y-10.194
X-116.128 Y-10.065
X-116.09 Y-9.884
X-116.091 Y-9.846
X-116.106 Y-9.811
X-116.133 Y-9.784
X-116.168 Y-9.769
X-116.206 Y-9.768
X-116.649 Y-9.847
X-116.682 Y-9.859
X-116.708 Y-9.882
X-116.725 Y-9.913
X-116.752 Y-9.997
X-116.775 Y-10.082
X-116.791 Y-10.155
X-116.779 Y-10.229
X-116.709 Y-10.362
X-116.591 Y-10.454
X-116.446 Y-10.494
X-116.438 Y-10.493
X-116.315 Y-10.456
X-116.22 Y-10.371
X-116.168 Y-10.253
X-116.128 Y-10.065
X-116.129 Y-10.028
X-116.143 Y-9.993
X-116.169 Y-9.966
X-116.203 Y-9.951
X-116.241 Y-9.949
X-116.694 Y-10.013
X-116.729 Y-10.025
X-116.758 Y-10.049
X-116.775 Y-10.082
X-116.822 Y-10.251
X-116.838 Y-10.324
X-116.809 Y-10.471
X-116.713 Y-10.586
X-116.584 Y-10.663
X-116.54 Y-10.67
X-116.422 Y-10.665
X-116.316 Y-10.615
X-116.236 Y-10.528
X-116.197 Y-10.417
X-116.185 Y-10.335
X-116.168 Y-10.253
X-116.169 Y-10.217
X-116.182 Y-10.183
X-116.207 Y-10.157
X-116.24 Y-10.141
X-116.276 Y-10.137
X-116.736 Y-10.181
X-116.773 Y-10.192
X-116.803 Y-10.216
X-116.822 Y-10.251
X-116.869 Y-10.419
X-116.885 Y-10.493
X-116.868 Y-10.642
X-116.781 Y-10.763
X-116.651 Y-10.84
X-116.505 Y-10.872
X-116.493 Y-10.871
X-116.368 Y-10.829
X-116.273 Y-10.738
X-116.226 Y-10.615
X-116.197 Y-10.417
X-116.199 Y-10.382
X-116.213 Y-10.35
X-116.238 Y-10.325
X-116.27 Y-10.31
X-116.305 Y-10.307
X-116.782 Y-10.35
X-116.82 Y-10.361
X-116.85 Y-10.385
X-116.869 Y-10.419
X-116.892 Y-10.504
X-116.912 Y-10.588
X-116.922 Y-10.673
X-116.927 Y-10.748
X-116.872 Y-10.887
X-116.762 Y-10.99
X-116.627 Y-11.054
X-116.578 Y-11.059
X-116.465 Y-11.048
X-116.365 Y-10.996
X-116.29 Y-10.91
X-116.253 Y-10.803
X-116.226 Y-10.615
X-116.229 Y-10.579
X-116.244 Y-10.546
X-116.271 Y-10.52
X-116.305 Y-10.506
X-116.342
X-116.84 Y-10.59
X-116.869 Y-10.599
X-116.894 Y-10.618
X-116.912 Y-10.643
X-116.922 Y-10.673
X-116.942 Y-10.842
X-116.947 Y-10.917
X-116.912 Y-11.063
X-116.812 Y-11.174
X-116.677 Y-11.239
X-116.528 Y-11.259
X-116.521 Y-11.258
X-116.401 Y-11.208
X-116.313 Y-11.112
X-116.273 Y-10.988
X-116.268 Y-10.926
X-116.259 Y-10.842
X-116.253 Y-10.803
X-116.256 Y-10.767
X-116.271 Y-10.735
X-116.297 Y-10.709
X-116.33 Y-10.695
X-116.366 Y-10.693
X-116.856 Y-10.758
X-116.887 Y-10.767
X-116.913 Y-10.786
X-116.932 Y-10.811
X-116.942 Y-10.842
X-116.968 Y-11.064
X-116.973 Y-11.139
X-116.92 Y-11.28
X-116.81 Y-11.382
X-116.674 Y-11.445
X-116.525 Y-11.457
X-116.52 Y-11.456
X-116.405 Y-11.401
X-116.323 Y-11.303
X-116.289 Y-11.181
X-116.273 Y-10.988
X-116.278 Y-10.952
X-116.295 Y-10.92
X-116.323 Y-10.897
X-116.356 Y-10.884
X-116.392 Y-10.885
X-116.888 Y-10.981
X-116.917 Y-10.991
X-116.941 Y-11.01
X-116.959 Y-11.035
X-116.968 Y-11.064
X-116.989 Y-11.264
X-116.993 Y-11.339
X-116.939 Y-11.479
X-116.83 Y-11.582
X-116.694 Y-11.645
X-116.545 Y-11.658
X-116.537 Y-11.656
X-116.42 Y-11.603
X-116.336 Y-11.504
X-116.301 Y-11.38
X-116.289 Y-11.181
X-116.295 Y-11.145
X-116.312 Y-11.114
X-116.34 Y-11.092
X-116.373 Y-11.08
X-116.409
X-116.91 Y-11.18
X-116.939 Y-11.19
X-116.963 Y-11.209
X-116.98 Y-11.235
X-116.989 Y-11.264
X-117.006 Y-11.433
X-117.008 Y-11.479
X-117.006 Y-11.554
X-116.945 Y-11.691
X-116.832 Y-11.79
X-116.694 Y-11.849
X-116.544 Y-11.857
X-116.537 Y-11.855
X-116.422 Y-11.799
X-116.341 Y-11.7
X-116.309 Y-11.576
X-116.302 Y-11.404
X-116.301 Y-11.38
X-116.306 Y-11.344
X-116.324 Y-11.313
X-116.352 Y-11.29
X-116.386 Y-11.279
X-116.421 Y-11.28
X-116.929 Y-11.388
X-116.959 Y-11.4
X-116.984 Y-11.421
X-117.001 Y-11.448
X-117.008 Y-11.479
X-117.014 Y-11.686
X-117.013 Y-11.761
X-116.95 Y-11.898
X-116.836 Y-11.995
X-116.697 Y-12.052
X-116.627 Y-12.055
X-116.51 Y-12.036
X-116.41 Y-11.974
X-116.341 Y-11.877
X-116.315 Y-11.761
X-116.314 Y-11.686
X-116.309 Y-11.576
X-116.316 Y-11.541
X-116.334 Y-11.51
X-116.362 Y-11.488
X-116.396 Y-11.477
X-116.432 Y-11.478
X-116.937 Y-11.596
X-116.967 Y-11.608
X-116.991 Y-11.628
X-117.007 Y-11.655
X-117.014 Y-11.686
X-117.021 Y-11.902
X-117.02 Y-11.977
X-116.95 Y-12.11
X-116.833 Y-12.203
X-116.69 Y-12.249
X-116.54 Y-12.25
X-116.534 Y-12.249
X-116.422 Y-12.188
X-116.346 Y-12.087
X-116.317 Y-11.963
X-116.315 Y-11.761
X-116.322 Y-11.726
X-116.342 Y-11.695
X-116.371 Y-11.673
X-116.407 Y-11.663
X-116.443 Y-11.667
X-116.949 Y-11.812
X-116.977 Y-11.825
X-116.999 Y-11.846
X-117.014 Y-11.872
X-117.021 Y-11.902
X-117.026 Y-12.071
X-117.024 Y-12.146
X-116.977 Y-12.288
X-116.865 Y-12.388
X-116.727 Y-12.446
X-116.577 Y-12.459
X-116.557 Y-12.454
X-116.435 Y-12.398
X-116.35 Y-12.294
X-116.319 Y-12.163
X-116.317 Y-11.963
X-116.324 Y-11.929
X-116.343 Y-11.899
X-116.37 Y-11.878
X-116.404 Y-11.867
X-116.439 Y-11.868
X-116.947 Y-11.979
X-116.977 Y-11.991
X-117.002 Y-12.012
X-117.019 Y-12.039
X-117.026 Y-12.071
X-117.031 Y-12.278
X-117.025 Y-12.352
X-116.972 Y-12.493
X-116.859 Y-12.592
X-116.721 Y-12.65
X-116.572 Y-12.658
X-116.551 Y-12.654
X-116.43 Y-12.595
X-116.347 Y-12.489
X-116.319 Y-12.357
X-116.32 Y-12.278
X-116.319 Y-12.163
X-116.326 Y-12.129
X-116.345 Y-12.099
X-116.373 Y-12.077
X-116.406 Y-12.067
X-116.441 Y-12.068
X-116.953 Y-12.186
X-116.983 Y-12.198
X-117.007 Y-12.219
X-117.024 Y-12.246
X-117.031 Y-12.278
X-117.024 Y-12.493
X-117.018 Y-12.568
X-116.958 Y-12.705
X-116.842 Y-12.8
X-116.702 Y-12.854
X-116.552 Y-12.856
X-116.536 Y-12.852
X-116.421 Y-12.791
X-116.343 Y-12.686
X-116.316 Y-12.559
X-116.319 Y-12.357
X-116.327 Y-12.323
X-116.346 Y-12.293
X-116.375 Y-12.272
X-116.409 Y-12.262
X-116.444 Y-12.265
X-116.949 Y-12.397
X-116.979 Y-12.41
X-117.003 Y-12.432
X-117.018 Y-12.461
X-117.024 Y-12.493
X-117.017 Y-12.7
X-117.011 Y-12.775
X-116.949 Y-12.911
X-116.832 Y-13.005
X-116.691 Y-13.056
X-116.541
X-116.529 Y-13.053
X-116.416 Y-12.991
X-116.339 Y-12.887
X-116.313 Y-12.761
X-116.316 Y-12.559
X-116.324 Y-12.524
X-116.344 Y-12.494
X-116.372 Y-12.474
X-116.407 Y-12.464
X-116.442 Y-12.467
X-116.944 Y-12.604
X-116.973 Y-12.617
X-116.997 Y-12.64
X-117.012 Y-12.668
X-117.017 Y-12.7
X-117.01 Y-12.915
X-117.003 Y-12.99
X-116.933 Y-13.123
X-116.812 Y-13.212
X-116.67 Y-13.259
X-116.52 Y-13.255
X-116.51 Y-13.252
X-116.399 Y-13.185
X-116.327 Y-13.078
X-116.306 Y-12.951
X-116.31 Y-12.869
X-116.313 Y-12.761
X-116.321 Y-12.726
X-116.342 Y-12.696
X-116.371 Y-12.675
X-116.406 Y-12.666
X-116.442 Y-12.67
X-116.939 Y-12.819
X-116.967 Y-12.833
X-116.99 Y-12.855
X-117.005 Y-12.884
X-117.01 Y-12.915
X-117.001 Y-13.122
X-116.989 Y-13.196
X-116.917 Y-13.328
X-116.796 Y-13.416
X-116.653 Y-13.461
X-116.503 Y-13.455
X-116.495 Y-13.452
X-116.386 Y-13.384
X-116.314 Y-13.278
X-116.295 Y-13.151
X-116.306 Y-12.951
X-116.315 Y-12.916
X-116.336 Y-12.887
X-116.366 Y-12.868
X-116.401 Y-12.86
X-116.436 Y-12.865
X-116.932 Y-13.027
X-116.96 Y-13.041
X-116.982 Y-13.063
X-116.996 Y-13.091
X-117.001 Y-13.122
X-116.977 Y-13.338
X-116.965 Y-13.412
X-116.887 Y-13.54
X-116.762 Y-13.623
X-116.618 Y-13.663
X-116.467 Y-13.65
X-116.366 Y-13.58
X-116.3 Y-13.476
X-116.282 Y-13.354
X-116.295 Y-13.151
X-116.304 Y-13.116
X-116.326 Y-13.087
X-116.356 Y-13.067
X-116.392 Y-13.06
X-116.427 Y-13.066
X-116.91 Y-13.235
X-116.939 Y-13.251
X-116.961 Y-13.275
X-116.974 Y-13.305
X-116.977 Y-13.338
X-116.953 Y-13.545
X-116.941 Y-13.619
X-116.861 Y-13.746
X-116.735 Y-13.827
X-116.589 Y-13.864
X-116.439 Y-13.847
X-116.338 Y-13.773
X-116.276 Y-13.664
X-116.263 Y-13.539
X-116.277 Y-13.414
X-116.281 Y-13.376
X-116.282 Y-13.354
X-116.292 Y-13.319
X-116.314 Y-13.29
X-116.345 Y-13.271
X-116.38 Y-13.264
X-116.416 Y-13.27
X-116.888 Y-13.443
X-116.916 Y-13.459
X-116.938 Y-13.483
X-116.95 Y-13.512
X-116.953 Y-13.545
X-116.933 Y-13.714
X-116.925 Y-13.76
X-116.91 Y-13.833
X-116.824 Y-13.956
X-116.694 Y-14.032
X-116.547 Y-14.063
X-116.494 Y-14.055
X-116.384 Y-14.016
X-116.298 Y-13.937
X-116.248 Y-13.832
X-116.242 Y-13.715
X-116.253 Y-13.629
X-116.263 Y-13.539
X-116.275 Y-13.505
X-116.298 Y-13.477
X-116.33 Y-13.459
X-116.366 Y-13.454
X-116.401 Y-13.461
X-116.865 Y-13.655
X-116.892 Y-13.672
X-116.913 Y-13.697
X-116.924 Y-13.728
X-116.925 Y-13.76
X-116.892 Y-13.967
X-116.872 Y-14.04
X-116.784 Y-14.161
X-116.653 Y-14.234
X-116.505 Y-14.253
X-116.451 Y-14.242
X-116.346 Y-14.198
X-116.265 Y-14.12
X-116.219 Y-14.017
X-116.214 Y-13.904
X-116.242 Y-13.715
X-116.255 Y-13.681
X-116.28 Y-13.653
X-116.312 Y-13.637
X-116.349 Y-13.633
X-116.384 Y-13.643
X-116.836 Y-13.865
X-116.862 Y-13.882
X-116.88 Y-13.907
X-116.891 Y-13.936
X-116.892 Y-13.967
X-116.883 Y-14.007
X-116.834 Y-14.182
X-116.811 Y-14.254
X-116.716 Y-14.37
X-116.579 Y-14.43
X-116.429 Y-14.436
X-116.392 Y-14.425
X-116.269 Y-14.352
X-116.194 Y-14.23
X-116.184 Y-14.088
X-116.206 Y-13.956
X-116.214 Y-13.904
X-116.228 Y-13.869
X-116.254 Y-13.841
X-116.288 Y-13.825
X-116.325 Y-13.823
X-116.361 Y-13.835
X-116.786 Y-14.072
X-116.811 Y-14.092
X-116.829 Y-14.119
X-116.837 Y-14.15
X-116.834 Y-14.182
X-116.777 Y-14.389
X-116.754 Y-14.461
X-116.65 Y-14.569
X-116.51 Y-14.622
X-116.36 Y-14.614
X-116.34 Y-14.607
X-116.225 Y-14.528
X-116.157 Y-14.406
X-116.152 Y-14.266
X-116.162 Y-14.22
X-116.184 Y-14.088
X-116.199 Y-14.052
X-116.226 Y-14.025
X-116.262 Y-14.01
X-116.301
X-116.336 Y-14.024
X-116.734 Y-14.282
X-116.757 Y-14.303
X-116.773 Y-14.329
X-116.78 Y-14.359
X-116.777 Y-14.389
X-116.73 Y-14.558
X-116.703 Y-14.628
X-116.658 Y-14.688
X-116.536 Y-14.775
X-116.388 Y-14.803
X-116.35 Y-14.795
X-116.242 Y-14.75
X-116.159 Y-14.666
X-116.115 Y-14.557
X-116.116 Y-14.44
X-116.152 Y-14.266
X-116.168 Y-14.231
X-116.195 Y-14.205
X-116.23 Y-14.191
X-116.268
X-116.303 Y-14.205
X-116.687 Y-14.451
X-116.71 Y-14.471
X-116.726 Y-14.498
X-116.733 Y-14.528
X-116.73 Y-14.558
X-116.656 Y-14.774
X-116.628 Y-14.843
X-116.573 Y-14.894
X-116.441 Y-14.966
X-116.291 Y-14.971
X-116.271 Y-14.964
X-116.152 Y-14.886
X-116.083 Y-14.762
X-116.078 Y-14.62
X-116.116 Y-14.44
X-116.129 Y-14.409
X-116.152 Y-14.384
X-116.181 Y-14.369
X-116.214 Y-14.363
X-116.247 Y-14.369
X-116.276 Y-14.386
X-116.623 Y-14.666
X-116.648 Y-14.697
X-116.66 Y-14.734
X-116.656 Y-14.774
X-116.629 Y-14.85
X-116.593 Y-14.943
X-116.562 Y-15.011
X-116.451 Y-15.113
X-116.408 Y-15.123
X-116.286 Y-15.127
X-116.173 Y-15.081
X-116.087 Y-14.995
X-116.043 Y-14.882
X-116.047 Y-14.76
X-116.055 Y-14.727
X-116.078 Y-14.62
X-116.092 Y-14.589
X-116.114 Y-14.564
X-116.144 Y-14.549
X-116.177 Y-14.544
X-116.21 Y-14.55
X-116.239 Y-14.566
X-116.562 Y-14.832
X-116.582 Y-14.854
X-116.595 Y-14.882
X-116.598 Y-14.913
X-116.593 Y-14.943
X-116.526 Y-15.112
X-116.495 Y-15.18
X-116.437 Y-15.228
X-116.298 Y-15.284
X-116.149 Y-15.269
X-116.137 Y-15.263
X-116.048 Y-15.193
X-115.992 Y-15.096
X-115.975 Y-14.984
X-116.001 Y-14.874
X-116.037 Y-14.792
X-116.043 Y-14.776
X-116.047 Y-14.76
X-116.062 Y-14.729
X-116.087 Y-14.705
X-116.118 Y-14.69
X-116.153 Y-14.688
X-116.186 Y-14.697
X-116.215 Y-14.717
X-116.503 Y-15.008
X-116.523 Y-15.038
X-116.532 Y-15.075
X-116.526 Y-15.112
X-116.46 Y-15.277
X-116.431 Y-15.341
X-116.311 Y-15.431
X-116.162 Y-15.453
X-116.018 Y-15.411
X-116.016 Y-15.409
X-115.93 Y-15.307
X-115.897 Y-15.177
X-115.923 Y-15.047
X-116.001 Y-14.874
X-116.025 Y-14.843
X-116.059 Y-14.823
X-116.098 Y-14.818
X-116.136 Y-14.829
X-116.167 Y-14.854
X-116.442 Y-15.179
X-116.46 Y-15.209
X-116.466 Y-15.243
X-116.46 Y-15.277
X-116.427 Y-15.361
X-116.417 Y-15.382
X-116.404 Y-15.403
X-116.329 Y-15.487
X-116.277 Y-15.541
X-116.14 Y-15.601
X-115.99 Y-15.59
X-115.981 Y-15.586
X-115.893 Y-15.513
X-115.838 Y-15.412
X-115.826 Y-15.298
X-115.857 Y-15.187
X-115.875 Y-15.15
X-115.923 Y-15.047
X-115.944 Y-15.019
X-115.972 Y-15
X-116.005 Y-14.991
X-116.039 Y-14.994
X-116.07 Y-15.009
X-116.094 Y-15.033
X-116.334 Y-15.365
X-116.348 Y-15.395
X-116.352 Y-15.427
X-116.346 Y-15.459
X-116.329 Y-15.487
X-116.206 Y-15.626
X-116.154 Y-15.68
X-116.087 Y-15.714
X-116.013 Y-15.722
X-115.864 Y-15.702
X-115.785 Y-15.619
X-115.744 Y-15.511
X-115.748 Y-15.397
X-115.794 Y-15.292
X-115.809 Y-15.271
X-115.833 Y-15.234
X-115.857 Y-15.187
X-115.879 Y-15.16
X-115.909 Y-15.142
X-115.944 Y-15.135
X-115.979 Y-15.141
X-116.009 Y-15.159
X-116.031 Y-15.186
X-116.216 Y-15.513
X-116.227 Y-15.541
X-116.229 Y-15.571
X-116.222 Y-15.6
X-116.206 Y-15.626
X-116.084 Y-15.763
X-116.051 Y-15.797
X-115.984 Y-15.832
X-115.91 Y-15.843
X-115.761 Y-15.818
X-115.685 Y-15.729
X-115.649 Y-15.616
X-115.659 Y-15.499
X-115.713 Y-15.395
X-115.783 Y-15.308
X-115.794 Y-15.292
X-115.82 Y-15.268
X-115.853 Y-15.255
X-115.888 Y-15.254
X-115.921 Y-15.265
X-115.949 Y-15.287
X-115.967 Y-15.317
X-116.101 Y-15.663
X-116.108 Y-15.698
X-116.102 Y-15.733
X-116.084 Y-15.763
X-116.037 Y-15.816
X-115.929 Y-15.896
X-115.866 Y-15.937
X-115.792 Y-15.948
X-115.665 Y-15.885
X-115.585 Y-15.768
X-115.572 Y-15.627
X-115.631 Y-15.497
X-115.713 Y-15.395
X-115.742 Y-15.372
X-115.777 Y-15.361
X-115.814 Y-15.363
X-115.847 Y-15.378
X-115.873 Y-15.405
X-115.887 Y-15.439
X-115.965 Y-15.796
X-115.966 Y-15.833
X-115.953 Y-15.868
X-115.929 Y-15.896
X-115.828 Y-15.97
X-115.765 Y-16.011
X-115.69 Y-16.019
X-115.546 Y-15.977
X-115.48 Y-15.86
X-115.477 Y-15.727
X-115.539 Y-15.608
X-115.571 Y-15.572
X-115.631 Y-15.497
X-115.66 Y-15.474
X-115.696 Y-15.463
X-115.733 Y-15.466
X-115.766 Y-15.483
X-115.791 Y-15.51
X-115.805 Y-15.545
X-115.864 Y-15.874
Y-15.91
X-115.851 Y-15.943
X-115.828 Y-15.97
X-115.699 Y-16.064
X-115.652 Y-16.095
X-115.578 Y-16.107
X-115.506 Y-16.086
X-115.441 Y-16.048
X-115.384 Y-15.956
X-115.371 Y-15.849
X-115.402 Y-15.746
X-115.473 Y-15.665
X-115.505 Y-15.651
X-115.54 Y-15.648
X-115.574 Y-15.657
X-115.602 Y-15.678
X-115.622 Y-15.707
X-115.728 Y-15.945
X-115.736 Y-15.977
X-115.734 Y-16.01
X-115.721 Y-16.04
X-115.699 Y-16.064
X-115.63 Y-16.114
X-115.614 Y-16.123
X-115.53 Y-16.151
X-115.493 Y-16.16
X-115.418 Y-16.153
X-115.351 Y-16.121
X-115.285 Y-16.021
X-115.272 Y-15.903
X-115.314 Y-15.791
X-115.402 Y-15.71
X-115.437 Y-15.7
X-115.474 Y-15.703
X-115.507 Y-15.72
X-115.532 Y-15.747
X-115.546 Y-15.781
X-115.593 Y-16.04
Y-16.075
X-115.581 Y-16.107
X-115.559 Y-16.134
X-115.53 Y-16.151
X-115.398 Y-16.189
X-115.362 Y-16.198
X-115.288 Y-16.183
X-115.225 Y-16.144
X-115.172 Y-16.045
X-115.169 Y-15.933
X-115.216 Y-15.831
X-115.303 Y-15.761
X-115.36 Y-15.733
X-115.402 Y-15.71
X-115.439 Y-15.7
X-115.477 Y-15.704
X-115.51 Y-15.722
X-115.535 Y-15.751
X-115.547 Y-15.787
X-115.544 Y-15.826
X-115.464 Y-16.12
X-115.45 Y-16.15
X-115.428 Y-16.174
X-115.398 Y-16.189
X-115.276 Y-16.225
X-115.239 Y-16.233
X-115.167 Y-16.213
X-115.106 Y-16.17
X-115.062 Y-16.076
X-115.064 Y-15.972
X-115.11 Y-15.878
X-115.192 Y-15.814
X-115.303 Y-15.761
X-115.341 Y-15.753
X-115.379 Y-15.759
X-115.411 Y-15.779
X-115.434 Y-15.811
X-115.443 Y-15.848
X-115.438 Y-15.886
X-115.339 Y-16.163
X-115.325 Y-16.19
X-115.303 Y-16.211
X-115.276 Y-16.225
X-115.145 Y-16.262
X-115.116 Y-16.269
X-115.045 Y-16.244
X-114.977 Y-16.151
X-114.963 Y-16.037
X-115.007 Y-15.93
X-115.098 Y-15.859
X-115.192 Y-15.814
X-115.226 Y-15.806
X-115.26 Y-15.81
X-115.29 Y-15.824
X-115.314 Y-15.849
X-115.329 Y-15.88
X-115.332 Y-15.914
X-115.323 Y-15.947
X-115.205 Y-16.209
X-115.19 Y-16.232
X-115.169 Y-16.25
X-115.145 Y-16.262
X-115.107 Y-16.273
X-115.06 Y-16.28
X-115.023 Y-16.283
X-114.949 Y-16.266
X-114.892 Y-16.218
X-114.857 Y-16.123
X-114.871 Y-16.023
X-114.928 Y-15.94
X-115.018 Y-15.893
X-115.048 Y-15.891
G3 X-115.06 Y-16.28 I0.02 J-0.195
G1 X-115.022 Y-16.285
X-114.937 Y-16.293
X-114.9 Y-16.295
X-114.829 Y-16.27
X-114.774 Y-16.218
X-114.751 Y-16.126
X-114.77 Y-16.032
X-114.83 Y-15.957
X-114.917 Y-15.917
X-114.95 Y-15.91
X-115.018 Y-15.893
X-115.056 Y-15.892
X-115.091 Y-15.906
X-115.119 Y-15.932
X-115.135 Y-15.966
X-115.138 Y-16.004
X-115.126 Y-16.04
X-115.011 Y-16.243
X-114.992 Y-16.267
X-114.967 Y-16.284
X-114.937 Y-16.293
X-114.806 Y-16.306
X-114.769 Y-16.307
X-114.703 Y-16.272
X-114.659 Y-16.176
X-114.667 Y-16.071
X-114.726 Y-15.984
X-114.82 Y-15.937
X-114.917 Y-15.917
X-114.956 Y-15.918
X-114.992 Y-15.934
X-115.019 Y-15.963
X-115.032 Y-16
X-115.031 Y-16.039
X-115.014 Y-16.075
X-114.874 Y-16.266
X-114.855 Y-16.285
X-114.832 Y-16.298
X-114.806 Y-16.306
X-114.722 Y-16.314
X-114.684 Y-16.315
X-114.614 Y-16.288
X-114.569 Y-16.193
X-114.577 Y-16.089
X-114.636 Y-16.002
X-114.73 Y-15.956
X-114.82 Y-15.937
X-114.852
X-114.882 Y-15.949
X-114.906 Y-15.97
X-114.922 Y-15.998
G3 X-114.722 Y-16.314 I0.232 J-0.074
G1 X-114.599 Y-16.326
X-114.561 Y-16.327
X-114.5 Y-16.285
X-114.468 Y-16.192
X-114.484 Y-16.095
X-114.543 Y-16.016
X-114.633 Y-15.975
X-114.73 Y-15.956
X-114.766 Y-15.957
X-114.798 Y-15.973
X-114.821 Y-16
X-114.832 Y-16.034
G3 X-114.599 Y-16.326 I0.268 J-0.025
G1 X-114.514 Y-16.334
X-114.483 Y-16.335
X-114.415 Y-16.302
X-114.379 Y-16.207
X-114.394 Y-16.106
X-114.457 Y-16.026
X-114.552 Y-15.987
X-114.599 Y-15.981
X-114.633 Y-15.975
X-114.666 Y-15.976
X-114.696 Y-15.99
X-114.719 Y-16.015
X-114.73 Y-16.046
G3 X-114.514 Y-16.334 I0.249 J-0.038
G1 X-114.472 Y-16.337
X-114.405 Y-16.332
X-114.368 Y-16.327
X-114.307 Y-16.283
X-114.283 Y-16.186
X-114.31 Y-16.09
X-114.381 Y-16.02
X-114.478 Y-15.994
X-114.504 Y-15.999
X-114.528 Y-16.013
G3 X-114.405 Y-16.332 I0.112 J-0.14
G1 X-114.299 Y-16.322
X-114.262 Y-16.316
X-114.204 Y-16.268
X-114.189 Y-16.165
X-114.227 Y-16.069
X-114.308 Y-16.005
X-114.41 Y-15.991
X-114.442 Y-16.003
X-114.467 Y-16.027
G3 X-114.299 Y-16.322 I0.157 J-0.106
G1 X-114.214 Y-16.314
X-114.177 Y-16.308
X-114.117 Y-16.263
X-114.1 Y-16.155
X-114.142 Y-16.055
X-114.23 Y-15.99
X-114.339 Y-15.981
X-114.37 Y-15.996
X-114.393 Y-16.021
G3 X-114.214 Y-16.314 I0.167 J-0.099
G1 X-114.129 Y-16.305
X-114.092 Y-16.3
X-114.031 Y-16.257
X-114.012 Y-16.146
X-114.054 Y-16.041
X-114.145 Y-15.974
X-114.257 Y-15.965
X-114.339 Y-15.981
X-114.367 Y-15.993
X-114.389 Y-16.015
X-114.402 Y-16.042
X-114.404 Y-16.072
G3 X-114.129 Y-16.305 I0.258 J0.026
G1 X-114.045 Y-16.297
X-114.008 Y-16.292
X-113.945 Y-16.25
X-113.923 Y-16.136
X-113.965 Y-16.027
X-114.059 Y-15.957
X-114.176 Y-15.949
X-114.257 Y-15.965
X-114.285 Y-15.978
X-114.307 Y-15.999
X-114.321 Y-16.027
X-114.323 Y-16.057
G3 X-114.045 Y-16.297 I0.262 J0.023
G1 X-113.922 Y-16.285
X-113.892 Y-16.28
X-113.838 Y-16.228
X-113.827 Y-16.11
X-113.878 Y-16.004
X-113.976 Y-15.938
X-114.093 Y-15.932
X-114.176 Y-15.949
X-114.211 Y-15.966
X-114.237 Y-15.994
X-114.25 Y-16.03
X-114.249 Y-16.069
X-114.233 Y-16.104
X-114.204 Y-16.131
X-113.981 Y-16.27
X-113.953 Y-16.282
X-113.922 Y-16.285
X-113.838 Y-16.275
X-113.802 Y-16.263
X-113.746 Y-16.213
X-113.734 Y-16.094
X-113.784 Y-15.986
X-113.883 Y-15.919
X-114.002 Y-15.912
X-114.093 Y-15.932
X-114.128 Y-15.948
X-114.154 Y-15.976
X-114.168 Y-16.012
X-114.167 Y-16.05
X-114.151 Y-16.085
X-114.124 Y-16.112
X-113.901 Y-16.259
X-113.871 Y-16.272
X-113.838 Y-16.275
X-113.742 Y-16.248
X-113.707 Y-16.235
X-113.652 Y-16.185
X-113.627 Y-16.114
X-113.622 Y-16.039
X-113.686 Y-15.932
X-113.798 Y-15.878
X-113.921 Y-15.894
X-113.941 Y-15.906
X-113.957 Y-15.922
G3 X-113.742 Y-16.248 I0.164 J-0.125
G1 X-113.622 Y-16.213
X-113.586 Y-16.201
X-113.534 Y-16.147
X-113.523 Y-16.042
X-113.56 Y-15.942
X-113.638 Y-15.87
X-113.74 Y-15.841
X-113.844 Y-15.86
X-113.921 Y-15.894
X-113.951 Y-15.915
X-113.97 Y-15.945
X-113.978 Y-15.98
X-113.973 Y-16.016
X-113.955 Y-16.047
X-113.928 Y-16.071
X-113.696 Y-16.203
X-113.66 Y-16.215
X-113.622 Y-16.213
X-113.537 Y-16.188
X-113.502 Y-16.176
X-113.445 Y-16.128
X-113.417 Y-16.058
X-113.439 Y-15.935
X-113.52 Y-15.839
X-113.638 Y-15.798
X-113.762 Y-15.821
X-113.844 Y-15.86
X-113.873 Y-15.881
X-113.893 Y-15.911
X-113.901 Y-15.946
X-113.896 Y-15.981
X-113.879 Y-16.013
X-113.852 Y-16.036
X-113.612 Y-16.177
X-113.576 Y-16.19
X-113.537 Y-16.188
X-113.415 Y-16.153
X-113.368 Y-16.137
X-113.325 Y-16.076
X-113.303 Y-16.004
X-113.339 Y-15.882
X-113.428 Y-15.791
X-113.55 Y-15.754
X-113.675 Y-15.779
X-113.762 Y-15.821
X-113.79 Y-15.843
X-113.809 Y-15.873
X-113.815 Y-15.909
X-113.809 Y-15.944
X-113.79 Y-15.975
X-113.762 Y-15.998
X-113.486 Y-16.144
X-113.451 Y-16.155
X-113.415 Y-16.153
X-113.341 Y-16.131
X-113.33 Y-16.127
X-113.292 Y-16.1
X-113.233 Y-16.054
X-113.203 Y-15.985
X-113.198 Y-15.91
X-113.249 Y-15.8
X-113.344 Y-15.724
X-113.463 Y-15.7
X-113.58 Y-15.733
X-113.675 Y-15.779
X-113.703 Y-15.801
X-113.722 Y-15.832
X-113.728 Y-15.867
X-113.722 Y-15.903
X-113.703 Y-15.934
X-113.675 Y-15.956
X-113.393 Y-16.105
X-113.36 Y-16.116
X-113.325 Y-16.114
X-113.292 Y-16.1
X-113.245 Y-16.067
X-113.161 Y-16.005
X-113.132 Y-15.981
X-113.104 Y-15.911
X-113.1 Y-15.836
X-113.101 Y-15.83
X-113.16 Y-15.722
X-113.263 Y-15.653
X-113.385 Y-15.641
X-113.499 Y-15.688
X-113.58 Y-15.733
X-113.608 Y-15.758
X-113.625 Y-15.792
X-113.628 Y-15.829
X-113.617 Y-15.865
X-113.593 Y-15.895
X-113.561 Y-15.913
X-113.249 Y-16.017
X-113.219 Y-16.022
X-113.188 Y-16.018
X-113.161 Y-16.005
X-113.076 Y-15.943
X-113.047 Y-15.919
X-113.011 Y-15.853
X-113.002 Y-15.779
X-113.065 Y-15.659
X-113.179 Y-15.586
X-113.314 Y-15.578
X-113.435 Y-15.638
X-113.457 Y-15.667
X-113.467 Y-15.702
X-113.463 Y-15.739
X-113.447 Y-15.771
X-113.421 Y-15.796
X-113.186 Y-15.944
X-113.15 Y-15.958
X-113.112
X-113.076 Y-15.943
X-112.969 Y-15.864
X-112.932 Y-15.833
X-112.911 Y-15.761
X-112.912 Y-15.686
X-112.961 Y-15.545
X-113.06 Y-15.485
X-113.174 Y-15.47
X-113.285 Y-15.501
X-113.374 Y-15.575
X-113.39 Y-15.605
X-113.394 Y-15.639
X-113.387 Y-15.672
X-113.369 Y-15.701
X-113.342 Y-15.722
X-113.073 Y-15.869
X-113.039 Y-15.88
X-113.002 Y-15.878
X-112.969 Y-15.864
X-112.917 Y-15.825
X-112.907 Y-15.817
X-112.86 Y-15.765
X-112.812 Y-15.707
X-112.798 Y-15.633
X-112.805 Y-15.558
X-112.864 Y-15.42
X-112.968 Y-15.365
X-113.086 Y-15.355
X-113.198 Y-15.39
X-113.288 Y-15.466
X-113.374 Y-15.575
X-113.39 Y-15.605
X-113.394 Y-15.639
X-113.387 Y-15.672
X-113.369 Y-15.701
X-113.342 Y-15.722
X-113.31 Y-15.733
X-112.948 Y-15.793
X-112.916 Y-15.794
X-112.885 Y-15.784
X-112.86 Y-15.765
X-112.764 Y-15.656
X-112.717 Y-15.598
X-112.699 Y-15.525
X-112.702 Y-15.45
X-112.757 Y-15.31
X-112.765 Y-15.303
X-112.87 Y-15.246
X-112.988 Y-15.234
X-113.102 Y-15.27
X-113.193 Y-15.347
X-113.288 Y-15.466
X-113.303 Y-15.497
X-113.308 Y-15.53
X-113.3 Y-15.563
X-113.283 Y-15.592
X-113.256 Y-15.613
X-113.224 Y-15.624
X-112.853 Y-15.686
X-112.82
X-112.789 Y-15.676
X-112.764 Y-15.656
X-112.653 Y-15.531
X-112.606 Y-15.473
X-112.592 Y-15.399
X-112.6 Y-15.324
X-112.66 Y-15.187
X-112.677 Y-15.173
X-112.787 Y-15.116
X-112.911 Y-15.108
X-113.027 Y-15.151
X-113.116 Y-15.238
X-113.161 Y-15.305
X-113.193 Y-15.347
X-113.209 Y-15.377
X-113.213 Y-15.411
X-113.205 Y-15.444
X-113.187 Y-15.473
X-113.16 Y-15.494
X-113.127 Y-15.505
X-112.74 Y-15.561
X-112.708
X-112.678 Y-15.55
X-112.653 Y-15.531
X-112.54 Y-15.403
X-112.528 Y-15.382
X-112.517 Y-15.361
X-112.493 Y-15.29
X-112.497 Y-15.215
X-112.55 Y-15.075
X-112.661 Y-14.973
X-112.676 Y-14.967
X-112.787 Y-14.946
X-112.898 Y-14.968
X-112.993 Y-15.029
X-113.058 Y-15.121
X-113.076 Y-15.16
X-113.113 Y-15.234
X-113.116 Y-15.238
X-113.129 Y-15.27
X-113.13 Y-15.304
X-113.119 Y-15.337
X-113.099 Y-15.364
X-113.07 Y-15.383
X-113.036 Y-15.391
X-112.61 Y-15.413
X-112.573 Y-15.408
X-112.541 Y-15.39
X-112.517 Y-15.361
X-112.443 Y-15.176
X-112.419 Y-15.105
X-112.447 Y-14.958
X-112.542 Y-14.841
X-112.576 Y-14.824
X-112.693 Y-14.79
X-112.815 Y-14.806
X-112.92 Y-14.869
X-112.991 Y-14.969
X-113.047 Y-15.096
X-113.058 Y-15.121
X-113.066 Y-15.154
X-113.062 Y-15.187
X-113.048 Y-15.217
X-113.024 Y-15.241
X-112.994 Y-15.256
X-112.961 Y-15.259
X-112.529 Y-15.236
X-112.494 Y-15.227
X-112.464 Y-15.206
X-112.443 Y-15.176
X-112.376 Y-15.007
X-112.352 Y-14.936
X-112.364 Y-14.862
X-112.429 Y-14.727
X-112.548 Y-14.636
X-112.562 Y-14.632
X-112.704 Y-14.628
X-112.832 Y-14.688
X-112.918 Y-14.801
X-112.991 Y-14.969
X-112.998 Y-15.002
X-112.993 Y-15.036
X-112.978 Y-15.066
X-112.953 Y-15.089
X-112.922 Y-15.103
X-112.889 Y-15.105
X-112.458 Y-15.066
X-112.424 Y-15.057
X-112.396 Y-15.036
X-112.376 Y-15.007
X-112.315 Y-14.854
X-112.293 Y-14.782
X-112.316 Y-14.634
X-112.407 Y-14.515
X-112.541 Y-14.447
X-112.565 Y-14.444
X-112.707 Y-14.465
X-112.823 Y-14.549
X-112.886 Y-14.678
X-112.909 Y-14.781
X-112.918 Y-14.801
X-112.924 Y-14.834
X-112.92 Y-14.867
X-112.906 Y-14.897
X-112.882 Y-14.92
X-112.852 Y-14.934
X-112.819 Y-14.938
X-112.4 Y-14.914
X-112.365 Y-14.905
X-112.335 Y-14.884
X-112.315 Y-14.854
X-112.254 Y-14.681
X-112.232 Y-14.609
X-112.241 Y-14.534
X-112.303 Y-14.398
X-112.417 Y-14.299
X-112.56 Y-14.255
X-112.571 Y-14.256
X-112.696 Y-14.291
X-112.795 Y-14.376
X-112.848 Y-14.495
X-112.886 Y-14.678
Y-14.715
X-112.872 Y-14.75
X-112.847 Y-14.777
X-112.813 Y-14.793
X-112.776 Y-14.795
X-112.335 Y-14.744
X-112.301 Y-14.733
X-112.273 Y-14.711
X-112.254 Y-14.681
X-112.211 Y-14.558
X-112.198 Y-14.512
X-112.182 Y-14.439
X-112.203 Y-14.29
X-112.294 Y-14.171
X-112.42 Y-14.09
X-112.463 Y-14.082
X-112.579 Y-14.084
X-112.685 Y-14.129
X-112.767 Y-14.211
X-112.811 Y-14.317
X-112.848 Y-14.495
X-112.847 Y-14.531
X-112.834 Y-14.564
X-112.81 Y-14.591
X-112.778 Y-14.607
X-112.743 Y-14.612
X-112.287 Y-14.581
X-112.249 Y-14.571
X-112.217 Y-14.546
X-112.198 Y-14.512
X-112.146 Y-14.324
X-112.129 Y-14.251
X-112.151 Y-14.102
X-112.241 Y-13.982
X-112.371 Y-13.909
X-112.429 Y-13.898
X-112.547 Y-13.9
X-112.656 Y-13.947
X-112.737 Y-14.033
X-112.779 Y-14.144
X-112.792 Y-14.22
X-112.811 Y-14.317
Y-14.353
X-112.797 Y-14.387
X-112.773 Y-14.414
X-112.74 Y-14.43
X-112.704 Y-14.433
X-112.232 Y-14.393
X-112.195 Y-14.382
X-112.164 Y-14.358
X-112.146 Y-14.324
X-112.093 Y-14.136
X-112.076 Y-14.063
X-112.087 Y-13.988
X-112.15 Y-13.852
X-112.263 Y-13.755
X-112.404 Y-13.701
X-112.444 Y-13.7
X-112.584 Y-13.731
X-112.694 Y-13.824
X-112.748 Y-13.957
X-112.779 Y-14.144
X-112.777 Y-14.18
X-112.763 Y-14.212
X-112.738 Y-14.238
X-112.706 Y-14.253
X-112.67 Y-14.256
X-112.178 Y-14.205
X-112.141 Y-14.194
X-112.111 Y-14.17
X-112.093 Y-14.136
X-112.061 Y-14.021
X-112.048 Y-13.967
X-112.041 Y-13.921
X-112.032 Y-13.846
X-112.075 Y-13.702
X-112.176 Y-13.592
X-112.309 Y-13.522
X-112.457 Y-13.499
X-112.473 Y-13.502
X-112.589 Y-13.548
X-112.676 Y-13.637
X-112.719 Y-13.755
X-112.748 Y-13.957
X-112.746 Y-13.993
X-112.731 Y-14.025
X-112.705 Y-14.051
X-112.672 Y-14.065
X-112.636 Y-14.067
X-112.126 Y-14
X-112.096 Y-13.991
X-112.071 Y-13.974
X-112.051 Y-13.95
X-112.041 Y-13.921
X-112.007 Y-13.714
X-112.001 Y-13.667
X-111.996 Y-13.629
X-111.986 Y-13.479
X-111.964 Y-13.295
X-111.958 Y-13.274
X-111.953 Y-13.253
X-111.95 Y-13.232
X-111.954 Y-13.194
X-111.973 Y-13.16
X-112.003 Y-13.136
X-112.04 Y-13.125
X-112.078 Y-13.128
X-112.112 Y-13.146
X-112.137 Y-13.176
X-112.149 Y-13.212
X-112.194 Y-13.602
X-112.191 Y-13.64
X-112.174 Y-13.675
X-112.145 Y-13.7
X-112.108 Y-13.712
X-112.07 Y-13.71
X-112.035 Y-13.694
X-112.009 Y-13.665
X-111.996 Y-13.629
X-111.947 Y-13.207
X-111.938 Y-13.122
X-111.927 Y-12.869
X-111.912 Y-12.417
X-111.919 Y-12.382
X-111.936 Y-12.352
X-111.963 Y-12.33
X-111.996 Y-12.318
X-112.521 Y-12.23
X-112.555
X-112.587 Y-12.242
X-112.613 Y-12.263
X-112.631 Y-12.291
X-112.638 Y-12.324
X-112.641 Y-12.578
X-112.644 Y-12.784
X-112.647 Y-12.869
X-112.675 Y-13.376
X-112.684 Y-13.46
X-112.703 Y-13.629
X-112.719 Y-13.755
X-112.718 Y-13.783
X-112.709 Y-13.81
X-112.683 Y-13.831 Z-0.983
X-112.66 Y-13.849 Z-0.966
X-112.643 Y-13.863 Z-0.939
X-112.634 Y-13.864 Z-0.915
X-112.631 Y-13.865 Z-0.89
G0 Z2
X-109.668 Y-12.323
Z0.5
G3 X-109.184 Y-12.448 Z0.29 I0.242 J-0.062 F333.3
X-109.668 Y-12.323 Z0.079 I-0.242 J0.062
X-109.184 Y-12.448 Z-0.131 I0.242 J-0.062
X-109.668 Y-12.323 Z-0.342 I-0.242 J0.062
X-109.184 Y-12.448 Z-0.552 I0.242 J-0.062
X-109.668 Y-12.323 Z-0.763 I-0.242 J0.062
X-109.457 Y-12.634 Z-0.876 I0.242 J-0.062
X-109.176 Y-12.386 Z-0.99 I0.031 J0.248
X-109.676 I-0.25
X-109.176 I0.25
G1 X-109.139 Y-12.24 F1000
X-109.152 Y-12.166
X-109.189 Y-12.101
X-109.296 Y-11.996
X-109.44 Y-11.956
X-109.589 Y-11.978
X-109.719 Y-12.052
X-109.816 Y-12.166
X-109.868 Y-12.307
X-109.87 Y-12.457
X-109.823 Y-12.599
X-109.731 Y-12.718
X-109.605 Y-12.799
X-109.459 Y-12.835
X-109.31 Y-12.821
X-109.173 Y-12.759
X-109.065 Y-12.656
X-108.987 Y-12.528
X-108.937 Y-12.386
X-108.926 Y-12.237
X-108.936 Y-12.196
X-108.96 Y-12.13
X-108.999 Y-12.071
X-109.051 Y-12.024
X-109.1 Y-11.988
X-109.152 Y-11.94
X-109.184 Y-11.902
X-109.233 Y-11.845
X-109.369 Y-11.781
X-109.518 Y-11.761
X-109.665 Y-11.786
X-109.801 Y-11.851
X-109.823 Y-11.87
X-109.882 Y-11.933
X-109.919 Y-12.01
X-109.934 Y-12.095
X-109.938 Y-12.278
X-109.94 Y-12.531
X-109.939 Y-12.578
X-109.929 Y-12.727
X-109.853 Y-12.857
X-109.739 Y-12.954
X-109.604 Y-13.019
X-109.457 Y-13.05
X-109.363 Y-13.045
X-109.261 Y-13.02
X-109.173 Y-12.962
X-109.11 Y-12.877
X-109.061 Y-12.784
X-109.015 Y-12.7
X-108.917 Y-12.531
X-108.861 Y-12.447
X-108.846 Y-12.429
X-108.816 Y-12.392
X-108.791 Y-12.362
X-108.77 Y-12.334
X-108.768 Y-12.319
X-108.78 Y-12.216
X-108.839 Y-12.131
X-108.931 Y-12.082
X-108.974 Y-12.073
X-109.017 Y-12.077
X-109.058 Y-12.094
X-109.092 Y-12.121
X-109.117 Y-12.157
X-109.13 Y-12.199
G3 X-108.791 Y-12.362 I0.193 J-0.033
G1 X-108.739 Y-12.3
X-108.72 Y-12.278
X-108.714 Y-12.267
X-108.705 Y-12.243
X-108.703 Y-12.235
X-108.709 Y-12.204
X-108.728 Y-12.179
X-108.757 Y-12.166
X-108.789 Y-12.169
X-108.816 Y-12.186
X-108.831 Y-12.214
X-108.832 Y-12.246
X-108.817 Y-12.274
X-108.791 Y-12.292
X-108.76 Y-12.295
X-108.734 Y-12.286
X-108.714 Y-12.267
X-108.709 Y-12.257
X-108.705 Y-12.246
X-108.703 Y-12.235
X-108.702 Y-12.225
Y-12.214
X-108.703 Y-12.204
X-108.705 Y-12.193
X-108.712 Y-12.176
X-108.722 Y-12.16
X-108.73 Y-12.15
X-108.742 Y-12.14
X-108.761 Y-12.126
X-108.774 Y-12.119
X-108.786 Y-12.114
X-108.799 Y-12.11
X-108.846 Y-12.103
X-108.931 Y-12.082
X-108.973 Y-12.065
X-109.015 Y-12.045
X-109.051 Y-12.024
X-109.087 Y-12.009
X-109.125 Y-12.008
X-109.161 Y-12.023
X-109.316 Y-12.123
X-109.894 Y-12.495
X-109.918 Y-12.517
X-109.934 Y-12.545
X-109.939 Y-12.578
X-109.935 Y-12.7
X-109.93 Y-12.831
X-109.917 Y-12.98
X-109.831 Y-13.103
X-109.71 Y-13.192
X-109.57 Y-13.246
X-109.421 Y-13.267
X-109.408 Y-13.265
X-109.296 Y-13.228
X-109.206 Y-13.15
X-109.154 Y-13.043
X-109.11 Y-12.877
X-109.102 Y-12.839
X-109.108 Y-12.8
X-109.13 Y-12.767
X-109.162 Y-12.744
X-109.201 Y-12.736
X-109.202
X-109.829 Y-12.73
X-109.868 Y-12.738
X-109.901 Y-12.76
X-109.923 Y-12.792
X-109.93 Y-12.831
X-109.919 Y-13.084
X-109.912 Y-13.159
X-109.846 Y-13.294
X-109.732 Y-13.391
X-109.596 Y-13.455
X-109.529 Y-13.463
X-109.417 Y-13.456
X-109.315 Y-13.409
X-109.238 Y-13.327
X-109.196 Y-13.223
X-109.184 Y-13.163
X-109.175 Y-13.122
X-109.154 Y-13.043
X-109.153 Y-13.006
X-109.166 Y-12.97
X-109.191 Y-12.942
X-109.225 Y-12.925
X-109.263 Y-12.922
X-109.83 Y-12.984
X-109.865 Y-12.995
X-109.894 Y-13.017
X-109.913 Y-13.048
X-109.919 Y-13.084
X-109.917 Y-13.122
X-109.904 Y-13.291
X-109.895 Y-13.366
X-109.835 Y-13.503
X-109.722 Y-13.602
X-109.582 Y-13.656
X-109.539 Y-13.658
X-109.395 Y-13.628
X-109.283 Y-13.534
X-109.229 Y-13.398
X-109.226 Y-13.376
X-109.196 Y-13.223
X-109.197 Y-13.185
X-109.212 Y-13.151
X-109.239 Y-13.125
X-109.273 Y-13.11
X-109.31 Y-13.108
X-109.82 Y-13.188
X-109.854 Y-13.2
X-109.882 Y-13.223
X-109.899 Y-13.255
X-109.904 Y-13.291
X-109.897 Y-13.376
X-109.888 Y-13.46
X-109.877 Y-13.545
X-109.864 Y-13.618
X-109.784 Y-13.745
X-109.656 Y-13.824
X-109.508 Y-13.851
X-109.492 Y-13.848
X-109.371 Y-13.798
X-109.283 Y-13.7
X-109.245 Y-13.574
X-109.237 Y-13.46
X-109.229 Y-13.398
X-109.233 Y-13.359
X-109.252 Y-13.324
X-109.282 Y-13.299
X-109.32 Y-13.288
X-109.359 Y-13.293
X-109.809 Y-13.44
X-109.838 Y-13.456
X-109.861 Y-13.48
X-109.875 Y-13.511
X-109.877 Y-13.545
X-109.848 Y-13.76
X-109.833 Y-13.834
X-109.744 Y-13.954
X-109.611 Y-14.024
X-109.573 Y-14.027
X-109.451 Y-14.01
X-109.347 Y-13.946
X-109.277 Y-13.845
X-109.253 Y-13.724
Y-13.714
X-109.249 Y-13.629
X-109.245 Y-13.574
X-109.25 Y-13.541
X-109.265 Y-13.511
X-109.289 Y-13.488
X-109.32 Y-13.474
X-109.353 Y-13.471
X-109.386 Y-13.479
X-109.789 Y-13.658
X-109.815 Y-13.675
X-109.835 Y-13.699
X-109.846 Y-13.729
X-109.848 Y-13.76
X-109.823 Y-13.929
X-109.818 Y-13.967
X-109.795 Y-14.039
X-109.748 Y-14.097
X-109.624 Y-14.181
X-109.591 Y-14.185
X-109.464 Y-14.175
X-109.352 Y-14.112
X-109.277 Y-14.009
X-109.251 Y-13.884
X-109.253 Y-13.724
X-109.261 Y-13.691
X-109.279 Y-13.661
X-109.306 Y-13.64
X-109.339 Y-13.63
X-109.374 Y-13.631
X-109.406 Y-13.644
X-109.771 Y-13.871
X-109.798 Y-13.896
X-109.815 Y-13.93
X-109.818 Y-13.967
X-109.796 Y-14.051
X-109.757 Y-14.182
X-109.744 Y-14.218
X-109.691 Y-14.271
X-109.56 Y-14.344
X-109.545
X-109.424 Y-14.319
X-109.323 Y-14.247
X-109.26 Y-14.14
X-109.246 Y-14.017
X-109.25 Y-13.967
X-109.251 Y-13.884
X-109.26 Y-13.847
X-109.281 Y-13.817
X-109.312 Y-13.796
X-109.348 Y-13.789
X-109.385 Y-13.794
X-109.417 Y-13.813
X-109.725 Y-14.082
X-109.748 Y-14.11
X-109.759 Y-14.146
X-109.757 Y-14.182
X-109.72 Y-14.305
X-109.695 Y-14.376
X-109.643 Y-14.429
X-109.575 Y-14.462
X-109.443 Y-14.457
X-109.327 Y-14.393
X-109.252 Y-14.285
X-109.233 Y-14.154
X-109.246 Y-14.017
X-109.256 Y-13.983
X-109.279 Y-13.955
X-109.31 Y-13.936
X-109.345 Y-13.93
X-109.381 Y-13.937
X-109.411 Y-13.955
X-109.69 Y-14.205
X-109.712 Y-14.234
X-109.723 Y-14.269
X-109.72 Y-14.305
X-109.68 Y-14.44
X-109.667 Y-14.475
X-109.622 Y-14.535
X-109.558 Y-14.574
X-109.421 Y-14.57
X-109.303 Y-14.502
X-109.231 Y-14.386
X-109.222 Y-14.25
X-109.236 Y-14.216
X-109.262 Y-14.19
X-109.295 Y-14.174
X-109.332 Y-14.172
X-109.367 Y-14.183
X-109.631 Y-14.326
X-109.657 Y-14.347
X-109.675 Y-14.375
X-109.683 Y-14.407
X-109.68 Y-14.44
X-109.644 Y-14.558
X-109.613 Y-14.627
X-109.554 Y-14.673
X-109.484 Y-14.698
X-109.361 Y-14.677
X-109.26 Y-14.605
X-109.202 Y-14.495
X-109.198 Y-14.37
X-109.217 Y-14.275
X-109.222 Y-14.25
X-109.236 Y-14.216
X-109.262 Y-14.19
X-109.295 Y-14.174
X-109.331 Y-14.172
X-109.366 Y-14.183
X-109.395 Y-14.206
X-109.623 Y-14.467
X-109.64 Y-14.495
X-109.647 Y-14.526
X-109.644 Y-14.558
X-109.591 Y-14.693
X-109.575 Y-14.727
X-109.521 Y-14.779
X-109.452 Y-14.808
X-109.33 Y-14.788
X-109.231 Y-14.715
X-109.175 Y-14.605
Y-14.481
X-109.198 Y-14.37
X-109.214 Y-14.336
X-109.241 Y-14.31
X-109.275 Y-14.296
X-109.312 Y-14.295
X-109.347 Y-14.308
X-109.375 Y-14.333
X-109.576 Y-14.599
X-109.592 Y-14.628
X-109.597 Y-14.661
X-109.591 Y-14.693
X-109.543 Y-14.812
X-109.527 Y-14.846
X-109.469 Y-14.893
X-109.398 Y-14.918
X-109.283 Y-14.892
X-109.192 Y-14.818
X-109.143 Y-14.711
X-109.147 Y-14.593
X-109.157 Y-14.558
X-109.175 Y-14.481
X-109.192 Y-14.447
X-109.221 Y-14.422
X-109.256 Y-14.409
X-109.294 Y-14.411
X-109.329 Y-14.426
X-109.355 Y-14.453
X-109.533 Y-14.723
X-109.545 Y-14.751
X-109.549 Y-14.781
X-109.543 Y-14.812
X-109.498 Y-14.922
X-109.482 Y-14.956
X-109.423 Y-15.002
X-109.352 Y-15.025
X-109.231 Y-14.992
X-109.141 Y-14.907
X-109.102 Y-14.789
X-109.123 Y-14.666
X-109.145 Y-14.636
X-109.177 Y-14.617
X-109.213 Y-14.61
X-109.25 Y-14.617
X-109.281 Y-14.636
X-109.472 Y-14.813
X-109.495 Y-14.845
X-109.504 Y-14.883
X-109.498 Y-14.922
X-109.449 Y-15.039
X-109.433 Y-15.072
X-109.371 Y-15.114
X-109.298 Y-15.133
X-109.18 Y-15.094
X-109.093 Y-15.005
X-109.057 Y-14.886
X-109.079 Y-14.764
X-109.123 Y-14.666
X-109.145 Y-14.636
X-109.177 Y-14.617
X-109.213 Y-14.61
X-109.25 Y-14.617
X-109.281 Y-14.636
X-109.303 Y-14.666
X-109.446 Y-14.96
X-109.454 Y-14.985
X-109.455 Y-15.012
X-109.449 Y-15.039
X-109.403 Y-15.15
X-109.387 Y-15.18
X-109.324 Y-15.221
X-109.252 Y-15.239
X-109.132 Y-15.198
X-109.045 Y-15.107
X-109.01 Y-14.985
X-109.034 Y-14.861
X-109.079 Y-14.764
X-109.102 Y-14.734
X-109.134 Y-14.715
X-109.17 Y-14.708
X-109.207 Y-14.716
X-109.238 Y-14.736
X-109.26 Y-14.766
X-109.4 Y-15.073
X-109.41 Y-15.111
X-109.403 Y-15.15
X-109.384 Y-15.191
X-109.378 Y-15.202
X-109.333 Y-15.26
X-109.308 Y-15.288
X-109.242 Y-15.323
X-109.168 Y-15.334
X-109.058 Y-15.286
X-108.982 Y-15.194
X-108.955 Y-15.078
X-108.984 Y-14.962
X-109.018 Y-14.896
X-109.034 Y-14.861
X-109.057 Y-14.832
X-109.089 Y-14.813
X-109.126 Y-14.807
X-109.163 Y-14.815
X-109.194 Y-14.836
X-109.215 Y-14.867
X-109.344 Y-15.16
X-109.352 Y-15.194
X-109.348 Y-15.228
X-109.333 Y-15.26
X-109.241 Y-15.374
X-109.217 Y-15.403
X-109.146 Y-15.427
X-109.024 Y-15.392
X-108.935 Y-15.303
X-108.902 Y-15.182
X-108.932 Y-15.059
X-108.984 Y-14.962
X-109.009 Y-14.932
X-109.044 Y-14.915
X-109.083 Y-14.912
X-109.12 Y-14.923
X-109.149 Y-14.948
X-109.167 Y-14.983
X-109.257 Y-15.287
X-109.261 Y-15.317
X-109.256 Y-15.347
X-109.241 Y-15.374
X-109.184 Y-15.446
X-109.16 Y-15.474
X-109.092 Y-15.507
X-108.967 Y-15.474
X-108.877 Y-15.381
X-108.847 Y-15.255
X-108.886 Y-15.132
X-108.932 Y-15.059
X-108.957 Y-15.031
X-108.991 Y-15.013
X-109.03 Y-15.011
X-109.066 Y-15.022
X-109.095 Y-15.046
X-109.114 Y-15.08
X-109.2 Y-15.356
X-109.204 Y-15.387
X-109.199 Y-15.418
X-109.184 Y-15.446
X-109.123 Y-15.523
X-109.098 Y-15.551
X-109.031 Y-15.585
X-108.91 Y-15.552
X-108.822 Y-15.461
X-108.793 Y-15.338
X-108.83 Y-15.217
X-108.886 Y-15.132
X-108.912 Y-15.105
X-108.947 Y-15.091
X-108.985 Y-15.09
X-109.02 Y-15.103
X-109.048 Y-15.128
X-109.064 Y-15.162
X-109.139 Y-15.437
X-109.143 Y-15.467
X-109.137 Y-15.496
X-109.123 Y-15.523
X-109.064 Y-15.597
X-109.039 Y-15.626
X-108.973 Y-15.661
X-108.853 Y-15.629
X-108.767 Y-15.541
X-108.739 Y-15.42
X-108.776 Y-15.303
X-108.83 Y-15.217
X-108.857 Y-15.191
X-108.892 Y-15.177
X-108.93 Y-15.176
X-108.965 Y-15.189
X-108.993 Y-15.215
X-109.009 Y-15.248
X-109.08 Y-15.512
X-109.083 Y-15.542
X-109.078 Y-15.571
X-109.064 Y-15.597
X-109.015 Y-15.658
X-108.996 Y-15.681
X-108.981 Y-15.699
X-108.951 Y-15.722
X-108.879 Y-15.742
X-108.764 Y-15.693
X-108.692 Y-15.592
X-108.68 Y-15.468
X-108.734 Y-15.356
X-108.765 Y-15.333
X-108.804 Y-15.324
X-108.842 Y-15.331
X-108.876 Y-15.352
X-108.898 Y-15.384
X-108.993 Y-15.597
X-109.002 Y-15.632
X-108.997 Y-15.668
X-108.981 Y-15.699
X-108.905 Y-15.764
X-108.875 Y-15.786
X-108.804 Y-15.809
X-108.688 Y-15.754
X-108.619 Y-15.645
X-108.618 Y-15.517
X-108.685 Y-15.408
X-108.717 Y-15.389
X-108.754 Y-15.384
X-108.791 Y-15.392
X-108.821 Y-15.413
X-108.842 Y-15.444
X-108.93 Y-15.65
X-108.938 Y-15.68
X-108.936 Y-15.711
X-108.925 Y-15.74
X-108.905 Y-15.764
X-108.831 Y-15.825
X-108.801 Y-15.848
X-108.73 Y-15.871
X-108.616 Y-15.815
X-108.549 Y-15.707
X-108.548 Y-15.581
X-108.615 Y-15.472
X-108.685 Y-15.408
X-108.717 Y-15.389
X-108.754 Y-15.384
X-108.79 Y-15.392
X-108.82 Y-15.412
X-108.841 Y-15.443
X-108.85 Y-15.478
X-108.864 Y-15.745
X-108.862 Y-15.775
X-108.85 Y-15.802
X-108.831 Y-15.825
X-108.73 Y-15.91
X-108.7 Y-15.932
X-108.625 Y-15.937
X-108.525 Y-15.869
X-108.471 Y-15.761
X-108.478 Y-15.64
X-108.543 Y-15.538
X-108.615 Y-15.472
X-108.648 Y-15.453
X-108.687 Y-15.449
X-108.724 Y-15.459
X-108.755 Y-15.482
X-108.774 Y-15.516
X-108.78 Y-15.554
X-108.763 Y-15.841
X-108.753 Y-15.879
X-108.73 Y-15.91
X-108.65 Y-15.976
X-108.62 Y-15.998
X-108.545 Y-16.003
X-108.442 Y-15.929
X-108.392 Y-15.812
X-108.409 Y-15.686
X-108.487 Y-15.586
X-108.524 Y-15.57
X-108.564
X-108.6 Y-15.586
X-108.628 Y-15.614
X-108.642 Y-15.651
X-108.682 Y-15.885
Y-15.918
X-108.671 Y-15.95
X-108.65 Y-15.976
X-108.592 Y-16.024
X-108.559 Y-16.048
X-108.485 Y-16.063
X-108.412 Y-16.045
X-108.332 Y-15.961
X-108.301 Y-15.848
X-108.327 Y-15.735
X-108.403 Y-15.647
X-108.458 Y-15.607
X-108.487 Y-15.586
X-108.521 Y-15.571
X-108.558 Y-15.569
X-108.593 Y-15.581
X-108.621 Y-15.605
X-108.639 Y-15.638
X-108.644 Y-15.675
X-108.625 Y-15.956
X-108.616 Y-15.993
X-108.592 Y-16.024
X-108.541 Y-16.065
X-108.531 Y-16.071
X-108.508 Y-16.08
X-108.461 Y-16.096
X-108.389 Y-16.117
X-108.316 Y-16.1
X-108.24 Y-16.015
X-108.213 Y-15.904
X-108.24 Y-15.794
X-108.315 Y-15.708
X-108.403 Y-15.647
X-108.438 Y-15.633
X-108.475
X-108.51 Y-15.646
X-108.538 Y-15.672
X-108.554 Y-15.705
X-108.556 Y-15.743
X-108.524 Y-16.014
X-108.514 Y-16.049
X-108.492 Y-16.077
X-108.461 Y-16.096
X-108.338 Y-16.139
X-108.302 Y-16.149
X-108.228 Y-16.14
X-108.154 Y-16.058
X-108.128 Y-15.95
X-108.156 Y-15.844
X-108.233 Y-15.764
X-108.254 Y-15.751
X-108.315 Y-15.708
X-108.352 Y-15.694
X-108.392 Y-15.695
X-108.428 Y-15.711
X-108.455 Y-15.741
X-108.468 Y-15.778
X-108.466 Y-15.818
X-108.399 Y-16.071
X-108.386 Y-16.1
X-108.366 Y-16.123
X-108.338 Y-16.139
X-108.254 Y-16.168
X-108.218 Y-16.178
X-108.143 Y-16.174
X-108.07 Y-16.096
X-108.045 Y-15.991
X-108.075 Y-15.888
X-108.151 Y-15.813
X-108.169 Y-15.803
X-108.233 Y-15.764
X-108.27 Y-15.751
X-108.309 Y-15.754
X-108.344 Y-15.772
X-108.37 Y-15.802
X-108.382 Y-15.839
X-108.379 Y-15.878
X-108.314 Y-16.102
X-108.301 Y-16.13
X-108.28 Y-16.153
X-108.254 Y-16.168
X-108.123 Y-16.214
X-108.087 Y-16.224
X-108.018 Y-16.194
X-107.963 Y-16.143
X-107.94 Y-16.028
X-107.983 Y-15.92
X-108.079 Y-15.853
X-108.114 Y-15.85
X-108.146 Y-15.86
G3 X-108.123 Y-16.214 I0.094 J-0.171
G1 X-108.052 Y-16.238
X-108.015 Y-16.249
X-107.978 Y-16.246
X-107.908 Y-16.219
X-107.854 Y-16.167
X-107.836 Y-16.054
X-107.882 Y-15.949
X-107.977 Y-15.886
X-108.079 Y-15.853
X-108.109 Y-15.849
X-108.138 Y-15.856
X-108.163 Y-15.873
X-108.182 Y-15.897
G3 X-108.052 Y-16.238 I0.218 J-0.113
G1 X-108 Y-16.256
X-107.915 Y-16.27
X-107.878 Y-16.273
X-107.807 Y-16.251
X-107.753 Y-16.162
X-107.75 Y-16.059
X-107.799 Y-15.968
X-107.888 Y-15.913
X-107.977 Y-15.886
X-108.009 Y-15.883
X-108.039 Y-15.891
X-108.065 Y-15.909
X-108.084 Y-15.935
G3 X-107.915 Y-16.27 I0.215 J-0.102
G1 X-107.784 Y-16.288
X-107.747 Y-16.291
X-107.684 Y-16.25
X-107.649 Y-16.161
X-107.658 Y-16.065
X-107.712 Y-15.985
X-107.796 Y-15.939
X-107.831 Y-15.93
X-107.888 Y-15.913
X-107.924 Y-15.912
X-107.957 Y-15.924
X-107.983 Y-15.949
X-107.997 Y-15.982
G3 X-107.784 Y-16.288 I0.257 J-0.048
G1 X-107.7 Y-16.3
X-107.662 Y-16.303
X-107.595 Y-16.27
X-107.558 Y-16.18
X-107.568 Y-16.083
X-107.624 Y-16.003
X-107.711 Y-15.96
X-107.746 Y-15.952
X-107.796 Y-15.939
X-107.829
X-107.86 Y-15.95
X-107.884 Y-15.973
X-107.897 Y-16.003
G3 X-107.7 Y-16.3 I0.24 J-0.054
G1 X-107.615 Y-16.311
X-107.578 Y-16.315
X-107.509 Y-16.285
X-107.469 Y-16.192
X-107.482 Y-16.092
X-107.544 Y-16.012
X-107.637 Y-15.973
X-107.668 Y-15.976
X-107.696 Y-15.99
G3 X-107.615 Y-16.311 I0.111 J-0.143
G1 X-107.531 Y-16.323
X-107.493 Y-16.326
X-107.458 Y-16.313
X-107.397 Y-16.269
X-107.373 Y-16.18
X-107.393 Y-16.089
X-107.453 Y-16.019
X-107.539 Y-15.986
X-107.637 Y-15.973
X-107.667 Y-15.976
X-107.694 Y-15.989
X-107.714 Y-16.011
X-107.725 Y-16.038
G3 X-107.531 Y-16.323 I0.235 J-0.048
G1 X-107.433 Y-16.336
X-107.401 Y-16.339
X-107.331 Y-16.31
X-107.288 Y-16.219
X-107.298 Y-16.118
X-107.358 Y-16.036
X-107.452 Y-15.997
X-107.539 Y-15.986
X-107.569 Y-15.988
X-107.596 Y-16.001
X-107.616 Y-16.023
X-107.627 Y-16.051
G3 X-107.433 Y-16.336 I0.235 J-0.049
G1 X-107.361 Y-16.345
X-107.323 Y-16.349
X-107.286 Y-16.345
X-107.222 Y-16.305
X-107.191 Y-16.21
X-107.212 Y-16.112
X-107.278 Y-16.037
X-107.373 Y-16.005
X-107.408 Y-16.002
X-107.452 Y-15.997
X-107.484 Y-16
X-107.512 Y-16.016
X-107.532 Y-16.041
X-107.541 Y-16.071
G3 X-107.323 Y-16.349 I0.255 J-0.025
G1 X-107.192 Y-16.339
X-107.155 Y-16.334
X-107.104 Y-16.279
X-107.091 Y-16.181
X-107.127 Y-16.088
X-107.204 Y-16.025
X-107.301 Y-16.007
X-107.326 Y-16.013
X-107.348 Y-16.027
X-107.364 Y-16.046
G3 X-107.192 Y-16.339 I0.164 J-0.101
G1 X-107.126 Y-16.334
X-107.089 Y-16.329
X-107.026 Y-16.288
X-107.003 Y-16.186
X-107.036 Y-16.086
X-107.116 Y-16.017
X-107.22 Y-16
X-107.273 Y-16.005
X-107.301 Y-16.007
X-107.33 Y-16.015
X-107.354 Y-16.033
X-107.37 Y-16.058
X-107.376 Y-16.087
G3 X-107.126 Y-16.334 I0.239 J-0.007
G1 X-107.023 Y-16.326
X-106.986 Y-16.321
X-106.927 Y-16.274
X-106.911 Y-16.168
X-106.952 Y-16.068
X-107.037 Y-16.003
X-107.144 Y-15.991
X-107.22 Y-16
X-107.25 Y-16.01
X-107.274 Y-16.031
X-107.288 Y-16.059
X-107.291 Y-16.09
G3 X-107.023 Y-16.326 I0.257 J0.022
G1 X-106.938 Y-16.319
X-106.901 Y-16.314
X-106.84 Y-16.27
X-106.822 Y-16.161
X-106.861 Y-16.058
X-106.949 Y-15.991
X-107.058 Y-15.978
X-107.144 Y-15.991
X-107.173 Y-16.003
X-107.196 Y-16.024
X-107.21 Y-16.052
X-107.212 Y-16.083
G3 X-106.938 Y-16.319 I0.262 J0.027
G1 X-106.9 Y-16.316
X-106.854 Y-16.31
X-106.817 Y-16.303
X-106.754 Y-16.262
X-106.733 Y-16.152
X-106.772 Y-16.047
X-106.86 Y-15.978
X-106.971 Y-15.964
X-107.058 Y-15.978
X-107.087 Y-15.989
X-107.11 Y-16.009
X-107.125 Y-16.036
X-107.129 Y-16.067
G3 X-106.854 Y-16.31 I0.253 J0.009
G1 X-106.816 Y-16.305
X-106.731 Y-16.289
X-106.695 Y-16.28
X-106.645 Y-16.224
X-106.644 Y-16.221
X-106.639 Y-16.109
X-106.692 Y-16.011
X-106.788 Y-15.953
X-106.9
X-106.971 Y-15.964
X-107.008 Y-15.979
X-107.036 Y-16.008
X-107.051 Y-16.044
X-107.05 Y-16.084
X-107.034 Y-16.12
X-107.005 Y-16.148
X-106.799 Y-16.275
X-106.766 Y-16.288
X-106.731 Y-16.289
X-106.646 Y-16.272
X-106.61 Y-16.263
X-106.555 Y-16.212
X-106.547 Y-16.095
X-106.6 Y-15.991
X-106.699 Y-15.93
X-106.816
X-106.9 Y-15.953
X-106.934 Y-15.971
X-106.958 Y-16.001
X-106.97 Y-16.037
X-106.967 Y-16.075
X-106.95 Y-16.109
X-106.922 Y-16.134
X-106.714 Y-16.259
X-106.681 Y-16.271
X-106.646 Y-16.272
X-106.562 Y-16.255
X-106.526 Y-16.245
X-106.469 Y-16.197
X-106.457 Y-16.076
X-106.511 Y-15.967
X-106.614 Y-15.904
X-106.735 Y-15.906
X-106.816 Y-15.93
X-106.849 Y-15.948
X-106.873 Y-15.977
X-106.885 Y-16.012
X-106.883 Y-16.05
X-106.867 Y-16.084
X-106.839 Y-16.11
X-106.631 Y-16.241
X-106.598 Y-16.255
X-106.562
X-106.431 Y-16.224
X-106.395 Y-16.213
X-106.353 Y-16.151
X-106.36 Y-16.032
X-106.424 Y-15.931
X-106.53 Y-15.875
X-106.649 Y-15.88
X-106.735 Y-15.906
X-106.769 Y-15.925
X-106.793 Y-15.956
X-106.803 Y-15.994
X-106.798 Y-16.032
X-106.779 Y-16.066
X-106.748 Y-16.09
X-106.495 Y-16.215
X-106.464 Y-16.225
X-106.431 Y-16.224
X-106.346 Y-16.203
X-106.298 Y-16.189
X-106.255 Y-16.128
X-106.264 Y-15.996
X-106.342 Y-15.888
X-106.465 Y-15.838
X-106.596 Y-15.861
X-106.626 Y-15.885
X-106.645 Y-15.919
X-106.649 Y-15.958
X-106.638 Y-15.995
X-106.614 Y-16.025
X-106.431 Y-16.182
X-106.405 Y-16.197
X-106.376 Y-16.205
X-106.346 Y-16.203
X-106.308 Y-16.194
X-106.269 Y-16.184
X-106.249 Y-16.175
X-106.187 Y-16.133
X-106.151 Y-16.067
X-106.167 Y-15.956
X-106.229 Y-15.863
X-106.324 Y-15.805
X-106.436 Y-15.794
X-106.541 Y-15.831
X-106.567 Y-15.857
X-106.582 Y-15.89
X-106.584 Y-15.927
X-106.573 Y-15.961
X-106.55 Y-15.99
X-106.353 Y-16.158
X-106.321 Y-16.177
X-106.285 Y-16.182
X-106.249 Y-16.175
X-106.139 Y-16.11
X-106.108 Y-16.089
X-106.066 Y-16.027
X-106.055 Y-15.953
X-106.102 Y-15.835
X-106.2 Y-15.754
X-106.325 Y-15.731
X-106.445 Y-15.77
X-106.541 Y-15.831
X-106.567 Y-15.857
X-106.582 Y-15.89
X-106.584 Y-15.926
X-106.573 Y-15.961
X-106.55 Y-15.989
X-106.519 Y-16.008
X-106.221 Y-16.116
X-106.193 Y-16.122
X-106.165 Y-16.119
X-106.139 Y-16.11
X-106.029 Y-16.045
X-105.997 Y-16.024
X-105.965 Y-15.956
X-105.955 Y-15.882
X-106.011 Y-15.767
X-106.113 Y-15.691
X-106.24 Y-15.673
X-106.36 Y-15.715
X-106.445 Y-15.77
X-106.471 Y-15.796
X-106.486 Y-15.83
X-106.488 Y-15.867
X-106.476 Y-15.902
X-106.452 Y-15.93
X-106.42 Y-15.948
X-106.108 Y-16.052
X-106.081 Y-16.057
X-106.054 Y-16.054
X-106.029 Y-16.045
X-105.943 Y-15.994
X-105.912 Y-15.974
X-105.868 Y-15.912
X-105.855 Y-15.839
X-105.908 Y-15.715
X-106.014 Y-15.632
X-106.146 Y-15.611
X-106.273 Y-15.657
X-106.36 Y-15.715
X-106.385 Y-15.741
X-106.399 Y-15.775
X-106.401 Y-15.811
X-106.389 Y-15.845
X-106.367 Y-15.873
X-106.335 Y-15.891
X-106.024 Y-16.001
X-105.997 Y-16.006
X-105.969 Y-16.004
X-105.943 Y-15.994
X-105.847 Y-15.938
X-105.828 Y-15.925
X-105.8 Y-15.9
X-105.769 Y-15.832
X-105.761 Y-15.757
X-105.795 Y-15.611
X-105.883 Y-15.545
X-105.99 Y-15.517
X-106.099 Y-15.533
X-106.194 Y-15.588
X-106.25 Y-15.638
X-106.273 Y-15.657
X-106.298 Y-15.684
X-106.311 Y-15.717
X-106.312 Y-15.754
X-106.3 Y-15.788
X-106.276 Y-15.816
X-106.243 Y-15.833
X-105.912 Y-15.936
X-105.884 Y-15.941
X-105.855 Y-15.937
X-105.828 Y-15.925
X-105.8 Y-15.902
X-105.733 Y-15.843
X-105.679 Y-15.791
X-105.652 Y-15.721
X-105.648 Y-15.646
X-105.687 Y-15.501
X-105.781 Y-15.437
X-105.892 Y-15.413
X-106.003 Y-15.434
X-106.098 Y-15.496
X-106.175 Y-15.572
X-106.194 Y-15.588
X-106.214 Y-15.616
X-106.224 Y-15.649
X-106.222 Y-15.683
X-106.209 Y-15.715
X-106.185 Y-15.74
X-106.155 Y-15.756
X-105.826 Y-15.86
X-105.794 Y-15.865
X-105.762 Y-15.859
X-105.733 Y-15.843
X-105.616 Y-15.741
X-105.562 Y-15.689
X-105.537 Y-15.618
X-105.532 Y-15.543
X-105.573 Y-15.399
X-105.579 Y-15.392
X-105.677 Y-15.327
X-105.793 Y-15.306
X-105.908 Y-15.333
X-106.003 Y-15.403
X-106.098 Y-15.496
X-106.117 Y-15.525
X-106.125 Y-15.558
X-106.122 Y-15.592
X-106.108 Y-15.623
X-106.084 Y-15.647
X-106.053 Y-15.662
X-105.707 Y-15.759
X-105.675 Y-15.763
X-105.644 Y-15.757
X-105.616 Y-15.741
X-105.488 Y-15.629
X-105.457 Y-15.599
X-105.428 Y-15.53
X-105.418 Y-15.455
X-105.45 Y-15.308
X-105.464 Y-15.293
X-105.573 Y-15.214
X-105.706 Y-15.191
X-105.835 Y-15.228
X-105.935 Y-15.318
X-105.952 Y-15.342
X-105.97 Y-15.365
X-106.003 Y-15.403
X-106.02 Y-15.432
X-106.026 Y-15.466
X-106.021 Y-15.499
X-106.005 Y-15.529
X-105.979 Y-15.551
X-105.948 Y-15.564
X-105.573 Y-15.649
X-105.543 Y-15.651
X-105.514 Y-15.644
X-105.488 Y-15.629
X-105.443 Y-15.589
X-105.428 Y-15.572
X-105.373 Y-15.487
X-105.337 Y-15.422
X-105.321 Y-15.348
X-105.348 Y-15.201
X-105.444 Y-15.086
X-105.46 Y-15.077
X-105.57 Y-15.043
X-105.684 Y-15.053
X-105.786 Y-15.105
X-105.862 Y-15.191
X-105.935 Y-15.318
X-105.946 Y-15.354
X-105.943 Y-15.392
X-105.927 Y-15.426
X-105.899 Y-15.451
X-105.864 Y-15.464
X-105.473 Y-15.53
X-105.435 Y-15.529
X-105.4 Y-15.514
X-105.373 Y-15.487
X-105.269 Y-15.318
X-105.233 Y-15.253
Y-15.219
X-105.263 Y-15.092
X-105.342 Y-14.99
X-105.458 Y-14.931
X-105.587 Y-14.927
X-105.707 Y-14.977
X-105.794 Y-15.073
X-105.862 Y-15.191
X-105.873 Y-15.229
X-105.869 Y-15.269
X-105.849 Y-15.304
X-105.818 Y-15.328
X-105.779 Y-15.338
X-105.358 Y-15.363
X-105.324 Y-15.359
X-105.293 Y-15.344
X-105.269 Y-15.318
X-105.185 Y-15.181
X-105.168 Y-15.151
X-105.16 Y-15.076
X-105.173 Y-15.002
X-105.24 Y-14.868
X-105.359 Y-14.777
X-105.368 Y-14.774
X-105.512 Y-14.765
X-105.643 Y-14.825
X-105.731 Y-14.939
X-105.771 Y-15.027
X-105.789 Y-15.065
X-105.794 Y-15.073
X-105.804 Y-15.106
X-105.803 Y-15.139
X-105.791 Y-15.171
X-105.769 Y-15.197
X-105.74 Y-15.214
X-105.707 Y-15.22
X-105.269 Y-15.226
X-105.237 Y-15.221
X-105.207 Y-15.205
X-105.185 Y-15.181
X-105.165 Y-15.15
X-105.124 Y-15.062
X-105.096 Y-14.992
X-105.088 Y-14.918
X-105.121 Y-14.771
X-105.214 Y-14.654
X-105.347 Y-14.585
X-105.475 Y-14.599
X-105.584 Y-14.664
X-105.656 Y-14.768
X-105.675 Y-14.812
X-105.731 Y-14.939
X-105.738 Y-14.975
X-105.732 Y-15.011
X-105.713 Y-15.043
X-105.683 Y-15.065
X-105.648 Y-15.075
X-105.222 Y-15.116
X-105.183 Y-15.112
X-105.148 Y-15.093
X-105.124 Y-15.062
X-105.039 Y-14.879
X-105.011 Y-14.809
X-105.014 Y-14.659
X-105.09 Y-14.53
X-105.206 Y-14.435
X-105.235 Y-14.427
X-105.354 Y-14.416
X-105.467 Y-14.454
X-105.556 Y-14.534
X-105.606 Y-14.643
X-105.64 Y-14.727
X-105.656 Y-14.768
X-105.663 Y-14.804
X-105.656 Y-14.84
X-105.636 Y-14.872
X-105.606 Y-14.893
X-105.57 Y-14.903
X-105.135 Y-14.933
X-105.097 Y-14.928
X-105.063 Y-14.909
X-105.039 Y-14.879
X-104.969 Y-14.727
X-104.954 Y-14.677
X-104.942 Y-14.603
X-104.959 Y-14.454
X-105.042 Y-14.329
X-105.117 Y-14.282
X-105.253 Y-14.238
X-105.394 Y-14.261
X-105.508 Y-14.347
X-105.57 Y-14.476
X-105.587 Y-14.558
X-105.606 Y-14.643
Y-14.678
X-105.594 Y-14.712
X-105.571 Y-14.739
X-105.54 Y-14.756
X-105.504 Y-14.762
X-105.046 Y-14.745
X-105.016 Y-14.739
X-104.989 Y-14.725
X-104.968 Y-14.704
X-104.954 Y-14.677
X-104.899 Y-14.427
X-104.893 Y-14.39
X-104.907 Y-14.317
X-104.974 Y-14.183
X-105.091 Y-14.089
X-105.235 Y-14.046
X-105.255 Y-14.047
X-105.386 Y-14.084
X-105.488 Y-14.175
X-105.538 Y-14.301
X-105.57 Y-14.476
X-105.569 Y-14.514
X-105.553 Y-14.549
X-105.526 Y-14.576
X-105.491 Y-14.591
X-105.452
X-104.977 Y-14.501
X-104.942 Y-14.487
X-104.915 Y-14.461
X-104.899 Y-14.427
X-104.87 Y-14.296
X-104.863 Y-14.254
X-104.856 Y-14.18
X-104.9 Y-14.036
X-105.006 Y-13.93
X-105.141 Y-13.866
X-105.291 Y-13.851
X-105.405 Y-13.907
X-105.485 Y-14.002
X-105.519 Y-14.122
X-105.514 Y-14.156
X-105.499 Y-14.186
X-105.474 Y-14.209
X-105.443 Y-14.223
X-104.985 Y-14.333
X-104.953 Y-14.335
X-104.922 Y-14.327
X-104.895 Y-14.31
X-104.875 Y-14.284
X-104.863 Y-14.254
X-104.858 Y-14.22
X-104.839 Y-14.051
X-104.835 Y-13.977
X-104.882 Y-13.834
X-104.99 Y-13.73
X-105.125 Y-13.665
X-105.276 Y-13.653
X-105.397 Y-13.712
X-105.48 Y-13.818
X-105.508 Y-13.949
X-105.501 Y-13.981
X-105.484 Y-14.009
X-105.459 Y-14.031
X-105.428 Y-14.042
X-104.957 Y-14.135
X-104.925 Y-14.136
X-104.894 Y-14.127
X-104.868 Y-14.108
X-104.849 Y-14.082
X-104.839 Y-14.051
X-104.83 Y-13.967
X-104.817 Y-13.836
X-104.814 Y-13.761
X-104.873 Y-13.623
X-104.984 Y-13.523
X-105.122 Y-13.462
X-105.271 Y-13.455
X-105.284 Y-13.458
X-105.402 Y-13.518
X-105.483 Y-13.623
X-105.511 Y-13.753
X-105.508 Y-13.967
X-105.526 Y-14.22
X-105.538 Y-14.301
X-105.536 Y-14.336
X-105.523 Y-14.368
X-105.499 Y-14.393
X-105.468 Y-14.409
X-105.434 Y-14.413
X-105.4 Y-14.405
X-105.371 Y-14.386
X-104.848 Y-13.896
X-104.828 Y-13.869
X-104.817 Y-13.836
X-104.807 Y-13.714
X-104.813 Y-13.629
X-104.817 Y-13.583
X-104.827 Y-13.508
X-104.907 Y-13.381
X-105.031 Y-13.297
X-105.175 Y-13.255
X-105.325 Y-13.263
X-105.333 Y-13.266
X-105.438 Y-13.337
X-105.505 Y-13.444
X-105.521 Y-13.569
X-105.513 Y-13.676
X-105.511 Y-13.714
Y-13.753
X-105.502 Y-13.788
X-105.482 Y-13.818
X-105.452 Y-13.839
X-105.416 Y-13.848
X-105.38 Y-13.843
X-104.886 Y-13.683
X-104.857 Y-13.668
X-104.834 Y-13.645
X-104.82 Y-13.615
X-104.817 Y-13.583
X-104.833 Y-13.414
X-104.837 Y-13.376
X-104.852 Y-13.302
X-104.931 Y-13.175
X-105.056 Y-13.092
X-105.201 Y-13.052
X-105.35 Y-13.065
X-105.356 Y-13.068
X-105.463 Y-13.142
X-105.529 Y-13.255
X-105.54 Y-13.386
X-105.53 Y-13.46
X-105.521 Y-13.569
X-105.511 Y-13.603
X-105.489 Y-13.632
X-105.458 Y-13.651
X-105.423 Y-13.658
X-105.388 Y-13.652
X-104.903 Y-13.477
X-104.875 Y-13.461
X-104.853 Y-13.437
X-104.84 Y-13.408
X-104.837 Y-13.376
X-104.866 Y-13.178
X-104.881 Y-13.105
X-104.955 Y-12.974
X-105.08 Y-12.891
X-105.225 Y-12.852
X-105.374 Y-12.867
X-105.393 Y-12.875
X-105.503 Y-12.953
X-105.567 Y-13.072
X-105.573 Y-13.207
X-105.54 Y-13.386
X-105.528 Y-13.419
X-105.506 Y-13.445
X-105.475 Y-13.463
X-105.441 Y-13.469
X-105.406 Y-13.462
X-104.93 Y-13.283
X-104.902 Y-13.267
X-104.88 Y-13.242
X-104.868 Y-13.211
X-104.866 Y-13.178
X-104.875 Y-13.122
X-104.893 Y-13.038
X-104.913 Y-12.953
X-104.933 Y-12.881
X-105.016 Y-12.757
X-105.148 Y-12.684
X-105.295 Y-12.657
X-105.371 Y-12.67
X-105.486 Y-12.715
X-105.573 Y-12.803
X-105.617 Y-12.919
X-105.61 Y-13.042
X-105.589 Y-13.122
X-105.573 Y-13.207
X-105.559 Y-13.24
X-105.535 Y-13.266
X-105.503 Y-13.282
X-105.468 Y-13.285
X-105.434 Y-13.276
X-104.969 Y-13.064
X-104.942 Y-13.045
X-104.922 Y-13.018
X-104.912 Y-12.987
X-104.913 Y-12.953
X-104.932 Y-12.869
X-104.954 Y-12.781
X-104.994 Y-12.7
X-105.069 Y-12.57
X-105.197 Y-12.492
X-105.346 Y-12.472
X-105.494 Y-12.498
X-105.532 Y-12.518
X-105.62 Y-12.587
X-105.677 Y-12.685
X-105.693 Y-12.797
X-105.667 Y-12.907
X-105.631 Y-12.988
X-105.61 Y-13.042
X-105.594 Y-13.074
X-105.566 Y-13.099
X-105.532 Y-13.112
X-105.495 Y-13.111
X-105.461 Y-13.097
X-105.032 Y-12.825
X-105.006 Y-12.801
X-104.99 Y-12.77
X-104.986 Y-12.734
X-104.994 Y-12.7
X-105.081 Y-12.531
X-105.124 Y-12.459
X-105.167 Y-12.398
X-105.293 Y-12.316
X-105.441 Y-12.294
X-105.587 Y-12.326
X-105.631 Y-12.352
X-105.735 Y-12.456
X-105.777 Y-12.597
X-105.747 Y-12.741
X-105.724 Y-12.769
X-105.692 Y-12.788
X-105.656 Y-12.794
X-105.62 Y-12.786
X-105.173 Y-12.6
X-105.145 Y-12.582
X-105.124 Y-12.556
X-105.113 Y-12.524
Y-12.491
X-105.124 Y-12.459
X-105.224 Y-12.299
X-105.267 Y-12.237
X-105.386 Y-12.145
X-105.534 Y-12.122
X-105.679 Y-12.159
X-105.717 Y-12.181
X-105.805 Y-12.261
X-105.856 Y-12.369
X-105.86 Y-12.488
X-105.818 Y-12.6
X-105.808 Y-12.616
X-105.684 Y-12.869
X-105.667 Y-12.907
X-105.646 Y-12.936
X-105.615 Y-12.955
X-105.579 Y-12.962
X-105.543 Y-12.956
X-105.511 Y-12.937
X-105.489 Y-12.909
X-105.222 Y-12.395
X-105.212 Y-12.363
X-105.213 Y-12.33
X-105.224 Y-12.299
X-105.293 Y-12.193
X-105.354 Y-12.109
X-105.401 Y-12.05
X-105.53 Y-11.975
X-105.68 Y-11.969
X-105.822 Y-12.017
X-105.856 Y-12.044
X-105.944 Y-12.16
X-105.967 Y-12.304
X-105.919 Y-12.441
X-105.893 Y-12.467
X-105.86 Y-12.481
X-105.824 Y-12.483
X-105.789 Y-12.472
X-105.389 Y-12.252
X-105.363 Y-12.232
X-105.345 Y-12.204
X-105.337 Y-12.172
X-105.34 Y-12.139
X-105.354 Y-12.109
X-105.415 Y-12.024
X-105.438 Y-11.998
X-105.462 Y-11.977
X-105.547 Y-11.908
X-105.607 Y-11.864
X-105.752 Y-11.824
X-105.898 Y-11.856
X-106.024 Y-11.938
X-106.076 Y-12.058
X-106.072 Y-12.189
X-106.012 Y-12.306
X-105.983 Y-12.329
X-105.946 Y-12.339
