%
(n-116-118)
(T1  D=1 CR=0 - ZMIN=-2 - flat end mill)
G90 G94
G17
G21
G28 G91 Z0
G90

(Clear 16)
M9
T1 M6
S5000 M3
G54
M8
G0 X-70.854 Y-9.453
Z12
Z2
Z0.5
G3 X-70.37 Y-9.578 Z0.29 I0.242 J-0.062 F333.3
X-70.854 Y-9.453 Z0.079 I-0.242 J0.062
X-70.37 Y-9.578 Z-0.131 I0.242 J-0.062
X-70.854 Y-9.453 Z-0.342 I-0.242 J0.062
X-70.37 Y-9.578 Z-0.552 I0.242 J-0.062
X-70.854 Y-9.453 Z-0.763 I-0.242 J0.062
X-70.643 Y-9.763 Z-0.876 I0.242 J-0.062
X-70.362 Y-9.515 Z-0.99 I0.031 J0.248
X-70.862 I-0.25
X-70.362 I0.25
G1 X-70.325 Y-9.37 F1000
X-70.338 Y-9.296
X-70.375 Y-9.231
X-70.482 Y-9.126
X-70.626 Y-9.086
X-70.775 Y-9.107
X-70.905 Y-9.181
X-71.002 Y-9.296
X-71.054 Y-9.437
X-71.056 Y-9.587
X-71.008 Y-9.729
X-70.917 Y-9.847
X-70.791 Y-9.929
X-70.645 Y-9.965
X-70.496 Y-9.951
X-70.359 Y-9.889
X-70.251 Y-9.785
X-70.173 Y-9.657
X-70.122 Y-9.516
X-70.112 Y-9.366
X-70.147 Y-9.22
X-70.218 Y-9.088
X-70.326 Y-8.984
X-70.457 Y-8.911
X-70.603 Y-8.878
X-70.723 Y-8.884
X-70.798 Y-8.898
X-70.867 Y-8.932
X-70.925 Y-8.984
X-70.997 Y-9.06
X-71.047 Y-9.104
X-71.156 Y-9.207
X-71.23 Y-9.338
X-71.266 Y-9.483
X-71.264 Y-9.633
X-71.223 Y-9.778
X-71.205 Y-9.809
X-71.168 Y-9.862
X-71.121 Y-9.905
X-71.065 Y-9.938
X-71.028 Y-9.945
X-70.991 Y-9.938
X-70.96 Y-9.918
X-70.937 Y-9.888
X-70.928 Y-9.851
X-70.921 Y-9.741
X-70.885 Y-9.188
X-70.89 Y-9.15
X-70.909 Y-9.117
X-70.939 Y-9.093
X-70.975 Y-9.082
X-71.013 Y-9.086
X-71.047 Y-9.104
X-71.081 Y-9.133
X-71.303 Y-9.303
X-71.36 Y-9.352
X-71.435 Y-9.481
X-71.447 Y-9.554
X-71.444 Y-9.671
X-71.396 Y-9.777
X-71.31 Y-9.857
X-71.201 Y-9.899
X-71.165 Y-9.897
X-71.131 Y-9.882
X-71.105 Y-9.856
X-71.091 Y-9.823
X-71.089 Y-9.786
X-71.145 Y-9.371
X-71.156 Y-9.338
X-71.176 Y-9.311
X-71.205 Y-9.293
X-71.238 Y-9.285
X-71.272 Y-9.288
X-71.303 Y-9.303
X-71.335 Y-9.328
X-71.42 Y-9.385
X-71.453 Y-9.406
X-71.514 Y-9.449
X-71.558 Y-9.51
X-71.572 Y-9.643
X-71.524 Y-9.768
X-71.425 Y-9.858
X-71.295 Y-9.892
X-71.258 Y-9.885
X-71.227 Y-9.864
X-71.205 Y-9.833
X-71.196 Y-9.796
X-71.202 Y-9.759
X-71.308 Y-9.459
X-71.326 Y-9.429
X-71.352 Y-9.406
X-71.385 Y-9.394
X-71.42
X-71.453 Y-9.406
X-71.504 Y-9.438
X-71.589 Y-9.476
X-71.623 Y-9.492
X-71.669 Y-9.551
X-71.678 Y-9.672
X-71.631 Y-9.784
X-71.539 Y-9.863
X-71.42 Y-9.891
X-71.387 Y-9.884
X-71.358 Y-9.866
X-71.336 Y-9.839
X-71.325 Y-9.807
Y-9.773
X-71.337 Y-9.741
X-71.467 Y-9.519
X-71.49 Y-9.492
X-71.52 Y-9.475
X-71.554 Y-9.47
X-71.589 Y-9.476
X-71.651 Y-9.501
X-71.673 Y-9.51
X-71.708 Y-9.525
X-71.762 Y-9.577
X-71.775 Y-9.687
X-71.735 Y-9.791
X-71.652 Y-9.865
X-71.544 Y-9.891
X-71.505 Y-9.882
X-71.473 Y-9.858
X-71.453 Y-9.824
X-71.448 Y-9.785
X-71.458 Y-9.747
X-71.551 Y-9.56
X-71.573 Y-9.531
X-71.603 Y-9.512
X-71.638 Y-9.504
X-71.673 Y-9.51
X-71.804 Y-9.56
X-71.838 Y-9.576
X-71.866 Y-9.681
X-71.837 Y-9.786
X-71.76 Y-9.863
X-71.654 Y-9.891
X-71.626 Y-9.886
X-71.601 Y-9.872
X-71.581 Y-9.851
G3 X-71.804 Y-9.56 I-0.159 J0.109
G1 X-71.842 Y-9.575
X-71.889 Y-9.591
X-71.924 Y-9.605
X-71.948 Y-9.701
X-71.922 Y-9.796
X-71.852 Y-9.866
X-71.756 Y-9.891
X-71.73 Y-9.886
X-71.707 Y-9.872
X-71.689 Y-9.852
G3 X-71.889 Y-9.591 I-0.149 J0.093
G1 X-71.927 Y-9.604
X-71.974 Y-9.618
X-72.009 Y-9.631
X-72.029 Y-9.719
X-72.004 Y-9.805
X-71.939 Y-9.868
X-71.852 Y-9.891
X-71.827 Y-9.886
X-71.805 Y-9.872
X-71.789 Y-9.852
G3 X-71.974 Y-9.618 I-0.143 J0.076
G1 X-72.012 Y-9.63
X-72.058 Y-9.642
X-72.094 Y-9.654
X-72.106 Y-9.763
X-72.048 Y-9.855
X-71.945 Y-9.891
X-71.92 Y-9.886
X-71.899 Y-9.872
X-71.885 Y-9.851
G3 X-72.058 Y-9.642 I-0.139 J0.061
G1 X-72.096 Y-9.653
X-72.125 Y-9.659
X-72.155 Y-9.665
X-72.186 Y-9.673
Y-9.776
X-72.125 Y-9.859
X-72.027 Y-9.891
X-71.999 Y-9.883
X-71.977 Y-9.862
X-71.969 Y-9.833
G3 X-72.155 Y-9.665 I-0.162 J0.008
G1 X-72.181 Y-9.67
X-72.223 Y-9.676
X-72.244 Y-9.68
X-72.255 Y-9.683
X-72.283 Y-9.698
G0 Z2
X-71.782 Y-9.799
Z-0.79
G1 Z-0.89 F1000
X-71.789 Y-9.795 Z-0.928
X-71.807 Y-9.784 Z-0.961
X-71.835 Y-9.767 Z-0.982
X-71.867 Y-9.747 Z-0.99
G3 X-72.255 Y-9.683 I-0.271 J-0.435
G1 X-72.265 Y-9.687
X-72.283 Y-9.698
X-72.302 Y-9.715
X-72.311 Y-9.729
X-72.317 Y-9.744
X-72.321 Y-9.754
X-72.323 Y-9.765
Y-9.775
X-72.32 Y-9.8
X-72.319 Y-9.807
X-72.303 Y-9.83
X-72.278 Y-9.844
X-72.25 Y-9.846
X-72.221 Y-9.834
X-72.2 Y-9.81
X-72.194 Y-9.779
X-72.204 Y-9.748
X-72.227 Y-9.726
X-72.257 Y-9.718
X-72.288 Y-9.725
X-72.312 Y-9.746
X-72.323 Y-9.775
Y-9.786
X-72.321 Y-9.796
X-72.319 Y-9.807
X-72.315 Y-9.818
X-72.31 Y-9.828
X-72.291 Y-9.852
X-72.278 Y-9.866
X-72.265 Y-9.876
X-72.255 Y-9.882
X-72.244 Y-9.886
X-72.234 Y-9.889
X-72.223 Y-9.891
X-72.012
X-71.335
X-71.25 Y-9.893
X-71.208 Y-9.897
X-71.166 Y-9.905
X-71.137 Y-9.913
X-71.081 Y-9.93
X-71.039 Y-9.949
X-70.997 Y-9.973
X-70.961 Y-9.997
X-70.934 Y-10.019
X-70.814 Y-10.108
X-70.672 Y-10.158
X-70.522 Y-10.164
X-70.375 Y-10.134
X-70.24 Y-10.069
X-70.123 Y-9.975
X-70.087 Y-9.932
X-70.049 Y-9.873
X-70.025 Y-9.808
X-70.017 Y-9.739
Y-9.237
X-70.025 Y-9.087
X-70.084 Y-8.949
X-70.18 Y-8.834
X-70.301 Y-8.746
X-70.439 Y-8.686
X-70.479 Y-8.678
X-70.598 Y-8.677
X-70.707 Y-8.723
X-70.791 Y-8.808
X-70.804 Y-8.844
X-70.802 Y-8.882
X-70.787 Y-8.917
X-70.759 Y-8.944
X-70.656 Y-9.009
X-70.171 Y-9.318
X-70.138 Y-9.331
X-70.104 Y-9.333
X-70.07 Y-9.322
X-70.043 Y-9.301
X-70.024 Y-9.271
X-70.017 Y-9.237
Y-8.937
X-70.025 Y-8.787
X-70.103 Y-8.659
X-70.214 Y-8.558
X-70.349 Y-8.493
X-70.361 Y-8.49
X-70.485
X-70.599 Y-8.541
X-70.682 Y-8.633
X-70.693 Y-8.671
X-70.689 Y-8.71
X-70.671 Y-8.744
X-70.64 Y-8.769
X-70.164 Y-9.022
X-70.132 Y-9.032
X-70.098
X-70.067 Y-9.02
X-70.041 Y-8.999
X-70.024 Y-8.97
X-70.017 Y-8.937
Y-8.684
X-70.021 Y-8.609
X-70.073 Y-8.468
X-70.179 Y-8.362
X-70.217 Y-8.345
X-70.333 Y-8.318
X-70.45 Y-8.339
X-70.549 Y-8.404
X-70.616 Y-8.502
X-70.623 Y-8.541
X-70.613 Y-8.58
X-70.59 Y-8.612
X-70.556 Y-8.632
X-70.15 Y-8.775
X-70.113 Y-8.78
X-70.077 Y-8.772
X-70.046 Y-8.751
X-70.025 Y-8.72
X-70.017 Y-8.684
Y-8.43
Y-8.392
Y-8.346
X-70.019 Y-8.31
X-70.043 Y-8.284
X-70.106 Y-8.233
X-70.181 Y-8.201
X-70.261 Y-8.19
G3 X-70.387 Y-8.474 I0.006 J-0.173
X-70.017 Y-8.346 I0.16 J0.136
G1 Y-8.308
X-70.018 Y-8.287
X-70.02 Y-8.276
X-70.023 Y-8.266
X-70.028 Y-8.255
X-70.034 Y-8.244
X-70.042 Y-8.234
X-70.067 Y-8.211
X-70.077 Y-8.204
X-70.088 Y-8.198
X-70.098 Y-8.194
X-70.109 Y-8.192
X-70.119 Y-8.19
X-70.405
X-70.426
X-70.437 Y-8.192
X-70.447 Y-8.194
X-70.458 Y-8.198
X-70.468 Y-8.204
X-70.479 Y-8.211
X-70.492 Y-8.223
X-70.502 Y-8.234
X-70.51 Y-8.244
X-70.516 Y-8.255
X-70.521 Y-8.266
X-70.535 Y-8.308
X-70.641 Y-8.561
X-70.659 Y-8.593
X-70.689 Y-8.646
X-70.743 Y-8.735
X-70.795 Y-8.815
X-70.828 Y-8.86
X-70.912 Y-8.969
X-70.925 Y-8.984
X-70.94 Y-9.011
X-70.946 Y-9.043
X-70.951 Y-9.244
X-70.968 Y-9.941
X-70.965 Y-9.97
X-70.953 Y-9.997
X-70.934 Y-10.019
X-70.912 Y-10.037
X-70.87 Y-10.082
X-70.828 Y-10.136
X-70.809 Y-10.166
X-70.769 Y-10.23
X-70.649 Y-10.319
X-70.503 Y-10.353
X-70.353 Y-10.343
X-70.209 Y-10.3
X-70.176 Y-10.282
X-70.092 Y-10.215
X-70.036 Y-10.123
X-70.017 Y-10.017
Y-9.739
X-70.024 Y-9.705
X-70.043 Y-9.675
X-70.07 Y-9.654
X-70.104 Y-9.643
X-70.138 Y-9.645
X-70.171 Y-9.658
X-70.231 Y-9.696
X-70.772 Y-10.039
X-70.798 Y-10.063
X-70.814 Y-10.096
X-70.818 Y-10.131
X-70.809 Y-10.166
X-70.787 Y-10.208
X-70.77 Y-10.25
X-70.757 Y-10.297
X-70.733 Y-10.368
X-70.635 Y-10.482
X-70.496 Y-10.538
X-70.346 Y-10.551
X-70.198 Y-10.525
X-70.102 Y-10.459
X-70.039 Y-10.363
X-70.017 Y-10.25
Y-10.017
X-70.026 Y-9.979
X-70.049 Y-9.948
X-70.082 Y-9.927
X-70.121 Y-9.921
X-70.159 Y-9.93
X-70.702 Y-10.182
X-70.73 Y-10.202
X-70.75 Y-10.23
X-70.759 Y-10.263
X-70.757 Y-10.297
X-70.746 Y-10.335
X-70.743 Y-10.353
X-70.736 Y-10.419
Y-10.466
X-70.733 Y-10.503
X-70.66 Y-10.634
X-70.534 Y-10.715
X-70.388 Y-10.752
X-70.238 Y-10.75
X-70.228 Y-10.747
X-70.118 Y-10.685
X-70.044 Y-10.584
X-70.017 Y-10.46
Y-10.25
X-70.026 Y-10.212
X-70.048 Y-10.181
X-70.08 Y-10.16
X-70.118 Y-10.153
X-70.155 Y-10.161
X-70.674 Y-10.375
X-70.706 Y-10.397
X-70.727 Y-10.428
X-70.736 Y-10.466
X-70.735 Y-10.635
X-70.733 Y-10.672
X-70.674 Y-10.81
X-70.556 Y-10.902
X-70.415 Y-10.954
X-70.265 Y-10.96
X-70.246 Y-10.956
X-70.128 Y-10.897
X-70.046 Y-10.793
X-70.017 Y-10.664
Y-10.46
X-70.025 Y-10.424
X-70.046 Y-10.394
X-70.076 Y-10.373
X-70.112 Y-10.364
X-70.149 Y-10.369
X-70.667 Y-10.544
X-70.694 Y-10.557
X-70.715 Y-10.579
X-70.729 Y-10.605
X-70.735 Y-10.635
Y-10.804
X-70.731 Y-10.879
X-70.666 Y-11.014
X-70.548 Y-11.106
X-70.407 Y-11.159
X-70.257 Y-11.162
X-70.241 Y-11.158
X-70.125 Y-11.098
X-70.045 Y-10.995
X-70.017 Y-10.868
Y-10.664
X-70.025 Y-10.629
X-70.044 Y-10.599
X-70.073 Y-10.578
X-70.107 Y-10.568
X-70.143 Y-10.571
X-70.661 Y-10.711
X-70.69 Y-10.724
X-70.713 Y-10.745
X-70.729 Y-10.773
X-70.735 Y-10.804
Y-11.011
X-70.731 Y-11.086
X-70.662 Y-11.219
X-70.544 Y-11.311
X-70.403 Y-11.363
X-70.253 Y-11.365
X-70.239 Y-11.361
X-70.124 Y-11.301
X-70.045 Y-11.198
X-70.017 Y-11.071
Y-10.868
X-70.025 Y-10.833
X-70.044 Y-10.802
X-70.073 Y-10.781
X-70.108 Y-10.772
X-70.144 Y-10.775
X-70.662 Y-10.918
X-70.69 Y-10.931
X-70.714 Y-10.952
X-70.729 Y-10.98
X-70.735 Y-11.011
Y-11.226
X-70.731 Y-11.301
X-70.655 Y-11.43
X-70.534 Y-11.519
X-70.392 Y-11.568
X-70.242 Y-11.567
X-70.232 Y-11.564
X-70.12 Y-11.503
X-70.044 Y-11.401
X-70.017 Y-11.276
Y-11.071
X-70.025 Y-11.036
X-70.045 Y-11.006
X-70.074 Y-10.984
X-70.11 Y-10.975
X-70.146 Y-10.979
X-70.664 Y-11.134
X-70.692 Y-11.147
X-70.714 Y-11.168
X-70.729 Y-11.196
X-70.735 Y-11.226
Y-11.395
X-70.731 Y-11.47
X-70.677 Y-11.61
X-70.564 Y-11.709
X-70.425 Y-11.765
X-70.275 Y-11.776
X-70.253 Y-11.771
X-70.132 Y-11.714
X-70.047 Y-11.609
X-70.017 Y-11.478
Y-11.276
X-70.024 Y-11.242
X-70.043 Y-11.212
X-70.071 Y-11.191
X-70.104 Y-11.18
X-70.139 Y-11.182
X-70.657 Y-11.301
X-70.688 Y-11.313
X-70.712 Y-11.335
X-70.729 Y-11.363
X-70.735 Y-11.395
Y-11.602
X-70.731 Y-11.677
X-70.674 Y-11.815
X-70.559 Y-11.912
X-70.421 Y-11.969
X-70.271 Y-11.977
X-70.249 Y-11.972
X-70.13 Y-11.914
X-70.047 Y-11.809
X-70.017 Y-11.679
Y-11.478
X-70.024 Y-11.443
X-70.043 Y-11.414
X-70.071 Y-11.392
X-70.105 Y-11.382
X-70.14 Y-11.384
X-70.658 Y-11.508
X-70.688 Y-11.521
X-70.712 Y-11.542
X-70.729 Y-11.57
X-70.735 Y-11.602
Y-11.817
X-70.731 Y-11.892
X-70.665 Y-12.027
X-70.548 Y-12.121
X-70.408 Y-12.174
X-70.258 Y-12.177
X-70.241 Y-12.173
X-70.125 Y-12.113
X-70.045 Y-12.01
X-70.017 Y-11.883
Y-11.679
X-70.025 Y-11.645
X-70.044 Y-11.615
X-70.073 Y-11.593
X-70.107 Y-11.583
X-70.143 Y-11.586
X-70.661 Y-11.724
X-70.69 Y-11.737
X-70.713 Y-11.759
X-70.729 Y-11.786
X-70.735 Y-11.817
Y-12.024
X-70.731 Y-12.099
X-70.662 Y-12.232
X-70.545 Y-12.325
X-70.404 Y-12.377
X-70.254 Y-12.38
X-70.239 Y-12.376
X-70.124 Y-12.316
X-70.045 Y-12.213
X-70.017 Y-12.086
Y-11.883
X-70.025 Y-11.848
X-70.044 Y-11.818
X-70.073 Y-11.796
X-70.108 Y-11.787
X-70.143 Y-11.79
X-70.661 Y-11.931
X-70.69 Y-11.944
X-70.713 Y-11.966
X-70.729 Y-11.993
X-70.735 Y-12.024
Y-12.24
X-70.731 Y-12.315
X-70.656 Y-12.444
X-70.535 Y-12.533
X-70.393 Y-12.582
X-70.243
X-70.232 Y-12.579
X-70.121 Y-12.518
X-70.044 Y-12.415
X-70.017 Y-12.291
Y-12.086
X-70.025 Y-12.051
X-70.045 Y-12.02
X-70.074 Y-11.999
X-70.109 Y-11.99
X-70.145 Y-11.994
X-70.663 Y-12.147
X-70.691 Y-12.161
X-70.714 Y-12.182
X-70.729 Y-12.209
X-70.735 Y-12.24
Y-12.409
X-70.731 Y-12.484
X-70.677 Y-12.624
X-70.565 Y-12.723
X-70.426 Y-12.78
X-70.277 Y-12.791
X-70.254 Y-12.786
X-70.132 Y-12.728
X-70.047 Y-12.624
X-70.017 Y-12.492
Y-12.291
X-70.024 Y-12.257
X-70.043 Y-12.227
X-70.071 Y-12.206
X-70.104 Y-12.195
X-70.139 Y-12.197
X-70.657 Y-12.315
X-70.687 Y-12.327
X-70.712 Y-12.348
X-70.728 Y-12.377
X-70.735 Y-12.409
Y-12.616
X-70.731 Y-12.69
X-70.674 Y-12.829
X-70.56 Y-12.927
X-70.422 Y-12.984
X-70.272 Y-12.991
X-70.25 Y-12.986
X-70.13 Y-12.929
X-70.047 Y-12.824
X-70.017 Y-12.694
Y-12.492
X-70.024 Y-12.458
X-70.043 Y-12.428
X-70.071 Y-12.407
X-70.105 Y-12.397
X-70.14 Y-12.399
X-70.658 Y-12.522
X-70.688 Y-12.534
X-70.712 Y-12.556
X-70.729 Y-12.584
X-70.735 Y-12.616
Y-12.831
X-70.731 Y-12.906
X-70.666 Y-13.041
X-70.549 Y-13.135
X-70.409 Y-13.188
X-70.259 Y-13.192
X-70.242 Y-13.188
X-70.125 Y-13.128
X-70.045 Y-13.025
X-70.017 Y-12.897
Y-12.694
X-70.025 Y-12.659
X-70.044 Y-12.629
X-70.073 Y-12.608
X-70.107 Y-12.598
X-70.143 Y-12.601
X-70.661 Y-12.738
X-70.69 Y-12.751
X-70.713 Y-12.772
X-70.729 Y-12.8
X-70.735 Y-12.831
Y-13.038
X-70.731 Y-13.113
X-70.663 Y-13.246
X-70.546 Y-13.34
X-70.405 Y-13.392
X-70.255 Y-13.395
X-70.24 Y-13.391
X-70.124 Y-13.331
X-70.045 Y-13.228
X-70.017 Y-13.101
Y-12.897
X-70.025 Y-12.862
X-70.044 Y-12.832
X-70.073 Y-12.811
X-70.108 Y-12.801
X-70.143 Y-12.804
X-70.661 Y-12.945
X-70.69 Y-12.958
X-70.713 Y-12.979
X-70.729 Y-13.007
X-70.735 Y-13.038
Y-13.253
X-70.731 Y-13.328
X-70.656 Y-13.458
X-70.536 Y-13.547
X-70.394 Y-13.597
X-70.244 Y-13.596
X-70.233 Y-13.593
X-70.121 Y-13.532
X-70.044 Y-13.43
X-70.017 Y-13.305
Y-13.101
X-70.025 Y-13.065
X-70.045 Y-13.035
X-70.074 Y-13.014
X-70.109 Y-13.004
X-70.145 Y-13.008
X-70.663 Y-13.161
X-70.691 Y-13.174
X-70.714 Y-13.195
X-70.729 Y-13.223
X-70.735 Y-13.253
Y-13.422
X-70.731 Y-13.497
X-70.678 Y-13.637
X-70.566 Y-13.737
X-70.427 Y-13.794
X-70.277 Y-13.805
X-70.254 Y-13.8
X-70.132 Y-13.743
X-70.047 Y-13.638
X-70.017 Y-13.507
Y-13.305
X-70.024 Y-13.271
X-70.043 Y-13.241
X-70.071 Y-13.22
X-70.104 Y-13.21
X-70.139 Y-13.211
X-70.657 Y-13.328
X-70.687 Y-13.34
X-70.712 Y-13.362
X-70.728 Y-13.39
X-70.735 Y-13.422
Y-13.629
X-70.731 Y-13.704
X-70.675 Y-13.843
X-70.561 Y-13.941
X-70.423 Y-13.998
X-70.273 Y-14.006
X-70.251 Y-14.001
X-70.13 Y-13.943
X-70.047 Y-13.839
X-70.017 Y-13.708
Y-13.507
X-70.024 Y-13.472
X-70.043 Y-13.443
X-70.071 Y-13.421
X-70.105 Y-13.411
X-70.14 Y-13.413
X-70.658 Y-13.535
X-70.688 Y-13.548
X-70.712 Y-13.569
X-70.729 Y-13.597
X-70.735 Y-13.629
Y-13.845
X-70.731 Y-13.919
X-70.666 Y-14.055
X-70.549 Y-14.149
X-70.409 Y-14.203
X-70.259 Y-14.206
X-70.242 Y-14.202
X-70.126 Y-14.142
X-70.046 Y-14.039
X-70.017 Y-13.911
Y-13.708
X-70.025 Y-13.674
X-70.044 Y-13.644
X-70.073 Y-13.622
X-70.107 Y-13.612
X-70.142 Y-13.615
X-70.66 Y-13.751
X-70.69 Y-13.764
X-70.713 Y-13.786
X-70.729 Y-13.813
X-70.735 Y-13.845
Y-14.051
X-70.731 Y-14.126
X-70.663 Y-14.26
X-70.546 Y-14.354
X-70.406 Y-14.406
X-70.256 Y-14.409
X-70.24 Y-14.405
X-70.125 Y-14.345
X-70.045 Y-14.242
X-70.017 Y-14.115
Y-13.911
X-70.025 Y-13.876
X-70.044 Y-13.846
X-70.073 Y-13.825
X-70.107 Y-13.815
X-70.143 Y-13.818
X-70.661 Y-13.958
X-70.69 Y-13.971
X-70.713 Y-13.993
X-70.729 Y-14.02
X-70.735 Y-14.051
Y-14.267
X-70.731 Y-14.342
X-70.656 Y-14.472
X-70.536 Y-14.561
X-70.395 Y-14.611
X-70.245
X-70.233 Y-14.607
X-70.121 Y-14.546
X-70.044 Y-14.444
X-70.017 Y-14.319
Y-14.115
X-70.025 Y-14.079
X-70.045 Y-14.049
X-70.074 Y-14.028
X-70.109 Y-14.019
X-70.145 Y-14.022
X-70.663 Y-14.174
X-70.691 Y-14.188
X-70.714 Y-14.209
X-70.729 Y-14.236
X-70.735 Y-14.267
Y-14.436
X-70.731 Y-14.511
X-70.678 Y-14.651
X-70.566 Y-14.751
X-70.428 Y-14.808
X-70.278 Y-14.819
X-70.255 Y-14.814
X-70.132 Y-14.757
X-70.047 Y-14.652
X-70.017 Y-14.521
Y-14.319
X-70.024 Y-14.285
X-70.043 Y-14.256
X-70.071 Y-14.234
X-70.104 Y-14.224
X-70.139 Y-14.225
X-70.657 Y-14.342
X-70.687 Y-14.354
X-70.712 Y-14.375
X-70.728 Y-14.404
X-70.735 Y-14.436
Y-14.643
X-70.731 Y-14.718
X-70.675 Y-14.857
X-70.562 Y-14.955
X-70.423 Y-15.012
X-70.273 Y-15.02
X-70.251 Y-15.015
X-70.13 Y-14.957
X-70.047 Y-14.853
X-70.017 Y-14.722
Y-14.521
X-70.024 Y-14.487
X-70.043 Y-14.457
X-70.071 Y-14.435
X-70.105 Y-14.425
X-70.14 Y-14.427
X-70.658 Y-14.549
X-70.688 Y-14.561
X-70.712 Y-14.583
X-70.729 Y-14.611
X-70.735 Y-14.643
Y-14.858
X-70.731 Y-14.933
X-70.667 Y-15.068
X-70.55 Y-15.163
X-70.41 Y-15.217
X-70.26 Y-15.221
X-70.242 Y-15.216
X-70.126 Y-15.157
X-70.046 Y-15.053
X-70.017 Y-14.925
Y-14.722
X-70.025 Y-14.688
X-70.044 Y-14.658
X-70.073 Y-14.636
X-70.107 Y-14.626
X-70.142 Y-14.629
X-70.66 Y-14.765
X-70.689 Y-14.778
X-70.713 Y-14.799
X-70.729 Y-14.827
X-70.735 Y-14.858
Y-15.065
X-70.731 Y-15.14
X-70.664 Y-15.274
X-70.547 Y-15.368
X-70.406 Y-15.42
X-70.256 Y-15.423
X-70.241 Y-15.419
X-70.125 Y-15.359
X-70.045 Y-15.256
X-70.017 Y-15.129
Y-14.925
X-70.025 Y-14.891
X-70.044 Y-14.86
X-70.073 Y-14.839
X-70.107 Y-14.829
X-70.143 Y-14.832
X-70.661 Y-14.972
X-70.69 Y-14.985
X-70.713 Y-15.006
X-70.729 Y-15.034
X-70.735 Y-15.065
Y-15.28
X-70.731 Y-15.355
X-70.657 Y-15.486
X-70.537 Y-15.575
X-70.395 Y-15.625
X-70.245
X-70.233 Y-15.622
X-70.121 Y-15.561
X-70.044 Y-15.458
X-70.017 Y-15.333
Y-15.129
X-70.025 Y-15.094
X-70.045 Y-15.063
X-70.074 Y-15.042
X-70.109 Y-15.033
X-70.145 Y-15.036
X-70.663 Y-15.188
X-70.691 Y-15.201
X-70.714 Y-15.223
X-70.729 Y-15.25
X-70.735 Y-15.28
Y-15.449
X-70.731 Y-15.524
X-70.679 Y-15.665
X-70.567 Y-15.765
X-70.428 Y-15.822
X-70.279 Y-15.833
X-70.255 Y-15.828
X-70.133 Y-15.771
X-70.047 Y-15.666
X-70.017 Y-15.535
Y-15.333
X-70.024 Y-15.299
X-70.043 Y-15.27
X-70.071 Y-15.248
X-70.104 Y-15.238
X-70.139 Y-15.239
X-70.657 Y-15.355
X-70.687 Y-15.368
X-70.712 Y-15.389
X-70.728 Y-15.417
X-70.735 Y-15.449
Y-15.656
X-70.731 Y-15.731
X-70.676 Y-15.871
X-70.562 Y-15.968
X-70.424 Y-16.026
X-70.274 Y-16.034
X-70.251 Y-16.029
X-70.131 Y-15.971
X-70.047 Y-15.867
X-70.017 Y-15.736
Y-15.535
X-70.024 Y-15.501
X-70.043 Y-15.471
X-70.071 Y-15.449
X-70.105 Y-15.439
X-70.14 Y-15.441
X-70.658 Y-15.562
X-70.688 Y-15.575
X-70.712 Y-15.596
X-70.729 Y-15.624
X-70.735 Y-15.656
Y-15.872
Y-15.91
Y-15.956
X-70.733 Y-15.99
X-70.667 Y-16.058
X-70.583 Y-16.102
X-70.489 Y-16.117
G3 X-70.359 Y-15.83 I-0.006 J0.176
X-70.735 Y-15.956 I-0.164 J-0.133
G1 Y-15.994
X-70.733 Y-16.015
X-70.731 Y-16.026
X-70.727 Y-16.036
X-70.716 Y-16.058
X-70.702 Y-16.079
X-70.691 Y-16.09
X-70.68 Y-16.099
X-70.669 Y-16.105
X-70.659 Y-16.11
X-70.648 Y-16.114
X-70.637 Y-16.116
X-70.616 Y-16.117
X-70.189
X-70.151
X-70.13
X-70.106 Y-16.114
X-70.098 Y-16.112
X-70.071 Y-16.092
X-70.054 Y-16.063
X-70.052 Y-16.029
X-70.064 Y-15.997
X-70.09 Y-15.974
X-70.122 Y-15.964
X-70.156 Y-15.97
X-70.184 Y-15.99
X-70.201 Y-16.02
X-70.202 Y-16.054
X-70.189 Y-16.085
X-70.163 Y-16.108
X-70.13 Y-16.117
X-70.119 Y-16.116
X-70.109 Y-16.115
X-70.098 Y-16.112
X-70.088 Y-16.108
X-70.077 Y-16.102
X-70.067 Y-16.095
X-70.05 Y-16.079
X-70.036 Y-16.058
X-70.025 Y-16.036
X-70.021 Y-16.026
X-70.019 Y-16.015
X-70.017 Y-15.994
Y-15.736
X-70.022 Y-15.708
X-70.035 Y-15.683
X-70.064 Y-15.666 Z-0.983
X-70.089 Y-15.651 Z-0.966
X-70.108 Y-15.64 Z-0.939
X-70.117 Z-0.916
X-70.12 Z-0.89
G0 Z2
X-63.764 Y-9.452
Z0.5
G3 X-63.28 Y-9.576 Z0.29 I0.242 J-0.062 F333.3
X-63.764 Y-9.452 Z0.079 I-0.242 J0.062
X-63.28 Y-9.576 Z-0.131 I0.242 J-0.062
X-63.764 Y-9.452 Z-0.342 I-0.242 J0.062
X-63.28 Y-9.576 Z-0.552 I0.242 J-0.062
X-63.764 Y-9.452 Z-0.763 I-0.242 J0.062
X-63.553 Y-9.762 Z-0.876 I0.242 J-0.062
X-63.272 Y-9.514 Z-0.99 I0.031 J0.248
X-63.772 I-0.25
X-63.272 I0.25
G1 X-63.235 Y-9.369 F1000
X-63.248 Y-9.295
X-63.285 Y-9.23
X-63.392 Y-9.125
X-63.536 Y-9.085
X-63.685 Y-9.106
X-63.815 Y-9.18
X-63.912 Y-9.295
X-63.964 Y-9.435
X-63.966 Y-9.585
X-63.918 Y-9.728
X-63.827 Y-9.846
X-63.701 Y-9.928
X-63.555 Y-9.964
X-63.406 Y-9.95
X-63.269 Y-9.888
X-63.161 Y-9.784
X-63.083 Y-9.656
X-63.032 Y-9.515
X-63.022 Y-9.365
X-63.057 Y-9.219
X-63.128 Y-9.087
X-63.236 Y-8.983
X-63.367 Y-8.91
X-63.513 Y-8.877
X-63.638 Y-8.883
X-63.712 Y-8.897
X-63.779 Y-8.932
X-63.834 Y-8.984
X-63.893 Y-9.045
X-63.978 Y-9.123
X-64.087 Y-9.226
X-64.152 Y-9.361
X-64.178 Y-9.509
X-64.17 Y-9.658
X-64.145 Y-9.735
X-64.107 Y-9.816
X-64.05 Y-9.884
X-63.978 Y-9.936
X-63.939 Y-9.946
X-63.9 Y-9.94
X-63.866 Y-9.92
X-63.842 Y-9.887
X-63.833 Y-9.849
X-63.831 Y-9.762
X-63.815 Y-9.204
X-63.822 Y-9.167
X-63.841 Y-9.135
X-63.871 Y-9.112
X-63.907 Y-9.102
X-63.944 Y-9.105
X-63.978 Y-9.123
X-64.012 Y-9.152
X-64.062 Y-9.192
X-64.205 Y-9.296
X-64.263 Y-9.343
X-64.341 Y-9.472
X-64.368 Y-9.619
X-64.367 Y-9.635
X-64.324 Y-9.761
X-64.23 Y-9.856
X-64.105 Y-9.899
X-64.068 Y-9.898
X-64.034 Y-9.883
X-64.007 Y-9.857
X-63.992 Y-9.824
X-63.991 Y-9.787
X-64.05 Y-9.365
X-64.06 Y-9.333
X-64.08 Y-9.306
X-64.108 Y-9.288
X-64.141 Y-9.279
X-64.174 Y-9.282
X-64.205 Y-9.296
X-64.316 Y-9.377
X-64.364 Y-9.406
X-64.427 Y-9.447
X-64.472 Y-9.507
X-64.487 Y-9.641
X-64.439 Y-9.767
X-64.34 Y-9.857
X-64.21 Y-9.893
X-64.173 Y-9.886
X-64.141 Y-9.865
X-64.119 Y-9.834
X-64.11 Y-9.797
X-64.116 Y-9.759
X-64.222 Y-9.46
X-64.239 Y-9.43
X-64.265 Y-9.407
X-64.297 Y-9.395
X-64.332
X-64.364 Y-9.406
X-64.401 Y-9.427
X-64.485 Y-9.471
X-64.518 Y-9.488
X-64.572 Y-9.54
X-64.588 Y-9.663
X-64.545 Y-9.779
X-64.453 Y-9.861
X-64.333 Y-9.891
X-64.294 Y-9.882
X-64.262 Y-9.858
X-64.242 Y-9.824
X-64.236 Y-9.785
X-64.247 Y-9.747
X-64.36 Y-9.52
X-64.382 Y-9.49
X-64.413 Y-9.471
X-64.449 Y-9.464
X-64.485 Y-9.471
X-64.57 Y-9.507
X-64.616 Y-9.524
X-64.651 Y-9.538
X-64.69 Y-9.602
X-64.692 Y-9.707
X-64.647 Y-9.802
X-64.566 Y-9.868
X-64.464 Y-9.891
X-64.435 Y-9.886
X-64.409 Y-9.873
X-64.388 Y-9.853
G3 X-64.616 Y-9.524 I-0.163 J0.131
G1 X-64.701 Y-9.554
X-64.735 Y-9.569
X-64.784 Y-9.626
X-64.788 Y-9.721
X-64.749 Y-9.808
X-64.676 Y-9.869
X-64.583 Y-9.891
X-64.554 Y-9.885
X-64.529 Y-9.871
G3 X-64.701 Y-9.554 I-0.116 J0.142
G1 X-64.794 Y-9.588
X-64.828 Y-9.602
X-64.877 Y-9.659
X-64.871 Y-9.77
X-64.804 Y-9.858
X-64.698 Y-9.891
X-64.676 Y-9.887
X-64.655 Y-9.878
G3 X-64.794 Y-9.588 I-0.088 J0.136
G1 X-64.823 Y-9.599
X-64.908 Y-9.626
X-64.944 Y-9.637
X-64.98 Y-9.703
X-64.961 Y-9.796
X-64.897 Y-9.865
X-64.805 Y-9.891
X-64.774 Y-9.883
X-64.75 Y-9.861
G3 X-64.908 Y-9.626 I-0.124 J0.088
G1 X-64.992 Y-9.649
X-65.021 Y-9.654
X-65.045 Y-9.659
X-65.071 Y-9.666
X-65.069 Y-9.773
X-65.005 Y-9.859
X-64.903 Y-9.891
X-64.879 Y-9.886
X-64.859 Y-9.871
X-64.846 Y-9.85
X-64.842 Y-9.826
G3 X-65.045 Y-9.659 I-0.174 J-0.005
G1 X-65.077 Y-9.666
X-65.119 Y-9.674
X-65.13 Y-9.677
X-65.147 Y-9.686
X-65.162 Y-9.695
X-65.175 Y-9.706
X-65.174 Y-9.715
X-65.162 Y-9.748
X-65.14 Y-9.774
X-65.11 Y-9.792
X-65.075 Y-9.798
X-64.439 Y-9.799
X-64.349
X-64.311 Y-9.792
X-64.279 Y-9.77
X-64.257 Y-9.738
X-64.249 Y-9.7
X-64.257 Y-9.662
X-64.278 Y-9.629
X-64.31 Y-9.607
X-64.348 Y-9.6
G3 X-65.13 Y-9.677 I-0.033 J-3.646
G1 X-65.14 Y-9.681
X-65.151 Y-9.686
X-65.162 Y-9.693
X-65.175 Y-9.706
X-65.185 Y-9.719
X-65.192 Y-9.731
X-65.197 Y-9.744
X-65.2 Y-9.764
G0 Z2
X-65.197 Y-9.744
Z0.6
G1 Z0.5 F1000
Z-0.99 F333.3
X-65.199 Y-9.754 F1000
X-65.201 Y-9.765
Y-9.786
X-65.2 Y-9.807
X-65.197 Y-9.818
X-65.194 Y-9.828
X-65.189 Y-9.839
X-65.182 Y-9.849
X-65.173 Y-9.86
X-65.162 Y-9.871
X-65.151 Y-9.878
X-65.14 Y-9.883
X-65.13 Y-9.887
X-65.119 Y-9.889
X-65.109 Y-9.891
X-64.269 Y-9.892
X-64.185 Y-9.894
X-64.147 Y-9.895
X-64.105 Y-9.899
X-64.062 Y-9.907
X-64.042 Y-9.913
X-63.978 Y-9.936
X-63.893 Y-9.981
X-63.872 Y-9.997
X-63.837 Y-10.027
X-63.718 Y-10.119
X-63.575 Y-10.163
X-63.425 Y-10.165
X-63.279 Y-10.132
X-63.145 Y-10.065
X-63.029 Y-9.97
X-62.994 Y-9.929
X-62.957 Y-9.871
X-62.934 Y-9.806
X-62.926 Y-9.738
Y-9.237
X-62.934 Y-9.087
X-62.993 Y-8.949
X-63.089 Y-8.834
X-63.21 Y-8.746
X-63.347 Y-8.685
X-63.387 Y-8.677
X-63.506 Y-8.676
X-63.616 Y-8.722
X-63.699 Y-8.806
X-63.712 Y-8.842
X-63.711 Y-8.881
X-63.695 Y-8.916
X-63.667 Y-8.942
X-63.564 Y-9.008
X-63.08 Y-9.318
X-63.048 Y-9.331
X-63.013 Y-9.333
X-62.98 Y-9.322
X-62.952 Y-9.301
X-62.933 Y-9.271
X-62.926 Y-9.237
Y-8.937
X-62.934 Y-8.787
X-63.011 Y-8.659
X-63.122 Y-8.558
X-63.257 Y-8.492
X-63.269 Y-8.489
X-63.394 Y-8.49
X-63.507 Y-8.54
X-63.59 Y-8.633
X-63.602 Y-8.67
X-63.598 Y-8.709
X-63.579 Y-8.743
X-63.549 Y-8.768
X-63.073 Y-9.022
X-63.041 Y-9.032
X-63.008
X-62.976 Y-9.02
X-62.95 Y-8.999
X-62.933 Y-8.97
X-62.926 Y-8.937
Y-8.684
X-62.93 Y-8.609
X-62.982 Y-8.468
X-63.087 Y-8.361
X-63.124 Y-8.345
X-63.238 Y-8.318
X-63.354 Y-8.338
X-63.454 Y-8.401
X-63.521 Y-8.497
X-63.528 Y-8.528
X-63.525 Y-8.56
X-63.512 Y-8.589
X-63.491 Y-8.612
X-63.463 Y-8.628
X-63.06 Y-8.774
X-63.023 Y-8.78
X-62.987 Y-8.772
X-62.956 Y-8.751
X-62.934 Y-8.72
X-62.926 Y-8.684
Y-8.43
Y-8.392
Y-8.346
X-62.928 Y-8.31
X-62.951 Y-8.285
X-63.015 Y-8.233
X-63.09 Y-8.201
X-63.17 Y-8.19
G3 X-63.296 Y-8.474 I0.006 J-0.173
X-62.926 Y-8.346 I0.16 J0.136
G1 Y-8.308
X-62.927 Y-8.287
X-62.929 Y-8.276
X-62.932 Y-8.266
X-62.937 Y-8.255
X-62.943 Y-8.244
X-62.951 Y-8.234
X-62.963 Y-8.223
X-62.984 Y-8.206
X-62.995 Y-8.2
X-63.005 Y-8.196
X-63.016 Y-8.193
X-63.026 Y-8.191
X-63.047 Y-8.19
X-63.301
X-63.322
X-63.333 Y-8.191
X-63.343 Y-8.193
X-63.354 Y-8.196
X-63.365 Y-8.2
X-63.386 Y-8.213
X-63.4 Y-8.223
X-63.411 Y-8.234
X-63.419 Y-8.244
X-63.425 Y-8.255
X-63.43 Y-8.266
X-63.445 Y-8.308
X-63.512 Y-8.477
X-63.555 Y-8.571
X-63.639 Y-8.715
X-63.704 Y-8.815
X-63.724 Y-8.843
X-63.834 Y-8.984
X-63.848 Y-9.011
X-63.853 Y-9.041
X-63.857 Y-9.251
X-63.869 Y-9.952
X-63.866 Y-9.979
X-63.855 Y-10.005
X-63.837 Y-10.027
X-63.809 Y-10.051
X-63.779 Y-10.082
X-63.762 Y-10.1
X-63.748 Y-10.119
X-63.724 Y-10.157
X-63.719 Y-10.166
X-63.683 Y-10.232
X-63.562 Y-10.321
X-63.416 Y-10.354
X-63.266 Y-10.345
X-63.123 Y-10.302
X-63.086 Y-10.283
X-63.001 Y-10.216
X-62.946 Y-10.123
X-62.926 Y-10.017
Y-9.738
X-62.933 Y-9.704
X-62.952 Y-9.674
X-62.98 Y-9.653
X-63.013 Y-9.642
X-63.048 Y-9.644
X-63.08 Y-9.657
X-63.138 Y-9.695
X-63.681 Y-10.042
X-63.707 Y-10.066
X-63.723 Y-10.097
X-63.727 Y-10.132
X-63.719 Y-10.166
X-63.679 Y-10.25
X-63.665 Y-10.293
X-63.655 Y-10.335
X-63.646 Y-10.371
X-63.547 Y-10.484
X-63.408 Y-10.54
X-63.258 Y-10.552
X-63.111 Y-10.527
X-63.106 Y-10.525
X-63.012 Y-10.46
X-62.948 Y-10.363
X-62.926 Y-10.25
Y-10.017
X-62.933 Y-9.984
X-62.951 Y-9.955
X-62.978 Y-9.933
X-63.01 Y-9.922
X-63.044
X-63.076 Y-9.934
X-63.605 Y-10.241
X-63.634 Y-10.265
X-63.651 Y-10.298
X-63.655 Y-10.335
X-63.645 Y-10.419
Y-10.466
X-63.642 Y-10.503
X-63.571 Y-10.635
X-63.444 Y-10.716
X-63.299 Y-10.754
X-63.149 Y-10.751
X-63.138 Y-10.748
X-63.028 Y-10.686
X-62.953 Y-10.585
X-62.926 Y-10.461
Y-10.25
X-62.935 Y-10.213
X-62.957 Y-10.181
X-62.989 Y-10.161
X-63.027 Y-10.154
X-63.064 Y-10.161
X-63.583 Y-10.375
X-63.615 Y-10.397
X-63.637 Y-10.428
X-63.645 Y-10.466
X-63.644 Y-10.635
X-63.642 Y-10.672
X-63.584 Y-10.811
X-63.466 Y-10.903
X-63.326 Y-10.955
X-63.176 Y-10.962
X-63.156 Y-10.957
X-63.037 Y-10.898
X-62.955 Y-10.794
X-62.926 Y-10.665
Y-10.461
X-62.934 Y-10.425
X-62.955 Y-10.394
X-62.985 Y-10.373
X-63.021 Y-10.365
X-63.058 Y-10.37
X-63.576 Y-10.543
X-63.603 Y-10.557
X-63.624 Y-10.578
X-63.638 Y-10.605
X-63.644 Y-10.635
Y-10.804
X-63.64 Y-10.879
X-63.576 Y-11.014
X-63.458 Y-11.107
X-63.318 Y-11.16
X-63.168 Y-11.163
X-63.151 Y-11.159
X-63.034 Y-11.099
X-62.955 Y-10.996
X-62.926 Y-10.869
Y-10.665
X-62.934 Y-10.63
X-62.953 Y-10.6
X-62.982 Y-10.579
X-63.016 Y-10.569
X-63.052 Y-10.572
X-63.57 Y-10.711
X-63.599 Y-10.724
X-63.622 Y-10.745
X-63.638 Y-10.773
X-63.644 Y-10.804
Y-11.011
X-63.64 Y-11.086
X-63.572 Y-11.219
X-63.454 Y-11.312
X-63.313 Y-11.364
X-63.163 Y-11.366
X-63.148 Y-11.362
X-63.033 Y-11.302
X-62.954 Y-11.199
X-62.926 Y-11.072
Y-10.869
X-62.934 Y-10.834
X-62.953 Y-10.803
X-62.982 Y-10.782
X-63.017 Y-10.773
X-63.053 Y-10.776
X-63.571 Y-10.918
X-63.599 Y-10.931
X-63.623 Y-10.952
X-63.638 Y-10.98
X-63.644 Y-11.011
Y-11.226
X-63.64 Y-11.301
X-63.565 Y-11.43
X-63.444 Y-11.52
X-63.302 Y-11.569
X-63.152 Y-11.568
X-63.141 Y-11.565
X-63.029 Y-11.504
X-62.953 Y-11.402
X-62.926 Y-11.277
Y-11.072
X-62.934 Y-11.037
X-62.954 Y-11.007
X-62.983 Y-10.985
X-63.018 Y-10.976
X-63.055 Y-10.98
X-63.573 Y-11.134
X-63.601 Y-11.147
X-63.623 Y-11.168
X-63.638 Y-11.196
X-63.644 Y-11.226
Y-11.395
X-63.64 Y-11.47
X-63.586 Y-11.61
X-63.474 Y-11.709
X-63.335 Y-11.766
X-63.185 Y-11.777
X-63.163 Y-11.772
X-63.041 Y-11.715
X-62.956 Y-11.61
X-62.926 Y-11.479
Y-11.277
X-62.933 Y-11.243
X-62.952 Y-11.213
X-62.98 Y-11.192
X-63.013 Y-11.181
X-63.048 Y-11.183
X-63.566 Y-11.301
X-63.596 Y-11.313
X-63.621 Y-11.335
X-63.638 Y-11.363
X-63.644 Y-11.395
Y-11.602
X-63.64 Y-11.677
X-63.583 Y-11.816
X-63.469 Y-11.913
X-63.331 Y-11.97
X-63.181 Y-11.978
X-63.159 Y-11.973
X-63.039 Y-11.915
X-62.956 Y-11.81
X-62.926 Y-11.68
Y-11.479
X-62.934 Y-11.444
X-62.952 Y-11.414
X-62.98 Y-11.393
X-63.014 Y-11.383
X-63.049 Y-11.385
X-63.567 Y-11.508
X-63.597 Y-11.521
X-63.621 Y-11.542
X-63.638 Y-11.57
X-63.644 Y-11.602
Y-11.817
X-63.64 Y-11.892
X-63.575 Y-12.027
X-63.458 Y-12.121
X-63.318 Y-12.175
X-63.168 Y-12.178
X-63.15 Y-12.174
X-63.034 Y-12.114
X-62.955 Y-12.011
X-62.926 Y-11.883
Y-11.68
X-62.934 Y-11.645
X-62.953 Y-11.615
X-62.982 Y-11.594
X-63.016 Y-11.584
X-63.052 Y-11.587
X-63.57 Y-11.724
X-63.599 Y-11.737
X-63.622 Y-11.758
X-63.638 Y-11.786
X-63.644 Y-11.817
Y-12.024
X-63.64 Y-12.099
X-63.572 Y-12.233
X-63.454 Y-12.326
X-63.314 Y-12.378
X-63.164 Y-12.381
X-63.149 Y-12.377
X-63.033 Y-12.317
X-62.954 Y-12.214
X-62.926 Y-12.087
Y-11.883
X-62.934 Y-11.848
X-62.953 Y-11.818
X-62.982 Y-11.797
X-63.017 Y-11.787
X-63.052 Y-11.79
X-63.57 Y-11.931
X-63.599 Y-11.944
X-63.622 Y-11.966
X-63.638 Y-11.993
X-63.644 Y-12.024
Y-12.24
X-63.64 Y-12.315
X-63.565 Y-12.444
X-63.445 Y-12.534
X-63.303 Y-12.583
X-63.153
X-63.142 Y-12.579
X-63.03 Y-12.518
X-62.953 Y-12.416
X-62.926 Y-12.292
Y-12.087
X-62.934 Y-12.051
X-62.954 Y-12.021
X-62.983 Y-12
X-63.018 Y-11.991
X-63.054 Y-11.994
X-63.572 Y-12.147
X-63.6 Y-12.161
X-63.623 Y-12.182
X-63.638 Y-12.209
X-63.644 Y-12.24
Y-12.409
X-63.64 Y-12.484
X-63.587 Y-12.624
X-63.475 Y-12.723
X-63.336 Y-12.78
X-63.186 Y-12.791
X-63.163 Y-12.786
X-63.041 Y-12.729
X-62.956 Y-12.624
X-62.926 Y-12.493
Y-12.292
X-62.933 Y-12.257
X-62.952 Y-12.228
X-62.98 Y-12.206
X-63.013 Y-12.196
X-63.048 Y-12.197
X-63.566 Y-12.315
X-63.596 Y-12.327
X-63.621 Y-12.348
X-63.638 Y-12.377
X-63.644 Y-12.409
Y-12.616
X-63.64 Y-12.69
X-63.584 Y-12.829
X-63.47 Y-12.927
X-63.331 Y-12.984
X-63.182 Y-12.992
X-63.16 Y-12.987
X-63.039 Y-12.929
X-62.956 Y-12.825
X-62.926 Y-12.695
Y-12.493
X-62.934 Y-12.459
X-62.952 Y-12.429
X-62.98 Y-12.408
X-63.014 Y-12.397
X-63.049 Y-12.399
X-63.567 Y-12.522
X-63.597 Y-12.534
X-63.621 Y-12.556
X-63.638 Y-12.584
X-63.644 Y-12.616
Y-12.831
X-63.64 Y-12.906
X-63.575 Y-13.041
X-63.458 Y-13.135
X-63.318 Y-13.189
X-63.168 Y-13.193
X-63.151 Y-13.188
X-63.035 Y-13.129
X-62.955 Y-13.025
X-62.926 Y-12.898
Y-12.695
X-62.934 Y-12.66
X-62.953 Y-12.63
X-62.982 Y-12.609
X-63.016 Y-12.599
X-63.052 Y-12.601
X-63.57 Y-12.738
X-63.599 Y-12.751
X-63.622 Y-12.772
X-63.638 Y-12.8
X-63.644 Y-12.831
Y-13.038
X-63.64 Y-13.113
X-63.572 Y-13.247
X-63.455 Y-13.34
X-63.314 Y-13.392
X-63.165 Y-13.395
X-63.149 Y-13.391
X-63.034 Y-13.331
X-62.954 Y-13.228
X-62.926 Y-13.101
Y-12.898
X-62.934 Y-12.863
X-62.953 Y-12.833
X-62.982 Y-12.811
X-63.017 Y-12.802
X-63.052 Y-12.805
X-63.57 Y-12.945
X-63.599 Y-12.958
X-63.622 Y-12.979
X-63.638 Y-13.007
X-63.644 Y-13.038
Y-13.253
X-63.64 Y-13.328
X-63.565 Y-13.458
X-63.445 Y-13.548
X-63.304 Y-13.597
X-63.154
X-63.142 Y-13.594
X-63.03 Y-13.533
X-62.953 Y-13.431
X-62.926 Y-13.306
Y-13.101
X-62.934 Y-13.066
X-62.954 Y-13.035
X-62.983 Y-13.014
X-63.018 Y-13.005
X-63.054 Y-13.009
X-63.572 Y-13.161
X-63.6 Y-13.174
X-63.623 Y-13.195
X-63.638 Y-13.223
X-63.644 Y-13.253
Y-13.422
X-63.64 Y-13.497
X-63.587 Y-13.637
X-63.475 Y-13.737
X-63.337 Y-13.794
X-63.187 Y-13.806
X-63.164 Y-13.801
X-63.041 Y-13.744
X-62.956 Y-13.639
X-62.926 Y-13.507
Y-13.306
X-62.933 Y-13.272
X-62.952 Y-13.242
X-62.98 Y-13.221
X-63.013 Y-13.21
X-63.048 Y-13.212
X-63.566 Y-13.328
X-63.596 Y-13.34
X-63.621 Y-13.362
X-63.638 Y-13.39
X-63.644 Y-13.422
Y-13.629
X-63.64 Y-13.704
X-63.584 Y-13.843
X-63.471 Y-13.941
X-63.332 Y-13.999
X-63.182 Y-14.006
X-63.16 Y-14.001
X-63.039 Y-13.944
X-62.956 Y-13.839
X-62.926 Y-13.709
Y-13.507
X-62.934 Y-13.473
X-62.952 Y-13.443
X-62.98 Y-13.422
X-63.014 Y-13.411
X-63.049 Y-13.413
X-63.567 Y-13.535
X-63.597 Y-13.548
X-63.621 Y-13.569
X-63.638 Y-13.597
X-63.644 Y-13.629
Y-13.845
X-63.64 Y-13.919
X-63.576 Y-14.055
X-63.459 Y-14.149
X-63.319 Y-14.203
X-63.169 Y-14.207
X-63.151 Y-14.202
X-63.035 Y-14.143
X-62.955 Y-14.039
X-62.926 Y-13.912
Y-13.709
X-62.934 Y-13.674
X-62.953 Y-13.644
X-62.982 Y-13.623
X-63.016 Y-13.613
X-63.051 Y-13.616
X-63.569 Y-13.751
X-63.599 Y-13.764
X-63.622 Y-13.786
X-63.638 Y-13.813
X-63.644 Y-13.845
Y-14.051
X-63.64 Y-14.126
X-63.573 Y-14.26
X-63.456 Y-14.354
X-63.315 Y-14.406
X-63.165 Y-14.409
X-63.15 Y-14.405
X-63.034 Y-14.345
X-62.954 Y-14.242
X-62.926 Y-14.115
Y-13.912
X-62.934 Y-13.877
X-62.953 Y-13.847
X-62.982 Y-13.826
X-63.016 Y-13.816
X-63.052 Y-13.819
X-63.57 Y-13.958
X-63.599 Y-13.971
X-63.622 Y-13.993
X-63.638 Y-14.02
X-63.644 Y-14.051
Y-14.267
X-63.64 Y-14.342
X-63.566 Y-14.472
X-63.446 Y-14.562
X-63.304 Y-14.611
X-63.154
X-63.142 Y-14.608
X-63.03 Y-14.547
X-62.953 Y-14.445
X-62.926 Y-14.32
Y-14.115
X-62.934 Y-14.08
X-62.954 Y-14.05
X-62.983 Y-14.028
X-63.018 Y-14.019
X-63.054 Y-14.023
X-63.572 Y-14.174
X-63.6 Y-14.188
X-63.623 Y-14.209
X-63.638 Y-14.236
X-63.644 Y-14.267
Y-14.436
X-63.64 Y-14.511
X-63.588 Y-14.651
X-63.476 Y-14.751
X-63.337 Y-14.808
X-63.188 Y-14.82
X-63.164 Y-14.815
X-63.042 Y-14.758
X-62.957 Y-14.653
X-62.926 Y-14.521
Y-14.32
X-62.933 Y-14.286
X-62.952 Y-14.256
X-62.98 Y-14.235
X-63.013 Y-14.224
X-63.048 Y-14.226
X-63.566 Y-14.342
X-63.596 Y-14.354
X-63.621 Y-14.375
X-63.638 Y-14.404
X-63.644 Y-14.436
Y-14.643
X-63.64 Y-14.718
X-63.585 Y-14.857
X-63.471 Y-14.955
X-63.333 Y-15.013
X-63.183 Y-15.021
X-63.16 Y-15.015
X-63.04 Y-14.958
X-62.956 Y-14.853
X-62.926 Y-14.723
Y-14.521
X-62.934 Y-14.487
X-62.952 Y-14.457
X-62.98 Y-14.436
X-63.014 Y-14.425
X-63.049 Y-14.427
X-63.567 Y-14.549
X-63.597 Y-14.561
X-63.621 Y-14.583
X-63.638 Y-14.611
X-63.644 Y-14.643
Y-14.858
X-63.64 Y-14.933
X-63.576 Y-15.068
X-63.459 Y-15.163
X-63.319 Y-15.217
X-63.169 Y-15.221
X-63.152 Y-15.216
X-63.035 Y-15.157
X-62.955 Y-15.054
X-62.926 Y-14.926
Y-14.723
X-62.934 Y-14.688
X-62.953 Y-14.658
X-62.982 Y-14.637
X-63.016 Y-14.627
X-63.051 Y-14.629
X-63.569 Y-14.765
X-63.598 Y-14.778
X-63.622 Y-14.799
X-63.638 Y-14.827
X-63.644 Y-14.858
Y-15.065
X-63.64 Y-15.14
X-63.573 Y-15.274
X-63.456 Y-15.368
X-63.315 Y-15.42
X-63.165 Y-15.423
X-63.15 Y-15.419
X-63.034 Y-15.36
X-62.954 Y-15.256
X-62.926 Y-15.129
Y-14.926
X-62.934 Y-14.891
X-62.953 Y-14.861
X-62.982 Y-14.84
X-63.016 Y-14.83
X-63.052 Y-14.833
X-63.57 Y-14.972
X-63.599 Y-14.985
X-63.622 Y-15.006
X-63.638 Y-15.034
X-63.644 Y-15.065
Y-15.28
X-63.64 Y-15.355
X-63.566 Y-15.486
X-63.446 Y-15.576
X-63.304 Y-15.625
X-63.154
X-63.143 Y-15.622
X-63.03 Y-15.561
X-62.953 Y-15.459
X-62.926 Y-15.334
Y-15.129
X-62.934 Y-15.094
X-62.954 Y-15.064
X-62.983 Y-15.042
X-63.018 Y-15.033
X-63.054 Y-15.037
X-63.572 Y-15.188
X-63.6 Y-15.201
X-63.623 Y-15.223
X-63.638 Y-15.25
X-63.644 Y-15.28
Y-15.449
X-63.64 Y-15.524
X-63.588 Y-15.665
X-63.476 Y-15.765
X-63.337 Y-15.822
X-63.188 Y-15.834
X-63.164 Y-15.829
X-63.042 Y-15.772
X-62.957 Y-15.667
X-62.926 Y-15.535
Y-15.334
X-62.933 Y-15.299
X-62.952 Y-15.27
X-62.98 Y-15.249
X-63.013 Y-15.238
X-63.048 Y-15.24
X-63.566 Y-15.355
X-63.596 Y-15.368
X-63.621 Y-15.389
X-63.638 Y-15.417
X-63.644 Y-15.449
Y-15.656
X-63.64 Y-15.731
X-63.585 Y-15.871
X-63.471 Y-15.969
X-63.333 Y-16.026
X-63.183 Y-16.034
X-63.16 Y-16.029
X-63.04 Y-15.972
X-62.956 Y-15.867
X-62.926 Y-15.737
Y-15.535
X-62.933 Y-15.501
X-62.952 Y-15.471
X-62.98 Y-15.45
X-63.014 Y-15.439
X-63.049 Y-15.441
X-63.567 Y-15.562
X-63.597 Y-15.575
X-63.621 Y-15.596
X-63.638 Y-15.624
X-63.644 Y-15.656
Y-15.872
Y-15.91
Y-15.956
X-63.642 Y-15.989
X-63.576 Y-16.058
X-63.492 Y-16.102
X-63.398 Y-16.117
G3 X-63.268 Y-15.83 I-0.006 J0.176
X-63.644 Y-15.956 I-0.164 J-0.134
G1 Y-15.994
X-63.643 Y-16.011
X-63.639 Y-16.028
X-63.634 Y-16.041
X-63.627 Y-16.053
X-63.606 Y-16.079
X-63.593 Y-16.092
X-63.581 Y-16.102
X-63.568 Y-16.108
X-63.555 Y-16.113
X-63.544 Y-16.115
X-63.534 Y-16.117
X-63.132
X-63.085
X-63.047
X-63.016 Y-16.114
X-62.988 Y-16.099
X-62.967 Y-16.076
X-62.954 Y-16.047
X-62.952 Y-16.016
X-62.961 Y-15.982
X-62.983 Y-15.954
X-63.014 Y-15.936
X-63.049 Y-15.931
X-63.083 Y-15.94
X-63.112 Y-15.96
X-63.131 Y-15.99
X-63.137 Y-16.025
X-63.13 Y-16.059
X-63.111 Y-16.089
X-63.082 Y-16.109
X-63.047 Y-16.117
X-63.026 Y-16.116
X-63.016 Y-16.114
X-63.005 Y-16.111
X-62.995 Y-16.106
X-62.984 Y-16.1
X-62.973 Y-16.092
X-62.961 Y-16.079
X-62.939 Y-16.047
X-62.934 Y-16.036
X-62.93 Y-16.026
X-62.928 Y-16.015
X-62.926 Y-15.994
Y-15.737
X-62.931 Y-15.709
X-62.944 Y-15.683
X-62.973 Y-15.666 Z-0.983
X-62.998 Y-15.651 Z-0.966
X-63.017 Y-15.641 Z-0.939
X-63.026 Y-15.64 Z-0.916
X-63.03 Z-0.89
G0 Z2
X-58.888 Y-12.323
Z0.5
G3 X-58.404 Y-12.447 Z0.29 I0.242 J-0.062 F333.3
X-58.888 Y-12.323 Z0.079 I-0.242 J0.062
X-58.404 Y-12.447 Z-0.131 I0.242 J-0.062
X-58.888 Y-12.323 Z-0.342 I-0.242 J0.062
X-58.404 Y-12.447 Z-0.552 I0.242 J-0.062
X-58.888 Y-12.323 Z-0.763 I-0.242 J0.062
X-58.678 Y-12.633 Z-0.876 I0.242 J-0.062
X-58.396 Y-12.385 Z-0.99 I0.031 J0.248
X-58.896 I-0.25
X-58.396 I0.25
G1 X-58.359 Y-12.24 F1000
X-58.372 Y-12.166
X-58.409 Y-12.101
X-58.516 Y-11.996
X-58.661 Y-11.956
X-58.809 Y-11.977
X-58.94 Y-12.051
X-59.036 Y-12.166
X-59.088 Y-12.306
X-59.09 Y-12.456
X-59.043 Y-12.599
X-58.951 Y-12.717
X-58.825 Y-12.799
X-58.679 Y-12.835
X-58.53 Y-12.821
X-58.394 Y-12.759
X-58.285 Y-12.655
X-58.207 Y-12.527
X-58.157 Y-12.386
X-58.146 Y-12.236
X-58.156 Y-12.196
X-58.181 Y-12.128
X-58.222 Y-12.068
X-58.276 Y-12.02
X-58.312 Y-11.995
X-58.373 Y-11.94
X-58.396 Y-11.913
X-58.446 Y-11.857
X-58.578 Y-11.786
X-58.726 Y-11.761
X-58.874 Y-11.783
X-59.011 Y-11.845
X-59.038 Y-11.866
X-59.099 Y-11.93
X-59.139 Y-12.009
X-59.154 Y-12.096
X-59.159 Y-12.278
X-59.161 Y-12.531
X-59.16 Y-12.578
X-59.149 Y-12.727
X-59.073 Y-12.856
X-58.959 Y-12.954
X-58.824 Y-13.019
X-58.677 Y-13.049
X-58.583 Y-13.044
X-58.48 Y-13.019
X-58.392 Y-12.96
X-58.329 Y-12.874
X-58.282 Y-12.784
X-58.227 Y-12.686
X-58.137 Y-12.531
X-58.081 Y-12.447
X-58.058 Y-12.418
X-58.033 Y-12.387
X-58.012 Y-12.362
X-57.991 Y-12.335
X-57.988 Y-12.311
X-57.999 Y-12.212
X-58.055 Y-12.13
X-58.143 Y-12.084
X-58.185 Y-12.075
X-58.228 Y-12.079
X-58.268 Y-12.094
X-58.302 Y-12.121
X-58.328 Y-12.155
X-58.342 Y-12.196
G3 X-58.012 Y-12.362 I0.188 J-0.038
G1 X-57.956 Y-12.295
X-57.941 Y-12.278
X-57.935 Y-12.267
X-57.927 Y-12.243
X-57.925 Y-12.235
X-57.932 Y-12.204
X-57.952 Y-12.18
X-57.982 Y-12.168
X-58.013 Y-12.171
X-58.039 Y-12.19
X-58.054 Y-12.218
X-58.053 Y-12.25
X-58.038 Y-12.277
X-58.011 Y-12.294
X-57.979 Y-12.297
X-57.954 Y-12.287
X-57.935 Y-12.267
X-57.931 Y-12.257
X-57.927 Y-12.246
X-57.925 Y-12.235
Y-12.225
Y-12.214
X-57.926 Y-12.204
X-57.929 Y-12.193
X-57.935 Y-12.178
X-57.945 Y-12.162
X-57.958 Y-12.146
X-57.973 Y-12.131
X-57.988 Y-12.121
X-58.003 Y-12.114
X-58.018 Y-12.111
X-58.058 Y-12.105
X-58.143 Y-12.084
X-58.227 Y-12.05
X-58.276 Y-12.02
X-58.311 Y-12.006
X-58.35
X-58.385 Y-12.02
X-58.538 Y-12.12
X-59.114 Y-12.495
X-59.138 Y-12.517
X-59.154 Y-12.545
X-59.16 Y-12.578
X-59.156 Y-12.7
X-59.151 Y-12.831
X-59.137 Y-12.98
X-59.051 Y-13.103
X-58.93 Y-13.192
X-58.79 Y-13.246
X-58.642 Y-13.266
X-58.628 Y-13.264
X-58.516 Y-13.227
X-58.427 Y-13.149
X-58.375 Y-13.043
X-58.332 Y-12.879
X-58.329 Y-12.874
X-58.321 Y-12.836
X-58.328 Y-12.797
X-58.349 Y-12.764
X-58.382 Y-12.742
X-58.42 Y-12.734
X-58.423
X-59.05 Y-12.73
X-59.089 Y-12.738
X-59.121 Y-12.76
X-59.143 Y-12.792
X-59.151 Y-12.831
X-59.14 Y-13.084
X-59.133 Y-13.159
X-59.066 Y-13.293
X-58.952 Y-13.391
X-58.816 Y-13.454
X-58.749 Y-13.463
X-58.637 Y-13.456
X-58.535 Y-13.408
X-58.458 Y-13.327
X-58.417 Y-13.222
X-58.396 Y-13.122
X-58.375 Y-13.043
X-58.374 Y-13.005
X-58.386 Y-12.97
X-58.412 Y-12.941
X-58.446 Y-12.925
X-58.483 Y-12.922
X-59.051 Y-12.984
X-59.086 Y-12.995
X-59.114 Y-13.017
X-59.133 Y-13.048
X-59.14 Y-13.084
X-59.138 Y-13.122
X-59.125 Y-13.291
X-59.115 Y-13.366
X-59.055 Y-13.503
X-58.942 Y-13.602
X-58.802 Y-13.656
X-58.759 Y-13.658
X-58.616 Y-13.628
X-58.503 Y-13.534
X-58.449 Y-13.397
X-58.446 Y-13.376
X-58.417 Y-13.222
X-58.418 Y-13.185
X-58.433 Y-13.151
X-58.459 Y-13.124
X-58.493 Y-13.109
X-58.531 Y-13.108
X-59.04 Y-13.188
X-59.075 Y-13.2
X-59.102 Y-13.224
X-59.12 Y-13.255
X-59.125 Y-13.291
X-59.118 Y-13.376
X-59.109 Y-13.46
X-59.098 Y-13.545
X-59.084 Y-13.618
X-59.004 Y-13.745
X-58.876 Y-13.824
X-58.729 Y-13.851
X-58.712 Y-13.848
X-58.591 Y-13.797
X-58.503 Y-13.7
X-58.466 Y-13.574
X-58.458 Y-13.46
X-58.449 Y-13.397
X-58.453 Y-13.358
X-58.472 Y-13.324
X-58.503 Y-13.299
X-58.541 Y-13.288
X-58.58 Y-13.293
X-59.029 Y-13.44
X-59.059 Y-13.456
X-59.082 Y-13.48
X-59.095 Y-13.511
X-59.098 Y-13.545
X-59.073 Y-13.729
X-59.058 Y-13.803
X-58.989 Y-13.936
X-58.862 Y-14.016
X-58.714 Y-14.036
X-58.588 Y-13.977
X-58.503 Y-13.871
X-58.473 Y-13.738
X-58.474 Y-13.714
X-58.47 Y-13.629
X-58.466 Y-13.574
X-58.472 Y-13.536
X-58.492 Y-13.503
X-58.524 Y-13.48
X-58.561 Y-13.471
X-58.6 Y-13.476
X-59.007 Y-13.624
X-59.036 Y-13.641
X-59.058 Y-13.665
X-59.071 Y-13.696
X-59.073 Y-13.729
X-59.044 Y-13.929
X-59.038 Y-13.967
X-59.016 Y-14.039
X-58.92 Y-14.154
X-58.781 Y-14.212
X-58.762
X-58.649 Y-14.186
X-58.554 Y-14.119
X-58.492 Y-14.021
X-58.471 Y-13.907
X-58.473 Y-13.738
X-58.481 Y-13.705
X-58.499 Y-13.676
X-58.525 Y-13.655
X-58.558 Y-13.644
X-58.592 Y-13.645
X-58.624 Y-13.656
X-58.989 Y-13.87
X-59.018 Y-13.895
X-59.035 Y-13.929
X-59.038 Y-13.967
X-59.016 Y-14.051
X-58.976 Y-14.187
X-58.951 Y-14.257
X-58.895 Y-14.307
X-58.758 Y-14.369
X-58.747 Y-14.368
X-58.631 Y-14.338
X-58.536 Y-14.265
X-58.477 Y-14.161
X-58.464 Y-14.042
X-58.471 Y-13.967
Y-13.907
X-58.48 Y-13.872
X-58.5 Y-13.842
X-58.53 Y-13.821
X-58.566 Y-13.812
X-58.602 Y-13.817
X-58.634 Y-13.835
X-58.942 Y-14.083
X-58.966 Y-14.112
X-58.978 Y-14.149
X-58.976 Y-14.187
X-58.926 Y-14.351
X-58.914 Y-14.387
X-58.867 Y-14.445
X-58.75 Y-14.477
X-58.631 Y-14.458
X-58.531 Y-14.391
X-58.467 Y-14.288
X-58.452 Y-14.168
X-58.464 Y-14.042
X-58.475 Y-14.006
X-58.499 Y-13.978
X-58.531 Y-13.959
X-58.568 Y-13.954
X-58.604 Y-13.963
X-58.634 Y-13.984
X-58.901 Y-14.256
X-58.921 Y-14.284
X-58.929 Y-14.317
X-58.926 Y-14.351
X-58.89 Y-14.474
X-58.877 Y-14.509
X-58.824 Y-14.562
X-58.756 Y-14.594
X-58.625 Y-14.582
X-58.513 Y-14.512
X-58.447 Y-14.398
X-58.439 Y-14.266
X-58.448 Y-14.22
X-58.452 Y-14.168
X-58.464 Y-14.132
X-58.488 Y-14.103
X-58.522 Y-14.085
X-58.559 Y-14.081
X-58.596 Y-14.091
X-58.626 Y-14.114
X-58.867 Y-14.382
X-58.885 Y-14.409
X-58.893 Y-14.441
X-58.89 Y-14.474
X-58.865 Y-14.558
X-58.846 Y-14.605
X-58.831 Y-14.639
X-58.772 Y-14.686
X-58.702 Y-14.713
X-58.579 Y-14.692
X-58.478 Y-14.619
X-58.42 Y-14.509
X-58.416 Y-14.384
X-58.432 Y-14.305
X-58.439 Y-14.266
X-58.454 Y-14.232
X-58.481 Y-14.205
X-58.516 Y-14.19
X-58.553 Y-14.189
X-58.589 Y-14.202
X-58.617 Y-14.227
X-58.832 Y-14.511
X-58.847 Y-14.54
X-58.852 Y-14.572
X-58.846 Y-14.605
X-58.807 Y-14.703
X-58.792 Y-14.737
X-58.739 Y-14.791
X-58.671 Y-14.821
X-58.548 Y-14.802
X-58.448 Y-14.729
X-58.392 Y-14.618
X-58.393 Y-14.494
X-58.416 Y-14.384
X-58.431 Y-14.35
X-58.458 Y-14.324
X-58.493 Y-14.31
X-58.53 Y-14.309
X-58.565 Y-14.322
X-58.593 Y-14.347
X-58.793 Y-14.608
X-58.808 Y-14.638
X-58.813 Y-14.67
X-58.807 Y-14.703
X-58.764 Y-14.812
X-58.748 Y-14.846
X-58.695 Y-14.898
X-58.625 Y-14.928
X-58.507 Y-14.905
X-58.412 Y-14.832
X-58.361 Y-14.723
X-58.365 Y-14.603
X-58.377 Y-14.558
X-58.393 Y-14.494
X-58.41 Y-14.461
X-58.437 Y-14.436
X-58.472 Y-14.423
X-58.51 Y-14.424
X-58.544 Y-14.438
X-58.571 Y-14.464
X-58.751 Y-14.72
X-58.765 Y-14.749
X-58.77 Y-14.78
X-58.764 Y-14.812
X-58.718 Y-14.922
X-58.702 Y-14.956
X-58.647 Y-15.006
X-58.577 Y-15.033
X-58.454 Y-15.003
X-58.36 Y-14.918
X-58.319 Y-14.798
X-58.34 Y-14.673
X-58.362 Y-14.644
X-58.393 Y-14.625
X-58.429 Y-14.617
X-58.464 Y-14.623
X-58.496 Y-14.642
X-58.69 Y-14.811
X-58.71 Y-14.834
X-58.722 Y-14.862
X-58.725 Y-14.892
X-58.718 Y-14.922
X-58.675 Y-15.027
X-58.659 Y-15.061
X-58.603 Y-15.111
X-58.533 Y-15.137
X-58.409 Y-15.104
X-58.315 Y-15.016
X-58.275 Y-14.894
X-58.298 Y-14.768
X-58.34 Y-14.673
X-58.362 Y-14.644
X-58.392 Y-14.625
X-58.428 Y-14.617
X-58.464 Y-14.623
X-58.495 Y-14.641
X-58.518 Y-14.669
X-58.669 Y-14.944
X-58.679 Y-14.971
X-58.681 Y-14.999
X-58.675 Y-15.027
X-58.624 Y-15.15
X-58.61 Y-15.178
X-58.548 Y-15.221
X-58.476 Y-15.242
X-58.354 Y-15.203
X-58.264 Y-15.11
X-58.228 Y-14.987
X-58.255 Y-14.861
X-58.278 Y-14.812
X-58.298 Y-14.768
X-58.32 Y-14.739
X-58.352 Y-14.719
X-58.388 Y-14.713
X-58.425 Y-14.72
X-58.456 Y-14.74
X-58.478 Y-14.77
X-58.62 Y-15.072
X-58.63 Y-15.11
X-58.624 Y-15.15
X-58.605 Y-15.192
X-58.599 Y-15.202
X-58.548 Y-15.267
X-58.523 Y-15.295
X-58.456 Y-15.329
X-58.381 Y-15.337
X-58.274 Y-15.288
X-58.199 Y-15.197
X-58.173 Y-15.082
X-58.201 Y-14.968
X-58.237 Y-14.896
X-58.255 Y-14.861
X-58.278 Y-14.831
X-58.31 Y-14.813
X-58.348 Y-14.807
X-58.384 Y-14.816
X-58.415 Y-14.838
X-58.435 Y-14.869
X-58.56 Y-15.169
X-58.567 Y-15.202
X-58.563 Y-15.236
X-58.548 Y-15.267
X-58.458 Y-15.379
X-58.433 Y-15.407
X-58.362 Y-15.431
X-58.241 Y-15.396
X-58.153 Y-15.307
X-58.12 Y-15.186
X-58.149 Y-15.064
X-58.201 Y-14.968
X-58.226 Y-14.938
X-58.261 Y-14.92
X-58.299 Y-14.917
X-58.336 Y-14.928
X-58.366 Y-14.953
X-58.384 Y-14.988
X-58.473 Y-15.292
X-58.477 Y-15.322
X-58.472 Y-15.352
X-58.458 Y-15.379
X-58.396 Y-15.457
X-58.371 Y-15.485
X-58.302 Y-15.514
X-58.18 Y-15.477
X-58.093 Y-15.383
X-58.065 Y-15.258
X-58.103 Y-15.136
X-58.149 Y-15.064
X-58.175 Y-15.035
X-58.21 Y-15.018
X-58.248 Y-15.015
X-58.285 Y-15.028
X-58.314 Y-15.053
X-58.332 Y-15.087
X-58.412 Y-15.37
X-58.416 Y-15.4
X-58.41 Y-15.43
X-58.396 Y-15.457
X-58.331 Y-15.539
X-58.306 Y-15.567
X-58.236 Y-15.595
X-58.118 Y-15.556
X-58.035 Y-15.463
X-58.009 Y-15.341
X-58.048 Y-15.223
X-58.103 Y-15.136
X-58.131 Y-15.109
X-58.166 Y-15.094
X-58.205
X-58.24 Y-15.109
X-58.268 Y-15.136
X-58.283 Y-15.171
X-58.348 Y-15.458
X-58.35 Y-15.486
X-58.344 Y-15.514
X-58.331 Y-15.539
X-58.258 Y-15.63
X-58.239 Y-15.652
X-58.168 Y-15.676
X-58.055 Y-15.634
X-57.977 Y-15.542
X-57.954 Y-15.424
X-57.992 Y-15.31
X-58.048 Y-15.223
X-58.076 Y-15.196
X-58.112 Y-15.181
X-58.152 Y-15.182
X-58.188 Y-15.198
X-58.214 Y-15.227
X-58.228 Y-15.263
X-58.277 Y-15.554
Y-15.581
X-58.271 Y-15.606
X-58.258 Y-15.63
X-58.211 Y-15.689
X-58.19 Y-15.71
X-58.16 Y-15.732
X-58.088 Y-15.752
X-57.974 Y-15.699
X-57.902 Y-15.596
X-57.894 Y-15.47
X-57.951 Y-15.358
X-57.983 Y-15.336
X-58.021 Y-15.328
X-58.059 Y-15.335
X-58.092 Y-15.356
X-58.114 Y-15.387
X-58.209 Y-15.601
X-58.217 Y-15.639
X-58.211 Y-15.677
X-58.19 Y-15.71
X-58.117 Y-15.771
X-58.087 Y-15.793
X-58.016 Y-15.817
X-57.9 Y-15.762
X-57.831 Y-15.654
X-57.83 Y-15.526
X-57.896 Y-15.417
X-57.928 Y-15.398
X-57.965 Y-15.392
X-58.001 Y-15.4
X-58.032 Y-15.421
X-58.053 Y-15.452
X-58.142 Y-15.656
X-58.15 Y-15.687
X-58.148 Y-15.718
X-58.137 Y-15.747
X-58.117 Y-15.771
X-58.028 Y-15.845
X-57.998 Y-15.867
X-57.924 Y-15.882
X-57.817 Y-15.818
X-57.757 Y-15.71
X-57.761 Y-15.586
X-57.827 Y-15.48
X-57.896 Y-15.417
X-57.928 Y-15.398
X-57.966 Y-15.392
X-58.003 Y-15.401
X-58.034 Y-15.423
X-58.054 Y-15.455
X-58.061 Y-15.492
Y-15.77
X-58.057 Y-15.798
X-58.046 Y-15.824
X-58.028 Y-15.845
X-57.95 Y-15.91
X-57.92 Y-15.932
X-57.846 Y-15.945
X-57.742 Y-15.881
X-57.684 Y-15.772
X-57.689 Y-15.65
X-57.754 Y-15.546
X-57.827 Y-15.48
X-57.86 Y-15.462
X-57.898 Y-15.456
X-57.935 Y-15.466
X-57.966 Y-15.489
X-57.985 Y-15.521
X-57.992 Y-15.559
X-57.984 Y-15.838
X-57.979 Y-15.865
X-57.968 Y-15.889
X-57.95 Y-15.91
X-57.867 Y-15.979
X-57.837 Y-16.002
X-57.762 Y-16.009
X-57.657 Y-15.935
X-57.605 Y-15.818
X-57.622 Y-15.69
X-57.703 Y-15.59
X-57.739 Y-15.575
X-57.778 Y-15.576
X-57.814 Y-15.591
X-57.842 Y-15.619
X-57.856 Y-15.656
X-57.899 Y-15.887
Y-15.921
X-57.888 Y-15.953
X-57.867 Y-15.979
X-57.804 Y-16.031
X-57.777 Y-16.051
X-57.704 Y-16.068
X-57.631 Y-16.052
X-57.548 Y-15.969
X-57.515 Y-15.856
X-57.54 Y-15.741
X-57.616 Y-15.651
X-57.703 Y-15.59
X-57.737 Y-15.576
X-57.774 Y-15.575
X-57.808 Y-15.587
X-57.836 Y-15.612
X-57.853 Y-15.644
X-57.858 Y-15.681
X-57.837 Y-15.964
X-57.827 Y-16.001
X-57.804 Y-16.031
X-57.768 Y-16.061
X-57.749 Y-16.072
X-57.673 Y-16.099
X-57.601 Y-16.12
X-57.528 Y-16.103
X-57.454 Y-16.018
X-57.426 Y-15.909
X-57.453 Y-15.799
X-57.527 Y-15.714
X-57.616 Y-15.651
X-57.651 Y-15.637
X-57.689
X-57.724 Y-15.65
X-57.752 Y-15.676
X-57.768 Y-15.71
X-57.77 Y-15.748
X-57.736 Y-16.018
X-57.726 Y-16.052
X-57.704 Y-16.08
X-57.673 Y-16.099
X-57.551 Y-16.141
X-57.515 Y-16.152
X-57.44 Y-16.142
X-57.366 Y-16.06
X-57.341 Y-15.952
X-57.371 Y-15.846
X-57.449 Y-15.767
X-57.48 Y-15.756
X-57.512 Y-15.757
G3 X-57.551 Y-16.141 I0.034 J-0.198
G1 X-57.466 Y-16.171
X-57.43 Y-16.181
X-57.355 Y-16.176
X-57.283 Y-16.098
X-57.259 Y-15.995
X-57.288 Y-15.892
X-57.364 Y-15.818
X-57.449 Y-15.767
X-57.487 Y-15.755
X-57.526 Y-15.759
X-57.56 Y-15.777
X-57.585 Y-15.807
X-57.597 Y-15.845
X-57.593 Y-15.884
X-57.526 Y-16.107
X-57.513 Y-16.134
X-57.492 Y-16.156
X-57.466 Y-16.171
X-57.335 Y-16.216
X-57.299 Y-16.227
X-57.23 Y-16.196
X-57.175 Y-16.109
X-57.169 Y-16.005
X-57.215 Y-15.912
X-57.299 Y-15.853
X-57.326 Y-15.848
X-57.353 Y-15.852
X-57.378 Y-15.864
G3 X-57.335 Y-16.216 I0.116 J-0.165
G1 X-57.269 Y-16.24
X-57.232 Y-16.25
X-57.158 Y-16.237
X-57.093 Y-16.148
X-57.083 Y-16.039
X-57.13 Y-15.94
X-57.221 Y-15.879
X-57.299 Y-15.853
X-57.331 Y-15.848
X-57.362 Y-15.855
X-57.388 Y-15.873
X-57.407 Y-15.899
G3 X-57.269 Y-16.24 I0.229 J-0.105
G1 X-57.212 Y-16.258
X-57.166 Y-16.265
X-57.128 Y-16.269
X-57.056 Y-16.25
X-57 Y-16.16
X-56.996 Y-16.055
X-57.046 Y-15.961
X-57.136 Y-15.905
X-57.221 Y-15.879
X-57.252 Y-15.875
X-57.282 Y-15.882
X-57.309 Y-15.899
X-57.328 Y-15.924
G3 X-57.166 Y-16.265 I0.205 J-0.112
G1 X-57.043 Y-16.283
X-57.006 Y-16.286
X-56.94 Y-16.251
X-56.898 Y-16.16
X-56.905 Y-16.063
X-56.958 Y-15.98
X-57.043 Y-15.932
X-57.136 Y-15.905
X-57.171 Y-15.903
X-57.204 Y-15.914
X-57.23 Y-15.937
X-57.245 Y-15.969
G3 X-57.043 Y-16.283 I0.246 J-0.064
G1 X-56.959 Y-16.294
X-56.921 Y-16.298
X-56.852 Y-16.269
X-56.847 Y-16.263
X-56.806 Y-16.175
X-56.814 Y-16.077
X-56.87 Y-15.997
X-56.959 Y-15.955
X-57.043 Y-15.932
X-57.075 Y-15.931
X-57.105 Y-15.941
X-57.129 Y-15.962
X-57.144 Y-15.99
G3 X-56.959 Y-16.294 I0.226 J-0.071
G1 X-56.874 Y-16.306
X-56.837 Y-16.309
X-56.801 Y-16.297
X-56.738 Y-16.257
X-56.71 Y-16.168
X-56.727 Y-16.077
X-56.787 Y-16.005
X-56.873 Y-15.971
X-56.894 Y-15.972
X-56.914 Y-15.978
G3 X-56.874 Y-16.306 I0.069 J-0.158
G1 X-56.743 Y-16.324
X-56.706 Y-16.327
X-56.644 Y-16.285
X-56.614 Y-16.191
X-56.633 Y-16.094
X-56.696 Y-16.018
X-56.788 Y-15.982
X-56.873 Y-15.971
X-56.905 Y-15.974
X-56.933 Y-15.99
X-56.953 Y-16.016
X-56.962 Y-16.047
G3 X-56.743 Y-16.324 I0.264 J-0.016
G1 X-56.649 Y-16.337
X-56.618 Y-16.34
X-56.553 Y-16.301
X-56.522 Y-16.206
X-56.54 Y-16.108
X-56.604 Y-16.031
X-56.697 Y-15.994
X-56.788 Y-15.982
X-56.821 Y-15.986
X-56.85 Y-16.002
X-56.87 Y-16.029
X-56.877 Y-16.062
G3 X-56.649 Y-16.337 I0.275 J-0.004
G1 X-56.578 Y-16.347
X-56.557 Y-16.349
X-56.536
X-56.499 Y-16.344
X-56.442 Y-16.295
X-56.421 Y-16.199
X-56.448 Y-16.104
X-56.516 Y-16.033
X-56.609 Y-16.002
X-56.697 Y-15.994
X-56.732 Y-15.998
X-56.763 Y-16.016
X-56.784 Y-16.045
X-56.791 Y-16.08
G3 X-56.536 Y-16.349 I0.269
G1 X-56.451 Y-16.342
X-56.414 Y-16.337
X-56.352 Y-16.295
X-56.349 Y-16.29
X-56.328 Y-16.19
X-56.359 Y-16.094
X-56.436 Y-16.027
X-56.536 Y-16.008
X-56.609 Y-16.002
X-56.641 Y-16.007
X-56.669 Y-16.024
X-56.689 Y-16.049
X-56.699 Y-16.08
G3 X-56.451 Y-16.342 I0.237 J-0.024
G1 X-56.367 Y-16.335
X-56.329 Y-16.331
X-56.265 Y-16.292
X-56.24 Y-16.191
X-56.271 Y-16.091
X-56.349 Y-16.021
X-56.452 Y-16.001
X-56.536 Y-16.008
X-56.563 Y-16.016
X-56.587 Y-16.033
X-56.603 Y-16.057
X-56.61 Y-16.085
G3 X-56.367 Y-16.335 I0.233 J-0.018
G1 X-56.236 Y-16.325
X-56.198 Y-16.32
X-56.15 Y-16.263
X-56.142 Y-16.159
X-56.186 Y-16.065
X-56.27 Y-16.004
X-56.374 Y-15.992
X-56.452 Y-16.001
X-56.485 Y-16.012
X-56.51 Y-16.035
X-56.524 Y-16.067
Y-16.101
G3 X-56.236 Y-16.325 I0.276 J0.058
G1 X-56.151 Y-16.318
X-56.121 Y-16.314
X-56.064 Y-16.266
X-56.049 Y-16.158
X-56.09 Y-16.058
X-56.177 Y-15.992
X-56.285 Y-15.979
X-56.374 Y-15.992
X-56.405 Y-16.005
X-56.429 Y-16.028
X-56.442 Y-16.059
Y-16.092
G3 X-56.151 Y-16.318 I0.278 J0.058
G1 X-56.113 Y-16.315
X-56.066 Y-16.308
X-56.03 Y-16.3
X-55.972 Y-16.253
X-55.958 Y-16.143
X-56.001 Y-16.043
X-56.089 Y-15.978
X-56.197 Y-15.967
X-56.285 Y-15.979
X-56.315 Y-15.991
X-56.339 Y-16.013
X-56.354 Y-16.042
X-56.357 Y-16.075
G3 X-56.066 Y-16.308 I0.26 J0.026
G1 X-56.028 Y-16.302
X-55.982 Y-16.294
X-55.945 Y-16.285
X-55.885 Y-16.24
X-55.855 Y-16.171
X-55.868 Y-16.072
X-55.926 Y-15.992
X-56.014 Y-15.949
X-56.113 Y-15.953
X-56.197 Y-15.967
X-56.227 Y-15.978
X-56.25 Y-15.999
X-56.265 Y-16.027
X-56.269 Y-16.058
G3 X-55.982 Y-16.294 I0.25 J0.012
G1 X-55.859 Y-16.271
X-55.823 Y-16.262
X-55.772 Y-16.206
X-55.744 Y-16.137
X-55.765 Y-16.039
X-55.828 Y-15.961
X-55.92 Y-15.92
X-56.02 Y-15.925
X-56.113 Y-15.953
X-56.146 Y-15.971
X-56.169 Y-16.001
X-56.18 Y-16.037
X-56.177 Y-16.075
X-56.161 Y-16.108
X-56.132 Y-16.133
X-55.925 Y-16.258
X-55.893 Y-16.27
X-55.859 Y-16.271
X-55.775 Y-16.254
X-55.739 Y-16.243
X-55.707 Y-16.223
X-55.66 Y-16.164
X-55.638 Y-16.093
X-55.664 Y-15.999
X-55.728 Y-15.925
X-55.818 Y-15.888
X-55.915 Y-15.894
X-56.02 Y-15.925
X-56.052 Y-15.943
X-56.075 Y-15.971
X-56.087 Y-16.006
X-56.085 Y-16.043
X-56.07 Y-16.076
X-56.044 Y-16.102
X-55.848 Y-16.238
X-55.813 Y-16.253
X-55.775 Y-16.254
X-55.644 Y-16.222
X-55.608 Y-16.211
X-55.555 Y-16.158
X-55.528 Y-16.088
X-55.552 Y-15.98
X-55.625 Y-15.896
X-55.728 Y-15.856
X-55.838 Y-15.869
X-55.869 Y-15.89
X-55.891 Y-15.92
X-55.899 Y-15.956
X-55.894 Y-15.993
X-55.876 Y-16.026
X-55.74 Y-16.188
X-55.713 Y-16.211
X-55.679 Y-16.223
X-55.644 Y-16.222
X-55.559 Y-16.202
X-55.517 Y-16.189
X-55.456 Y-16.146
X-55.424 Y-16.078
X-55.449 Y-15.949
X-55.538 Y-15.852
X-55.664 Y-15.815
X-55.791 Y-15.85
X-55.816 Y-15.873
X-55.832 Y-15.904
X-55.836 Y-15.939
X-55.829 Y-15.972
X-55.81 Y-16.002
X-55.652 Y-16.172
X-55.625 Y-16.192
X-55.593 Y-16.203
X-55.559 Y-16.202
X-55.521 Y-16.192
X-55.485 Y-16.182
X-55.436 Y-16.155
X-55.411 Y-16.14
X-55.379 Y-16.119
X-55.338 Y-16.057
X-55.323 Y-15.983
X-55.369 Y-15.865
X-55.465 Y-15.784
X-55.59 Y-15.76
X-55.71 Y-15.799
X-55.791 Y-15.85
X-55.817 Y-15.874
X-55.833 Y-15.906
X-55.836 Y-15.942
X-55.827 Y-15.977
X-55.806 Y-16.006
X-55.776 Y-16.026
X-55.498 Y-16.144
X-55.469 Y-16.152
X-55.439 Y-16.15
X-55.411 Y-16.14
X-55.307 Y-16.079
X-55.275 Y-16.058
X-55.238 Y-15.993
X-55.225 Y-15.919
X-55.276 Y-15.803
X-55.376 Y-15.725
X-55.501 Y-15.703
X-55.621 Y-15.743
X-55.71 Y-15.799
X-55.736 Y-15.824
X-55.751 Y-15.858
X-55.753 Y-15.894
X-55.742 Y-15.928
X-55.719 Y-15.957
X-55.688 Y-15.975
X-55.389 Y-16.085
X-55.361 Y-16.091
X-55.333 Y-16.088
X-55.307 Y-16.079
X-55.221 Y-16.028
X-55.189 Y-16.007
X-55.142 Y-15.949
X-55.126 Y-15.876
X-55.176 Y-15.751
X-55.28 Y-15.667
X-55.412 Y-15.644
X-55.539 Y-15.688
X-55.621 Y-15.743
X-55.647 Y-15.768
X-55.662 Y-15.801
X-55.664 Y-15.837
X-55.654 Y-15.871
X-55.632 Y-15.9
X-55.601 Y-15.919
X-55.304 Y-16.033
X-55.276 Y-16.04
X-55.248 Y-16.038
X-55.221 Y-16.028
X-55.098 Y-15.956
X-55.069 Y-15.937
X-55.038 Y-15.868
X-55.03 Y-15.794
X-55.094 Y-15.669
X-55.211 Y-15.592
X-55.351 Y-15.583
X-55.478 Y-15.643
X-55.5 Y-15.673
X-55.51 Y-15.709
X-55.506 Y-15.746
X-55.489 Y-15.779
X-55.46 Y-15.804
X-55.195 Y-15.955
X-55.164 Y-15.966
X-55.13
X-55.098 Y-15.956
X-55.064 Y-15.936
X-55.03 Y-15.91
X-54.989 Y-15.874
X-54.962 Y-15.848
X-54.94 Y-15.777
X-54.939 Y-15.702
X-55.014 Y-15.583
X-55.136 Y-15.514
X-55.277 Y-15.512
X-55.401 Y-15.577
X-55.459 Y-15.627
X-55.478 Y-15.643
X-55.5 Y-15.672
X-55.51 Y-15.706
X-55.507 Y-15.742
X-55.492 Y-15.775
X-55.466 Y-15.8
X-55.432 Y-15.815
X-55.074 Y-15.894
X-55.044 Y-15.896
X-55.015 Y-15.889
X-54.989 Y-15.874
X-54.903 Y-15.799
X-54.876 Y-15.773
X-54.851 Y-15.703
X-54.849 Y-15.628
X-54.928 Y-15.504
X-55.057 Y-15.434
X-55.204 Y-15.436
X-55.331 Y-15.509
X-55.401 Y-15.577
X-55.422 Y-15.606
X-55.432 Y-15.641
X-55.428 Y-15.677
X-55.412 Y-15.709
X-55.385 Y-15.734
X-55.352 Y-15.747
X-54.986 Y-15.82
X-54.957 Y-15.821
X-54.928 Y-15.814
X-54.903 Y-15.799
X-54.813 Y-15.72
X-54.786 Y-15.694
X-54.762 Y-15.623
Y-15.548
X-54.821 Y-15.445
X-54.917 Y-15.373
X-55.033 Y-15.345
X-55.151 Y-15.365
X-55.252 Y-15.431
X-55.331 Y-15.509
X-55.351 Y-15.539
X-55.359 Y-15.574
X-55.354 Y-15.609
X-55.336 Y-15.641
X-55.309 Y-15.664
X-55.276 Y-15.676
X-54.893 Y-15.741
X-54.865 Y-15.742
X-54.838 Y-15.735
X-54.813 Y-15.72
X-54.74 Y-15.656
X-54.715 Y-15.632
X-54.675 Y-15.569
X-54.668 Y-15.494
X-54.669 Y-15.49
X-54.726 Y-15.372
X-54.827 Y-15.29
X-54.953 Y-15.258
X-55.082 Y-15.283
X-55.187 Y-15.361
X-55.224 Y-15.403
X-55.252 Y-15.431
X-55.271 Y-15.46
X-55.279 Y-15.494
X-55.274 Y-15.529
X-55.258 Y-15.56
X-55.232 Y-15.584
X-55.2 Y-15.597
X-54.824 Y-15.677
X-54.794 Y-15.678
X-54.765 Y-15.671
X-54.74 Y-15.656
X-54.66 Y-15.586
X-54.648 Y-15.572
X-54.632 Y-15.546
X-54.594 Y-15.481
X-54.586 Y-15.407
X-54.62 Y-15.261
X-54.721 Y-15.149
X-54.73 Y-15.145
X-54.838 Y-15.114
X-54.95 Y-15.126
X-55.05 Y-15.178
X-55.123 Y-15.263
X-55.156 Y-15.318
X-55.183 Y-15.356
X-55.187 Y-15.361
X-55.204 Y-15.391
X-55.209 Y-15.425
X-55.203 Y-15.459
X-55.185 Y-15.489
X-55.158 Y-15.511
X-55.126 Y-15.523
X-54.73 Y-15.588
X-54.693 Y-15.587
X-54.658 Y-15.572
X-54.632 Y-15.546
X-54.591 Y-15.483
X-54.541 Y-15.403
X-54.505 Y-15.337
X-54.497 Y-15.187
X-54.565 Y-15.054
X-54.596 Y-15.029
X-54.711 Y-14.975
X-54.838 Y-14.973
X-54.955 Y-15.024
X-55.04 Y-15.119
X-55.123 Y-15.263
X-55.135 Y-15.3
X-55.131 Y-15.339
X-55.112 Y-15.374
X-55.082 Y-15.398
X-55.044 Y-15.409
X-54.633 Y-15.447
X-54.598 Y-15.444
X-54.566 Y-15.428
X-54.541 Y-15.403
X-54.437 Y-15.234
X-54.401 Y-15.168
Y-15.093
X-54.446 Y-14.95
X-54.488 Y-14.907
X-54.61 Y-14.831
X-54.753 Y-14.821
X-54.885 Y-14.878
X-54.975 Y-14.99
X-55.01 Y-15.065
X-55.04 Y-15.119
X-55.05 Y-15.15
Y-15.184
X-55.038 Y-15.215
X-55.016 Y-15.241
X-54.988 Y-15.258
X-54.955 Y-15.265
X-54.524 Y-15.279
X-54.49 Y-15.274
X-54.46 Y-15.259
X-54.437 Y-15.234
X-54.386 Y-15.15
X-54.346 Y-15.065
X-54.318 Y-14.995
X-54.336 Y-14.847
X-54.425 Y-14.726
X-54.555 Y-14.65
X-54.57 Y-14.647
X-54.702 Y-14.652
X-54.82 Y-14.714
X-54.899 Y-14.82
X-54.975 Y-14.99
X-54.983 Y-15.029
X-54.975 Y-15.068
X-54.953 Y-15.1
X-54.919 Y-15.122
X-54.88 Y-15.129
X-54.432 Y-15.119
X-54.397 Y-15.112
X-54.367 Y-15.093
X-54.346 Y-15.065
X-54.268 Y-14.896
X-54.24 Y-14.827
X-54.259 Y-14.678
X-54.346 Y-14.556
X-54.475 Y-14.479
X-54.489 Y-14.476
X-54.629 Y-14.478
X-54.752 Y-14.544
X-54.833 Y-14.659
X-54.86 Y-14.727
X-54.899 Y-14.82
X-54.906 Y-14.859
X-54.898 Y-14.897
X-54.876 Y-14.929
X-54.843 Y-14.951
X-54.805 Y-14.958
X-54.355 Y-14.951
X-54.32 Y-14.944
X-54.289 Y-14.925
X-54.268 Y-14.896
X-54.19 Y-14.727
X-54.174 Y-14.654
X-54.181 Y-14.579
X-54.238 Y-14.44
X-54.346 Y-14.337
X-54.486 Y-14.282
X-54.504
X-54.636 Y-14.312
X-54.742 Y-14.397
X-54.799 Y-14.521
X-54.818 Y-14.605
X-54.827 Y-14.643
X-54.833 Y-14.659
X-54.838 Y-14.697
X-54.829 Y-14.734
X-54.807 Y-14.765
X-54.774 Y-14.785
X-54.736 Y-14.792
X-54.277 Y-14.782
X-54.242 Y-14.775
X-54.211 Y-14.756
X-54.19 Y-14.727
X-54.167 Y-14.643
X-54.138 Y-14.512
X-54.126 Y-14.438
X-54.159 Y-14.292
X-54.258 Y-14.178
X-54.39 Y-14.108
X-54.429 Y-14.102
X-54.544 Y-14.108
X-54.647 Y-14.156
X-54.726 Y-14.24
X-54.767 Y-14.346
X-54.79 Y-14.474
X-54.799 Y-14.521
Y-14.558
X-54.785 Y-14.592
X-54.76 Y-14.619
X-54.727 Y-14.635
X-54.69 Y-14.637
X-54.224 Y-14.586
X-54.195 Y-14.578
X-54.17 Y-14.562
X-54.15 Y-14.539
X-54.138 Y-14.512
X-54.092 Y-14.305
X-54.085 Y-14.257
X-54.111 Y-14.109
X-54.206 Y-13.993
X-54.34 Y-13.925
X-54.488 Y-13.902
X-54.491 Y-13.903
X-54.614 Y-13.952
X-54.705 Y-14.05
X-54.743 Y-14.178
X-54.739 Y-14.212
X-54.722 Y-14.243
X-54.697 Y-14.266
X-54.665 Y-14.279
X-54.21 Y-14.378
X-54.172
X-54.137 Y-14.365
X-54.109 Y-14.339
X-54.092 Y-14.305
X-54.083 Y-14.261
X-54.064 Y-14.089
X-54.059 Y-14.015
X-54.115 Y-13.875
X-54.227 Y-13.776
X-54.364 Y-13.715
X-54.416 Y-13.713
X-54.531 Y-13.729
X-54.63 Y-13.788
X-54.7 Y-13.88
X-54.73 Y-13.992
X-54.746 Y-14.22
X-54.76 Y-14.306
X-54.767 Y-14.346
X-54.765 Y-14.383
X-54.75 Y-14.417
X-54.724 Y-14.443
X-54.691 Y-14.458
X-54.654 Y-14.459
X-54.619 Y-14.448
X-54.114 Y-14.162
X-54.09 Y-14.143
X-54.073 Y-14.118
X-54.064 Y-14.089
X-54.05 Y-13.967
X-54.042 Y-13.883
X-54.039 Y-13.808
X-54.102 Y-13.671
X-54.214 Y-13.572
X-54.356 Y-13.522
X-54.506 Y-13.52
X-54.513 Y-13.522
X-54.627 Y-13.583
X-54.704 Y-13.687
X-54.73 Y-13.814
X-54.723 Y-13.848
X-54.704 Y-13.877
X-54.676 Y-13.898
X-54.643 Y-13.908
X-54.154 Y-13.969
X-54.115 Y-13.966
X-54.08 Y-13.949
X-54.055 Y-13.919
X-54.042 Y-13.883
X-54.027 Y-13.714
X-54.046 Y-13.565
X-54.128 Y-13.439
X-54.253 Y-13.357
X-54.397 Y-13.315
X-54.547 Y-13.325
X-54.55 Y-13.326
X-54.654 Y-13.396
X-54.72 Y-13.504
X-54.737 Y-13.628
X-54.728 Y-13.659
X-54.71 Y-13.686
X-54.684 Y-13.705
X-54.654 Y-13.716
X-54.142 Y-13.8
X-54.11
X-54.08 Y-13.79
X-54.054 Y-13.771
X-54.036 Y-13.744
X-54.027 Y-13.714
X-54.033 Y-13.629
X-54.049 Y-13.46
X-54.06 Y-13.386
X-54.127 Y-13.252
X-54.246 Y-13.161
X-54.389 Y-13.115
X-54.539 Y-13.119
X-54.55 Y-13.123
X-54.666 Y-13.194
X-54.738 Y-13.31
X-54.752 Y-13.445
X-54.75 Y-13.46
X-54.737 Y-13.629
X-54.732 Y-13.714
X-54.729 Y-13.967
X-54.73 Y-13.992
X-54.726 Y-14.026
X-54.709 Y-14.057
X-54.684 Y-14.08
X-54.652 Y-14.093
X-54.617 Y-14.094
X-54.584 Y-14.084
X-54.557 Y-14.062
X-54.55 Y-14.055
X-54.074 Y-13.533
X-54.054 Y-13.499
X-54.049 Y-13.46
X-54.057 Y-13.376
X-54.083 Y-13.207
X-54.097 Y-13.133
X-54.188 Y-13.013
X-54.319 Y-12.941
X-54.466 Y-12.912
X-54.615 Y-12.934
X-54.626 Y-12.94
X-54.724 Y-13.021
X-54.78 Y-13.135
X-54.783 Y-13.262
X-54.76 Y-13.386
X-54.752 Y-13.445
X-54.74 Y-13.479
X-54.716 Y-13.507
X-54.684 Y-13.524
X-54.648 Y-13.529
X-54.613 Y-13.52
X-54.141 Y-13.309
X-54.115 Y-13.292
X-54.095 Y-13.268
X-54.084 Y-13.238
X-54.083 Y-13.207
X-54.095 Y-13.122
X-54.113 Y-13.038
X-54.124 Y-12.991
X-54.145 Y-12.919
X-54.24 Y-12.804
X-54.375 Y-12.737
X-54.523 Y-12.714
X-54.67 Y-12.744
X-54.674 Y-12.747
X-54.773 Y-12.834
X-54.824 Y-12.955
X-54.819 Y-13.086
X-54.81 Y-13.122
X-54.783 Y-13.262
X-54.769 Y-13.295
X-54.744 Y-13.321
X-54.712 Y-13.337
X-54.676 Y-13.34
X-54.641 Y-13.33
X-54.178 Y-13.1
X-54.151 Y-13.081
X-54.133 Y-13.055
X-54.123 Y-13.024
X-54.124 Y-12.991
X-54.168 Y-12.804
X-54.174 Y-12.784
X-54.246 Y-12.653
X-54.365 Y-12.562
X-54.51 Y-12.523
X-54.66 Y-12.532
X-54.705 Y-12.55
X-54.806 Y-12.617
X-54.872 Y-12.717
X-54.894 Y-12.835
X-54.868 Y-12.952
X-54.849 Y-12.978
X-54.822 Y-12.997
X-54.791 Y-13.007
X-54.759 Y-13.006
X-54.252 Y-12.909
X-54.221 Y-12.897
X-54.195 Y-12.877
X-54.178 Y-12.849
X-54.171 Y-12.817
X-54.174 Y-12.784
X-54.215 Y-12.7
X-54.301 Y-12.531
X-54.341 Y-12.467
X-54.459 Y-12.374
X-54.604 Y-12.339
X-54.753 Y-12.359
X-54.809 Y-12.387
X-54.901 Y-12.458
X-54.959 Y-12.559
X-54.974 Y-12.675
X-54.945 Y-12.787
X-54.905 Y-12.869
X-54.844 Y-13.004
X-54.832 Y-13.038
X-54.819 Y-13.086
X-54.802 Y-13.119
X-54.774 Y-13.143
X-54.739 Y-13.156
X-54.702 Y-13.155
X-54.668 Y-13.14
X-54.641 Y-13.114
X-54.309 Y-12.63
X-54.295 Y-12.599
X-54.292 Y-12.564
X-54.301 Y-12.531
X-54.337 Y-12.466
X-54.422 Y-12.334
X-54.465 Y-12.273
X-54.59 Y-12.19
X-54.739 Y-12.171
X-54.828 Y-12.192
X-54.947 Y-12.251
X-55.03 Y-12.356
X-55.058 Y-12.486
X-55.028 Y-12.616
X-55.005 Y-12.644
X-54.973 Y-12.663
X-54.937 Y-12.669
X-54.901 Y-12.661
X-54.468 Y-12.477
X-54.44 Y-12.458
X-54.419 Y-12.431
X-54.409 Y-12.399
X-54.41 Y-12.365
X-54.422 Y-12.334
X-54.457 Y-12.278
X-54.514 Y-12.193
X-54.532 Y-12.168
X-54.579 Y-12.109
X-54.64 Y-12.066
X-54.781 Y-12.016
X-54.931 Y-12.029
X-55.065 Y-12.096
X-55.078 Y-12.11
X-55.147 Y-12.224
X-55.16 Y-12.357
X-55.114 Y-12.482
X-55.089 Y-12.506
X-55.057 Y-12.521
X-55.022 Y-12.524
X-54.988 Y-12.514
X-54.572 Y-12.313
X-54.544 Y-12.293
X-54.524 Y-12.266
X-54.516 Y-12.233
X-54.518 Y-12.199
X-54.532 Y-12.168
X-54.643 Y-12.014
X-54.675 Y-11.983
X-54.705 Y-11.959
X-54.765 Y-11.915
X-54.906 Y-11.863
X-55.055 Y-11.878
X-55.186 Y-11.952
X-55.191 Y-11.957
X-55.258 Y-12.077
X-55.264 Y-12.215
X-55.208 Y-12.341
X-55.179 Y-12.364
X-55.145 Y-12.376
X-55.108 Y-12.375
X-55.074 Y-12.36
X-54.715 Y-12.118
X-54.689 Y-12.092
X-54.673 Y-12.059
X-54.671 Y-12.023
X-54.682 Y-11.988
X-54.705 Y-11.959
X-54.87 Y-11.825
X-54.902 Y-11.8
X-54.929 Y-11.779
X-54.994 Y-11.741
X-55.144 Y-11.735
X-55.28 Y-11.797
X-55.296 Y-11.812
X-55.363 Y-11.913
X-55.385 Y-12.032
X-55.359 Y-12.15
X-55.288 Y-12.248
X-55.26 Y-12.265
X-55.227 Y-12.272
X-55.195 Y-12.268
X-55.165 Y-12.253
X-55.142 Y-12.23
X-54.913 Y-11.914
X-54.897 Y-11.88
X-54.894 Y-11.843
X-54.906 Y-11.808
X-54.929 Y-11.779
X-55.071 Y-11.686
X-55.136 Y-11.649
X-55.21 Y-11.637
X-55.358 Y-11.66
X-55.478 Y-11.751
X-55.52 Y-11.883
X-55.498 Y-12.02
X-55.418 Y-12.132
X-55.383 Y-12.151
X-55.344 Y-12.154
X-55.306 Y-12.142
X-55.276 Y-12.117
X-55.05 Y-11.83
X-55.034 Y-11.802
X-55.028 Y-11.77
X-55.033 Y-11.738
X-55.048 Y-11.709
X-55.071 Y-11.686
X-55.183 Y-11.615
X-55.239 Y-11.582
X-55.306 Y-11.548
X-55.381 Y-11.546
X-55.455 Y-11.561
X-55.565 Y-11.659
X-55.615 Y-11.798
X-55.593 Y-11.943
X-55.505 Y-12.061
X-55.473 Y-12.076
X-55.438 Y-12.08
X-55.404 Y-12.072
X-55.375 Y-12.053
X-55.355 Y-12.024
X-55.203 Y-11.711
X-55.193 Y-11.676
X-55.197 Y-11.639
X-55.213 Y-11.607
X-55.239 Y-11.582
X-55.352 Y-11.519
X-55.356 Y-11.517
X-55.436 Y-11.495
X-55.51 Y-11.48
X-55.581 Y-11.502
X-55.585 Y-11.505
X-55.681 Y-11.611
X-55.717 Y-11.75
X-55.684 Y-11.89
X-55.59 Y-11.998
X-55.554 Y-12.012
X-55.515
X-55.48 Y-11.997
X-55.452 Y-11.97
X-55.437 Y-11.935
X-55.369 Y-11.611
X-55.368 Y-11.574
X-55.38 Y-11.54
X-55.404 Y-11.512
X-55.436 Y-11.495
X-55.521 Y-11.473
X-55.567 Y-11.462
X-55.604 Y-11.455
X-55.679 Y-11.464
X-55.808 Y-11.54
X-55.843 Y-11.644
X-55.836 Y-11.754
X-55.788 Y-11.853
X-55.707 Y-11.926
X-55.672 Y-11.938
X-55.635 Y-11.936
X-55.602 Y-11.921
X-55.576 Y-11.895
X-55.561 Y-11.861
X-55.497 Y-11.58
X-55.495 Y-11.542
X-55.508 Y-11.507
X-55.533 Y-11.478
X-55.567 Y-11.462
X-55.737 Y-11.421
X-55.782 Y-11.412
X-55.853 Y-11.438
X-55.912 Y-11.484
X-55.953 Y-11.58
X-55.952 Y-11.684
X-55.91 Y-11.78
X-55.833 Y-11.85
X-55.795 Y-11.862
X-55.756 Y-11.859
X-55.721 Y-11.84
X-55.696 Y-11.809
X-55.685 Y-11.772
X-55.664 Y-11.526
X-55.667 Y-11.492
X-55.681 Y-11.46
X-55.705 Y-11.436
X-55.737 Y-11.421
X-55.775 Y-11.412
X-55.859 Y-11.399
X-55.897 Y-11.397
X-55.968 Y-11.419
X-56.027 Y-11.466
X-56.065 Y-11.564
X-56.055 Y-11.669
X-55.999 Y-11.759
X-55.91 Y-11.815
X-55.873 Y-11.819
X-55.838 Y-11.81
X-55.808 Y-11.788
X-55.788 Y-11.757
X-55.781 Y-11.721
X-55.777 Y-11.499
X-55.783 Y-11.465
X-55.8 Y-11.434
X-55.827 Y-11.411
X-55.859 Y-11.399
X-55.99 Y-11.385
X-56.028 Y-11.383
X-56.097 Y-11.412
X-56.156 Y-11.511
X-56.157 Y-11.626
X-56.101 Y-11.727
X-56.003 Y-11.786
X-55.964 Y-11.788
X-55.928 Y-11.776
X-55.899 Y-11.75
X-55.882 Y-11.715
X-55.879 Y-11.677
X-55.905 Y-11.472
X-55.914 Y-11.441
X-55.933 Y-11.414
X-55.959 Y-11.395
X-55.99 Y-11.385
X-56.113 Y-11.374
X-56.15 Y-11.375
X-56.216 Y-11.411
X-56.259 Y-11.508
X-56.252 Y-11.613
X-56.197 Y-11.703
X-56.106 Y-11.756
X-56.068 Y-11.758
X-56.033 Y-11.745
G3 X-56.113 Y-11.374 I-0.105 J0.172
G1 X-56.197 Y-11.372
X-56.235 Y-11.373
X-56.305 Y-11.4
X-56.351 Y-11.497
X-56.342 Y-11.603
X-56.282 Y-11.692
X-56.186 Y-11.739
X-56.16 Y-11.74
X-56.135 Y-11.733
G3 X-56.197 Y-11.372 I-0.074 J0.174
G1 X-56.329 Y-11.368
X-56.368 Y-11.369
X-56.426 Y-11.416
X-56.454 Y-11.509
X-56.436 Y-11.604
X-56.376 Y-11.68
X-56.288 Y-11.72
X-56.251 Y-11.718
X-56.218 Y-11.701
G3 X-56.329 Y-11.368 I-0.122 J0.144
G1 X-56.367 Y-11.367
X-56.413 Y-11.371
X-56.45 Y-11.375
X-56.516 Y-11.412
X-56.544 Y-11.502
X-56.527 Y-11.594
X-56.468 Y-11.667
X-56.381 Y-11.703
X-56.359
X-56.337 Y-11.697
G3 X-56.413 Y-11.371 I-0.07 J0.156
G1 X-56.451 Y-11.373
X-56.536 Y-11.382
X-56.573 Y-11.389
X-56.626 Y-11.441
X-56.636 Y-11.549
X-56.582 Y-11.643
X-56.483 Y-11.689
X-56.456 Y-11.686
X-56.431 Y-11.675
G3 X-56.536 Y-11.382 I-0.094 J0.131
G1 X-56.62 Y-11.393
X-56.656 Y-11.403
X-56.714 Y-11.451
X-56.719 Y-11.557
X-56.661 Y-11.645
X-56.562 Y-11.681
X-56.54 Y-11.678
X-56.52 Y-11.668
G3 X-56.62 Y-11.393 I-0.086 J0.125
G1 X-56.705 Y-11.413
X-56.743 Y-11.424
X-56.779 Y-11.436
X-56.819 Y-11.5
X-56.802 Y-11.592
X-56.737 Y-11.661
X-56.644 Y-11.681
X-56.62 Y-11.674
X-56.601 Y-11.658
G3 X-56.743 Y-11.424 I-0.107 J0.095
G1 X-56.836 Y-11.451
X-56.874 Y-11.462
X-56.921 Y-11.475
X-56.967 Y-11.492
X-56.932 Y-11.598
X-56.846 Y-11.67
X-56.736 Y-11.689
X-56.71 Y-11.679
X-56.691 Y-11.66
X-56.682 Y-11.634
X-56.684 Y-11.607
G3 X-56.921 Y-11.475 I-0.188 J-0.059
G1 X-56.959 Y-11.486
X-56.995 Y-11.499
X-57.013 Y-11.507
X-57.031 Y-11.517
X-57.043 Y-11.528
X-57.058 Y-11.546
X-57.067 Y-11.565
X-57.071 Y-11.583
X-57.072 Y-11.602
X-57.07 Y-11.619
X-57.065 Y-11.636
X-57.057 Y-11.652
X-57.043 Y-11.669
X-57.027 Y-11.686
X-57.01 Y-11.699
X-56.993 Y-11.707
X-56.976 Y-11.712
X-56.959 Y-11.713
X-56.789 Y-11.695
X-56.705 Y-11.686
X-56.62 Y-11.679
X-56.536 Y-11.682
X-56.451 Y-11.693
X-56.367 Y-11.705
X-56.151 Y-11.746
X-56.113 Y-11.754
X-55.944 Y-11.804
X-55.88 Y-11.826
X-55.859 Y-11.835
X-55.605 Y-11.987
X-55.521 Y-12.047
X-55.436 Y-12.116
X-55.347 Y-12.193
X-55.256 Y-12.278
X-55.191 Y-12.362
X-55.052 Y-12.578
X-55.028 Y-12.616
X-54.945 Y-12.787
X-54.92 Y-12.817
X-54.886 Y-12.836
X-54.847 Y-12.84
X-54.809 Y-12.828
X-54.776 Y-12.81 Z-0.982
X-54.747 Y-12.795 Z-0.961
X-54.728 Y-12.785 Z-0.928
X-54.721 Y-12.781 Z-0.89
G0 Z2
X-58.253 Y-12.382
Z-0.79
G1 Z-0.89 F1000
X-58.254 Y-12.374 Z-0.928
X-58.256 Y-12.353 Z-0.961
X-58.259 Y-12.32 Z-0.982
X-58.262 Y-12.282 Z-0.99
G3 X-58.396 Y-11.913 I-0.788 J-0.076
G1 X-58.439 Y-11.855
X-58.481 Y-11.774
X-58.515 Y-11.708
X-58.631 Y-11.612
X-58.777 Y-11.576
X-58.926 Y-11.585
X-58.946 Y-11.592
X-59.048 Y-11.652
X-59.118 Y-11.747
X-59.146 Y-11.862
X-59.154 Y-12.064
Y-12.096
X-59.148 Y-12.13
X-59.13 Y-12.16
X-59.103 Y-12.182
X-59.071 Y-12.194
X-59.036 Y-12.193
X-59.003 Y-12.181
X-58.523 Y-11.897
X-58.496 Y-11.874
X-58.479 Y-11.843
X-58.474 Y-11.809
X-58.481 Y-11.774
X-58.498 Y-11.729
X-58.51 Y-11.686
X-58.517 Y-11.64
X-58.531 Y-11.566
X-58.627 Y-11.451
X-58.765 Y-11.392
X-58.822 Y-11.389
X-58.937 Y-11.406
X-59.037 Y-11.464
X-59.107 Y-11.556
X-59.137 Y-11.668
X-59.143 Y-11.771
X-59.146 Y-11.862
X-59.141 Y-11.896
X-59.125 Y-11.925
X-59.099 Y-11.948
X-59.068 Y-11.96
X-59.035 Y-11.962
X-59.002 Y-11.953
X-58.572 Y-11.741
X-58.547 Y-11.723
X-58.528 Y-11.699
X-58.518 Y-11.67
X-58.517 Y-11.64
X-58.522 Y-11.602
X-58.521 Y-11.517
X-58.518 Y-11.471
Y-11.434
X-58.59 Y-11.302
X-58.717 Y-11.224
X-58.865 Y-11.197
X-58.873 Y-11.198
X-58.996 Y-11.248
X-59.085 Y-11.346
X-59.123 Y-11.473
X-59.137 Y-11.668
X-59.132 Y-11.702
X-59.116 Y-11.732
X-59.091 Y-11.755
X-59.06 Y-11.769
X-59.025 Y-11.771
X-58.992 Y-11.761
X-58.573 Y-11.551
X-58.546 Y-11.531
X-58.527 Y-11.503
X-58.518 Y-11.471
X-58.512 Y-11.387
X-58.509 Y-11.349
X-58.506 Y-11.274
X-58.535 Y-11.204
X-58.631 Y-11.089
X-58.765 Y-11.021
X-58.793 Y-11.02
X-58.906 Y-11.036
X-59.005 Y-11.092
X-59.075 Y-11.182
X-59.107 Y-11.291
X-59.121 Y-11.433
X-59.123 Y-11.473
X-59.117 Y-11.511
X-59.097 Y-11.544
X-59.067 Y-11.567
X-59.03 Y-11.577
X-58.992 Y-11.572
X-58.576 Y-11.431
X-58.543 Y-11.413
X-58.52 Y-11.384
X-58.509 Y-11.349
X-58.494 Y-11.18
X-58.49 Y-11.105
X-58.547 Y-10.966
X-58.663 Y-10.871
X-58.808 Y-10.831
X-58.819 Y-10.833
X-58.945 Y-10.874
X-59.04 Y-10.966
X-59.087 Y-11.091
X-59.097 Y-11.18
X-59.107 Y-11.291
X-59.102 Y-11.33
X-59.083 Y-11.363
X-59.053 Y-11.387
X-59.016 Y-11.397
X-58.977 Y-11.393
X-58.563 Y-11.26
X-58.53 Y-11.243
X-58.507 Y-11.215
X-58.494 Y-11.18
X-58.475 Y-11.011
X-58.47 Y-10.936
X-58.491 Y-10.864
X-58.577 Y-10.741
X-58.706 Y-10.664
X-58.732 Y-10.661
X-58.847 Y-10.67
X-58.95 Y-10.722
X-59.025 Y-10.809
X-59.063 Y-10.917
X-59.087 Y-11.091
X-59.083 Y-11.129
X-59.066 Y-11.163
X-59.037 Y-11.188
X-59.001 Y-11.2
X-58.962 Y-11.198
X-58.549 Y-11.092
X-58.514 Y-11.076
X-58.488 Y-11.047
X-58.475 Y-11.011
X-58.465 Y-10.926
X-58.454 Y-10.842
X-58.447 Y-10.767
X-58.491 Y-10.624
X-58.599 Y-10.521
X-58.742 Y-10.473
X-58.75 Y-10.474
X-58.879 Y-10.509
X-58.979 Y-10.598
X-59.031 Y-10.722
X-59.052 Y-10.842
X-59.063 Y-10.917
X-59.06 Y-10.955
X-59.042 Y-10.99
X-59.013 Y-11.015
X-58.977 Y-11.027
X-58.939 Y-11.025
X-58.528 Y-10.921
X-58.493 Y-10.905
X-58.468 Y-10.877
X-58.454 Y-10.842
X-58.422 Y-10.626
X-58.417 Y-10.589
X-58.436 Y-10.516
X-58.516 Y-10.39
X-58.643 Y-10.31
X-58.662 Y-10.307
X-58.809 Y-10.323
X-58.931 Y-10.407
X-58.997 Y-10.539
X-59.008 Y-10.588
X-59.031 Y-10.722
X-59.03 Y-10.755
X-59.018 Y-10.786
X-58.997 Y-10.812
X-58.968 Y-10.829
X-58.936 Y-10.835
X-58.903 Y-10.831
X-58.49 Y-10.703
X-58.458 Y-10.686
X-58.435 Y-10.66
X-58.422 Y-10.626
X-58.415 Y-10.588
X-58.398 Y-10.504
X-58.386 Y-10.43
X-58.42 Y-10.284
X-58.522 Y-10.174
X-58.663 Y-10.122
X-58.669 Y-10.123
X-58.796 Y-10.154
X-58.897 Y-10.236
X-58.953 Y-10.353
X-58.997 Y-10.539
Y-10.578
X-58.982 Y-10.613
X-58.954 Y-10.64
X-58.919 Y-10.655
X-58.88
X-58.476 Y-10.578
X-58.441 Y-10.564
X-58.413 Y-10.538
X-58.398 Y-10.504
X-58.362 Y-10.335
X-58.35 Y-10.289
X-58.343 Y-10.252
X-58.358 Y-10.178
X-58.433 Y-10.048
X-58.556 Y-9.963
X-58.565 Y-9.962
X-58.709 Y-9.972
X-58.831 Y-10.048
X-58.904 Y-10.172
X-58.927 Y-10.25
X-58.953 Y-10.353
X-58.954 Y-10.387
X-58.944 Y-10.419
X-58.924 Y-10.446
X-58.895 Y-10.464
X-58.863 Y-10.472
X-58.829 Y-10.469
X-58.42 Y-10.357
X-58.389 Y-10.343
X-58.365 Y-10.319
X-58.35 Y-10.289
X-58.319 Y-10.166
X-58.304 Y-10.093
X-58.319 Y-10.019
X-58.35 Y-9.951
X-58.444 Y-9.834
X-58.462 Y-9.827
X-58.583 Y-9.806
X-58.703 Y-9.836
X-58.801 Y-9.912
X-58.86 Y-10.021
X-58.904 Y-10.172
X-58.906 Y-10.211
X-58.893 Y-10.248
X-58.867 Y-10.277
X-58.832 Y-10.294
X-58.793 Y-10.296
X-58.4 Y-10.237
X-58.365 Y-10.224
X-58.336 Y-10.2
X-58.319 Y-10.166
X-58.275 Y-9.997
X-58.259 Y-9.924
X-58.272 Y-9.85
X-58.306 Y-9.784
X-58.411 Y-9.676
X-58.421 Y-9.673
X-58.534 Y-9.658
X-58.645 Y-9.686
X-58.737 Y-9.753
X-58.797 Y-9.85
X-58.853 Y-9.997
X-58.86 Y-10.021
X-58.862 Y-10.054
X-58.854 Y-10.087
X-58.835 Y-10.115
X-58.809 Y-10.135
X-58.777 Y-10.145
X-58.743 Y-10.144
X-58.351 Y-10.065
X-58.318 Y-10.052
X-58.292 Y-10.028
X-58.275 Y-9.997
X-58.252 Y-9.913
X-58.227 Y-9.829
X-58.209 Y-9.757
X-58.228 Y-9.684
X-58.268 Y-9.619
X-58.395 Y-9.549
X-58.539 Y-9.547
X-58.668 Y-9.612
X-58.751 Y-9.73
X-58.797 Y-9.85
X-58.803 Y-9.885
X-58.796 Y-9.92
X-58.777 Y-9.95
X-58.749 Y-9.971
X-58.716 Y-9.982
X-58.681 Y-9.98
X-58.3 Y-9.895
X-58.269 Y-9.882
X-58.243 Y-9.859
X-58.227 Y-9.829
X-58.195 Y-9.744
X-58.182 Y-9.718
X-58.167 Y-9.684
X-58.164 Y-9.609
X-58.193 Y-9.54
X-58.285 Y-9.421
X-58.399 Y-9.395
X-58.513 Y-9.414
X-58.611 Y-9.474
X-58.679 Y-9.567
X-58.723 Y-9.659
X-58.751 Y-9.73
X-58.757 Y-9.765
X-58.75 Y-9.8
X-58.731 Y-9.83
X-58.703 Y-9.852
X-58.669 Y-9.862
X-58.634 Y-9.86
X-58.246 Y-9.768
X-58.22 Y-9.757
X-58.198 Y-9.74
X-58.182 Y-9.718
X-58.125 Y-9.604
X-58.094 Y-9.535
X-58.102 Y-9.461
X-58.13 Y-9.391
X-58.227 Y-9.276
X-58.367 Y-9.255
X-58.501 Y-9.3
X-58.6 Y-9.401
X-58.679 Y-9.567
X-58.687 Y-9.601
X-58.683 Y-9.636
X-58.667 Y-9.667
X-58.641 Y-9.691
X-58.609 Y-9.704
X-58.574 Y-9.705
X-58.199 Y-9.655
X-58.169 Y-9.646
X-58.144 Y-9.629
X-58.125 Y-9.604
X-58.058 Y-9.472
X-58.027 Y-9.403
X-58.033 Y-9.329
X-58.059 Y-9.258
X-58.169 Y-9.174
X-58.306 Y-9.151
X-58.439 Y-9.194
X-58.536 Y-9.293
X-58.6 Y-9.401
X-58.611 Y-9.435
X-58.609 Y-9.471
X-58.596 Y-9.503
X-58.571 Y-9.529
X-58.54 Y-9.545
X-58.504 Y-9.549
X-58.138 Y-9.523
X-58.106 Y-9.515
X-58.078 Y-9.497
X-58.058 Y-9.472
X-57.98 Y-9.321
X-57.963 Y-9.288
X-57.973 Y-9.214
X-58.003 Y-9.145
X-58.115 Y-9.066
X-58.251 Y-9.047
X-58.38 Y-9.092
X-58.475 Y-9.19
X-58.536 Y-9.293
X-58.547 Y-9.329
X-58.545 Y-9.366
X-58.528 Y-9.4
X-58.501 Y-9.425
X-58.466 Y-9.439
X-58.429
X-58.044 Y-9.364
X-58.008 Y-9.349
X-57.98 Y-9.321
X-57.973 Y-9.31
X-57.922 Y-9.237
X-57.9 Y-9.206
Y-9.131
X-57.925 Y-9.061
X-58.025 Y-8.976
X-58.152 Y-8.944
X-58.28 Y-8.972
X-58.382 Y-9.054
X-58.396 Y-9.072
X-58.453 Y-9.152
X-58.475 Y-9.19
X-58.486 Y-9.225
X-58.484 Y-9.262
X-58.469 Y-9.296
X-58.442 Y-9.322
X-58.407 Y-9.336
X-58.37
X-57.98 Y-9.269
X-57.948 Y-9.258
X-57.922 Y-9.237
X-57.869 Y-9.172
X-57.846 Y-9.142
X-57.826 Y-9.07
X-57.84 Y-8.997
X-57.932 Y-8.895
X-58.061 Y-8.849
X-58.196 Y-8.871
X-58.305 Y-8.955
X-58.382 Y-9.054
X-58.398 Y-9.087
X-58.4 Y-9.123
X-58.39 Y-9.158
X-58.367 Y-9.187
X-58.335 Y-9.206
X-58.299 Y-9.212
X-57.942 Y-9.206
X-57.915 Y-9.202
X-57.89 Y-9.19
X-57.869 Y-9.172
X-57.783 Y-9.068
X-57.761 Y-9.038
X-57.755 Y-8.963
X-57.773 Y-8.89
X-57.869 Y-8.796
X-57.997 Y-8.757
X-58.129 Y-8.782
X-58.234 Y-8.865
X-58.305 Y-8.955
X-58.32 Y-8.988
X-58.323 Y-9.025
X-58.312 Y-9.061
X-58.289 Y-9.089
X-58.257 Y-9.108
X-58.221 Y-9.114
X-57.855 Y-9.102
X-57.828 Y-9.097
X-57.803 Y-9.086
X-57.783 Y-9.068
X-57.72 Y-8.991
X-57.697 Y-8.961
X-57.68 Y-8.888
X-57.693 Y-8.814
X-57.772 Y-8.722
X-57.883 Y-8.674
X-58.004 Y-8.68
X-58.111 Y-8.737
X-58.133 Y-8.768
X-58.142 Y-8.806
X-58.136 Y-8.845
X-58.116 Y-8.878
X-58.085 Y-8.901
X-57.837 Y-9.015
X-57.806 Y-9.024
X-57.774 Y-9.023
X-57.744 Y-9.011
X-57.72 Y-8.991
X-57.642 Y-8.899
X-57.617 Y-8.87
X-57.605 Y-8.796
X-57.618 Y-8.723
X-57.693 Y-8.638
X-57.797 Y-8.594
X-57.91 Y-8.598
X-58.01 Y-8.651
X-58.143 Y-8.765
X-58.192 Y-8.815
X-58.234 Y-8.865
X-58.25 Y-8.896
X-58.253 Y-8.93
X-58.245 Y-8.964
X-58.226 Y-8.993
X-58.199 Y-9.013
X-58.166 Y-9.023
X-58.131 Y-9.022
X-57.683 Y-8.919
X-57.661 Y-8.912
X-57.642 Y-8.899
X-57.589 Y-8.855
X-57.561 Y-8.83
X-57.541 Y-8.798
X-57.522 Y-8.725
X-57.532 Y-8.651
X-57.604 Y-8.564
X-57.706 Y-8.518
X-57.818 Y-8.521
X-57.918 Y-8.573
X-58.01 Y-8.651
X-58.032 Y-8.68
X-58.042 Y-8.716
X-58.038 Y-8.752
X-58.022 Y-8.785
X-57.994 Y-8.81
X-57.959 Y-8.823
X-57.666 Y-8.874
X-57.639 Y-8.875
X-57.612 Y-8.869
X-57.589 Y-8.855
X-57.551 Y-8.824
X-57.536 Y-8.815
X-57.498 Y-8.793
X-57.466 Y-8.774
X-57.428 Y-8.709
X-57.425 Y-8.634
X-57.482 Y-8.525
X-57.584 Y-8.457
X-57.706 Y-8.446
X-57.819 Y-8.494
X-57.843 Y-8.523
X-57.855 Y-8.559
X-57.852 Y-8.597
X-57.836 Y-8.631
X-57.809 Y-8.656
X-57.596 Y-8.789
X-57.564 Y-8.802
X-57.53 Y-8.803
X-57.498 Y-8.793
X-57.466 Y-8.776
X-57.408 Y-8.747
X-57.375 Y-8.728
X-57.335 Y-8.665
X-57.324 Y-8.591
X-57.379 Y-8.474
X-57.483 Y-8.398
X-57.612 Y-8.382
X-57.732 Y-8.43
X-57.756 Y-8.458
X-57.769 Y-8.493
X-57.767 Y-8.531
X-57.752 Y-8.565
X-57.726 Y-8.591
X-57.505 Y-8.739
X-57.474 Y-8.753
X-57.441 Y-8.755
X-57.408 Y-8.747
X-57.297 Y-8.691
X-57.264 Y-8.673
X-57.232 Y-8.605
X-57.223 Y-8.53
X-57.273 Y-8.426
X-57.363 Y-8.354
X-57.475 Y-8.328
X-57.587 Y-8.355
X-57.72 Y-8.421
X-57.804 Y-8.483
X-57.889 Y-8.548
X-57.918 Y-8.573
X-57.94 Y-8.601
X-57.95 Y-8.635
X-57.948 Y-8.67
X-57.934 Y-8.702
X-57.909 Y-8.728
X-57.877 Y-8.743
X-57.842 Y-8.746
X-57.329 Y-8.7
X-57.297 Y-8.691
X-57.212 Y-8.649
X-57.18 Y-8.63
X-57.135 Y-8.57
X-57.12 Y-8.497
X-57.161 Y-8.391
X-57.245 Y-8.314
X-57.354 Y-8.281
X-57.466 Y-8.301
X-57.497 Y-8.323
X-57.517 Y-8.356
X-57.524 Y-8.394
X-57.515 Y-8.431
X-57.494 Y-8.463
X-57.324 Y-8.629
X-57.3 Y-8.647
X-57.271 Y-8.656
X-57.241 Y-8.657
X-57.212 Y-8.649
X-57.128 Y-8.61
X-57.094 Y-8.593
X-57.041 Y-8.541
X-57.019 Y-8.469
X-57.053 Y-8.358
X-57.134 Y-8.275
X-57.244 Y-8.239
X-57.359 Y-8.256
X-57.551 Y-8.337
X-57.587 Y-8.355
X-57.615 Y-8.376
X-57.633 Y-8.406
X-57.64 Y-8.44
X-57.635 Y-8.475
X-57.618 Y-8.505
X-57.592 Y-8.528
X-57.559 Y-8.541
X-57.184 Y-8.615
X-57.155 Y-8.617
X-57.128 Y-8.61
X-57.054 Y-8.578
X-57.043 Y-8.575
X-57.007 Y-8.565
X-56.977 Y-8.542
X-56.935 Y-8.48
X-56.919 Y-8.407
X-56.955 Y-8.306
X-57.031 Y-8.231
X-57.133 Y-8.197
X-57.239 Y-8.21
X-57.27 Y-8.229
X-57.292 Y-8.259
X-57.301 Y-8.295
X-57.297 Y-8.332
X-57.28 Y-8.364
X-57.141 Y-8.539
X-57.114 Y-8.563
X-57.08 Y-8.576
X-57.043 Y-8.575
X-56.912 Y-8.544
X-56.876 Y-8.534
X-56.828 Y-8.477
X-56.805 Y-8.405
X-56.829 Y-8.303
X-56.892 Y-8.221
X-56.985 Y-8.172
X-57.089 Y-8.167
X-57.12 Y-8.179
X-57.146 Y-8.201
X-57.162 Y-8.23
X-57.169 Y-8.263
X-57.164 Y-8.296
X-57.148 Y-8.326
X-57.01 Y-8.507
X-56.983 Y-8.531
X-56.949 Y-8.545
X-56.912 Y-8.544
X-56.827 Y-8.525
X-56.791 Y-8.515
X-56.732 Y-8.47
X-56.7 Y-8.402
X-56.714 Y-8.296
X-56.774 Y-8.208
X-56.867 Y-8.154
X-56.974 Y-8.148
X-57.009 Y-8.162
X-57.036 Y-8.189
X-57.052 Y-8.224
X-57.053 Y-8.262
X-57.04 Y-8.297
X-56.931 Y-8.478
X-56.912 Y-8.502
X-56.887 Y-8.518
X-56.858 Y-8.526
X-56.827 Y-8.525
X-56.705 Y-8.498
X-56.669 Y-8.489
X-56.618 Y-8.434
X-56.59 Y-8.364
X-56.62 Y-8.241
X-56.712 Y-8.155
X-56.836 Y-8.132
X-56.869 Y-8.143
X-56.896 Y-8.165
G3 X-56.705 Y-8.498 I0.156 J-0.132
G1 X-56.62 Y-8.481
X-56.584 Y-8.472
X-56.552 Y-8.452
X-56.506 Y-8.393
X-56.482 Y-8.322
X-56.515 Y-8.216
X-56.596 Y-8.141
X-56.704 Y-8.118
X-56.725 Y-8.122
X-56.744 Y-8.131
G3 X-56.62 Y-8.481 I0.097 J-0.163
G1 X-56.536 Y-8.466
X-56.493 Y-8.461
X-56.456 Y-8.457
X-56.401 Y-8.406
X-56.386 Y-8.304
X-56.42 Y-8.207
X-56.496 Y-8.138
X-56.596 Y-8.114
X-56.625 Y-8.12
X-56.65 Y-8.135
X-56.669 Y-8.158
G3 X-56.493 Y-8.461 I0.178 J-0.099
G1 X-56.451 Y-8.46
X-56.405 Y-8.464
X-56.367 Y-8.465
X-56.309 Y-8.418
X-56.289 Y-8.314
X-56.321 Y-8.212
X-56.399 Y-8.14
X-56.502 Y-8.113
X-56.532 Y-8.12
X-56.558 Y-8.138
X-56.576 Y-8.164
G3 X-56.405 Y-8.464 I0.198 J-0.086
G1 X-56.367 Y-8.467
X-56.322 Y-8.472
X-56.284 Y-8.475
X-56.223 Y-8.433
X-56.194 Y-8.326
X-56.223 Y-8.22
X-56.3 Y-8.143
X-56.406 Y-8.114
X-56.435 Y-8.12
X-56.461 Y-8.136
X-56.48 Y-8.159
G3 X-56.322 Y-8.472 I0.19 J-0.1
G1 X-56.236 Y-8.482
X-56.198 Y-8.485
X-56.134 Y-8.446
X-56.101 Y-8.342
X-56.124 Y-8.235
X-56.196 Y-8.154
X-56.3 Y-8.119
X-56.328 Y-8.122
X-56.354 Y-8.135
X-56.374 Y-8.155
G3 X-56.236 Y-8.482 I0.17 J-0.121
G1 X-56.151 Y-8.493
X-56.114 Y-8.496
X-56.047 Y-8.461
X-56.009 Y-8.356
X-56.029 Y-8.246
X-56.101 Y-8.162
X-56.207 Y-8.125
X-56.234 Y-8.128
X-56.259 Y-8.14
X-56.279 Y-8.158
G3 X-56.151 Y-8.493 I0.162 J-0.13
G1 X-56.113 Y-8.498
X-56.066 Y-8.511
X-56.03 Y-8.519
X-55.962 Y-8.487
X-55.916 Y-8.378
X-55.932 Y-8.262
X-56.007 Y-8.171
X-56.118 Y-8.131
X-56.149 Y-8.136
X-56.177 Y-8.151
X-56.197 Y-8.176
G3 X-56.066 Y-8.511 I0.201 J-0.115
G1 X-55.982 Y-8.535
X-55.945 Y-8.543
X-55.876 Y-8.513
X-55.824 Y-8.41
X-55.832 Y-8.294
X-55.897 Y-8.198
X-56.002 Y-8.148
X-56.033 Y-8.149
X-56.061 Y-8.16
X-56.085 Y-8.18
G3 X-55.982 Y-8.535 I0.17 J-0.143
G1 X-55.913 Y-8.554
X-55.876 Y-8.562
X-55.803 Y-8.544
X-55.746 Y-8.496
X-55.715 Y-8.395
X-55.735 Y-8.292
X-55.801 Y-8.209
X-55.897 Y-8.167
X-55.93 Y-8.168
X-55.96 Y-8.18
G3 X-55.913 Y-8.554 I0.11 J-0.176
G1 X-55.859 Y-8.569
X-55.813 Y-8.584
X-55.777 Y-8.594
X-55.703 Y-8.579
X-55.644 Y-8.532
X-55.611 Y-8.426
X-55.631 Y-8.317
X-55.699 Y-8.23
X-55.8 Y-8.184
X-55.838 Y-8.186
X-55.872 Y-8.201
X-55.898 Y-8.228
X-55.913 Y-8.263
Y-8.301
X-55.876 Y-8.508
X-55.865 Y-8.541
X-55.842 Y-8.567
X-55.813 Y-8.584
X-55.775 Y-8.597
X-55.749 Y-8.611
X-55.715 Y-8.627
X-55.678 Y-8.631
X-55.604 Y-8.617
X-55.544 Y-8.573
X-55.506 Y-8.462
X-55.524 Y-8.347
X-55.594 Y-8.253
X-55.699 Y-8.204
X-55.735
X-55.769 Y-8.218
X-55.795 Y-8.242
X-55.811 Y-8.274
X-55.815 Y-8.31
X-55.798 Y-8.532
X-55.791 Y-8.563
X-55.774 Y-8.59
X-55.749 Y-8.611
X-55.685 Y-8.646
X-55.661 Y-8.661
X-55.629 Y-8.68
X-55.592 Y-8.684
X-55.517 Y-8.675
X-55.454 Y-8.634
X-55.404 Y-8.533
X-55.405 Y-8.421
X-55.455 Y-8.32
X-55.545 Y-8.252
X-55.581 Y-8.245
X-55.617 Y-8.251
X-55.649 Y-8.27
X-55.671 Y-8.3
X-55.681 Y-8.335
X-55.704 Y-8.57
X-55.701 Y-8.605
X-55.686 Y-8.636
X-55.661 Y-8.661
X-55.605 Y-8.697
X-55.58 Y-8.715
X-55.548 Y-8.735
X-55.475 Y-8.75
X-55.403 Y-8.727
X-55.342 Y-8.684
X-55.295 Y-8.581
X-55.298 Y-8.469
X-55.348 Y-8.369
X-55.437 Y-8.301
X-55.472 Y-8.293
X-55.507 Y-8.298
X-55.539 Y-8.315
X-55.562 Y-8.342
X-55.574 Y-8.375
X-55.618 Y-8.618
X-55.617 Y-8.654
X-55.604 Y-8.688
X-55.58 Y-8.715
X-55.497 Y-8.774
X-55.466 Y-8.795
X-55.393 Y-8.815
X-55.32 Y-8.801
X-55.255 Y-8.764
X-55.194 Y-8.657
X-55.189 Y-8.535
X-55.24 Y-8.423
X-55.336 Y-8.347
X-55.37 Y-8.34
X-55.404 Y-8.344
X-55.435 Y-8.36
X-55.459 Y-8.385
X-55.472 Y-8.417
X-55.533 Y-8.673
X-55.534 Y-8.71
X-55.522 Y-8.746
X-55.497 Y-8.774
X-55.436 Y-8.82
X-55.411 Y-8.844
X-55.382 Y-8.868
X-55.311 Y-8.891
X-55.237 Y-8.881
X-55.169 Y-8.848
X-55.094 Y-8.735
X-55.081 Y-8.601
X-55.134 Y-8.477
X-55.239 Y-8.392
X-55.273 Y-8.384
X-55.308 Y-8.389
X-55.339 Y-8.405
X-55.362 Y-8.431
X-55.375 Y-8.463
X-55.438 Y-8.752
X-55.439 Y-8.785
X-55.43 Y-8.817
X-55.411 Y-8.844
X-55.352 Y-8.899
X-55.328 Y-8.925
X-55.3 Y-8.951
X-55.229 Y-8.975
X-55.155 Y-8.967
X-55.086 Y-8.938
X-55.001 Y-8.832
X-54.975 Y-8.698
X-55.013 Y-8.568
X-55.107 Y-8.47
X-55.141 Y-8.458
X-55.176
X-55.21 Y-8.471
X-55.237 Y-8.495
X-55.253 Y-8.527
X-55.348 Y-8.828
X-55.353 Y-8.862
X-55.346 Y-8.896
X-55.328 Y-8.925
X-55.245 Y-9.013
X-55.218 Y-9.039
X-55.148 Y-9.064
X-55.073 Y-9.057
X-55.001 Y-9.031
X-54.905 Y-8.921
X-54.872 Y-8.778
X-54.911 Y-8.637
X-55.011 Y-8.531
X-55.045 Y-8.519
X-55.08
X-55.113 Y-8.532
X-55.14 Y-8.555
X-55.157 Y-8.587
X-55.264 Y-8.917
X-55.269 Y-8.95
X-55.263 Y-8.983
X-55.245 Y-9.013
X-55.167 Y-9.098
X-55.142 Y-9.126
X-55.073 Y-9.155
X-54.998 Y-9.153
X-54.854 Y-9.111
X-54.827 Y-9.084
X-54.754 Y-8.955
X-54.751 Y-8.806
X-54.82 Y-8.675
X-54.846 Y-8.646
X-54.867 Y-8.624
X-54.887 Y-8.61
X-55.183 Y-8.423
X-55.239 Y-8.392
X-55.521 Y-8.263
X-55.61 Y-8.223
X-55.69 Y-8.205
X-55.775 Y-8.189
X-56.056 Y-8.139
X-56.113 Y-8.131
X-56.367 Y-8.114
X-56.536
X-56.62
X-56.705 Y-8.118
X-56.959 Y-8.145
X-57.128 Y-8.174
X-57.17 Y-8.185
X-57.297 Y-8.231
X-57.359 Y-8.256
X-57.391 Y-8.278
X-57.411 Y-8.312
X-57.418 Y-8.35
X-57.409 Y-8.388
X-57.393 Y-8.423 Z-0.982
X-57.38 Y-8.453 Z-0.961
X-57.371 Y-8.472 Z-0.928
X-57.368 Y-8.479 Z-0.89
G0 Z2
X-55.436 Y-8.465
Z-0.79
G1 Z-0.89 F1000
X-55.433 Y-8.472 Z-0.928
X-55.427 Y-8.492 Z-0.961
X-55.417 Y-8.523 Z-0.982
X-55.405 Y-8.56 Z-0.99
G3 X-55.167 Y-9.098 I2.605 J0.831
G1 X-55.114 Y-9.183
X-55.092 Y-9.214
X-55.027 Y-9.251
X-54.955 Y-9.27
X-54.88 Y-9.267
X-54.737 Y-9.22
X-54.733 Y-9.216
X-54.664 Y-9.122
X-54.636 Y-9.009
X-54.653 Y-8.894
X-54.713 Y-8.794
X-54.739 Y-8.775
X-54.77 Y-8.765
X-54.802
X-54.833 Y-8.776
X-54.859 Y-8.797
X-55.101 Y-9.066
X-55.119 Y-9.092
X-55.127 Y-9.122
X-55.125 Y-9.154
X-55.114 Y-9.183
X-55.08 Y-9.237
X-55.047 Y-9.295
X-55.032 Y-9.321
X-55.014 Y-9.341
X-55.003 Y-9.348
X-54.992 Y-9.353
X-54.982 Y-9.357
X-54.971 Y-9.36
X-54.961 Y-9.362
X-54.798
X-54.723 Y-9.358
X-54.614 Y-9.275
X-54.554 Y-9.152
X-54.558 Y-9.015
X-54.623 Y-8.895
X-54.65 Y-8.874
X-54.683 Y-8.865
X-54.717 Y-8.866
X-54.748 Y-8.879
X-54.773 Y-8.902
X-54.789 Y-8.932
X-54.889 Y-9.23
X-54.894 Y-9.267
X-54.886 Y-9.303
X-54.865 Y-9.333
X-54.834 Y-9.354
X-54.798 Y-9.362
X-54.629
X-54.591
X-54.544
X-54.532 Y-9.361
X-54.497 Y-9.355
X-54.464 Y-9.342
X-54.434 Y-9.321
X-54.435 Y-9.312
X-54.445 Y-9.281
X-54.465 Y-9.255
X-54.492 Y-9.236
X-54.754 Y-9.113
X-54.829 Y-9.078
X-54.866 Y-9.068
X-54.903 Y-9.073
X-54.936 Y-9.092
X-54.96 Y-9.122
X-54.971 Y-9.158
X-54.968 Y-9.196
X-54.951 Y-9.229
X-54.922 Y-9.254
G3 X-54.544 Y-9.362 I0.398 J0.684
G1 X-54.506 Y-9.361
X-54.488 Y-9.357
X-54.47 Y-9.349
X-54.452 Y-9.337
X-54.434 Y-9.321
X-54.422 Y-9.306
X-54.413 Y-9.288
X-54.408 Y-9.271
X-54.406 Y-9.254
X-54.407 Y-9.237
X-54.412 Y-9.217
X-54.422 Y-9.197
X-54.591 Y-8.94
X-54.619 Y-8.899
X-54.82 Y-8.675
X-54.842 Y-8.658
X-54.869 Y-8.647
X-54.892 Y-8.644 Z-0.987
X-54.919 Y-8.656 Z-0.974
X-54.942 Y-8.665 Z-0.951
X-54.956 Y-8.67 Z-0.922
X-54.961 Y-8.672 Z-0.89
G0 Z2
X-45.677 Y-9.698
Z0.5
G3 X-45.193 Y-9.823 Z0.29 I0.242 J-0.062 F333.3
X-45.677 Y-9.698 Z0.079 I-0.242 J0.062
X-45.193 Y-9.823 Z-0.131 I0.242 J-0.062
X-45.677 Y-9.698 Z-0.342 I-0.242 J0.062
X-45.193 Y-9.823 Z-0.552 I0.242 J-0.062
X-45.677 Y-9.698 Z-0.763 I-0.242 J0.062
X-45.466 Y-10.008 Z-0.876 I0.242 J-0.062
X-45.185 Y-9.76 Z-0.99 I0.031 J0.248
X-45.685 I-0.25
X-45.185 I0.25
G1 X-45.148 Y-9.615 F1000
X-45.161 Y-9.541
X-45.198 Y-9.476
X-45.305 Y-9.371
X-45.449 Y-9.331
X-45.598 Y-9.352
X-45.728 Y-9.426
X-45.825 Y-9.541
X-45.877 Y-9.682
X-45.879 Y-9.832
X-45.831 Y-9.974
X-45.74 Y-10.092
X-45.614 Y-10.174
X-45.468 Y-10.21
X-45.319 Y-10.196
X-45.182 Y-10.134
X-45.074 Y-10.03
X-44.996 Y-9.902
X-44.945 Y-9.761
X-44.935 Y-9.611
X-44.97 Y-9.465
X-45.041 Y-9.333
X-45.149 Y-9.229
X-45.28 Y-9.156
X-45.426 Y-9.123
X-45.576 Y-9.13
X-45.604 Y-9.138
X-45.66 Y-9.16
X-45.71 Y-9.194
X-45.752 Y-9.237
X-45.796 Y-9.283
X-45.88 Y-9.36
X-45.988 Y-9.464
X-46.058 Y-9.597
X-46.089 Y-9.743
X-46.084 Y-9.893
X-46.04 Y-10.037
X-46.024 Y-10.065
X-45.985 Y-10.116
X-45.937 Y-10.157
X-45.88 Y-10.187
X-45.842 Y-10.197
X-45.803 Y-10.191
X-45.769 Y-10.17
X-45.746 Y-10.138
X-45.737 Y-10.1
X-45.734 Y-9.996
X-45.717 Y-9.44
X-45.723 Y-9.403
X-45.743 Y-9.37
X-45.773 Y-9.347
X-45.809 Y-9.337
X-45.847 Y-9.342
X-45.88 Y-9.36
X-45.965 Y-9.433
X-46.033 Y-9.49
X-46.096 Y-9.534
X-46.156 Y-9.579
X-46.244 Y-9.7
X-46.278 Y-9.846
X-46.277 Y-9.863
X-46.242 Y-9.991
X-46.156 Y-10.091
X-46.034 Y-10.144
X-45.999 Y-10.143
X-45.966 Y-10.13
X-45.939 Y-10.106
X-45.923 Y-10.075
X-45.919 Y-10.04
X-45.943 Y-9.613
X-45.951 Y-9.579
X-45.969 Y-9.55
X-45.997 Y-9.529
X-46.03 Y-9.519
X-46.064 Y-9.521
X-46.096 Y-9.534
X-46.281 Y-9.659
X-46.343 Y-9.702
X-46.385 Y-9.764
X-46.397 Y-9.894
X-46.35 Y-10.015
X-46.254 Y-10.103
X-46.128 Y-10.138
X-46.09 Y-10.131
X-46.058 Y-10.11
X-46.036 Y-10.079
X-46.027 Y-10.042
X-46.033 Y-10.004
X-46.138 Y-9.712
X-46.155 Y-9.682
X-46.182 Y-9.66
X-46.214 Y-9.648
X-46.249
X-46.281 Y-9.659
X-46.303 Y-9.673
X-46.388 Y-9.71
X-46.455 Y-9.744
X-46.499 Y-9.804
X-46.505 Y-9.924
X-46.457 Y-10.033
X-46.366 Y-10.11
X-46.249 Y-10.138
X-46.212 Y-10.129
X-46.18 Y-10.107
X-46.159 Y-10.075
X-46.152 Y-10.037
X-46.16 Y-9.999
X-46.258 Y-9.764
X-46.28 Y-9.732
X-46.312 Y-9.711
X-46.35 Y-9.703
X-46.388 Y-9.71
X-46.498 Y-9.759
X-46.565 Y-9.792
X-46.606 Y-9.855
X-46.607 Y-9.958
X-46.563 Y-10.05
X-46.482 Y-10.115
X-46.382 Y-10.138
X-46.347 Y-10.132
X-46.315 Y-10.117
G3 X-46.498 Y-9.759 I-0.108 J0.171
G1 X-46.557 Y-9.785
X-46.603 Y-9.801
X-46.638 Y-9.815
X-46.692 Y-9.867
X-46.7 Y-9.963
X-46.664 Y-10.052
X-46.591 Y-10.115
X-46.497 Y-10.138
X-46.473 Y-10.133
X-46.45 Y-10.123
G3 X-46.603 Y-9.801 I-0.1 J0.15
G1 X-46.685 Y-9.828
X-46.726 Y-9.841
X-46.761 Y-9.855
X-46.786 Y-9.949
X-46.761 Y-10.043
X-46.692 Y-10.112
X-46.597 Y-10.138
X-46.572 Y-10.133
X-46.549 Y-10.119
X-46.531 Y-10.099
G3 X-46.726 Y-9.841 I-0.147 J0.092
G1 X-46.772 Y-9.856
X-46.807 Y-9.87
X-46.862 Y-9.921
Y-10.023
X-46.801 Y-10.106
X-46.704 Y-10.138
X-46.669 Y-10.129
G3 X-46.772 Y-9.856 I-0.063 J0.132
G1 X-46.81 Y-9.869
X-46.857 Y-9.881
X-46.893 Y-9.892
X-46.919 Y-9.918
X-46.958 Y-9.983
X-46.941 Y-10.059
X-46.887 Y-10.117
X-46.811 Y-10.138
X-46.787 Y-10.134
G3 X-46.857 Y-9.881 I-0.041 J0.125
G1 X-46.895 Y-9.89
X-46.942 Y-9.9
X-46.98 Y-9.909
X-46.998 Y-9.913
X-47.035 Y-9.922
X-47.041 Y-10.022
X-46.986 Y-10.105
X-46.891 Y-10.138
X-46.866 Y-10.132
X-46.846 Y-10.116
X-46.835 Y-10.093
X-46.83 Y-10.052
X-46.837 Y-10.012
X-46.855 Y-9.975
X-46.882 Y-9.944
X-46.917 Y-9.923
X-46.957 Y-9.912
X-46.998 Y-9.913
X-47.035 Y-9.92
X-47.064 Y-9.926
X-47.106 Y-9.932
X-47.134 Y-9.94
X-47.15 Y-9.947
X-47.164 Y-9.955
Y-9.964
X-47.155 Y-9.999
X-47.136 Y-10.029
X-47.107 Y-10.05
X-47.073 Y-10.059
X-46.442 Y-10.117
X-46.34 Y-10.126
X-46.302 Y-10.122
X-46.267 Y-10.104
X-46.243 Y-10.073
X-46.232 Y-10.036
X-46.236 Y-9.998
X-46.254 Y-9.963
X-46.284 Y-9.939
X-46.321 Y-9.927
G3 X-47.106 Y-9.932 I-0.369 J-3.627
G1 X-47.128 Y-9.936
X-47.138 Y-9.94
X-47.149 Y-9.945
X-47.164 Y-9.955
X-47.179 Y-9.971
X-47.188 Y-9.984
X-47.194 Y-9.997
X-47.199 Y-10.017
G0 Z2
X-47.194 Y-9.997
Z0.6
G1 Z0.5 F1000
Z-0.99 F333.3
X-47.197 Y-10.008 F1000
X-47.199 Y-10.018
X-47.2 Y-10.039
Y-10.05
X-47.198 Y-10.06
X-47.195 Y-10.071
X-47.187 Y-10.087
X-47.176 Y-10.103
X-47.152 Y-10.117
X-47.125 Y-10.12
X-47.099 Y-10.111
X-47.077 Y-10.089
X-47.067 Y-10.059
X-47.073 Y-10.028
X-47.093 Y-10.003
X-47.122 Y-9.991
X-47.153 Y-9.994
X-47.18 Y-10.011
X-47.195 Y-10.039
Y-10.071
X-47.19 Y-10.082
X-47.184 Y-10.092
X-47.176 Y-10.103
X-47.162 Y-10.116
X-47.149 Y-10.125
X-47.138 Y-10.13
X-47.128 Y-10.134
X-47.117 Y-10.136
X-47.106 Y-10.138
X-46.134
X-46.049 Y-10.141
X-45.965 Y-10.157
X-45.933 Y-10.166
X-45.88 Y-10.187
X-45.838 Y-10.209
X-45.796 Y-10.236
X-45.775 Y-10.25
X-45.74 Y-10.281
X-45.622 Y-10.375
X-45.478 Y-10.414
X-45.328 Y-10.412
X-45.182 Y-10.375
X-45.049 Y-10.306
X-44.934 Y-10.21
X-44.904 Y-10.172
X-44.868 Y-10.115
X-44.846 Y-10.052
X-44.839 Y-9.985
Y-9.49
X-44.846 Y-9.34
X-44.903 Y-9.202
X-44.997 Y-9.085
X-45.118 Y-8.996
X-45.254 Y-8.933
X-45.297 Y-8.924
X-45.417 Y-8.921
X-45.528 Y-8.966
X-45.613 Y-9.05
X-45.626 Y-9.086
X-45.625 Y-9.124
X-45.61 Y-9.16
X-45.582 Y-9.186
X-45.474 Y-9.257
X-44.993 Y-9.571
X-44.961 Y-9.584
X-44.926 Y-9.586
X-44.892 Y-9.576
X-44.865 Y-9.554
X-44.846 Y-9.525
X-44.839 Y-9.49
Y-9.19
X-44.846 Y-9.041
X-44.921 Y-8.911
X-45.031 Y-8.808
X-45.165 Y-8.74
X-45.175 Y-8.738
X-45.298 Y-8.736
X-45.412 Y-8.784
X-45.496 Y-8.873
X-45.509 Y-8.91
X-45.506 Y-8.949
X-45.488 Y-8.984
X-45.459 Y-9.01
X-44.987 Y-9.274
X-44.955 Y-9.286
X-44.921 Y-9.285
X-44.889 Y-9.274
X-44.863 Y-9.253
X-44.845 Y-9.224
X-44.839 Y-9.19
Y-8.937
X-44.842 Y-8.862
X-44.891 Y-8.72
X-44.995 Y-8.612
X-45.035 Y-8.593
X-45.151 Y-8.565
X-45.269 Y-8.584
X-45.37 Y-8.648
X-45.438 Y-8.746
X-45.444 Y-8.785
X-45.436 Y-8.823
X-45.413 Y-8.855
X-45.379 Y-8.876
X-44.973 Y-9.027
X-44.936 Y-9.034
X-44.899 Y-9.026
X-44.868 Y-9.005
X-44.847 Y-8.974
X-44.839 Y-8.937
Y-8.684
Y-8.646
Y-8.599
X-44.84 Y-8.565
X-44.864 Y-8.538
X-44.928 Y-8.483
X-45.005 Y-8.448
X-45.089 Y-8.436
G3 X-45.222 Y-8.729 I0.006 J-0.179
X-44.839 Y-8.599 I0.167 J0.137
G1 Y-8.561
Y-8.542
X-44.844 Y-8.523
X-44.853 Y-8.503
X-44.87 Y-8.477
X-44.879 Y-8.467
X-44.89 Y-8.457
X-44.91 Y-8.445
X-44.93 Y-8.438
X-44.95 Y-8.436
X-45.204
X-45.246
X-45.257 Y-8.438
X-45.267 Y-8.44
X-45.278 Y-8.443
X-45.288 Y-8.448
X-45.305 Y-8.459
X-45.321 Y-8.477
X-45.334 Y-8.498
X-45.344 Y-8.519
X-45.359 Y-8.561
X-45.373 Y-8.596
X-45.467 Y-8.815
X-45.486 Y-8.857
X-45.512 Y-8.899
X-45.627 Y-9.07
X-45.685 Y-9.152
X-45.752 Y-9.237
X-45.766 Y-9.265
X-45.771 Y-9.296
Y-9.505
Y-10.208
X-45.767 Y-10.235
X-45.757 Y-10.26
X-45.74 Y-10.281
X-45.711 Y-10.306
X-45.686 Y-10.335
X-45.627 Y-10.42
X-45.586 Y-10.483
X-45.464 Y-10.57
X-45.317 Y-10.601
X-45.168 Y-10.589
X-45.025 Y-10.543
X-44.995 Y-10.528
X-44.912 Y-10.461
X-44.857 Y-10.369
X-44.839 Y-10.264
Y-9.985
X-44.846 Y-9.951
X-44.865 Y-9.921
X-44.892 Y-9.9
X-44.926 Y-9.889
X-44.961 Y-9.891
X-44.993 Y-9.905
X-45.051 Y-9.942
X-45.59 Y-10.296
X-45.615 Y-10.32
X-45.631 Y-10.351
X-45.635 Y-10.386
X-45.627 Y-10.42
X-45.606 Y-10.462
X-45.589 Y-10.504
X-45.576 Y-10.55
X-45.553 Y-10.622
X-45.452 Y-10.732
X-45.312 Y-10.786
X-45.163 Y-10.797
X-45.085 Y-10.783
X-44.959 Y-10.728
X-44.87 Y-10.622
X-44.839 Y-10.488
Y-10.264
X-44.848 Y-10.226
X-44.871 Y-10.194
X-44.905 Y-10.173
X-44.944 Y-10.168
X-44.982 Y-10.177
X-45.522 Y-10.437
X-45.55 Y-10.457
X-45.569 Y-10.484
X-45.579 Y-10.517
X-45.576 Y-10.55
X-45.566 Y-10.588
X-45.564 Y-10.599
X-45.562 Y-10.673
X-45.556 Y-10.748
X-45.484 Y-10.879
X-45.358 Y-10.96
X-45.212 Y-10.998
X-45.063 Y-10.992
X-45.043 Y-10.986
X-44.936 Y-10.923
X-44.864 Y-10.822
X-44.839 Y-10.701
Y-10.488
X-44.847 Y-10.452
X-44.868 Y-10.421
X-44.898 Y-10.4
X-44.935 Y-10.391
X-44.971 Y-10.397
X-45.495 Y-10.579
X-45.522 Y-10.593
X-45.543 Y-10.615
X-45.557 Y-10.643
X-45.562 Y-10.673
X-45.557 Y-10.842
Y-10.888
X-45.555 Y-10.926
X-45.491 Y-11.061
X-45.371 Y-11.152
X-45.229 Y-11.2
X-45.079 Y-11.202
X-45.062 Y-11.198
X-44.946 Y-11.138
X-44.867 Y-11.035
X-44.839 Y-10.908
Y-10.701
X-44.847 Y-10.665
X-44.868 Y-10.634
X-44.899 Y-10.613
X-44.935 Y-10.605
X-44.972 Y-10.611
X-45.491 Y-10.797
X-45.525 Y-10.817
