%
(n-111-115)
(T1  D=1 CR=0 - ZMIN=-2 - flat end mill)
G90 G94
G17
G21
G28 G91 Z0
G90

(Clear 17)
M9
T1 M6
S5000 M3
G54
M8
G0 X-120.79 Y-9.696
Z12
Z2
Z0.5
G3 X-120.305 Y-9.821 Z0.29 I0.242 J-0.062 F333.3
X-120.79 Y-9.696 Z0.079 I-0.242 J0.062
X-120.305 Y-9.821 Z-0.131 I0.242 J-0.062
X-120.79 Y-9.696 Z-0.342 I-0.242 J0.062
X-120.305 Y-9.821 Z-0.552 I0.242 J-0.062
X-120.79 Y-9.696 Z-0.763 I-0.242 J0.062
X-120.579 Y-10.007 Z-0.876 I0.242 J-0.062
X-120.297 Y-9.759 Z-0.99 I0.031 J0.248
X-120.797 I-0.25
X-120.297 I0.25
G1 X-120.26 Y-9.613 F1000
X-120.273 Y-9.54
X-120.31 Y-9.474
X-120.417 Y-9.369
X-120.562 Y-9.329
X-120.71 Y-9.351
X-120.841 Y-9.425
X-120.937 Y-9.539
X-120.989 Y-9.68
X-120.992 Y-9.83
X-120.944 Y-9.972
X-120.852 Y-10.091
X-120.726 Y-10.172
X-120.581 Y-10.208
X-120.431 Y-10.194
X-120.295 Y-10.132
X-120.186 Y-10.029
X-120.108 Y-9.901
X-120.058 Y-9.759
X-120.047 Y-9.61
X-120.082 Y-9.464
X-120.153 Y-9.332
X-120.261 Y-9.228
X-120.392 Y-9.154
X-120.539 Y-9.121
X-120.688 Y-9.128
X-120.714 Y-9.136
X-120.771 Y-9.158
X-120.822 Y-9.193
X-120.864 Y-9.237
X-120.952 Y-9.321
X-120.994 Y-9.359
X-121.101 Y-9.465
X-121.17 Y-9.598
X-121.201 Y-9.744
X-121.196 Y-9.894
X-121.151 Y-10.038
X-121.135 Y-10.066
X-121.099 Y-10.113
X-121.056 Y-10.153
X-121.005 Y-10.183
X-120.967 Y-10.192
X-120.93 Y-10.185
X-120.897 Y-10.165
X-120.875 Y-10.134
X-120.865 Y-10.097
X-120.86 Y-9.994
X-120.83 Y-9.441
X-120.836 Y-9.403
X-120.855 Y-9.37
X-120.885 Y-9.346
X-120.922 Y-9.336
X-120.961 Y-9.341
X-120.994 Y-9.359
X-121.029 Y-9.39
X-121.22 Y-9.536
X-121.334 Y-9.633
X-121.389 Y-9.773
X-121.392 Y-9.829
X-121.378 Y-9.942
X-121.323 Y-10.041
X-121.235 Y-10.113
X-121.127 Y-10.147
X-121.092 Y-10.144
X-121.061 Y-10.129
X-121.036 Y-10.104
X-121.022 Y-10.072
X-121.019 Y-10.038
X-121.062 Y-9.608
X-121.072 Y-9.574
X-121.092 Y-9.546
X-121.12 Y-9.527
X-121.154 Y-9.518
X-121.188 Y-9.521
X-121.22 Y-9.536
X-121.282 Y-9.584
X-121.367 Y-9.641
X-121.396 Y-9.659
X-121.459 Y-9.7
X-121.502 Y-9.812
X-121.495 Y-9.932
X-121.439 Y-10.038
X-121.344 Y-10.111
X-121.227 Y-10.139
X-121.19 Y-10.13
X-121.158 Y-10.108
X-121.136 Y-10.076
X-121.129 Y-10.038
X-121.137 Y-10
X-121.258 Y-9.71
X-121.275 Y-9.682
X-121.301 Y-9.661
X-121.331 Y-9.65
X-121.364 Y-9.649
X-121.396 Y-9.659
X-121.452 Y-9.69
X-121.498 Y-9.711
X-121.565 Y-9.745
X-121.607 Y-9.807
X-121.612 Y-9.926
X-121.563 Y-10.035
X-121.471 Y-10.111
X-121.355 Y-10.138
X-121.317 Y-10.129
X-121.286 Y-10.106
X-121.265 Y-10.074
X-121.258 Y-10.036
X-121.267 Y-9.998
X-121.369 Y-9.764
X-121.391 Y-9.732
X-121.423 Y-9.711
X-121.46 Y-9.704
X-121.498 Y-9.711
X-121.536 Y-9.728
X-121.621 Y-9.761
X-121.655 Y-9.777
X-121.705 Y-9.833
X-121.712 Y-9.942
X-121.67 Y-10.042
X-121.586 Y-10.112
X-121.48 Y-10.138
X-121.447 Y-10.131
X-121.418 Y-10.113
X-121.396 Y-10.086
X-121.385 Y-10.054
Y-10.02
X-121.397 Y-9.988
X-121.501 Y-9.806
X-121.523 Y-9.78
X-121.553 Y-9.762
X-121.587 Y-9.756
X-121.621 Y-9.761
X-121.705 Y-9.794
X-121.74 Y-9.809
X-121.794 Y-9.861
X-121.804 Y-9.959
X-121.767 Y-10.05
X-121.693 Y-10.114
X-121.597 Y-10.138
X-121.57 Y-10.133
X-121.545 Y-10.121
G3 X-121.705 Y-9.794 I-0.1 J0.154
G1 X-121.794 Y-9.828
X-121.829 Y-9.842
X-121.884 Y-9.892
X-121.885 Y-10.008
X-121.818 Y-10.102
X-121.708 Y-10.138
X-121.688 Y-10.135
X-121.67 Y-10.127
G3 X-121.794 Y-9.828 I-0.081 J0.142
G1 X-121.875 Y-9.853
X-121.921 Y-9.866
X-121.957 Y-9.878
X-121.993 Y-9.943
X-121.975 Y-10.039
X-121.909 Y-10.111
X-121.815 Y-10.138
X-121.782 Y-10.129
X-121.757 Y-10.107
G3 X-121.921 Y-9.866 I-0.128 J0.089
G1 X-122.006 Y-9.889
X-122.044 Y-9.9
X-122.09 Y-9.913
X-122.12 Y-9.921
X-122.099 Y-10.028
X-122.025 Y-10.108
X-121.92 Y-10.138
X-121.894 Y-10.13
X-121.873 Y-10.112
X-121.862 Y-10.086
X-121.865 Y-10.059
G3 X-122.09 Y-9.913 I-0.201 J-0.063
G1 X-122.128 Y-9.918
X-122.171 Y-9.925
X-122.181 Y-9.929
X-122.197 Y-9.937
X-122.213 Y-9.948
G0 Z2
X-121.82 Y-10.084
Z1.11
G1 Z1.01 F1000
Z-0.99
G3 X-122.181 Y-9.929 I-0.276 J-0.146
G1 X-122.192 Y-9.933
X-122.202 Y-9.94
X-122.213 Y-9.948
X-122.224 Y-9.96
X-122.233 Y-9.973
X-122.238 Y-9.985
X-122.245 Y-10.011
X-122.246 Y-10.018
X-122.237 Y-10.048
X-122.214 Y-10.071
X-122.184 Y-10.08
X-122.153 Y-10.074
X-122.129 Y-10.055
X-122.116 Y-10.026
X-122.118 Y-9.994
X-122.135 Y-9.968
X-122.163 Y-9.952
X-122.194 Y-9.951
X-122.22 Y-9.963
X-122.238 Y-9.985
X-122.242 Y-9.997
X-122.245 Y-10.008
X-122.246 Y-10.018
X-122.245 Y-10.029
X-122.244 Y-10.039
X-122.242 Y-10.05
X-122.234 Y-10.067
X-122.224 Y-10.082
X-122.213 Y-10.096
X-122.184 Y-10.11
X-122.152 Y-10.111
X-122.123 Y-10.098
X-122.101 Y-10.075
X-122.09 Y-10.044
X-122.093 Y-10.012
X-122.109 Y-9.984
X-122.135 Y-9.965
X-122.166 Y-9.959
X-122.197 Y-9.965
X-122.225 Y-9.985
X-122.241 Y-10.016
X-122.242 Y-10.05
X-122.238 Y-10.06
X-122.233 Y-10.071
X-122.226 Y-10.082
X-122.213 Y-10.096
X-122.181 Y-10.121
X-122.171 Y-10.127
X-122.16 Y-10.132
X-122.15 Y-10.135
X-122.139 Y-10.137
X-122.128 Y-10.138
X-121.282
X-121.198 Y-10.139
X-121.113 Y-10.149
X-121.046 Y-10.166
X-121.029 Y-10.172
X-120.944 Y-10.212
X-120.887 Y-10.25
X-120.859 Y-10.274
X-120.746 Y-10.372
X-120.602 Y-10.413
X-120.452
X-120.305 Y-10.379
X-120.171 Y-10.312
X-120.055 Y-10.217
X-120.02 Y-10.174
X-119.983 Y-10.117
X-119.96 Y-10.052
X-119.952 Y-9.983
Y-9.49
X-119.959 Y-9.34
X-120.015 Y-9.201
X-120.109 Y-9.084
X-120.229 Y-8.995
X-120.366 Y-8.932
X-120.405 Y-8.923
X-120.526 Y-8.92
X-120.638 Y-8.965
X-120.723 Y-9.051
X-120.736 Y-9.087
X-120.735 Y-9.125
X-120.72 Y-9.16
X-120.692 Y-9.187
X-120.587 Y-9.256
X-120.107 Y-9.57
X-120.074 Y-9.584
X-120.039 Y-9.586
X-120.006 Y-9.576
X-119.978 Y-9.554
X-119.959 Y-9.525
X-119.952 Y-9.49
Y-9.19
X-119.959 Y-9.041
X-120.034 Y-8.91
X-120.143 Y-8.808
X-120.277 Y-8.74
X-120.288 Y-8.737
X-120.411 Y-8.736
X-120.524 Y-8.783
X-120.609 Y-8.873
X-120.621 Y-8.91
X-120.618 Y-8.949
X-120.6 Y-8.984
X-120.571 Y-9.009
X-120.101 Y-9.274
X-120.069 Y-9.285
X-120.035 Y-9.286
X-120.003 Y-9.274
X-119.976 Y-9.253
X-119.959 Y-9.224
X-119.952 Y-9.19
Y-8.937
X-119.956 Y-8.862
X-120.004 Y-8.72
X-120.107 Y-8.611
X-120.146 Y-8.593
X-120.261 Y-8.565
X-120.378 Y-8.584
X-120.479 Y-8.647
X-120.547 Y-8.743
X-120.554 Y-8.782
X-120.546 Y-8.821
X-120.523 Y-8.853
X-120.49 Y-8.874
X-120.087 Y-9.027
X-120.05 Y-9.034
X-120.013 Y-9.026
X-119.982 Y-9.005
X-119.96 Y-8.974
X-119.952 Y-8.937
Y-8.684
Y-8.646
Y-8.599
X-119.954 Y-8.564
X-119.977 Y-8.538
X-120.041 Y-8.483
X-120.118 Y-8.448
X-120.202 Y-8.436
G3 X-120.334 Y-8.728 I0.006 J-0.179
X-119.952 Y-8.599 I0.167 J0.136
G1 Y-8.561
X-119.953 Y-8.54
X-119.955 Y-8.529
X-119.959 Y-8.519
X-119.97 Y-8.498
X-119.983 Y-8.477
X-119.998 Y-8.46
X-120.013 Y-8.45
X-120.024 Y-8.444
X-120.035 Y-8.44
X-120.045 Y-8.438
X-120.056 Y-8.437
X-120.314 Y-8.436
X-120.352
X-120.371 Y-8.44
X-120.391 Y-8.448
X-120.41 Y-8.461
X-120.429 Y-8.477
X-120.436 Y-8.484
X-120.451 Y-8.503
X-120.459 Y-8.522
X-120.472 Y-8.561
X-120.521 Y-8.682
X-120.552 Y-8.756
X-120.579 Y-8.815
X-120.606 Y-8.868
X-120.679 Y-8.983
X-120.734 Y-9.068
X-120.775 Y-9.122
X-120.864 Y-9.237
X-120.878 Y-9.265
X-120.883 Y-9.295
X-120.884 Y-9.496
X-120.886 Y-10.206
X-120.879 Y-10.243
X-120.859 Y-10.274
X-120.799 Y-10.335
X-120.775 Y-10.364
X-120.756 Y-10.392
X-120.74 Y-10.419
X-120.701 Y-10.484
X-120.579 Y-10.571
X-120.432 Y-10.602
X-120.283 Y-10.59
X-120.14 Y-10.545
X-120.108 Y-10.527
X-120.025 Y-10.461
X-119.971 Y-10.369
X-119.952 Y-10.264
Y-9.983
X-119.959 Y-9.949
X-119.978 Y-9.919
X-120.006 Y-9.898
X-120.04 Y-9.888
X-120.075 Y-9.89
X-120.107 Y-9.904
X-120.162 Y-9.94
X-120.702 Y-10.298
X-120.727 Y-10.322
X-120.743 Y-10.352
X-120.747 Y-10.386
X-120.74 Y-10.419
X-120.701 Y-10.504
X-120.69 Y-10.541
X-120.679 Y-10.588
X-120.671 Y-10.625
X-120.569 Y-10.735
X-120.428 Y-10.788
X-120.279 Y-10.799
X-120.13 Y-10.772
X-120.036 Y-10.706
X-119.974 Y-10.61
X-119.952 Y-10.498
Y-10.264
X-119.959 Y-10.23
X-119.977 Y-10.201
X-120.004 Y-10.18
X-120.037 Y-10.169
X-120.071
X-120.104 Y-10.182
X-120.631 Y-10.502
X-120.657 Y-10.524
X-120.674 Y-10.554
X-120.679 Y-10.588
X-120.675 Y-10.673
X-120.674 Y-10.719
X-120.671 Y-10.757
X-120.595 Y-10.886
X-120.468 Y-10.965
X-120.322 Y-11.001
X-120.172 Y-10.999
X-120.162 Y-10.995
X-120.053 Y-10.933
X-119.978 Y-10.832
X-119.952 Y-10.709
Y-10.498
X-119.96 Y-10.46
X-119.983 Y-10.429
X-120.015 Y-10.408
X-120.053 Y-10.401
X-120.09 Y-10.409
X-120.613 Y-10.628
X-120.645 Y-10.649
X-120.666 Y-10.681
X-120.674 Y-10.719
X-120.67 Y-10.842
Y-10.888
X-120.668 Y-10.926
X-120.606 Y-11.062
X-120.487 Y-11.154
X-120.346 Y-11.204
X-120.196 Y-11.209
X-120.178 Y-11.204
X-120.061 Y-11.145
X-119.981 Y-11.042
X-119.952 Y-10.913
Y-10.709
X-119.96 Y-10.673
X-119.981 Y-10.642
X-120.011 Y-10.621
X-120.047 Y-10.613
X-120.084 Y-10.618
X-120.603 Y-10.796
X-120.629 Y-10.81
X-120.651 Y-10.832
X-120.665 Y-10.858
X-120.67 Y-10.888
Y-11.057
X-120.666 Y-11.132
X-120.598 Y-11.266
X-120.479 Y-11.357
X-120.338 Y-11.409
X-120.188 Y-11.411
X-120.173 Y-11.407
X-120.059 Y-11.347
X-119.98 Y-11.244
X-119.952 Y-11.117
Y-10.913
X-119.959 Y-10.878
X-119.979 Y-10.848
X-120.008 Y-10.827
X-120.043 Y-10.817
X-120.078 Y-10.821
X-120.596 Y-10.964
X-120.625 Y-10.977
X-120.648 Y-10.999
X-120.664 Y-11.026
X-120.67 Y-11.057
Y-11.264
X-120.666 Y-11.339
X-120.594 Y-11.471
X-120.475 Y-11.562
X-120.334 Y-11.613
X-120.184 Y-11.614
X-120.171 Y-11.61
X-120.057 Y-11.55
X-119.979 Y-11.447
X-119.952 Y-11.321
Y-11.117
X-119.96 Y-11.082
X-119.979 Y-11.052
X-120.008 Y-11.031
X-120.043 Y-11.021
X-120.079 Y-11.025
X-120.597 Y-11.171
X-120.625 Y-11.185
X-120.648 Y-11.206
X-120.664 Y-11.233
X-120.67 Y-11.264
Y-11.433
X-120.666 Y-11.508
X-120.617 Y-11.65
X-120.506 Y-11.751
X-120.368 Y-11.809
X-120.218 Y-11.822
X-120.193 Y-11.817
X-120.069 Y-11.76
X-119.983 Y-11.655
X-119.952 Y-11.523
Y-11.321
X-119.959 Y-11.287
X-119.977 Y-11.258
X-120.005 Y-11.236
X-120.038 Y-11.226
X-120.073 Y-11.227
X-120.591 Y-11.339
X-120.621 Y-11.351
X-120.646 Y-11.372
X-120.663 Y-11.401
X-120.67 Y-11.433
Y-11.648
X-120.666 Y-11.723
X-120.608 Y-11.862
X-120.493 Y-11.958
X-120.354 Y-12.015
X-120.204 Y-12.022
X-120.183 Y-12.017
X-120.064 Y-11.958
X-119.981 Y-11.854
X-119.952 Y-11.725
Y-11.523
X-119.959 Y-11.488
X-119.978 Y-11.458
X-120.006 Y-11.437
X-120.04 Y-11.427
X-120.075 Y-11.429
X-120.593 Y-11.555
X-120.623 Y-11.567
X-120.647 Y-11.589
X-120.663 Y-11.617
X-120.67 Y-11.648
Y-11.855
X-120.666 Y-11.93
X-120.604 Y-12.067
X-120.489 Y-12.163
X-120.349 Y-12.218
X-120.199 Y-12.223
X-120.18 Y-12.219
X-120.062 Y-12.16
X-119.981 Y-12.056
X-119.952 Y-11.927
Y-11.725
X-119.959 Y-11.69
X-119.978 Y-11.66
X-120.007 Y-11.639
X-120.041 Y-11.629
X-120.076 Y-11.631
X-120.594 Y-11.762
X-120.624 Y-11.775
X-120.648 Y-11.796
X-120.663 Y-11.824
X-120.67 Y-11.855
Y-12.071
X-120.666 Y-12.146
X-120.596 Y-12.279
X-120.478 Y-12.371
X-120.337 Y-12.422
X-120.187 Y-12.424
X-120.173 Y-12.42
X-120.058 Y-12.36
X-119.98 Y-12.257
X-119.952 Y-12.131
Y-11.927
X-119.959 Y-11.892
X-119.979 Y-11.862
X-120.008 Y-11.841
X-120.043 Y-11.831
X-120.078 Y-11.834
X-120.596 Y-11.978
X-120.625 Y-11.991
X-120.648 Y-12.012
X-120.664 Y-12.04
X-120.67 Y-12.071
Y-12.278
X-120.666 Y-12.353
X-120.594 Y-12.484
X-120.475 Y-12.576
X-120.334 Y-12.626
X-120.184 Y-12.628
X-120.171 Y-12.624
X-120.057 Y-12.564
X-119.979 Y-12.461
X-119.952 Y-12.335
Y-12.131
X-119.96 Y-12.096
X-119.979 Y-12.066
X-120.008 Y-12.044
X-120.043 Y-12.035
X-120.079 Y-12.038
X-120.597 Y-12.185
X-120.625 Y-12.198
X-120.648 Y-12.219
X-120.664 Y-12.247
X-120.67 Y-12.278
Y-12.447
X-120.666 Y-12.522
X-120.617 Y-12.663
X-120.506 Y-12.764
X-120.368 Y-12.823
X-120.218 Y-12.836
X-120.192 Y-12.83
X-120.069 Y-12.774
X-119.983 Y-12.669
X-119.952 Y-12.536
Y-12.335
X-119.959 Y-12.301
X-119.977 Y-12.271
X-120.005 Y-12.25
X-120.038 Y-12.239
X-120.073 Y-12.241
X-120.591 Y-12.352
X-120.621 Y-12.364
X-120.646 Y-12.386
X-120.663 Y-12.414
X-120.67 Y-12.447
Y-12.662
X-120.666 Y-12.737
X-120.608 Y-12.875
X-120.493 Y-12.972
X-120.354 Y-13.028
X-120.204 Y-13.035
X-120.183 Y-13.03
X-120.064 Y-12.972
X-119.981 Y-12.868
X-119.952 Y-12.738
Y-12.536
X-119.959 Y-12.502
X-119.978 Y-12.472
X-120.006 Y-12.451
X-120.04 Y-12.44
X-120.075 Y-12.443
X-120.593 Y-12.568
X-120.623 Y-12.581
X-120.647 Y-12.602
X-120.663 Y-12.63
X-120.67 Y-12.662
Y-12.869
X-120.666 Y-12.944
X-120.604 Y-13.08
X-120.489 Y-13.177
X-120.349 Y-13.231
X-120.199 Y-13.237
X-120.18 Y-13.232
X-120.062 Y-13.173
X-119.981 Y-13.069
X-119.952 Y-12.941
Y-12.738
X-119.959 Y-12.703
X-119.978 Y-12.674
X-120.007 Y-12.652
X-120.041 Y-12.642
X-120.076 Y-12.645
X-120.594 Y-12.775
X-120.624 Y-12.788
X-120.648 Y-12.81
X-120.663 Y-12.837
X-120.67 Y-12.869
Y-13.084
X-120.666 Y-13.159
X-120.596 Y-13.292
X-120.478 Y-13.384
X-120.337 Y-13.436
X-120.187 Y-13.438
X-120.173 Y-13.434
X-120.058 Y-13.374
X-119.98 Y-13.271
X-119.952 Y-13.145
Y-12.941
X-119.959 Y-12.906
X-119.979 Y-12.876
X-120.008 Y-12.854
X-120.043 Y-12.845
X-120.078 Y-12.848
X-120.596 Y-12.991
X-120.625 Y-13.005
X-120.648 Y-13.026
X-120.664 Y-13.053
X-120.67 Y-13.084
Y-13.291
X-120.666 Y-13.366
X-120.594 Y-13.498
X-120.475 Y-13.589
X-120.334 Y-13.64
X-120.184 Y-13.641
X-120.171 Y-13.638
X-120.057 Y-13.577
X-119.979 Y-13.474
X-119.952 Y-13.349
Y-13.145
X-119.96 Y-13.109
X-119.979 Y-13.079
X-120.008 Y-13.058
X-120.043 Y-13.048
X-120.079 Y-13.052
X-120.597 Y-13.199
X-120.625 Y-13.212
X-120.648 Y-13.233
X-120.664 Y-13.26
X-120.67 Y-13.291
Y-13.46
X-120.666 Y-13.535
X-120.617 Y-13.677
X-120.506 Y-13.778
X-120.368 Y-13.836
X-120.218 Y-13.849
X-120.192 Y-13.844
X-120.069 Y-13.787
X-119.983 Y-13.682
X-119.952 Y-13.55
Y-13.349
X-119.959 Y-13.315
X-119.977 Y-13.285
X-120.005 Y-13.264
X-120.038 Y-13.253
X-120.073 Y-13.254
X-120.591 Y-13.366
X-120.621 Y-13.378
X-120.646 Y-13.4
X-120.663 Y-13.428
X-120.67 Y-13.46
Y-13.676
X-120.666 Y-13.75
X-120.608 Y-13.889
X-120.493 Y-13.985
X-120.354 Y-14.042
X-120.204 Y-14.049
X-120.183 Y-14.044
X-120.064 Y-13.985
X-119.981 Y-13.881
X-119.952 Y-13.752
Y-13.55
X-119.959 Y-13.515
X-119.978 Y-13.486
X-120.006 Y-13.464
X-120.04 Y-13.454
X-120.075 Y-13.456
X-120.593 Y-13.582
X-120.623 Y-13.594
X-120.647 Y-13.616
X-120.663 Y-13.644
X-120.67 Y-13.676
Y-13.883
X-120.666 Y-13.957
X-120.604 Y-14.094
X-120.489 Y-14.19
X-120.349 Y-14.245
X-120.199 Y-14.25
X-120.18 Y-14.246
X-120.062 Y-14.187
X-119.981 Y-14.083
X-119.952 Y-13.954
Y-13.752
X-119.959 Y-13.717
X-119.978 Y-13.687
X-120.007 Y-13.666
X-120.041 Y-13.656
X-120.076 Y-13.658
X-120.594 Y-13.789
X-120.624 Y-13.802
X-120.648 Y-13.823
X-120.663 Y-13.851
X-120.67 Y-13.883
Y-14.098
X-120.666 Y-14.173
X-120.596 Y-14.306
X-120.478 Y-14.398
X-120.337 Y-14.45
X-120.187 Y-14.451
X-120.173 Y-14.447
X-120.058 Y-14.387
X-119.98 Y-14.284
X-119.952 Y-14.158
Y-13.954
X-119.959 Y-13.919
X-119.979 Y-13.889
X-120.008 Y-13.868
X-120.043 Y-13.858
X-120.078 Y-13.861
X-120.596 Y-14.005
X-120.625 Y-14.018
X-120.648 Y-14.039
X-120.664 Y-14.067
X-120.67 Y-14.098
Y-14.305
X-120.666 Y-14.38
X-120.594 Y-14.511
X-120.475 Y-14.603
X-120.334 Y-14.653
X-120.184 Y-14.655
X-120.171 Y-14.651
X-120.057 Y-14.591
X-119.979 Y-14.488
X-119.952 Y-14.362
Y-14.158
X-119.96 Y-14.123
X-119.979 Y-14.093
X-120.008 Y-14.072
X-120.043 Y-14.062
X-120.079 Y-14.065
X-120.597 Y-14.212
X-120.625 Y-14.225
X-120.648 Y-14.247
X-120.664 Y-14.274
X-120.67 Y-14.305
Y-14.474
X-120.666 Y-14.549
X-120.617 Y-14.69
X-120.506 Y-14.792
X-120.368 Y-14.85
X-120.218 Y-14.863
X-120.192 Y-14.857
X-120.069 Y-14.801
X-119.983 Y-14.696
X-119.952 Y-14.563
Y-14.362
X-119.959 Y-14.328
X-119.977 Y-14.299
X-120.005 Y-14.277
X-120.038 Y-14.267
X-120.073 Y-14.268
X-120.591 Y-14.38
X-120.621 Y-14.392
X-120.646 Y-14.413
X-120.663 Y-14.441
X-120.67 Y-14.474
Y-14.689
X-120.666 Y-14.764
X-120.608 Y-14.902
X-120.493 Y-14.999
X-120.354 Y-15.055
X-120.204 Y-15.062
X-120.183 Y-15.057
X-120.064 Y-14.999
X-119.981 Y-14.895
X-119.952 Y-14.765
Y-14.563
X-119.959 Y-14.529
X-119.978 Y-14.499
X-120.006 Y-14.478
X-120.04 Y-14.468
X-120.075 Y-14.47
X-120.593 Y-14.595
X-120.623 Y-14.608
X-120.647 Y-14.629
X-120.663 Y-14.657
X-120.67 Y-14.689
Y-14.896
X-120.666 Y-14.971
X-120.604 Y-15.108
X-120.489 Y-15.204
X-120.349 Y-15.259
X-120.199 Y-15.264
X-120.18 Y-15.259
X-120.062 Y-15.2
X-119.981 Y-15.097
X-119.952 Y-14.968
Y-14.765
X-119.959 Y-14.731
X-119.978 Y-14.701
X-120.007 Y-14.679
X-120.041 Y-14.669
X-120.076 Y-14.672
X-120.594 Y-14.803
X-120.624 Y-14.815
X-120.648 Y-14.837
X-120.663 Y-14.865
X-120.67 Y-14.896
Y-15.111
X-120.666 Y-15.186
X-120.596 Y-15.319
X-120.478 Y-15.411
X-120.337 Y-15.463
X-120.187 Y-15.465
X-120.173 Y-15.461
X-120.058 Y-15.401
X-119.98 Y-15.298
X-119.952 Y-15.172
Y-14.968
X-119.959 Y-14.933
X-119.979 Y-14.903
X-120.008 Y-14.881
X-120.043 Y-14.872
X-120.078 Y-14.875
X-120.596 Y-15.019
X-120.625 Y-15.032
X-120.648 Y-15.053
X-120.664 Y-15.081
X-120.67 Y-15.111
Y-15.318
X-120.666 Y-15.393
X-120.594 Y-15.525
X-120.475 Y-15.616
X-120.334 Y-15.667
X-120.184 Y-15.668
X-120.171 Y-15.665
X-120.057 Y-15.604
X-119.979 Y-15.502
X-119.952 Y-15.376
Y-15.172
X-119.96 Y-15.136
X-119.979 Y-15.106
X-120.008 Y-15.085
X-120.043 Y-15.076
X-120.079 Y-15.079
X-120.597 Y-15.226
X-120.625 Y-15.239
X-120.648 Y-15.26
X-120.664 Y-15.288
X-120.67 Y-15.318
Y-15.487
X-120.666 Y-15.562
X-120.617 Y-15.704
X-120.506 Y-15.805
X-120.368 Y-15.863
X-120.218 Y-15.876
X-120.192 Y-15.871
X-120.069 Y-15.815
X-119.983 Y-15.709
X-119.952 Y-15.577
Y-15.376
X-119.959 Y-15.342
X-119.977 Y-15.312
X-120.005 Y-15.291
X-120.038 Y-15.28
X-120.073 Y-15.281
X-120.591 Y-15.393
X-120.621 Y-15.405
X-120.646 Y-15.427
X-120.663 Y-15.455
X-120.67 Y-15.487
Y-15.703
X-120.666 Y-15.778
X-120.608 Y-15.916
X-120.493 Y-16.012
X-120.354 Y-16.069
X-120.204 Y-16.076
X-120.183 Y-16.071
X-120.064 Y-16.012
X-119.981 Y-15.908
X-119.952 Y-15.779
Y-15.577
X-119.959 Y-15.542
X-119.978 Y-15.513
X-120.006 Y-15.491
X-120.04 Y-15.481
X-120.075 Y-15.483
X-120.593 Y-15.609
X-120.623 Y-15.622
X-120.647 Y-15.643
X-120.663 Y-15.671
X-120.67 Y-15.703
Y-15.91
X-120.666 Y-15.985
X-120.604 Y-16.121
X-120.489 Y-16.217
X-120.349 Y-16.272
X-120.199 Y-16.277
X-120.18 Y-16.273
X-120.062 Y-16.214
X-119.981 Y-16.11
X-119.952 Y-15.981
Y-15.779
X-119.959 Y-15.744
X-119.978 Y-15.714
X-120.007 Y-15.693
X-120.041 Y-15.683
X-120.076 Y-15.685
X-120.594 Y-15.816
X-120.624 Y-15.829
X-120.648 Y-15.85
X-120.663 Y-15.878
X-120.67 Y-15.91
Y-16.125
Y-16.163
Y-16.21
X-120.668 Y-16.239
X-120.601 Y-16.306
X-120.517 Y-16.349
X-120.425 Y-16.363
G3 X-120.301 Y-16.078 I-0.006 J0.172
X-120.67 Y-16.21 I-0.158 J-0.138
G1 Y-16.248
X-120.669 Y-16.258
X-120.666 Y-16.269
X-120.663 Y-16.279
X-120.658 Y-16.29
X-120.639 Y-16.321
X-120.63 Y-16.332
X-120.618 Y-16.343
X-120.606 Y-16.351
X-120.595 Y-16.356
X-120.584 Y-16.36
X-120.574 Y-16.362
X-120.563 Y-16.363
X-120.136
X-120.098
X-120.056
X-120.031 Y-16.358
X-120.024 Y-16.355
X-120.001 Y-16.335
X-119.991 Y-16.306
X-119.996 Y-16.275
X-120.014 Y-16.251
X-120.042 Y-16.238
X-120.073 Y-16.239
X-120.099 Y-16.255
X-120.115 Y-16.281
X-120.116 Y-16.312
X-120.103 Y-16.34
X-120.082 Y-16.357
X-120.056 Y-16.363
X-120.045 Y-16.362
X-120.035 Y-16.359
X-120.024 Y-16.355
X-120.013 Y-16.35
X-120.002 Y-16.342
X-119.991 Y-16.332
X-119.982 Y-16.321
X-119.963 Y-16.29
X-119.958 Y-16.279
X-119.955 Y-16.269
X-119.953 Y-16.258
X-119.952 Y-16.248
Y-15.981
X-119.957 Y-15.953
X-119.97 Y-15.928
X-119.998 Y-15.911 Z-0.983
X-120.024 Y-15.896 Z-0.966
X-120.042 Y-15.885 Z-0.939
X-120.052 Z-0.916
X-120.055 Z-0.89
G0 Z2
X-113.699 Y-9.699
Z0.5
G3 X-113.215 Y-9.823 Z0.29 I0.242 J-0.062 F333.3
X-113.699 Y-9.699 Z0.079 I-0.242 J0.062
X-113.215 Y-9.823 Z-0.131 I0.242 J-0.062
X-113.699 Y-9.699 Z-0.342 I-0.242 J0.062
X-113.215 Y-9.823 Z-0.552 I0.242 J-0.062
X-113.699 Y-9.699 Z-0.763 I-0.242 J0.062
X-113.489 Y-10.009 Z-0.876 I0.242 J-0.062
X-113.207 Y-9.761 Z-0.99 I0.031 J0.248
X-113.707 I-0.25
X-113.207 I0.25
G1 X-113.17 Y-9.616 F1000
X-113.183 Y-9.542
X-113.22 Y-9.477
X-113.327 Y-9.372
X-113.472 Y-9.332
X-113.62 Y-9.353
X-113.75 Y-9.427
X-113.847 Y-9.542
X-113.899 Y-9.682
X-113.901 Y-9.832
X-113.854 Y-9.975
X-113.762 Y-10.093
X-113.636 Y-10.175
X-113.49 Y-10.211
X-113.341 Y-10.197
X-113.205 Y-10.135
X-113.096 Y-10.031
X-113.018 Y-9.903
X-112.968 Y-9.762
X-112.957 Y-9.612
X-112.992 Y-9.466
X-113.063 Y-9.334
X-113.171 Y-9.23
X-113.302 Y-9.157
X-113.448 Y-9.124
X-113.598 Y-9.131
X-113.628 Y-9.139
X-113.683 Y-9.161
X-113.733 Y-9.194
X-113.775 Y-9.237
X-113.838 Y-9.301
X-113.922 Y-9.377
X-114.031 Y-9.481
X-114.092 Y-9.618
X-114.115 Y-9.766
X-114.103 Y-9.916
X-114.073 Y-10.004
X-114.039 Y-10.075
X-113.987 Y-10.134
X-113.922 Y-10.179
X-113.884 Y-10.188
X-113.845 Y-10.182
X-113.812 Y-10.162
X-113.789 Y-10.13
X-113.78 Y-10.092
X-113.777 Y-10.016
X-113.76 Y-9.459
X-113.765 Y-9.421
X-113.785 Y-9.389
X-113.815 Y-9.366
X-113.851 Y-9.356
X-113.889 Y-9.36
X-113.922 Y-9.377
X-113.955 Y-9.406
X-114.007 Y-9.445
X-114.117 Y-9.526
X-114.233 Y-9.621
X-114.294 Y-9.758
X-114.3 Y-9.823
X-114.288 Y-9.937
X-114.235 Y-10.039
X-114.147 Y-10.112
X-114.038 Y-10.148
X-114.004 Y-10.145
X-113.972 Y-10.131
X-113.948 Y-10.107
X-113.933 Y-10.076
X-113.929 Y-10.041
X-113.961 Y-9.602
X-113.969 Y-9.568
X-113.989 Y-9.539
X-114.017 Y-9.519
X-114.051 Y-9.509
X-114.085 Y-9.512
X-114.117 Y-9.526
X-114.261 Y-9.631
X-114.304 Y-9.659
X-114.367 Y-9.701
X-114.41 Y-9.811
X-114.405 Y-9.93
X-114.351 Y-10.036
X-114.258 Y-10.11
X-114.143 Y-10.139
X-114.105 Y-10.132
X-114.072 Y-10.111
X-114.05 Y-10.079
X-114.042 Y-10.041
X-114.049 Y-10.003
X-114.163 Y-9.711
X-114.18 Y-9.682
X-114.207 Y-9.66
X-114.238 Y-9.649
X-114.272 Y-9.648
X-114.304 Y-9.659
X-114.345 Y-9.684
X-114.43 Y-9.722
X-114.464 Y-9.738
X-114.509 Y-9.797
X-114.52 Y-9.918
X-114.474 Y-10.03
X-114.382 Y-10.109
X-114.264 Y-10.138
X-114.231 Y-10.131
X-114.202 Y-10.113
X-114.18 Y-10.087
X-114.169 Y-10.054
Y-10.02
X-114.181 Y-9.988
X-114.307 Y-9.766
X-114.33 Y-9.739
X-114.36 Y-9.721
X-114.395 Y-9.715
X-114.43 Y-9.722
X-114.514 Y-9.757
X-114.549 Y-9.772
X-114.603 Y-9.823
X-114.617 Y-9.934
X-114.577 Y-10.037
X-114.494 Y-10.111
X-114.386 Y-10.138
X-114.353 Y-10.131
X-114.325 Y-10.114
X-114.303 Y-10.089
X-114.291 Y-10.058
X-114.29 Y-10.024
X-114.3 Y-9.993
X-114.394 Y-9.807
X-114.415 Y-9.779
X-114.445 Y-9.76
X-114.479 Y-9.752
X-114.514 Y-9.757
X-114.645 Y-9.805
X-114.68 Y-9.819
X-114.708 Y-9.925
X-114.68 Y-10.032
X-114.602 Y-10.109
X-114.496 Y-10.138
X-114.467 Y-10.132
X-114.441 Y-10.117
X-114.421 Y-10.095
G3 X-114.645 Y-9.805 I-0.164 J0.105
G1 X-114.71 Y-9.828
X-114.745 Y-9.843
X-114.791 Y-9.902
X-114.788 Y-10.014
X-114.72 Y-10.104
X-114.613 Y-10.138
X-114.59 Y-10.134
X-114.57 Y-10.124
G3 X-114.71 Y-9.828 I-0.089 J0.139
G1 X-114.768 Y-9.849
X-114.815 Y-9.861
X-114.85 Y-9.873
X-114.892 Y-9.935
X-114.877 Y-10.034
X-114.811 Y-10.11
X-114.715 Y-10.138
X-114.684 Y-10.13
X-114.66 Y-10.11
G3 X-114.815 Y-9.861 I-0.121 J0.098
G1 X-114.899 Y-9.883
X-114.935 Y-9.894
X-114.978 Y-9.955
X-114.964 Y-10.045
X-114.904 Y-10.112
X-114.818 Y-10.138
X-114.794 Y-10.132
X-114.773 Y-10.119
G3 X-114.899 Y-9.883 I-0.097 J0.1
G1 X-114.982 Y-9.904
X-115.019 Y-9.913
X-115.022
X-115.063 Y-9.924
Y-10.025
X-115.004 Y-10.107
X-114.908 Y-10.138
X-114.882 Y-10.131
X-114.862 Y-10.114
X-114.851 Y-10.09
X-114.849 Y-10.042
X-114.862 Y-9.996
X-114.89 Y-9.956
X-114.928 Y-9.928
X-114.974 Y-9.913
X-115.022
X-115.064 Y-9.922
X-115.085 Y-9.927
X-115.096 Y-9.931
X-115.122 Y-9.948
X-115.133 Y-9.97
X-115.134 Y-9.995
X-115.125 Y-10.018
X-115.104 Y-10.037
X-115.077 Y-10.044
X-115.049 Y-10.037
X-115.028 Y-10.017
X-115.019 Y-9.99
X-115.024 Y-9.962
X-115.042 Y-9.94
X-115.068 Y-9.929
X-115.096 Y-9.931
X-115.107 Y-9.937
X-115.122 Y-9.948
X-115.138 Y-9.967
X-115.146 Y-9.982
X-115.152 Y-9.997
X-115.154 Y-10.008
X-115.155 Y-10.018
Y-10.029
X-115.153 Y-10.039
X-115.151 Y-10.05
X-115.147 Y-10.06
X-115.142 Y-10.071
X-115.135 Y-10.082
X-115.122 Y-10.098
X-115.107 Y-10.114
X-115.096 Y-10.122
X-115.085 Y-10.128
X-115.075 Y-10.132
X-115.064 Y-10.135
X-115.054 Y-10.137
X-115.022 Y-10.138
X-114.176
X-114.091 Y-10.141
X-114.007 Y-10.152
X-113.958 Y-10.166
X-113.922 Y-10.179
X-113.838 Y-10.222
X-113.797 Y-10.25
X-113.773 Y-10.271
X-113.653 Y-10.361
X-113.51 Y-10.407
X-113.36 Y-10.41
X-113.214 Y-10.378
X-113.079 Y-10.311
X-112.963 Y-10.216
X-112.929 Y-10.174
X-112.892 Y-10.117
X-112.869 Y-10.052
X-112.861 Y-9.984
Y-9.49
X-112.868 Y-9.34
X-112.925 Y-9.202
X-113.02 Y-9.085
X-113.14 Y-8.996
X-113.277 Y-8.934
X-113.318 Y-8.925
X-113.436 Y-8.922
X-113.546 Y-8.965
X-113.631 Y-9.047
X-113.646 Y-9.083
X-113.645 Y-9.122
X-113.63 Y-9.157
X-113.602 Y-9.184
X-113.495 Y-9.255
X-113.016 Y-9.57
X-112.983 Y-9.584
X-112.948 Y-9.586
X-112.915 Y-9.576
X-112.887 Y-9.554
X-112.868 Y-9.525
X-112.861 Y-9.49
Y-9.19
X-112.868 Y-9.041
X-112.944 Y-8.911
X-113.054 Y-8.809
X-113.187 Y-8.741
X-113.2 Y-8.738
X-113.325 Y-8.737
X-113.439 Y-8.787
X-113.523 Y-8.879
X-113.535 Y-8.916
X-113.532 Y-8.955
X-113.513 Y-8.989
X-113.484 Y-9.014
X-113.009 Y-9.275
X-112.977 Y-9.286
X-112.943 Y-9.285
X-112.911 Y-9.274
X-112.885 Y-9.252
X-112.868 Y-9.224
X-112.861 Y-9.19
Y-8.937
X-112.865 Y-8.862
X-112.914 Y-8.72
X-113.018 Y-8.612
X-113.056 Y-8.594
X-113.171 Y-8.566
X-113.287 Y-8.585
X-113.387 Y-8.647
X-113.456 Y-8.742
X-113.464 Y-8.781
X-113.455 Y-8.82
X-113.433 Y-8.853
X-113.399 Y-8.874
X-112.996 Y-9.027
X-112.959 Y-9.034
X-112.922 Y-9.026
X-112.891 Y-9.005
X-112.869 Y-8.974
X-112.861 Y-8.937
Y-8.684
Y-8.646
Y-8.599
X-112.863 Y-8.564
X-112.887 Y-8.537
X-112.951 Y-8.482
X-113.028 Y-8.448
X-113.111 Y-8.436
G3 X-113.243 Y-8.728 I0.006 J-0.179
X-112.861 Y-8.599 I0.167 J0.136
G1 Y-8.561
X-112.862 Y-8.54
X-112.864 Y-8.529
X-112.868 Y-8.519
X-112.873 Y-8.508
X-112.893 Y-8.477
X-112.907 Y-8.461
X-112.918 Y-8.453
X-112.928 Y-8.447
X-112.939 Y-8.442
X-112.949 Y-8.439
X-112.96 Y-8.437
X-112.97 Y-8.436
X-113.245
X-113.266 Y-8.437
X-113.277 Y-8.438
X-113.288 Y-8.441
X-113.298 Y-8.445
X-113.309 Y-8.45
X-113.319 Y-8.458
X-113.33 Y-8.467
X-113.355 Y-8.498
X-113.362 Y-8.508
X-113.367 Y-8.519
X-113.381 Y-8.561
X-113.415 Y-8.646
X-113.462 Y-8.756
X-113.499 Y-8.837
X-113.535 Y-8.899
X-113.588 Y-8.983
X-113.668 Y-9.1
X-113.707 Y-9.152
X-113.775 Y-9.237
X-113.789 Y-9.264
X-113.794 Y-9.295
X-113.797 Y-9.495
X-113.806 Y-10.195
X-113.803 Y-10.223
X-113.791 Y-10.249
X-113.773 Y-10.271
X-113.753 Y-10.287
X-113.696 Y-10.349
X-113.686 Y-10.362
X-113.649 Y-10.419
X-113.609 Y-10.483
X-113.486 Y-10.569
X-113.339 Y-10.6
X-113.19 Y-10.588
X-113.047 Y-10.543
X-113.017 Y-10.527
X-112.934 Y-10.46
X-112.88 Y-10.368
X-112.861 Y-10.264
Y-9.984
X-112.868 Y-9.95
X-112.887 Y-9.92
X-112.915 Y-9.899
X-112.948 Y-9.888
X-112.983 Y-9.89
X-113.016 Y-9.904
X-113.074 Y-9.942
X-113.613 Y-10.295
X-113.638 Y-10.319
X-113.654 Y-10.351
X-113.658 Y-10.385
X-113.649 Y-10.419
X-113.629 Y-10.462
X-113.611 Y-10.504
X-113.599 Y-10.55
X-113.576 Y-10.622
X-113.474 Y-10.732
X-113.334 Y-10.786
X-113.185 Y-10.797
X-113.107 Y-10.783
X-112.981 Y-10.728
X-112.893 Y-10.622
X-112.861 Y-10.488
Y-10.264
X-112.87 Y-10.225
X-112.893 Y-10.193
X-112.927 Y-10.173
X-112.966 Y-10.167
X-113.004 Y-10.177
X-113.545 Y-10.437
X-113.572 Y-10.457
X-113.592 Y-10.484
X-113.601 Y-10.517
X-113.599 Y-10.55
X-113.589 Y-10.588
X-113.586 Y-10.599
X-113.584 Y-10.673
X-113.578 Y-10.748
X-113.506 Y-10.879
X-113.38 Y-10.96
X-113.235 Y-10.997
X-113.085 Y-10.992
X-113.065 Y-10.985
X-112.959 Y-10.923
X-112.886 Y-10.822
X-112.861 Y-10.701
Y-10.488
X-112.869 Y-10.451
X-112.89 Y-10.421
X-112.921 Y-10.399
X-112.957 Y-10.391
X-112.994 Y-10.397
X-113.517 Y-10.579
X-113.544 Y-10.593
X-113.566 Y-10.615
X-113.579 Y-10.643
X-113.584 Y-10.673
X-113.579 Y-10.842
Y-10.888
X-113.577 Y-10.926
X-113.513 Y-11.061
X-113.393 Y-11.151
X-113.251 Y-11.2
X-113.101 Y-11.202
X-113.084 Y-11.198
X-112.968 Y-11.138
X-112.889 Y-11.035
X-112.861 Y-10.908
Y-10.701
X-112.869 Y-10.665
X-112.89 Y-10.634
X-112.921 Y-10.613
X-112.958 Y-10.605
X-112.995 Y-10.61
X-113.513 Y-10.797
X-113.547 Y-10.817
X-113.57 Y-10.849
X-113.579 Y-10.888
Y-11.057
X-113.575 Y-11.132
X-113.505 Y-11.265
X-113.385 Y-11.355
X-113.243 Y-11.404
X-113.093 Y-11.405
X-113.08 Y-11.401
X-112.966 Y-11.341
X-112.888 Y-11.238
X-112.861 Y-11.112
Y-10.908
X-112.869 Y-10.872
X-112.888 Y-10.842
X-112.918 Y-10.821
X-112.953 Y-10.811
X-112.989 Y-10.815
X-113.507 Y-10.965
X-113.535 Y-10.978
X-113.558 Y-10.999
X-113.573 Y-11.026
X-113.579 Y-11.057
Y-11.226
X-113.575 Y-11.301
X-113.525 Y-11.443
X-113.414 Y-11.543
X-113.276 Y-11.601
X-113.126 Y-11.613
X-113.101 Y-11.608
X-112.977 Y-11.551
X-112.892 Y-11.446
X-112.861 Y-11.314
Y-11.112
X-112.868 Y-11.078
X-112.887 Y-11.049
X-112.914 Y-11.027
X-112.947 Y-11.017
X-112.982 Y-11.018
X-113.5 Y-11.132
X-113.531 Y-11.144
X-113.556 Y-11.166
X-113.572 Y-11.194
X-113.579 Y-11.226
Y-11.433
X-113.575 Y-11.508
X-113.522 Y-11.648
X-113.409 Y-11.747
X-113.271 Y-11.805
X-113.121 Y-11.814
X-113.097 Y-11.809
X-112.975 Y-11.751
X-112.891 Y-11.647
X-112.861 Y-11.516
Y-11.314
X-112.868 Y-11.28
X-112.887 Y-11.25
X-112.915 Y-11.229
X-112.948 Y-11.218
X-112.983 Y-11.22
X-113.501 Y-11.339
X-113.531 Y-11.351
X-113.556 Y-11.373
X-113.572 Y-11.401
X-113.579 Y-11.433
Y-11.648
X-113.575 Y-11.723
X-113.513 Y-11.86
X-113.397 Y-11.955
X-113.257 Y-12.009
X-113.107 Y-12.014
X-113.088 Y-12.009
X-112.97 Y-11.95
X-112.89 Y-11.847
X-112.861 Y-11.718
Y-11.516
X-112.868 Y-11.481
X-112.888 Y-11.451
X-112.916 Y-11.43
X-112.95 Y-11.42
X-112.986 Y-11.422
X-113.504 Y-11.555
X-113.533 Y-11.568
X-113.557 Y-11.589
X-113.572 Y-11.617
X-113.579 Y-11.648
Y-11.855
X-113.575 Y-11.93
X-113.51 Y-12.065
X-113.393 Y-12.16
X-113.253 Y-12.213
X-113.103 Y-12.216
X-113.086 Y-12.212
X-112.969 Y-12.153
X-112.889 Y-12.049
X-112.861 Y-11.922
Y-11.718
X-112.868 Y-11.684
X-112.888 Y-11.654
X-112.916 Y-11.632
X-112.951 Y-11.622
X-112.986 Y-11.625
X-113.504 Y-11.762
X-113.533 Y-11.775
X-113.557 Y-11.796
X-113.573 Y-11.824
X-113.579 Y-11.855
Y-12.071
X-113.575 Y-12.146
X-113.502 Y-12.277
X-113.382 Y-12.367
X-113.241 Y-12.417
X-113.091 Y-12.418
X-113.079 Y-12.414
X-112.966 Y-12.354
X-112.888 Y-12.251
X-112.861 Y-12.126
Y-11.922
X-112.869 Y-11.886
X-112.888 Y-11.856
X-112.918 Y-11.835
X-112.952 Y-11.825
X-112.988 Y-11.829
X-113.506 Y-11.978
X-113.535 Y-11.991
X-113.558 Y-12.013
X-113.573 Y-12.04
X-113.579 Y-12.071
Y-12.24
X-113.575 Y-12.315
X-113.524 Y-12.456
X-113.413 Y-12.556
X-113.275 Y-12.614
X-113.125 Y-12.626
X-113.1 Y-12.621
X-112.977 Y-12.565
X-112.891 Y-12.459
X-112.861 Y-12.327
Y-12.126
X-112.868 Y-12.092
X-112.887 Y-12.062
X-112.914 Y-12.041
X-112.947 Y-12.03
X-112.982 Y-12.032
X-113.5 Y-12.145
X-113.531 Y-12.158
X-113.556 Y-12.179
X-113.572 Y-12.207
X-113.579 Y-12.24
Y-12.447
X-113.575 Y-12.522
X-113.521 Y-12.662
X-113.408 Y-12.76
X-113.27 Y-12.818
X-113.12 Y-12.827
X-113.097 Y-12.822
X-112.975 Y-12.764
X-112.891 Y-12.66
X-112.861 Y-12.529
Y-12.327
X-112.868 Y-12.293
X-112.887 Y-12.263
X-112.915 Y-12.242
X-112.948 Y-12.232
X-112.983 Y-12.233
X-113.501 Y-12.353
X-113.531 Y-12.365
X-113.556 Y-12.386
X-113.572 Y-12.415
X-113.579 Y-12.447
Y-12.662
X-113.575 Y-12.737
X-113.512 Y-12.873
X-113.396 Y-12.968
X-113.256 Y-13.023
X-113.106 Y-13.027
X-113.088 Y-13.023
X-112.97 Y-12.963
X-112.89 Y-12.86
X-112.861 Y-12.732
Y-12.529
X-112.868 Y-12.494
X-112.888 Y-12.464
X-112.916 Y-12.443
X-112.95 Y-12.433
X-112.986 Y-12.435
X-113.504 Y-12.569
X-113.533 Y-12.581
X-113.557 Y-12.603
X-113.572 Y-12.631
X-113.579 Y-12.662
Y-12.869
X-113.575 Y-12.944
X-113.509 Y-13.079
X-113.392 Y-13.173
X-113.252 Y-13.226
X-113.102 Y-13.23
X-113.086 Y-13.225
X-112.969 Y-13.166
X-112.889 Y-13.062
X-112.861 Y-12.935
Y-12.732
X-112.868 Y-12.697
X-112.888 Y-12.667
X-112.916 Y-12.645
X-112.951 Y-12.636
X-112.986 Y-12.638
X-113.504 Y-12.776
X-113.533 Y-12.789
X-113.557 Y-12.81
X-113.573 Y-12.838
X-113.579 Y-12.869
Y-13.084
X-113.575 Y-13.159
X-113.502 Y-13.29
X-113.382 Y-13.381
X-113.241 Y-13.431
X-113.091
X-113.078 Y-13.428
X-112.965 Y-13.367
X-112.888 Y-13.264
X-112.861 Y-13.139
Y-12.935
X-112.869 Y-12.9
X-112.888 Y-12.869
X-112.918 Y-12.848
X-112.953 Y-12.839
X-112.988 Y-12.842
X-113.506 Y-12.992
X-113.535 Y-13.005
X-113.558 Y-13.026
X-113.573 Y-13.054
X-113.579 Y-13.084
Y-13.253
X-113.575 Y-13.328
X-113.524 Y-13.469
X-113.413 Y-13.57
X-113.274 Y-13.627
X-113.125 Y-13.64
X-113.1 Y-13.634
X-112.977 Y-13.578
X-112.891 Y-13.473
X-112.861 Y-13.341
Y-13.139
X-112.868 Y-13.105
X-112.887 Y-13.076
X-112.914 Y-13.054
X-112.947 Y-13.044
X-112.982 Y-13.045
X-113.5 Y-13.159
X-113.531 Y-13.171
X-113.556 Y-13.193
X-113.572 Y-13.221
X-113.579 Y-13.253
Y-13.46
X-113.575 Y-13.535
X-113.521 Y-13.675
X-113.408 Y-13.773
X-113.27 Y-13.832
X-113.12 Y-13.84
X-113.096 Y-13.835
X-112.975 Y-13.778
X-112.891 Y-13.673
X-112.861 Y-13.542
Y-13.341
X-112.868 Y-13.306
X-112.887 Y-13.277
X-112.915 Y-13.255
X-112.948 Y-13.245
X-112.983 Y-13.247
X-113.501 Y-13.366
X-113.531 Y-13.379
X-113.556 Y-13.4
X-113.572 Y-13.428
X-113.579 Y-13.46
Y-13.676
X-113.575 Y-13.75
X-113.512 Y-13.887
X-113.396 Y-13.982
X-113.256 Y-14.036
X-113.106 Y-14.041
X-113.087 Y-14.036
X-112.97 Y-13.977
X-112.89 Y-13.873
X-112.861 Y-13.745
Y-13.542
X-112.868 Y-13.507
X-112.888 Y-13.477
X-112.916 Y-13.456
X-112.95 Y-13.446
X-112.986 Y-13.449
X-113.504 Y-13.582
X-113.533 Y-13.595
X-113.557 Y-13.616
X-113.573 Y-13.644
X-113.579 Y-13.676
Y-13.883
X-113.575 Y-13.957
X-113.509 Y-14.092
X-113.392 Y-14.186
X-113.252 Y-14.239
X-113.102 Y-14.243
X-113.086 Y-14.239
X-112.969 Y-14.179
X-112.889 Y-14.076
X-112.861 Y-13.948
Y-13.745
X-112.868 Y-13.71
X-112.888 Y-13.68
X-112.917 Y-13.659
X-112.951 Y-13.649
X-112.986 Y-13.652
X-113.504 Y-13.789
X-113.533 Y-13.802
X-113.557 Y-13.824
X-113.573 Y-13.851
X-113.579 Y-13.883
Y-14.098
X-113.575 Y-14.173
X-113.502 Y-14.304
X-113.382 Y-14.394
X-113.241 Y-14.444
X-113.091
X-113.078 Y-14.441
X-112.965 Y-14.38
X-112.888 Y-14.278
X-112.861 Y-14.153
Y-13.948
X-112.869 Y-13.913
X-112.888 Y-13.883
X-112.918 Y-13.861
X-112.953 Y-13.852
X-112.989 Y-13.856
X-113.507 Y-14.005
X-113.535 Y-14.019
X-113.558 Y-14.04
X-113.573 Y-14.067
X-113.579 Y-14.098
Y-14.267
X-113.575 Y-14.342
X-113.524 Y-14.483
X-113.412 Y-14.583
X-113.274 Y-14.641
X-113.124 Y-14.653
X-113.1 Y-14.648
X-112.977 Y-14.591
X-112.891 Y-14.486
X-112.861 Y-14.354
Y-14.153
X-112.868 Y-14.118
X-112.887 Y-14.089
X-112.914 Y-14.068
X-112.947 Y-14.057
X-112.982 Y-14.058
X-113.5 Y-14.173
X-113.531 Y-14.185
X-113.556 Y-14.206
X-113.572 Y-14.235
X-113.579 Y-14.267
Y-14.474
X-113.575 Y-14.549
X-113.521 Y-14.689
X-113.408 Y-14.787
X-113.269 Y-14.845
X-113.12 Y-14.854
X-113.096 Y-14.848
X-112.975 Y-14.791
X-112.891 Y-14.686
X-112.861 Y-14.555
Y-14.354
X-112.868 Y-14.32
X-112.887 Y-14.29
X-112.915 Y-14.269
X-112.948 Y-14.258
X-112.983 Y-14.26
X-113.501 Y-14.38
X-113.531 Y-14.392
X-113.556 Y-14.414
X-113.572 Y-14.442
X-113.579 Y-14.474
Y-14.689
X-113.575 Y-14.764
X-113.512 Y-14.9
X-113.396 Y-14.995
X-113.256 Y-15.049
X-113.106 Y-15.054
X-113.087 Y-15.049
X-112.97 Y-14.99
X-112.89 Y-14.886
X-112.861 Y-14.758
Y-14.555
X-112.868 Y-14.521
X-112.888 Y-14.491
X-112.916 Y-14.469
X-112.95 Y-14.459
X-112.986 Y-14.462
X-113.504 Y-14.596
X-113.533 Y-14.609
X-113.557 Y-14.63
X-113.573 Y-14.658
X-113.579 Y-14.689
Y-14.896
X-113.575 Y-14.971
X-113.509 Y-15.106
X-113.392 Y-15.2
X-113.252 Y-15.253
X-113.102 Y-15.256
X-113.085 Y-15.252
X-112.969 Y-15.192
X-112.889 Y-15.089
X-112.861 Y-14.962
Y-14.758
X-112.868 Y-14.723
X-112.888 Y-14.693
X-112.917 Y-14.672
X-112.951 Y-14.662
X-112.986 Y-14.665
X-113.504 Y-14.803
X-113.533 Y-14.816
X-113.557 Y-14.837
X-113.573 Y-14.865
X-113.579 Y-14.896
Y-15.111
X-113.575 Y-15.186
X-113.502 Y-15.317
X-113.382 Y-15.407
X-113.24 Y-15.458
X-113.09
X-113.078 Y-15.454
X-112.965 Y-15.393
X-112.888 Y-15.291
X-112.861 Y-15.166
Y-14.962
X-112.869 Y-14.926
X-112.888 Y-14.896
X-112.918 Y-14.875
X-112.953 Y-14.865
X-112.989 Y-14.869
X-113.507 Y-15.019
X-113.535 Y-15.032
X-113.558 Y-15.054
X-113.573 Y-15.081
X-113.579 Y-15.111
Y-15.28
X-113.575 Y-15.355
X-113.524 Y-15.496
X-113.412 Y-15.597
X-113.274 Y-15.654
X-113.124 Y-15.666
X-113.1 Y-15.661
X-112.977 Y-15.604
X-112.891 Y-15.499
X-112.861 Y-15.367
Y-15.166
X-112.868 Y-15.132
X-112.887 Y-15.102
X-112.914 Y-15.081
X-112.947 Y-15.07
X-112.982 Y-15.072
X-113.5 Y-15.186
X-113.531 Y-15.199
X-113.556 Y-15.22
X-113.572 Y-15.248
X-113.579 Y-15.28
Y-15.487
X-113.575 Y-15.562
X-113.521 Y-15.702
X-113.407 Y-15.8
X-113.269 Y-15.858
X-113.119 Y-15.867
X-113.096 Y-15.862
X-112.975 Y-15.804
X-112.891 Y-15.7
X-112.861 Y-15.569
Y-15.367
X-112.868 Y-15.333
X-112.887 Y-15.303
X-112.915 Y-15.282
X-112.948 Y-15.272
X-112.983 Y-15.273
X-113.501 Y-15.393
X-113.531 Y-15.406
X-113.556 Y-15.427
X-113.572 Y-15.455
X-113.579 Y-15.487
Y-15.703
X-113.575 Y-15.778
X-113.512 Y-15.914
X-113.395 Y-16.009
X-113.256 Y-16.063
X-113.106 Y-16.067
X-113.087 Y-16.063
X-112.97 Y-16.003
X-112.89 Y-15.9
X-112.861 Y-15.772
Y-15.569
X-112.868 Y-15.534
X-112.888 Y-15.504
X-112.916 Y-15.483
X-112.95 Y-15.473
X-112.986 Y-15.476
X-113.504 Y-15.609
X-113.533 Y-15.622
X-113.557 Y-15.644
X-113.573 Y-15.671
X-113.579 Y-15.703
Y-15.91
X-113.575 Y-15.985
X-113.509 Y-16.119
X-113.392 Y-16.213
X-113.252 Y-16.266
X-113.102 Y-16.27
X-113.085 Y-16.265
X-112.969 Y-16.206
X-112.889 Y-16.102
X-112.861 Y-15.975
Y-15.772
X-112.868 Y-15.737
X-112.888 Y-15.707
X-112.917 Y-15.686
X-112.951 Y-15.676
X-112.987 Y-15.679
X-113.505 Y-15.817
X-113.534 Y-15.829
X-113.557 Y-15.851
X-113.573 Y-15.879
X-113.579 Y-15.91
Y-16.125
Y-16.163
Y-16.21
X-113.577 Y-16.239
X-113.571 Y-16.247
X-113.505 Y-16.309
X-113.423 Y-16.349
X-113.333 Y-16.363
G3 X-113.21 Y-16.078 I-0.006 J0.172
X-113.579 Y-16.21 I-0.158 J-0.138
G1 Y-16.248
X-113.578 Y-16.258
X-113.575 Y-16.269
X-113.572 Y-16.279
X-113.567 Y-16.29
X-113.561 Y-16.3
X-113.534 Y-16.332
X-113.517 Y-16.347
X-113.499 Y-16.356
X-113.489 Y-16.36
X-113.478 Y-16.362
X-113.457 Y-16.363
X-113.076
X-113.03
X-112.992
X-112.945 Y-16.353
X-112.905 Y-16.329
X-112.874 Y-16.293
X-112.862 Y-16.255
X-112.865 Y-16.217
X-112.883 Y-16.182
X-112.913 Y-16.157
X-113.192 Y-16.093
X-113.296 Y-16.069
X-113.331 Y-16.068
X-113.364 Y-16.078
X-113.392 Y-16.1
X-113.41 Y-16.13
X-113.417 Y-16.164
X-113.412 Y-16.199
X-113.395 Y-16.23
X-113.368 Y-16.253
G3 X-112.992 Y-16.363 I0.404 J0.68
G1 X-112.97
X-112.96 Y-16.362
X-112.949 Y-16.36
X-112.939 Y-16.357
X-112.928 Y-16.353
X-112.918 Y-16.346
X-112.907 Y-16.338
X-112.9 Y-16.332
X-112.892 Y-16.321
X-112.872 Y-16.29
X-112.867 Y-16.279
X-112.864 Y-16.269
X-112.862 Y-16.258
X-112.861 Y-16.248
Y-15.975
X-112.866 Y-15.947
X-112.879 Y-15.922
X-112.908 Y-15.905 Z-0.983
X-112.933 Y-15.89 Z-0.966
X-112.951 Y-15.879 Z-0.939
X-112.961 Z-0.916
X-112.964 Z-0.89
G0 Z2
X-106.611 Y-9.709
Z0.5
G3 X-106.127 Y-9.833 Z0.29 I0.242 J-0.062 F333.3
X-106.611 Y-9.709 Z0.079 I-0.242 J0.062
X-106.127 Y-9.833 Z-0.131 I0.242 J-0.062
X-106.611 Y-9.709 Z-0.342 I-0.242 J0.062
X-106.127 Y-9.833 Z-0.552 I0.242 J-0.062
X-106.611 Y-9.709 Z-0.763 I-0.242 J0.062
X-106.4 Y-10.019 Z-0.876 I0.242 J-0.062
X-106.119 Y-9.771 Z-0.99 I0.031 J0.248
X-106.619 I-0.25
X-106.119 I0.25
G1 X-106.082 Y-9.626 F1000
X-106.095 Y-9.552
X-106.132 Y-9.487
X-106.239 Y-9.381
X-106.383 Y-9.342
X-106.532 Y-9.363
X-106.662 Y-9.437
X-106.759 Y-9.552
X-106.811 Y-9.692
X-106.813 Y-9.842
X-106.766 Y-9.984
X-106.674 Y-10.103
X-106.548 Y-10.185
X-106.402 Y-10.221
X-106.253 Y-10.207
X-106.116 Y-10.144
X-106.008 Y-10.041
X-105.93 Y-9.913
X-105.879 Y-9.771
X-105.869 Y-9.622
X-105.904 Y-9.476
X-105.975 Y-9.344
X-106.083 Y-9.24
X-106.214 Y-9.167
X-106.36 Y-9.133
X-106.474 Y-9.139
X-106.551 Y-9.153
X-106.622 Y-9.186
X-106.683 Y-9.237
X-106.731 Y-9.29
X-106.765 Y-9.321
X-106.816 Y-9.364
X-106.925 Y-9.467
X-106.993 Y-9.601
X-107.025 Y-9.747
X-107.02 Y-9.897
X-106.977 Y-10.041
X-106.957 Y-10.077
X-106.927 Y-10.119
X-106.89 Y-10.156
X-106.847 Y-10.186
X-106.809 Y-10.198
X-106.77 Y-10.194
X-106.736 Y-10.174
X-106.711 Y-10.143
X-106.701 Y-10.105
X-106.693 Y-10.002
X-106.654 Y-9.45
X-106.658 Y-9.412
X-106.677 Y-9.378
X-106.707 Y-9.354
X-106.743 Y-9.343
X-106.782 Y-9.347
X-106.816 Y-9.364
X-106.9 Y-9.437
X-106.985 Y-9.5
X-107.031 Y-9.533
X-107.15 Y-9.625
X-107.209 Y-9.762
X-107.215 Y-9.819
X-107.203 Y-9.934
X-107.15 Y-10.036
X-107.061 Y-10.11
X-106.951 Y-10.145
X-106.917 Y-10.142
X-106.886 Y-10.127
X-106.861 Y-10.103
X-106.847 Y-10.072
X-106.843 Y-10.038
X-106.877 Y-9.608
X-106.886 Y-9.575
X-106.905 Y-9.547
X-106.933 Y-9.527
X-106.966 Y-9.517
X-107 Y-9.519
X-107.031 Y-9.533
X-107.154 Y-9.619
X-107.213 Y-9.659
X-107.239 Y-9.674
X-107.271 Y-9.693
X-107.316 Y-9.753
X-107.336 Y-9.884
X-107.292 Y-10.01
X-107.195 Y-10.102
X-107.067 Y-10.138
X-107.034 Y-10.133
X-107.005 Y-10.117
X-106.982 Y-10.092
X-106.969 Y-10.061
X-106.968 Y-10.027
X-106.977 Y-9.995
X-107.108 Y-9.722
X-107.131 Y-9.691
X-107.163 Y-9.671
X-107.201 Y-9.665
X-107.239 Y-9.674
X-107.323 Y-9.715
X-107.391 Y-9.748
X-107.435 Y-9.809
X-107.442 Y-9.926
X-107.395 Y-10.035
X-107.305 Y-10.111
X-107.191 Y-10.138
X-107.153 Y-10.129
X-107.122 Y-10.107
X-107.101 Y-10.075
X-107.094 Y-10.038
X-107.101 Y-10
X-107.195 Y-9.771
X-107.216 Y-9.739
X-107.248 Y-9.717
X-107.285 Y-9.708
X-107.323 Y-9.715
X-107.408 Y-9.751
X-107.433 Y-9.761
X-107.468 Y-9.777
X-107.523 Y-9.827
X-107.538 Y-9.936
X-107.5 Y-10.038
X-107.418 Y-10.111
X-107.311 Y-10.138
X-107.281 Y-10.132
X-107.253 Y-10.119
G3 X-107.433 Y-9.761 I-0.113 J0.167
G1 X-107.492 Y-9.784
X-107.539 Y-9.8
X-107.574 Y-9.814
X-107.625 Y-9.869
X-107.632 Y-9.965
X-107.595 Y-10.053
X-107.522 Y-10.115
X-107.429 Y-10.138
X-107.402 Y-10.133
X-107.378 Y-10.12
G3 X-107.539 Y-9.8 I-0.108 J0.146
G1 X-107.621 Y-9.828
X-107.655 Y-9.842
X-107.711 Y-9.892
X-107.713 Y-10.007
X-107.646 Y-10.102
X-107.536 Y-10.138
X-107.516 Y-10.135
X-107.496 Y-10.127
G3 X-107.621 Y-9.828 I-0.077 J0.143
G1 X-107.708 Y-9.857
X-107.743 Y-9.871
X-107.77 Y-9.897
X-107.81 Y-9.96
X-107.793 Y-10.048
X-107.733 Y-10.113
X-107.647 Y-10.138
X-107.612 Y-10.13
G3 X-107.708 Y-9.857 I-0.056 J0.134
G1 X-107.746 Y-9.87
X-107.793 Y-9.881
X-107.829 Y-9.891
X-107.884 Y-9.942
Y-10.034
X-107.829 Y-10.109
X-107.741 Y-10.138
X-107.719 Y-10.133
G3 X-107.793 Y-9.881 I-0.049 J0.123
G1 X-107.877 Y-9.9
X-107.915 Y-9.909
X-107.933 Y-9.913
X-107.961 Y-9.92
X-107.97 Y-10.02
X-107.916 Y-10.105
X-107.821 Y-10.138
X-107.795 Y-10.131
X-107.775 Y-10.114
X-107.764 Y-10.09
X-107.761 Y-10.042
X-107.774 Y-9.996
X-107.801 Y-9.956
X-107.84 Y-9.927
X-107.885 Y-9.912
X-107.933 Y-9.913
X-107.97 Y-9.92
X-108 Y-9.927
X-108.021 Y-9.931
X-108.036 Y-9.938
X-108.057 Y-9.952
X-108.068 Y-9.973
X-108.07 Y-9.998
X-108.063 Y-10.021
X-108.043 Y-10.042
X-108.015 Y-10.051
X-107.986 Y-10.046
X-107.963 Y-10.028
X-107.951 Y-10.002
X-107.953 Y-9.973
X-107.967 Y-9.948
X-107.992 Y-9.933
X-108.021 Y-9.931
X-108.032 Y-9.935
X-108.042 Y-9.941
X-108.057 Y-9.952
X-108.071 Y-9.967
X-108.079 Y-9.981
X-108.085 Y-9.994
X-108.086 Y-10
X-108.079 Y-9.986
X-108.085 Y-9.994
X-108.089 Y-10.015
X-108.09 Y-10.033
X-108.089 Y-10.052
X-108.085 Y-10.07
X-108.08 Y-10.082
X-108.074 Y-10.092
X-108.066 Y-10.103
X-108.053 Y-10.115
X-108.04 Y-10.124
X-108.02 Y-10.133
X-108 Y-10.137
X-107.069 Y-10.138
X-106.985 Y-10.141
X-106.943 Y-10.146
X-106.911 Y-10.153
X-106.9 Y-10.156
X-106.646 Y-10.302
X-106.63 Y-10.319
X-106.577 Y-10.372
X-106.434 Y-10.418
X-106.284 Y-10.423
X-106.137 Y-10.393
X-106.002 Y-10.329
X-105.885 Y-10.235
X-105.841 Y-10.184
X-105.802 Y-10.126
X-105.778 Y-10.06
X-105.77 Y-9.99
Y-9.49
X-105.777 Y-9.34
X-105.839 Y-9.204
X-105.935 Y-9.089
X-106.057 Y-9.001
X-106.195 Y-8.941
X-106.24 Y-8.932
X-106.356
X-106.464 Y-8.975
X-106.547 Y-9.056
X-106.561 Y-9.092
X-106.56 Y-9.131
X-106.544 Y-9.167
X-106.516 Y-9.194
X-106.409 Y-9.262
X-105.924 Y-9.571
X-105.891 Y-9.584
X-105.856 Y-9.586
X-105.823 Y-9.575
X-105.796 Y-9.554
X-105.777 Y-9.524
X-105.77 Y-9.49
Y-9.19
X-105.777 Y-9.041
X-105.857 Y-8.913
X-105.969 Y-8.813
X-106.103 Y-8.747
X-106.116 Y-8.745
X-106.242
X-106.356 Y-8.796
X-106.44 Y-8.891
X-106.451 Y-8.928
X-106.446 Y-8.967
X-106.428 Y-9.001
X-106.397 Y-9.026
X-105.916 Y-9.276
X-105.884 Y-9.286
X-105.851 Y-9.285
X-105.819 Y-9.273
X-105.794 Y-9.252
X-105.777 Y-9.223
X-105.77 Y-9.19
Y-8.937
X-105.774 Y-8.862
X-105.828 Y-8.722
X-105.933 Y-8.616
X-105.972 Y-8.598
X-106.088 Y-8.572
X-106.205 Y-8.593
X-106.304 Y-8.657
X-106.371 Y-8.755
X-106.378 Y-8.794
X-106.369 Y-8.833
X-106.345 Y-8.865
X-106.311 Y-8.885
X-105.903 Y-9.028
X-105.866 Y-9.033
X-105.83 Y-9.025
X-105.799 Y-9.004
X-105.778 Y-8.973
X-105.77 Y-8.937
Y-8.73
Y-8.684
Y-8.646
X-105.771 Y-8.614
X-105.848 Y-8.485
X-105.855 Y-8.481
X-105.904 Y-8.456
X-105.957 Y-8.441
X-106.013 Y-8.436
G3 X-106.195 Y-8.727 I0.007 J-0.208
X-105.77 Y-8.646 I0.203 J0.089
G1 Y-8.561
X-105.771 Y-8.542
X-105.776 Y-8.522
X-105.785 Y-8.503
X-105.8 Y-8.483
X-105.826 Y-8.458
X-105.846 Y-8.446
X-105.866 Y-8.439
X-105.885 Y-8.436
X-106.139
X-106.181 Y-8.437
X-106.192 Y-8.439
X-106.202 Y-8.442
X-106.213 Y-8.446
X-106.223 Y-8.452
X-106.237 Y-8.462
X-106.25 Y-8.477
X-106.271 Y-8.508
X-106.276 Y-8.519
X-106.291 Y-8.561
X-106.308 Y-8.606
X-106.397 Y-8.815
X-106.444 Y-8.899
X-106.497 Y-8.983
X-106.562 Y-9.078
X-106.616 Y-9.152
X-106.683 Y-9.237
X-106.698 Y-9.268
X-106.702 Y-9.302
X-106.69 Y-9.539
X-106.652 Y-10.262
X-106.645 Y-10.292
X-106.63 Y-10.319
X-106.616 Y-10.335
X-106.558 Y-10.419
X-106.538 Y-10.462
X-106.521 Y-10.495
X-106.398 Y-10.582
X-106.252 Y-10.612
X-106.102 Y-10.601
X-105.959 Y-10.555
X-105.925 Y-10.536
X-105.843 Y-10.469
X-105.789 Y-10.378
X-105.77 Y-10.274
Y-9.99
X-105.778 Y-9.955
X-105.798 Y-9.924
X-105.827 Y-9.903
X-105.862 Y-9.894
X-105.898 Y-9.897
X-105.93 Y-9.914
X-105.979 Y-9.951
X-106.504 Y-10.348
X-106.526 Y-10.37
X-106.54 Y-10.399
X-106.544 Y-10.431
X-106.538 Y-10.462
X-106.52 Y-10.504
X-106.498 Y-10.588
X-106.488 Y-10.625
X-106.391 Y-10.739
X-106.252 Y-10.796
X-106.103 Y-10.808
X-105.955 Y-10.784
X-105.95 Y-10.782
X-105.855 Y-10.716
X-105.792 Y-10.62
X-105.77 Y-10.507
Y-10.274
X-105.777 Y-10.24
X-105.794 Y-10.211
X-105.821 Y-10.19
X-105.853 Y-10.179
X-105.887 Y-10.178
X-105.919 Y-10.19
X-106.448 Y-10.485
X-106.472 Y-10.504
X-106.489 Y-10.529
X-106.498 Y-10.558
Y-10.588
X-106.495 Y-10.599
X-106.492 Y-10.719
X-106.489 Y-10.757
X-106.418 Y-10.889
X-106.293 Y-10.971
X-106.148 Y-11.009
X-105.998
X-105.984 Y-11.005
X-105.873 Y-10.943
X-105.797 Y-10.842
X-105.77 Y-10.717
Y-10.507
X-105.778 Y-10.47
X-105.8 Y-10.438
X-105.832 Y-10.417
X-105.87 Y-10.41
X-105.907 Y-10.417
X-106.429 Y-10.627
X-106.462 Y-10.649
X-106.484 Y-10.681
X-106.492 Y-10.719
X-106.489 Y-10.842
X-106.488 Y-10.888
X-106.484 Y-10.963
X-106.404 Y-11.09
X-106.278 Y-11.173
X-106.135 Y-11.217
X-105.985 Y-11.212
X-105.978 Y-11.21
X-105.87 Y-11.148
X-105.796 Y-11.047
X-105.77 Y-10.925
Y-10.717
X-105.778 Y-10.681
X-105.798 Y-10.651
X-105.829 Y-10.63
X-105.864 Y-10.621
X-105.901 Y-10.626
X-106.419 Y-10.796
X-106.447 Y-10.81
X-106.468 Y-10.831
X-106.483 Y-10.858
X-106.488 Y-10.888
Y-11.057
X-106.484 Y-11.132
X-106.422 Y-11.268
X-106.306 Y-11.363
X-106.165 Y-11.416
X-106.015 Y-11.423
X-105.998 Y-11.419
X-105.88 Y-11.36
X-105.799 Y-11.256
X-105.77 Y-11.127
Y-10.925
X-105.777 Y-10.89
X-105.797 Y-10.86
X-105.825 Y-10.839
X-105.859 Y-10.829
X-105.895 Y-10.831
X-106.413 Y-10.964
X-106.442 Y-10.977
X-106.466 Y-10.998
X-106.482 Y-11.026
X-106.488 Y-11.057
Y-11.264
X-106.484 Y-11.339
X-106.418 Y-11.474
X-106.301 Y-11.567
X-106.161 Y-11.621
X-106.011 Y-11.625
X-105.995 Y-11.62
X-105.878 Y-11.561
X-105.798 Y-11.457
X-105.77 Y-11.33
Y-11.127
X-105.777 Y-11.092
X-105.797 Y-11.062
X-105.825 Y-11.041
X-105.86 Y-11.031
X-105.895 Y-11.034
X-106.413 Y-11.171
X-106.442 Y-11.184
X-106.466 Y-11.205
X-106.482 Y-11.233
X-106.488 Y-11.264
Y-11.479
X-106.484 Y-11.554
X-106.41 Y-11.685
X-106.291 Y-11.775
X-106.149 Y-11.826
X-105.999
X-105.987 Y-11.823
X-105.874 Y-11.762
X-105.797 Y-11.659
X-105.77 Y-11.534
Y-11.33
X-105.778 Y-11.295
X-105.797 Y-11.264
X-105.827 Y-11.243
X-105.862 Y-11.234
X-105.898 Y-11.237
X-106.416 Y-11.387
X-106.444 Y-11.4
X-106.467 Y-11.421
X-106.482 Y-11.449
X-106.488 Y-11.479
Y-11.648
X-106.484 Y-11.723
X-106.433 Y-11.864
X-106.321 Y-11.965
X-106.183 Y-12.022
X-106.033 Y-12.034
X-106.009 Y-12.029
X-105.886 Y-11.973
X-105.8 Y-11.867
X-105.77 Y-11.736
Y-11.534
X-105.777 Y-11.5
X-105.796 Y-11.471
X-105.823 Y-11.449
X-105.857 Y-11.439
X-105.891 Y-11.44
X-106.409 Y-11.554
X-106.44 Y-11.566
X-106.465 Y-11.588
X-106.481 Y-11.616
X-106.488 Y-11.648
Y-11.855
X-106.484 Y-11.93
X-106.43 Y-12.07
X-106.316 Y-12.168
X-106.178 Y-12.227
X-106.028 Y-12.235
X-106.005 Y-12.23
X-105.884 Y-12.172
X-105.8 Y-12.068
X-105.77 Y-11.937
Y-11.736
X-105.777 Y-11.701
X-105.796 Y-11.672
X-105.824 Y-11.65
X-105.857 Y-11.64
X-105.892 Y-11.642
X-106.41 Y-11.761
X-106.44 Y-11.774
X-106.465 Y-11.795
X-106.481 Y-11.823
X-106.488 Y-11.855
Y-12.071
X-106.484 Y-12.146
X-106.421 Y-12.282
X-106.305 Y-12.377
X-106.165 Y-12.431
X-106.015 Y-12.435
X-105.996 Y-12.431
X-105.879 Y-12.371
X-105.799 Y-12.268
X-105.77 Y-12.14
Y-11.937
X-105.777 Y-11.902
X-105.797 Y-11.872
X-105.825 Y-11.851
X-105.859 Y-11.841
X-105.895 Y-11.844
X-106.413 Y-11.977
X-106.442 Y-11.99
X-106.466 Y-12.012
X-106.482 Y-12.039
X-106.488 Y-12.071
Y-12.278
X-106.484 Y-12.353
X-106.418 Y-12.487
X-106.301 Y-12.581
X-106.161 Y-12.634
X-106.011 Y-12.638
X-105.994 Y-12.633
X-105.878 Y-12.574
X-105.798 Y-12.471
X-105.77 Y-12.343
Y-12.14
X-105.777 Y-12.105
X-105.797 Y-12.075
X-105.826 Y-12.054
X-105.86 Y-12.044
X-105.896 Y-12.047
X-106.414 Y-12.185
X-106.443 Y-12.197
X-106.466 Y-12.219
X-106.482 Y-12.246
X-106.488 Y-12.278
Y-12.493
X-106.484 Y-12.568
X-106.411 Y-12.699
X-106.291 Y-12.789
X-106.149 Y-12.839
X-105.999
X-105.987 Y-12.836
X-105.874 Y-12.775
X-105.797 Y-12.673
X-105.77 Y-12.548
Y-12.343
X-105.778 Y-12.308
X-105.797 Y-12.278
X-105.827 Y-12.256
X-105.862 Y-12.247
X-105.898 Y-12.251
X-106.416 Y-12.4
X-106.444 Y-12.414
X-106.467 Y-12.435
X-106.482 Y-12.462
X-106.488 Y-12.493
Y-12.662
X-106.484 Y-12.737
X-106.433 Y-12.878
X-106.321 Y-12.978
X-106.183 Y-13.036
X-106.033 Y-13.048
X-106.009 Y-13.043
X-105.886 Y-12.986
X-105.8 Y-12.881
X-105.77 Y-12.749
Y-12.548
X-105.777 Y-12.513
X-105.796 Y-12.484
X-105.823 Y-12.462
X-105.857 Y-12.452
X-105.891 Y-12.453
X-106.409 Y-12.568
X-106.44 Y-12.58
X-106.465 Y-12.602
X-106.481 Y-12.63
X-106.488 Y-12.662
Y-12.869
X-106.484 Y-12.944
X-106.43 Y-13.084
X-106.316 Y-13.182
X-106.178 Y-13.24
X-106.028 Y-13.248
X-106.005 Y-13.243
X-105.884 Y-13.186
X-105.8 Y-13.081
X-105.77 Y-12.95
Y-12.749
X-105.777 Y-12.715
X-105.796 Y-12.685
X-105.824 Y-12.664
X-105.857 Y-12.653
X-105.892 Y-12.655
X-106.41 Y-12.775
X-106.44 Y-12.787
X-106.465 Y-12.809
X-106.481 Y-12.837
X-106.488 Y-12.869
Y-13.084
X-106.484 Y-13.159
X-106.421 Y-13.295
X-106.304 Y-13.39
X-106.165 Y-13.444
X-106.015 Y-13.449
X-105.996 Y-13.444
X-105.879 Y-13.385
X-105.799 Y-13.281
X-105.77 Y-13.153
Y-12.95
X-105.777 Y-12.916
X-105.797 Y-12.886
X-105.825 Y-12.864
X-105.859 Y-12.854
X-105.895 Y-12.857
X-106.413 Y-12.991
X-106.442 Y-13.004
X-106.466 Y-13.025
X-106.482 Y-13.053
X-106.488 Y-13.084
Y-13.291
X-106.484 Y-13.366
X-106.418 Y-13.501
X-106.301 Y-13.595
X-106.161 Y-13.648
X-106.011 Y-13.651
X-105.994 Y-13.647
X-105.878 Y-13.587
X-105.798 Y-13.484
X-105.77 Y-13.357
Y-13.153
X-105.777 Y-13.118
X-105.797 Y-13.088
X-105.826 Y-13.067
X-105.86 Y-13.057
X-105.896 Y-13.06
X-106.414 Y-13.198
X-106.443 Y-13.211
X-106.466 Y-13.232
X-106.482 Y-13.26
X-106.488 Y-13.291
Y-13.507
X-106.484 Y-13.582
X-106.411 Y-13.712
X-106.291 Y-13.803
X-106.149 Y-13.853
X-105.999
X-105.987 Y-13.849
X-105.874 Y-13.788
X-105.797 Y-13.686
X-105.77 Y-13.561
Y-13.357
X-105.778 Y-13.321
X-105.797 Y-13.291
X-105.827 Y-13.27
X-105.862 Y-13.26
X-105.898 Y-13.264
X-106.416 Y-13.414
X-106.444 Y-13.427
X-106.467 Y-13.449
X-106.482 Y-13.476
X-106.488 Y-13.507
Y-13.676
X-106.484 Y-13.75
X-106.433 Y-13.891
X-106.321 Y-13.992
X-106.183 Y-14.049
X-106.033 Y-14.061
X-106.009 Y-14.056
X-105.886 Y-13.999
X-105.8 Y-13.894
X-105.77 Y-13.762
Y-13.561
X-105.777 Y-13.527
X-105.796 Y-13.497
X-105.823 Y-13.476
X-105.857 Y-13.465
X-105.891 Y-13.467
X-106.409 Y-13.581
X-106.44 Y-13.594
X-106.465 Y-13.615
X-106.481 Y-13.643
X-106.488 Y-13.676
Y-13.883
X-106.484 Y-13.957
X-106.43 Y-14.097
X-106.316 Y-14.195
X-106.178 Y-14.254
X-106.028 Y-14.262
X-106.005 Y-14.257
X-105.884 Y-14.199
X-105.8 Y-14.095
X-105.77 Y-13.964
Y-13.762
X-105.777 Y-13.728
X-105.796 Y-13.698
X-105.824 Y-13.677
X-105.857 Y-13.667
X-105.892 Y-13.668
X-106.41 Y-13.789
X-106.441 Y-13.801
X-106.465 Y-13.822
X-106.481 Y-13.851
X-106.488 Y-13.883
Y-14.098
X-106.484 Y-14.173
X-106.421 Y-14.309
X-106.304 Y-14.404
X-106.164 Y-14.458
X-106.015 Y-14.462
X-105.996 Y-14.458
X-105.879 Y-14.398
X-105.799 Y-14.295
X-105.77 Y-14.167
Y-13.964
X-105.777 Y-13.929
X-105.797 Y-13.899
X-105.825 Y-13.878
X-105.859 Y-13.868
X-105.895 Y-13.871
X-106.413 Y-14.005
X-106.442 Y-14.017
X-106.466 Y-14.039
X-106.482 Y-14.067
X-106.488 Y-14.098
Y-14.305
X-106.484 Y-14.38
X-106.418 Y-14.514
X-106.301 Y-14.608
X-106.16 Y-14.661
X-106.01 Y-14.665
X-105.994 Y-14.66
X-105.878 Y-14.601
X-105.798 Y-14.497
X-105.77 Y-14.37
Y-14.167
X-105.777 Y-14.132
X-105.797 Y-14.102
X-105.826 Y-14.081
X-105.86 Y-14.071
X-105.896 Y-14.074
X-106.414 Y-14.212
X-106.443 Y-14.225
X-106.466 Y-14.246
X-106.482 Y-14.274
X-106.488 Y-14.305
Y-14.52
X-106.484 Y-14.595
X-106.41 Y-14.726
X-106.291 Y-14.816
X-106.149 Y-14.866
X-105.999
X-105.987 Y-14.863
X-105.874 Y-14.802
X-105.797 Y-14.7
X-105.77 Y-14.574
Y-14.37
X-105.778 Y-14.335
X-105.797 Y-14.304
X-105.827 Y-14.283
X-105.862 Y-14.274
X-105.898 Y-14.277
X-106.416 Y-14.428
X-106.444 Y-14.441
X-106.467 Y-14.462
X-106.482 Y-14.49
X-106.488 Y-14.52
Y-14.689
X-106.484 Y-14.764
X-106.432 Y-14.905
X-106.321 Y-15.005
X-106.182 Y-15.063
X-106.033 Y-15.075
X-106.009 Y-15.07
X-105.886 Y-15.013
X-105.8 Y-14.908
X-105.77 Y-14.776
Y-14.574
X-105.777 Y-14.54
X-105.796 Y-14.511
X-105.823 Y-14.489
X-105.857 Y-14.479
X-105.891 Y-14.48
X-106.409 Y-14.595
X-106.44 Y-14.607
X-106.465 Y-14.629
X-106.481 Y-14.657
X-106.488 Y-14.689
Y-14.896
X-106.484 Y-14.971
X-106.43 Y-15.111
X-106.316 Y-15.209
X-106.178 Y-15.267
X-106.028 Y-15.275
X-106.005 Y-15.27
X-105.884 Y-15.213
X-105.8 Y-15.108
X-105.77 Y-14.977
Y-14.776
X-105.777 Y-14.742
X-105.796 Y-14.712
X-105.824 Y-14.691
X-105.857 Y-14.68
X-105.892 Y-14.682
X-106.41 Y-14.802
X-106.441 Y-14.815
X-106.465 Y-14.836
X-106.481 Y-14.864
X-106.488 Y-14.896
Y-15.111
X-106.484 Y-15.186
X-106.42 Y-15.322
X-106.304 Y-15.417
X-106.164 Y-15.471
X-106.014 Y-15.476
X-105.996 Y-15.471
X-105.879 Y-15.412
X-105.799 Y-15.308
X-105.77 Y-15.18
Y-14.977
X-105.777 Y-14.943
X-105.797 Y-14.913
X-105.825 Y-14.891
X-105.859 Y-14.881
X-105.895 Y-14.884
X-106.413 Y-15.018
X-106.442 Y-15.031
X-106.466 Y-15.052
X-106.482 Y-15.08
X-106.488 Y-15.111
Y-15.318
X-106.484 Y-15.393
X-106.418 Y-15.528
X-106.301 Y-15.622
X-106.16 Y-15.675
X-106.01 Y-15.678
X-105.994 Y-15.674
X-105.878 Y-15.614
X-105.798 Y-15.511
X-105.77 Y-15.384
Y-15.18
X-105.777 Y-15.145
X-105.797 Y-15.115
X-105.826 Y-15.094
X-105.86 Y-15.084
X-105.896 Y-15.087
X-106.414 Y-15.225
X-106.443 Y-15.238
X-106.466 Y-15.26
X-106.482 Y-15.287
X-106.488 Y-15.318
Y-15.534
X-106.484 Y-15.609
X-106.41 Y-15.739
X-106.291 Y-15.83
X-106.149 Y-15.88
X-105.999
X-105.987 Y-15.876
X-105.874 Y-15.815
X-105.797 Y-15.713
X-105.77 Y-15.588
Y-15.384
X-105.778 Y-15.348
X-105.797 Y-15.318
X-105.827 Y-15.297
X-105.862 Y-15.287
X-105.898 Y-15.291
X-106.416 Y-15.441
X-106.444 Y-15.455
X-106.467 Y-15.476
X-106.482 Y-15.503
X-106.488 Y-15.534
Y-15.703
X-106.484 Y-15.778
X-106.432 Y-15.919
X-106.321 Y-16.019
X-106.182 Y-16.076
X-106.033 Y-16.088
X-106.009 Y-16.083
X-105.886 Y-16.026
X-105.8 Y-15.921
X-105.77 Y-15.789
Y-15.588
X-105.777 Y-15.554
X-105.796 Y-15.524
X-105.823 Y-15.503
X-105.857 Y-15.492
X-105.891 Y-15.494
X-106.409 Y-15.609
X-106.44 Y-15.621
X-106.465 Y-15.642
X-106.481 Y-15.671
X-106.488 Y-15.703
Y-15.91
X-106.484 Y-15.985
X-106.43 Y-16.124
X-106.316 Y-16.222
X-106.178 Y-16.281
X-106.028 Y-16.289
X-106.005 Y-16.284
X-105.884 Y-16.226
X-105.8 Y-16.122
X-105.77 Y-15.991
Y-15.789
X-105.777 Y-15.755
X-105.796 Y-15.725
X-105.824 Y-15.704
X-105.857 Y-15.694
X-105.892 Y-15.696
X-106.41 Y-15.816
X-106.441 Y-15.828
X-106.465 Y-15.85
X-106.481 Y-15.878
X-106.488 Y-15.91
Y-16.125
Y-16.163
Y-16.21
X-106.486 Y-16.239
X-106.424 Y-16.305
X-106.343 Y-16.348
X-106.253 Y-16.363
G3 X-106.128 Y-16.089 I-0.006 J0.168
X-106.488 Y-16.21 I-0.157 J-0.128
G1 Y-16.248
X-106.487 Y-16.258
X-106.485 Y-16.268
X-106.482 Y-16.278
X-106.477 Y-16.288
X-106.459 Y-16.321
X-106.45 Y-16.332
X-106.435 Y-16.344
X-106.421 Y-16.353
X-106.407 Y-16.359
X-106.393 Y-16.362
X-106.308 Y-16.363
X-105.97
X-105.923
X-105.885
X-105.858 Y-16.358
X-105.85 Y-16.356
X-105.83 Y-16.337
X-105.818 Y-16.311
Y-16.284
X-105.831 Y-16.257
X-105.853 Y-16.239
X-105.882 Y-16.232
X-105.91 Y-16.237
X-105.933 Y-16.255
X-105.947 Y-16.281
Y-16.31
X-105.936 Y-16.337
X-105.913 Y-16.356
X-105.885 Y-16.363
X-105.868 Y-16.361
X-105.85 Y-16.356
X-105.833 Y-16.347
X-105.816 Y-16.332
X-105.8 Y-16.316
X-105.786 Y-16.299
X-105.777 Y-16.282
X-105.772 Y-16.265
X-105.77 Y-16.248
Y-15.991
X-105.775 Y-15.963
X-105.788 Y-15.937
X-105.817 Y-15.921 Z-0.983
X-105.842 Y-15.906 Z-0.966
X-105.861 Y-15.895 Z-0.939
X-105.87 Y-15.894 Z-0.916
X-105.873 Z-0.89
G0 Z2
X-96.262 Y-9.713
Z0.5
G3 X-95.778 Y-9.838 Z0.29 I0.242 J-0.062 F333.3
X-96.262 Y-9.713 Z0.079 I-0.242 J0.062
X-95.778 Y-9.838 Z-0.131 I0.242 J-0.062
X-96.262 Y-9.713 Z-0.342 I-0.242 J0.062
X-95.778 Y-9.838 Z-0.552 I0.242 J-0.062
X-96.262 Y-9.713 Z-0.763 I-0.242 J0.062
X-96.052 Y-10.023 Z-0.876 I0.242 J-0.062
X-95.77 Y-9.775 Z-0.99 I0.031 J0.248
X-96.27 I-0.25
X-95.77 I0.25
G1 X-95.733 Y-9.63 F1000
X-95.746 Y-9.556
X-95.783 Y-9.491
X-95.89 Y-9.386
X-96.035 Y-9.346
X-96.183 Y-9.367
X-96.313 Y-9.441
X-96.41 Y-9.556
X-96.462 Y-9.697
X-96.464 Y-9.847
X-96.417 Y-9.989
X-96.325 Y-10.108
X-96.199 Y-10.189
X-96.053 Y-10.225
X-95.904 Y-10.211
X-95.768 Y-10.149
X-95.659 Y-10.045
X-95.581 Y-9.917
X-95.531 Y-9.776
X-95.52 Y-9.626
X-95.555 Y-9.481
X-95.626 Y-9.348
X-95.734 Y-9.245
X-95.865 Y-9.171
X-96.011 Y-9.138
X-96.114 Y-9.143
X-96.193 Y-9.156
X-96.267 Y-9.188
X-96.33 Y-9.237
X-96.417 Y-9.321
X-96.46 Y-9.36
X-96.566 Y-9.466
X-96.639 Y-9.597
X-96.674 Y-9.743
X-96.672 Y-9.893
X-96.631 Y-10.037
X-96.612 Y-10.072
X-96.581 Y-10.115
X-96.541 Y-10.149
X-96.494 Y-10.172
X-96.457 Y-10.181
X-96.42 Y-10.175
X-96.387 Y-10.156
X-96.364 Y-10.126
X-96.354 Y-10.09
X-96.345 Y-9.992
X-96.295 Y-9.445
X-96.3 Y-9.406
X-96.318 Y-9.372
X-96.349 Y-9.348
X-96.386 Y-9.337
X-96.425 Y-9.341
X-96.46 Y-9.36
X-96.494 Y-9.391
X-96.512 Y-9.406
X-96.686 Y-9.536
X-96.802 Y-9.631
X-96.861 Y-9.769
X-96.866 Y-9.822
X-96.853 Y-9.938
X-96.797 Y-10.041
X-96.706 Y-10.114
X-96.594 Y-10.148
X-96.56 Y-10.144
X-96.529 Y-10.128
X-96.506 Y-10.104
X-96.492 Y-10.072
X-96.489 Y-10.038
X-96.53 Y-9.609
X-96.539 Y-9.575
X-96.559 Y-9.547
X-96.587 Y-9.527
X-96.621 Y-9.518
X-96.655 Y-9.521
X-96.686 Y-9.536
X-96.748 Y-9.582
X-96.833 Y-9.641
X-96.86 Y-9.659
X-96.892 Y-9.677
X-96.923 Y-9.697
X-96.971 Y-9.806
X-96.969 Y-9.925
X-96.917 Y-10.033
X-96.825 Y-10.109
X-96.71 Y-10.139
X-96.676 Y-10.134
X-96.647 Y-10.118
X-96.624 Y-10.092
X-96.611 Y-10.061
X-96.61 Y-10.027
X-96.62 Y-9.995
X-96.756 Y-9.721
X-96.781 Y-9.69
X-96.815 Y-9.671
X-96.854 Y-9.666
X-96.892 Y-9.677
X-96.917 Y-9.691
X-96.964 Y-9.712
X-97.031 Y-9.745
X-97.076 Y-9.806
X-97.082 Y-9.925
X-97.035 Y-10.034
X-96.944 Y-10.11
X-96.828 Y-10.138
X-96.79 Y-10.129
X-96.759 Y-10.107
X-96.738 Y-10.075
X-96.731 Y-10.037
X-96.739 Y-10
X-96.834 Y-9.767
X-96.856 Y-9.734
X-96.888 Y-9.712
X-96.926 Y-9.705
X-96.964 Y-9.712
X-97.038 Y-9.744
X-97.087 Y-9.762
X-97.121 Y-9.777
X-97.172 Y-9.832
X-97.181 Y-9.94
X-97.14 Y-10.041
X-97.057 Y-10.112
X-96.951 Y-10.138
X-96.918 Y-10.131
X-96.889 Y-10.113
G3 X-97.087 Y-9.762 I-0.133 J0.156
G1 X-97.171 Y-9.793
X-97.206 Y-9.808
X-97.262 Y-9.858
X-97.273 Y-9.957
X-97.237 Y-10.049
X-97.162 Y-10.114
X-97.066 Y-10.138
X-97.041 Y-10.133
X-97.017 Y-10.123
G3 X-97.171 Y-9.793 I-0.097 J0.155
G1 X-97.265 Y-9.828
X-97.3 Y-9.842
X-97.354 Y-9.894
Y-10.009
X-97.287 Y-10.102
X-97.177 Y-10.138
X-97.156 Y-10.134
X-97.137 Y-10.126
G3 X-97.265 Y-9.828 I-0.081 J0.142
G1 X-97.34 Y-9.854
X-97.387 Y-9.866
X-97.423 Y-9.877
X-97.461 Y-9.941
X-97.443 Y-10.038
X-97.377 Y-10.111
X-97.283 Y-10.138
X-97.25 Y-10.129
X-97.225 Y-10.106
G3 X-97.387 Y-9.866 I-0.128 J0.089
G1 X-97.471 Y-9.887
X-97.51 Y-9.897
X-97.543 Y-9.906
X-97.576 Y-9.916
X-97.561 Y-10.024
X-97.49 Y-10.107
X-97.385 Y-10.138
X-97.359 Y-10.131
X-97.338 Y-10.115
X-97.325 Y-10.092
X-97.322 Y-10.066
G3 X-97.543 Y-9.906 I-0.181 J-0.018
G1 X-97.594 Y-9.919
X-97.636 Y-9.925
X-97.647 Y-9.929
X-97.662 Y-9.937
X-97.679 Y-9.949
X-97.669 Y-9.962
X-97.203 Y-9.935
X-97.165 Y-9.94
X-97.131 Y-9.96
X-97.108 Y-9.99
X-97.098 Y-10.028
X-97.102 Y-10.066
X-97.121 Y-10.1
X-97.151 Y-10.124
X-97.189 Y-10.135
X-97.227 Y-10.13
X-97.261 Y-10.112
X-97.285 Y-10.082
G3 X-97.647 Y-9.929 I-0.276 J-0.147
G1 X-97.658 Y-9.934
X-97.668 Y-9.94
X-97.679 Y-9.949
X-97.69 Y-9.961
X-97.698 Y-9.973
X-97.704 Y-9.985
X-97.71 Y-10.011
X-97.711 Y-10.018
X-97.702 Y-10.048
X-97.68 Y-10.071
X-97.649 Y-10.08
X-97.618 Y-10.074
X-97.594 Y-10.055
X-97.581 Y-10.026
X-97.584 Y-9.994
X-97.601 Y-9.968
X-97.628 Y-9.952
X-97.66 Y-9.951
X-97.686 Y-9.963
X-97.704 Y-9.985
X-97.708 Y-9.997
X-97.71 Y-10.008
X-97.711 Y-10.018
Y-10.029
X-97.71 Y-10.039
X-97.707 Y-10.05
X-97.699 Y-10.067
X-97.69 Y-10.082
X-97.679 Y-10.096
X-97.652 Y-10.109
X-97.622 Y-10.11
X-97.594 Y-10.1
X-97.571 Y-10.077
X-97.559 Y-10.047
X-97.561 Y-10.014
X-97.577 Y-9.986
X-97.603 Y-9.967
X-97.635 Y-9.96
X-97.666 Y-9.968
X-97.692 Y-9.988
X-97.706 Y-10.017
X-97.707 Y-10.05
X-97.703 Y-10.06
X-97.698 Y-10.071
X-97.691 Y-10.082
X-97.679 Y-10.096
X-97.647 Y-10.121
X-97.636 Y-10.127
X-97.626 Y-10.132
X-97.615 Y-10.135
X-97.605 Y-10.137
X-97.594 Y-10.138
X-96.748
X-96.664 Y-10.141
X-96.579 Y-10.149
X-96.511 Y-10.166
X-96.494 Y-10.172
X-96.325 Y-10.302
X-96.202 Y-10.387
X-96.057 Y-10.427
X-95.907 Y-10.425
X-95.762 Y-10.387
X-95.629 Y-10.317
X-95.515 Y-10.22
X-95.482 Y-10.178
X-95.446 Y-10.121
X-95.424 Y-10.058
X-95.417 Y-9.992
Y-9.49
X-95.425 Y-9.34
X-95.489 Y-9.205
X-95.586 Y-9.091
X-95.709 Y-9.004
X-95.847 Y-8.945
X-95.892 Y-8.936
X-96.007
X-96.114 Y-8.979
X-96.197 Y-9.06
X-96.211 Y-9.097
X-96.21 Y-9.136
X-96.194 Y-9.172
X-96.166 Y-9.199
X-96.058 Y-9.266
X-95.57 Y-9.572
X-95.538 Y-9.585
X-95.503 Y-9.586
X-95.47 Y-9.575
X-95.443 Y-9.554
X-95.424 Y-9.524
X-95.417 Y-9.49
Y-9.19
X-95.421 Y-9.116
X-95.473 Y-8.975
X-95.571 Y-8.861
X-95.695 Y-8.777
X-95.733 Y-8.764
X-95.866 Y-8.75
X-95.992 Y-8.795
X-96.086 Y-8.89
X-96.098 Y-8.921
X-96.099 Y-8.953
X-96.089 Y-8.984
X-96.071 Y-9.01
X-96.045 Y-9.029
X-95.563 Y-9.276
X-95.531 Y-9.286
X-95.497 Y-9.285
X-95.466 Y-9.273
X-95.441 Y-9.252
X-95.424 Y-9.223
X-95.417 Y-9.19
Y-8.937
X-95.421 Y-8.862
X-95.48 Y-8.724
X-95.59 Y-8.623
X-95.624 Y-8.607
X-95.738 Y-8.582
X-95.853 Y-8.601
X-95.952 Y-8.663
X-96.02 Y-8.758
X-96.027 Y-8.79
X-96.024 Y-8.822
X-96.01 Y-8.852
X-95.988 Y-8.876
X-95.959 Y-8.891
X-95.549 Y-9.028
X-95.512 Y-9.033
X-95.476 Y-9.025
X-95.446 Y-9.004
X-95.425 Y-8.973
X-95.417 Y-8.937
Y-8.73
Y-8.684
Y-8.646
X-95.419 Y-8.614
X-95.501 Y-8.489
X-95.522 Y-8.477
X-95.57 Y-8.455
X-95.621 Y-8.441
X-95.674 Y-8.436
G3 X-95.854 Y-8.743 I0.007 J-0.211
X-95.417 Y-8.646 I0.206 J0.105
G1 Y-8.561
X-95.418 Y-8.54
X-95.42 Y-8.529
X-95.424 Y-8.519
X-95.435 Y-8.498
X-95.447 Y-8.477
X-95.463 Y-8.46
X-95.479 Y-8.449
X-95.49 Y-8.444
X-95.5 Y-8.44
X-95.511 Y-8.438
X-95.521 Y-8.436
X-95.779
X-95.818
X-95.836 Y-8.439
X-95.855 Y-8.446
X-95.874 Y-8.458
X-95.902 Y-8.486
X-95.916 Y-8.505
X-95.925 Y-8.524
X-95.938 Y-8.561
X-95.97 Y-8.646
X-96.007 Y-8.73
X-96.045 Y-8.815
X-96.071 Y-8.866
X-96.144 Y-8.983
X-96.241 Y-9.123
X-96.33 Y-9.237
X-96.344 Y-9.264
X-96.349 Y-9.295
X-96.352 Y-9.527
X-96.362 Y-10.223
X-96.358 Y-10.253
X-96.345 Y-10.28
X-96.325 Y-10.302
X-96.241 Y-10.367
X-96.231 Y-10.38
X-96.205 Y-10.419
X-96.185 Y-10.462
X-96.168 Y-10.495
X-96.046 Y-10.583
X-95.9 Y-10.613
X-95.75 Y-10.601
X-95.607 Y-10.556
X-95.574 Y-10.538
X-95.491 Y-10.471
X-95.436 Y-10.379
X-95.417 Y-10.274
Y-9.992
X-95.425 Y-9.956
X-95.445 Y-9.926
X-95.474 Y-9.905
X-95.509 Y-9.895
X-95.545 Y-9.899
X-95.577 Y-9.915
X-95.625 Y-9.952
X-96.151 Y-10.347
X-96.173 Y-10.37
X-96.187 Y-10.399
X-96.191 Y-10.43
X-96.185 Y-10.462
X-96.168 Y-10.504
X-96.156 Y-10.538
X-96.15 Y-10.566
X-96.13 Y-10.638
X-96.027 Y-10.748
X-95.886 Y-10.8
X-95.737 Y-10.809
X-95.66 Y-10.794
X-95.535 Y-10.738
X-95.448 Y-10.633
X-95.417 Y-10.499
Y-10.274
X-95.424 Y-10.242
X-95.441 Y-10.213
X-95.466 Y-10.192
X-95.497 Y-10.18
X-95.53 Y-10.178
X-95.562 Y-10.188
X-96.097 Y-10.458
X-96.123 Y-10.477
X-96.141 Y-10.503
X-96.151 Y-10.534
X-96.15 Y-10.566
X-96.143 Y-10.599
X-96.139 Y-10.719
X-96.136 Y-10.757
X-96.065 Y-10.889
X-95.94 Y-10.971
X-95.795 Y-11.009
X-95.645 Y-11.004
X-95.625 Y-10.998
X-95.517 Y-10.935
X-95.443 Y-10.834
X-95.417 Y-10.712
Y-10.499
X-95.426 Y-10.462
X-95.448 Y-10.431
X-95.48 Y-10.41
X-95.518 Y-10.403
X-95.555 Y-10.411
X-96.078 Y-10.628
X-96.11 Y-10.649
X-96.131 Y-10.681
X-96.139 Y-10.719
X-96.136 Y-10.842
X-96.135 Y-10.888
X-96.131 Y-10.963
X-96.051 Y-11.09
X-95.925 Y-11.172
X-95.782 Y-11.215
X-95.632 Y-11.209
X-95.624 Y-11.206
X-95.516 Y-11.144
X-95.443 Y-11.043
X-95.417 Y-10.921
Y-10.712
X-95.425 Y-10.676
X-95.446 Y-10.645
X-95.476 Y-10.624
X-95.512 Y-10.616
X-95.549 Y-10.621
X-96.067 Y-10.796
X-96.094 Y-10.81
X-96.116 Y-10.831
X-96.13 Y-10.858
X-96.135 Y-10.888
Y-11.057
X-96.131 Y-11.132
X-96.069 Y-11.268
X-95.952 Y-11.362
X-95.811 Y-11.414
X-95.661 Y-11.42
X-95.644 Y-11.416
X-95.527 Y-11.357
X-95.446 Y-11.253
X-95.417 Y-11.125
Y-10.921
X-95.425 Y-10.886
X-95.444 Y-10.856
X-95.473 Y-10.835
X-95.507 Y-10.825
X-95.542 Y-10.828
X-96.06 Y-10.964
X-96.09 Y-10.977
X-96.113 Y-10.998
X-96.129 Y-11.026
X-96.135 Y-11.057
Y-11.264
X-96.131 Y-11.339
X-96.064 Y-11.473
X-95.946 Y-11.566
X-95.806 Y-11.619
X-95.656 Y-11.622
X-95.641 Y-11.618
X-95.525 Y-11.558
X-95.445 Y-11.455
X-95.417 Y-11.328
Y-11.125
X-95.425 Y-11.09
X-95.444 Y-11.059
X-95.473 Y-11.038
X-95.507 Y-11.028
X-95.543 Y-11.031
X-96.061 Y-11.171
X-96.09 Y-11.184
X-96.113 Y-11.205
X-96.129 Y-11.233
X-96.135 Y-11.264
Y-11.479
X-96.131 Y-11.554
X-96.056 Y-11.684
X-95.936 Y-11.774
X-95.795 Y-11.824
X-95.645
X-95.633 Y-11.82
X-95.521 Y-11.759
X-95.444 Y-11.657
X-95.417 Y-11.532
Y-11.328
X-95.425 Y-11.292
X-95.445 Y-11.262
X-95.474 Y-11.241
X-95.509 Y-11.231
X-95.545 Y-11.235
X-96.063 Y-11.387
X-96.091 Y-11.4
X-96.114 Y-11.422
X-96.129 Y-11.449
X-96.135 Y-11.479
Y-11.648
X-96.131 Y-11.723
X-96.078 Y-11.864
X-95.966 Y-11.964
X-95.828 Y-12.021
X-95.678 Y-12.032
X-95.655 Y-12.027
X-95.532 Y-11.97
X-95.447 Y-11.865
X-95.417 Y-11.734
Y-11.532
X-95.424 Y-11.498
X-95.443 Y-11.468
X-95.471 Y-11.447
X-95.504 Y-11.437
X-95.539 Y-11.438
X-96.057 Y-11.554
X-96.087 Y-11.567
X-96.112 Y-11.588
X-96.128 Y-11.616
X-96.135 Y-11.648
Y-11.855
X-96.131 Y-11.93
X-96.076 Y-12.07
X-95.962 Y-12.167
X-95.823 Y-12.225
X-95.673 Y-12.233
X-95.651 Y-12.228
X-95.53 Y-12.17
X-95.447 Y-12.066
X-95.417 Y-11.935
Y-11.734
X-95.424 Y-11.699
X-95.443 Y-11.67
X-95.471 Y-11.648
X-95.505 Y-11.638
X-95.54 Y-11.64
X-96.058 Y-11.761
X-96.088 Y-11.774
X-96.112 Y-11.795
X-96.129 Y-11.823
X-96.135 Y-11.855
Y-12.071
X-96.131 Y-12.146
X-96.067 Y-12.281
X-95.95 Y-12.375
X-95.81 Y-12.429
X-95.66 Y-12.433
X-95.642 Y-12.429
X-95.526 Y-12.369
X-95.446 Y-12.266
X-95.417 Y-12.138
Y-11.935
X-95.425 Y-11.9
X-95.444 Y-11.87
X-95.473 Y-11.849
X-95.507 Y-11.839
X-95.542 Y-11.842
X-96.06 Y-11.977
X-96.089 Y-11.99
X-96.113 Y-12.012
X-96.129 Y-12.039
X-96.135 Y-12.071
Y-12.278
X-96.131 Y-12.353
X-96.064 Y-12.487
X-95.947 Y-12.58
X-95.806 Y-12.633
X-95.656 Y-12.636
X-95.641 Y-12.632
X-95.525 Y-12.572
X-95.445 Y-12.469
X-95.417 Y-12.342
Y-12.138
X-95.425 Y-12.103
X-95.444 Y-12.073
X-95.473 Y-12.052
X-95.507 Y-12.042
X-95.543 Y-12.045
X-96.061 Y-12.185
X-96.09 Y-12.198
X-96.113 Y-12.219
X-96.129 Y-12.247
X-96.135 Y-12.278
Y-12.493
X-96.131 Y-12.568
X-96.057 Y-12.698
X-95.937 Y-12.788
X-95.795 Y-12.838
X-95.645
X-95.633 Y-12.834
X-95.521 Y-12.773
X-95.444 Y-12.671
X-95.417 Y-12.546
Y-12.342
X-95.425 Y-12.306
X-95.445 Y-12.276
X-95.474 Y-12.255
X-95.509 Y-12.245
X-95.545 Y-12.249
X-96.063 Y-12.401
X-96.091 Y-12.414
X-96.114 Y-12.435
X-96.129 Y-12.462
X-96.135 Y-12.493
Y-12.662
X-96.131 Y-12.737
X-96.079 Y-12.877
X-95.967 Y-12.977
X-95.828 Y-13.035
X-95.679 Y-13.046
X-95.655 Y-13.041
X-95.533 Y-12.984
X-95.447 Y-12.879
X-95.417 Y-12.748
Y-12.546
X-95.424 Y-12.512
X-95.443 Y-12.482
X-95.471 Y-12.461
X-95.504 Y-12.45
X-95.539 Y-12.452
X-96.057 Y-12.568
X-96.087 Y-12.58
X-96.112 Y-12.602
X-96.128 Y-12.63
X-96.135 Y-12.662
Y-12.869
X-96.131 Y-12.944
X-96.076 Y-13.083
X-95.962 Y-13.181
X-95.824 Y-13.239
X-95.674 Y-13.247
X-95.651 Y-13.242
X-95.531 Y-13.184
X-95.447 Y-13.08
X-95.417 Y-12.949
Y-12.748
X-95.424 Y-12.713
X-95.443 Y-12.684
X-95.471 Y-12.662
X-95.505 Y-12.652
X-95.54 Y-12.654
X-96.058 Y-12.775
X-96.088 Y-12.788
X-96.112 Y-12.809
X-96.129 Y-12.837
X-96.135 Y-12.869
Y-13.084
X-96.131 Y-13.159
X-96.067 Y-13.295
X-95.95 Y-13.389
X-95.81 Y-13.443
X-95.66 Y-13.447
X-95.643 Y-13.443
X-95.526 Y-13.383
X-95.446 Y-13.28
X-95.417 Y-13.152
Y-12.949
X-95.425 Y-12.914
X-95.444 Y-12.884
X-95.473 Y-12.863
X-95.507 Y-12.853
X-95.542 Y-12.856
X-96.06 Y-12.991
X-96.089 Y-13.004
X-96.113 Y-13.025
X-96.129 Y-13.053
X-96.135 Y-13.084
Y-13.291
X-96.131 Y-13.366
X-96.064 Y-13.5
X-95.947 Y-13.594
X-95.806 Y-13.647
X-95.657 Y-13.65
X-95.641 Y-13.646
X-95.525 Y-13.586
X-95.445 Y-13.483
X-95.417 Y-13.355
Y-13.152
X-95.425 Y-13.117
X-95.444 Y-13.087
X-95.473 Y-13.066
X-95.507 Y-13.056
X-95.543 Y-13.059
X-96.061 Y-13.198
X-96.09 Y-13.211
X-96.113 Y-13.233
X-96.129 Y-13.26
X-96.135 Y-13.291
Y-13.507
X-96.131 Y-13.582
X-96.057 Y-13.712
X-95.937 Y-13.802
X-95.795 Y-13.851
X-95.645 Y-13.852
X-95.634 Y-13.848
X-95.521 Y-13.787
X-95.444 Y-13.685
X-95.417 Y-13.56
Y-13.355
X-95.425 Y-13.32
X-95.445 Y-13.29
X-95.474 Y-13.269
X-95.509 Y-13.259
X-95.545 Y-13.263
X-96.063 Y-13.414
X-96.091 Y-13.427
X-96.114 Y-13.449
X-96.129 Y-13.476
X-96.135 Y-13.507
Y-13.676
X-96.131 Y-13.75
X-96.079 Y-13.891
X-95.967 Y-13.991
X-95.829 Y-14.048
X-95.679 Y-14.06
X-95.655 Y-14.055
X-95.533 Y-13.998
X-95.448 Y-13.893
X-95.417 Y-13.761
Y-13.56
X-95.424 Y-13.526
X-95.443 Y-13.496
X-95.471 Y-13.475
X-95.504 Y-13.464
X-95.539 Y-13.466
X-96.057 Y-13.581
X-96.087 Y-13.594
X-96.112 Y-13.615
X-96.128 Y-13.643
X-96.135 Y-13.676
Y-13.883
X-96.131 Y-13.957
X-96.076 Y-14.097
X-95.962 Y-14.195
X-95.824 Y-14.253
X-95.674 Y-14.261
X-95.651 Y-14.256
X-95.531 Y-14.198
X-95.447 Y-14.093
X-95.417 Y-13.963
Y-13.761
X-95.424 Y-13.727
X-95.443 Y-13.697
X-95.471 Y-13.676
X-95.505 Y-13.666
X-95.54 Y-13.668
X-96.058 Y-13.789
X-96.088 Y-13.801
X-96.112 Y-13.823
X-96.129 Y-13.851
X-96.135 Y-13.883
Y-14.098
X-96.131 Y-14.173
X-96.067 Y-14.308
X-95.951 Y-14.403
X-95.811 Y-14.457
X-95.661 Y-14.461
X-95.643 Y-14.457
X-95.526 Y-14.397
X-95.446 Y-14.294
X-95.417 Y-14.166
Y-13.963
X-95.425 Y-13.928
X-95.444 Y-13.898
X-95.472 Y-13.877
X-95.507 Y-13.867
X-95.542 Y-13.87
X-96.06 Y-14.005
X-96.089 Y-14.017
X-96.113 Y-14.039
X-96.129 Y-14.067
X-96.135 Y-14.098
Y-14.305
X-96.131 Y-14.38
X-96.064 Y-14.514
X-95.947 Y-14.608
X-95.807 Y-14.66
X-95.657 Y-14.664
X-95.641 Y-14.659
X-95.525 Y-14.6
X-95.445 Y-14.497
X-95.417 Y-14.369
Y-14.166
X-95.425 Y-14.131
X-95.444 Y-14.101
X-95.473 Y-14.08
X-95.507 Y-14.07
X-95.543 Y-14.073
X-96.061 Y-14.212
X-96.09 Y-14.225
X-96.113 Y-14.246
X-96.129 Y-14.274
X-96.135 Y-14.305
Y-14.52
X-96.131 Y-14.595
X-96.057 Y-14.726
X-95.937 Y-14.816
X-95.796 Y-14.865
X-95.646
X-95.634 Y-14.862
X-95.521 Y-14.801
X-95.444 Y-14.699
X-95.417 Y-14.574
Y-14.369
X-95.425 Y-14.334
X-95.445 Y-14.304
X-95.474 Y-14.282
X-95.509 Y-14.273
X-95.545 Y-14.277
X-96.063 Y-14.428
X-96.091 Y-14.441
X-96.114 Y-14.462
X-96.129 Y-14.49
X-96.135 Y-14.52
Y-14.689
X-96.131 Y-14.764
X-96.079 Y-14.905
X-95.967 Y-15.005
X-95.829 Y-15.062
X-95.679 Y-15.074
X-95.655 Y-15.069
X-95.533 Y-15.012
X-95.448 Y-14.907
X-95.417 Y-14.775
Y-14.574
X-95.424 Y-14.54
X-95.443 Y-14.51
X-95.471 Y-14.489
X-95.504 Y-14.478
X-95.539 Y-14.48
X-96.057 Y-14.595
X-96.087 Y-14.607
X-96.112 Y-14.629
X-96.128 Y-14.657
X-96.135 Y-14.689
Y-14.896
X-96.131 Y-14.971
X-96.076 Y-15.111
X-95.963 Y-15.208
X-95.824 Y-15.266
X-95.674 Y-15.275
X-95.652 Y-15.269
X-95.531 Y-15.212
X-95.447 Y-15.107
X-95.417 Y-14.977
Y-14.775
X-95.424 Y-14.741
X-95.443 Y-14.711
X-95.471 Y-14.69
X-95.505 Y-14.679
X-95.54 Y-14.681
X-96.058 Y-14.802
X-96.088 Y-14.815
X-96.112 Y-14.836
X-96.129 Y-14.864
X-96.135 Y-14.896
Y-15.111
X-96.131 Y-15.186
X-96.067 Y-15.322
X-95.951 Y-15.417
X-95.811 Y-15.471
X-95.661 Y-15.475
X-95.643 Y-15.47
X-95.526 Y-15.411
X-95.446 Y-15.308
X-95.417 Y-15.18
Y-14.977
X-95.425 Y-14.942
X-95.444 Y-14.912
X-95.472 Y-14.891
X-95.507 Y-14.881
X-95.542 Y-14.883
X-96.06 Y-15.018
X-96.089 Y-15.031
X-96.113 Y-15.052
X-96.129 Y-15.08
X-96.135 Y-15.111
Y-15.318
X-96.131 Y-15.393
X-96.064 Y-15.528
X-95.947 Y-15.621
X-95.807 Y-15.674
X-95.657 Y-15.677
X-95.641 Y-15.673
X-95.525 Y-15.614
X-95.445 Y-15.51
X-95.417 Y-15.383
Y-15.18
X-95.425 Y-15.145
X-95.444 Y-15.115
X-95.473 Y-15.093
X-95.507 Y-15.084
X-95.543 Y-15.087
X-96.061 Y-15.225
X-96.09 Y-15.238
X-96.113 Y-15.26
X-96.129 Y-15.287
X-96.135 Y-15.318
Y-15.534
X-96.131 Y-15.609
X-96.057 Y-15.739
X-95.937 Y-15.829
X-95.796 Y-15.879
X-95.646
X-95.634 Y-15.876
X-95.521 Y-15.815
X-95.444 Y-15.712
X-95.417 Y-15.587
Y-15.383
X-95.425 Y-15.348
X-95.445 Y-15.317
X-95.474 Y-15.296
X-95.509 Y-15.287
X-95.545 Y-15.29
X-96.063 Y-15.441
X-96.091 Y-15.455
X-96.114 Y-15.476
X-96.129 Y-15.503
X-96.135 Y-15.534
Y-15.703
X-96.131 Y-15.778
X-96.079 Y-15.918
X-95.968 Y-16.019
X-95.829 Y-16.076
X-95.679 Y-16.088
X-95.655 Y-16.083
X-95.533 Y-16.026
X-95.448 Y-15.921
X-95.417 Y-15.789
Y-15.587
X-95.424 Y-15.553
X-95.443 Y-15.524
X-95.471 Y-15.502
X-95.504 Y-15.492
X-95.539 Y-15.493
X-96.057 Y-15.609
X-96.087 Y-15.621
X-96.112 Y-15.642
X-96.128 Y-15.671
X-96.135 Y-15.703
Y-15.91
X-96.131 Y-15.985
X-96.076 Y-16.124
X-95.963 Y-16.222
X-95.824 Y-16.28
X-95.675 Y-16.288
X-95.652 Y-16.283
X-95.531 Y-16.226
X-95.447 Y-16.121
X-95.417 Y-15.99
Y-15.789
X-95.424 Y-15.755
X-95.443 Y-15.725
X-95.471 Y-15.704
X-95.505 Y-15.693
X-95.54 Y-15.695
X-96.058 Y-15.816
X-96.088 Y-15.828
X-96.112 Y-15.85
X-96.129 Y-15.878
X-96.135 Y-15.91
Y-16.125
Y-16.163
Y-16.21
X-96.133 Y-16.239
X-96.071 Y-16.305
X-95.99 Y-16.348
X-95.899 Y-16.363
G3 X-95.774 Y-16.088 I-0.006 J0.169
X-96.135 Y-16.21 I-0.157 J-0.129
G1 Y-16.248
X-96.134 Y-16.258
X-96.132 Y-16.269
X-96.128 Y-16.279
X-96.124 Y-16.29
X-96.117 Y-16.3
X-96.109 Y-16.311
X-96.088 Y-16.332
X-96.071 Y-16.346
X-96.061 Y-16.353
X-96.05 Y-16.357
X-96.04 Y-16.36
X-96.029 Y-16.362
X-95.987 Y-16.363
X-95.602
X-95.564
X-95.521
X-95.497 Y-16.358
X-95.49 Y-16.356
X-95.468 Y-16.338
X-95.457 Y-16.312
Y-16.284
X-95.471 Y-16.256
X-95.497 Y-16.238
X-95.528 Y-16.235
X-95.558 Y-16.247
X-95.578 Y-16.271
X-95.584 Y-16.302
X-95.574 Y-16.332
X-95.552 Y-16.354
X-95.521 Y-16.363
X-95.511 Y-16.362
X-95.5 Y-16.36
X-95.49 Y-16.356
X-95.479 Y-16.351
X-95.467 Y-16.343
X-95.455 Y-16.332
X-95.446 Y-16.321
X-95.44 Y-16.311
X-95.424 Y-16.279
X-95.42 Y-16.269
X-95.418 Y-16.258
X-95.417 Y-16.248
Y-15.99
X-95.422 Y-15.962
X-95.435 Y-15.937
X-95.464 Y-15.92 Z-0.983
X-95.489 Y-15.905 Z-0.966
X-95.508 Y-15.894 Z-0.939
X-95.517 Z-0.916
X-95.521 Z-0.89
G0 Z2
X-89.164 Y-9.7
Z0.5
G3 X-88.679 Y-9.824 Z0.29 I0.242 J-0.062 F333.3
X-89.164 Y-9.7 Z0.079 I-0.242 J0.062
X-88.679 Y-9.824 Z-0.131 I0.242 J-0.062
X-89.164 Y-9.7 Z-0.342 I-0.242 J0.062
X-88.679 Y-9.824 Z-0.552 I0.242 J-0.062
X-89.164 Y-9.7 Z-0.763 I-0.242 J0.062
X-88.953 Y-10.01 Z-0.876 I0.242 J-0.062
X-88.671 Y-9.762 Z-0.99 I0.031 J0.248
X-89.171 I-0.25
X-88.671 I0.25
G1 X-88.634 Y-9.617 F1000
X-88.647 Y-9.543
X-88.684 Y-9.477
X-88.791 Y-9.372
X-88.936 Y-9.332
X-89.084 Y-9.354
X-89.215 Y-9.428
X-89.311 Y-9.542
X-89.363 Y-9.683
X-89.366 Y-9.833
X-89.318 Y-9.975
X-89.226 Y-10.094
X-89.1 Y-10.176
X-88.955 Y-10.211
X-88.805 Y-10.198
X-88.669 Y-10.135
X-88.56 Y-10.032
X-88.482 Y-9.904
X-88.432 Y-9.762
X-88.421 Y-9.613
X-88.456 Y-9.467
X-88.527 Y-9.335
X-88.635 Y-9.231
X-88.766 Y-9.158
X-88.913 Y-9.124
X-89.062 Y-9.132
X-89.092 Y-9.14
X-89.147 Y-9.162
X-89.197 Y-9.194
X-89.24 Y-9.235
X-89.303 Y-9.304
X-89.359 Y-9.353
X-89.467 Y-9.457
X-89.54 Y-9.588
X-89.575 Y-9.734
X-89.572 Y-9.884
X-89.531 Y-10.028
X-89.514 Y-10.058
X-89.478 Y-10.109
X-89.432 Y-10.151
X-89.379 Y-10.183
X-89.342 Y-10.191
X-89.305 Y-10.184
X-89.272 Y-10.165
X-89.25 Y-10.134
X-89.24 Y-10.097
X-89.233 Y-9.989
X-89.196 Y-9.437
X-89.201 Y-9.399
X-89.22 Y-9.365
X-89.25 Y-9.341
X-89.287 Y-9.33
X-89.325 Y-9.334
X-89.359 Y-9.353
X-89.42 Y-9.406
X-89.472 Y-9.45
X-89.583 Y-9.528
X-89.7 Y-9.621
X-89.76 Y-9.759
X-89.765 Y-9.813
X-89.742 Y-9.961
X-89.651 Y-10.081
X-89.515 Y-10.144
X-89.479 Y-10.143
X-89.446 Y-10.13
X-89.42 Y-10.106
X-89.404 Y-10.074
X-89.4 Y-10.039
X-89.428 Y-9.605
X-89.436 Y-9.571
X-89.455 Y-9.542
X-89.483 Y-9.522
X-89.516 Y-9.512
X-89.551 Y-9.514
X-89.583 Y-9.528
X-89.726 Y-9.63
X-89.77 Y-9.659
X-89.832 Y-9.701
X-89.911 Y-9.828
X-89.893 Y-9.945
X-89.83 Y-10.046
X-89.733 Y-10.114
X-89.617 Y-10.139
X-89.58 Y-10.131
X-89.549 Y-10.11
X-89.527 Y-10.079
X-89.519 Y-10.042
X-89.525 Y-10.005
X-89.628 Y-9.714
X-89.645 Y-9.684
X-89.671 Y-9.662
X-89.703 Y-9.649
X-89.737 Y-9.648
X-89.77 Y-9.659
X-89.811 Y-9.683
X-89.895 Y-9.722
X-89.924 Y-9.734
X-89.957 Y-9.75
X-90.002 Y-9.811
X-90.01 Y-9.927
X-89.964 Y-10.035
X-89.875 Y-10.111
X-89.761 Y-10.138
X-89.728 Y-10.131
X-89.699 Y-10.113
X-89.677 Y-10.086
X-89.666 Y-10.054
X-89.667 Y-10.019
X-89.678 Y-9.987
X-89.802 Y-9.777
X-89.824 Y-9.75
X-89.855 Y-9.733
X-89.889 Y-9.727
X-89.924 Y-9.734
X-89.98 Y-9.758
X-90.027 Y-9.775
X-90.061 Y-9.79
X-90.107 Y-9.849
X-90.111 Y-9.953
X-90.068 Y-10.048
X-89.988 Y-10.114
X-89.887 Y-10.138
X-89.851 Y-10.129
X-89.82 Y-10.108
G3 X-90.027 Y-9.775 I-0.143 J0.142
G1 X-90.111 Y-9.805
X-90.146 Y-9.819
X-90.198 Y-9.874
X-90.204 Y-9.968
X-90.167 Y-10.055
X-90.095 Y-10.116
X-90.003 Y-10.138
X-89.978 Y-10.133
X-89.955 Y-10.121
G3 X-90.111 Y-9.805 I-0.104 J0.145
G1 X-90.208 Y-9.839
X-90.243 Y-9.853
X-90.292 Y-9.91
X-90.287 Y-10.019
X-90.22 Y-10.105
X-90.116 Y-10.138
X-90.096 Y-10.134
X-90.076 Y-10.125
G3 X-90.208 Y-9.839 I-0.085 J0.134
G1 X-90.234 Y-9.848
X-90.318 Y-9.873
X-90.354 Y-9.883
X-90.393 Y-9.947
X-90.376 Y-10.041
X-90.312 Y-10.112
X-90.22 Y-10.138
X-90.189 Y-10.129
X-90.165 Y-10.108
G3 X-90.318 Y-9.873 I-0.124 J0.087
G1 X-90.403 Y-9.892
X-90.45 Y-9.903
X-90.488 Y-9.912
X-90.512 Y-9.919
X-90.496 Y-10.026
X-90.425 Y-10.107
X-90.321 Y-10.138
X-90.294 Y-10.131
X-90.273 Y-10.113
X-90.261 Y-10.088
Y-10.06
G3 X-90.488 Y-9.912 I-0.189 J-0.042
G1 X-90.531 Y-9.922
X-90.552 Y-9.926
X-90.562 Y-9.929
X-90.585 Y-9.94
X-90.592 Y-9.944
G0 Z2
X-89.877 Y-9.975
Z-0.79
G1 Z-0.89 F1000
X-89.885 Y-9.973 Z-0.928
X-89.905 Y-9.967 Z-0.961
X-89.937 Y-9.958 Z-0.982
X-89.973 Y-9.948 Z-0.99
G3 X-90.562 Y-9.929 I-0.331 J-1.14
G1 X-90.572 Y-9.932
X-90.582 Y-9.938
X-90.592 Y-9.944
X-90.604 Y-9.955
X-90.612 Y-9.965
X-90.622 Y-9.981
X-90.628 Y-9.997
X-90.632 Y-10.017
G0 Z2
X-90.628 Y-9.997
Z0.6
G1 Z0.5 F1000
Z-0.99 F333.3
X-90.631 Y-10.008 F1000
X-90.632 Y-10.018
Y-10.039
X-90.631 Y-10.05
X-90.629 Y-10.06
X-90.626 Y-10.071
X-90.612 Y-10.098
X-90.591 Y-10.111
X-90.567 Y-10.115
X-90.543 Y-10.108
X-90.522 Y-10.089
X-90.512 Y-10.062
X-90.517 Y-10.034
X-90.534 Y-10.011
X-90.56 Y-10
X-90.589 Y-10.002
X-90.613 Y-10.017
X-90.626 Y-10.042
Y-10.071
X-90.622 Y-10.082
X-90.612 Y-10.098
X-90.597 Y-10.114
X-90.585 Y-10.123
X-90.572 Y-10.129
X-90.562 Y-10.133
X-90.551 Y-10.136
X-90.541 Y-10.137
X-89.642 Y-10.138
X-89.557 Y-10.139
X-89.515 Y-10.144
X-89.472 Y-10.152
X-89.422 Y-10.166
X-89.388 Y-10.179
X-89.346 Y-10.198
X-89.303 Y-10.222
X-89.261 Y-10.25
X-89.238 Y-10.271
X-89.12 Y-10.364
X-88.977 Y-10.41
X-88.827 Y-10.413
X-88.681 Y-10.38
X-88.546 Y-10.314
X-88.43 Y-10.219
X-88.395 Y-10.177
X-88.357 Y-10.12
X-88.334 Y-10.055
X-88.326 Y-9.986
Y-9.49
X-88.334 Y-9.34
X-88.391 Y-9.202
X-88.485 Y-9.085
X-88.606 Y-8.996
X-88.743 Y-8.934
X-88.784 Y-8.925
X-88.902 Y-8.922
X-89.012 Y-8.965
X-89.097 Y-9.047
X-89.111 Y-9.083
Y-9.122
X-89.095 Y-9.158
X-89.068 Y-9.185
X-88.96 Y-9.255
X-88.481 Y-9.57
X-88.449 Y-9.584
X-88.414 Y-9.586
X-88.38 Y-9.576
X-88.352 Y-9.554
X-88.333 Y-9.525
X-88.326 Y-9.49
Y-9.19
X-88.334 Y-9.041
X-88.409 Y-8.911
X-88.519 Y-8.809
X-88.653 Y-8.741
X-88.665 Y-8.738
X-88.79 Y-8.737
X-88.904 Y-8.787
X-88.988 Y-8.878
X-89 Y-8.915
X-88.997 Y-8.954
X-88.979 Y-8.989
X-88.949 Y-9.014
X-88.474 Y-9.275
X-88.442 Y-9.286
X-88.408 Y-9.285
X-88.377 Y-9.274
X-88.351 Y-9.252
X-88.333 Y-9.224
X-88.326 Y-9.19
Y-8.937
X-88.33 Y-8.862
X-88.379 Y-8.721
X-88.483 Y-8.612
X-88.522 Y-8.594
X-88.637 Y-8.566
X-88.754 Y-8.586
X-88.855 Y-8.648
X-88.923 Y-8.745
X-88.93 Y-8.784
X-88.922 Y-8.823
X-88.899 Y-8.855
X-88.865 Y-8.876
X-88.461 Y-9.027
X-88.424 Y-9.034
X-88.387 Y-9.026
X-88.356 Y-9.005
X-88.335 Y-8.974
X-88.326 Y-8.937
Y-8.684
Y-8.646
Y-8.599
X-88.328 Y-8.564
X-88.353 Y-8.536
X-88.417 Y-8.482
X-88.493 Y-8.448
X-88.576 Y-8.436
G3 X-88.709 Y-8.728 I0.006 J-0.179
X-88.326 Y-8.599 I0.167 J0.137
G1 Y-8.561
X-88.327 Y-8.54
X-88.33 Y-8.529
X-88.333 Y-8.519
X-88.338 Y-8.508
X-88.344 Y-8.498
X-88.373 Y-8.465
X-88.383 Y-8.456
X-88.394 Y-8.449
X-88.404 Y-8.444
X-88.415 Y-8.44
X-88.426 Y-8.438
X-88.436 Y-8.436
X-88.711
X-88.732 Y-8.437
X-88.743 Y-8.438
X-88.753 Y-8.441
X-88.764 Y-8.444
X-88.775 Y-8.45
X-88.785 Y-8.457
X-88.796 Y-8.466
X-88.821 Y-8.498
X-88.827 Y-8.508
X-88.832 Y-8.519
X-88.847 Y-8.561
X-88.9 Y-8.692
X-88.942 Y-8.788
X-88.965 Y-8.839
X-89.001 Y-8.899
X-89.053 Y-8.983
X-89.134 Y-9.101
X-89.173 Y-9.152
X-89.219 Y-9.21
X-89.24 Y-9.235
X-89.256 Y-9.264
X-89.261 Y-9.296
X-89.263 Y-9.494
X-89.269 Y-10.197
X-89.266 Y-10.225
X-89.255 Y-10.25
X-89.238 Y-10.271
X-89.219 Y-10.288
X-89.174 Y-10.335
X-89.134 Y-10.389
X-89.114 Y-10.419
X-89.074 Y-10.483
X-88.952 Y-10.57
X-88.806 Y-10.602
X-88.656 Y-10.59
X-88.513 Y-10.545
X-88.483 Y-10.529
X-88.4 Y-10.462
X-88.345 Y-10.37
X-88.326 Y-10.265
Y-9.986
X-88.333 Y-9.952
X-88.352 Y-9.922
X-88.38 Y-9.901
X-88.413 Y-9.89
X-88.448 Y-9.892
X-88.481 Y-9.906
X-88.538 Y-9.943
X-89.078 Y-10.295
X-89.103 Y-10.319
X-89.119 Y-10.35
X-89.123 Y-10.385
X-89.114 Y-10.419
X-89.094 Y-10.462
X-89.077 Y-10.504
X-89.064 Y-10.55
X-89.041 Y-10.622
X-88.94 Y-10.733
X-88.801 Y-10.787
X-88.651 Y-10.799
X-88.573 Y-10.785
X-88.447 Y-10.73
X-88.358 Y-10.624
X-88.326 Y-10.489
Y-10.265
X-88.335 Y-10.227
X-88.358 Y-10.195
X-88.392 Y-10.175
X-88.431 Y-10.169
X-88.469 Y-10.179
X-89.01 Y-10.437
X-89.037 Y-10.457
X-89.057 Y-10.484
X-89.066 Y-10.517
X-89.064 Y-10.55
X-89.054 Y-10.588
X-89.052 Y-10.599
X-89.05 Y-10.673
X-89.044 Y-10.748
X-88.972 Y-10.879
X-88.846 Y-10.961
X-88.701 Y-10.999
X-88.551 Y-10.994
X-88.531 Y-10.987
X-88.424 Y-10.925
X-88.352 Y-10.824
X-88.326 Y-10.703
Y-10.489
X-88.334 Y-10.453
X-88.355 Y-10.422
X-88.386 Y-10.401
X-88.422 Y-10.393
X-88.459 Y-10.398
X-88.982 Y-10.579
X-89.009 Y-10.593
X-89.031 Y-10.615
X-89.045 Y-10.643
X-89.05 Y-10.673
X-89.045 Y-10.842
X-89.044 Y-10.888
X-89.042 Y-10.926
X-88.979 Y-11.062
X-88.86 Y-11.152
X-88.718 Y-11.201
X-88.568 Y-11.204
X-88.55 Y-11.199
X-88.434 Y-11.139
X-88.354 Y-11.036
X-88.326 Y-10.909
Y-10.703
X-88.334 Y-10.666
X-88.355 Y-10.635
X-88.386 Y-10.614
X-88.423 Y-10.606
X-88.46 Y-10.612
X-88.978 Y-10.797
X-89.004 Y-10.811
X-89.025 Y-10.832
X-89.039 Y-10.859
X-89.044 Y-10.888
Y-11.057
X-89.04 Y-11.132
X-88.971 Y-11.265
X-88.851 Y-11.355
X-88.71 Y-11.406
X-88.56 Y-11.407
X-88.546 Y-11.403
X-88.432 Y-11.342
X-88.354 Y-11.24
X-88.326 Y-11.114
Y-10.909
X-88.334 Y-10.874
X-88.354 Y-10.844
X-88.383 Y-10.822
X-88.418 Y-10.813
X-88.454 Y-10.816
X-88.972 Y-10.964
X-89 Y-10.978
X-89.023 Y-10.999
X-89.038 Y-11.026
X-89.044 Y-11.057
Y-11.264
X-89.04 Y-11.339
X-88.967 Y-11.47
X-88.847 Y-11.56
X-88.706 Y-11.61
X-88.556
X-88.544 Y-11.607
X-88.431 Y-11.546
X-88.354 Y-11.443
X-88.326 Y-11.318
Y-11.114
X-88.334 Y-11.078
X-88.354 Y-11.048
X-88.383 Y-11.027
X-88.418 Y-11.017
X-88.454 Y-11.021
X-88.972 Y-11.172
X-89 Y-11.185
X-89.023 Y-11.206
X-89.038 Y-11.233
X-89.044 Y-11.264
Y-11.433
X-89.04 Y-11.508
X-88.989 Y-11.649
X-88.877 Y-11.749
X-88.739 Y-11.807
X-88.589 Y-11.818
X-88.565 Y-11.813
X-88.442 Y-11.756
X-88.357 Y-11.651
X-88.326 Y-11.52
Y-11.318
X-88.333 Y-11.284
X-88.352 Y-11.254
X-88.38 Y-11.233
X-88.413 Y-11.222
X-88.448 Y-11.224
X-88.966 Y-11.339
X-88.996 Y-11.351
X-89.021 Y-11.373
X-89.037 Y-11.401
X-89.044 Y-11.433
Y-11.648
X-89.04 Y-11.723
X-88.98 Y-11.861
X-88.864 Y-11.956
X-88.725 Y-12.012
X-88.575 Y-12.018
X-88.555 Y-12.013
X-88.437 Y-11.955
X-88.355 Y-11.851
X-88.326 Y-11.722
Y-11.52
X-88.334 Y-11.485
X-88.353 Y-11.455
X-88.381 Y-11.434
X-88.415 Y-11.424
X-88.45 Y-11.426
X-88.968 Y-11.555
X-88.998 Y-11.568
X-89.022 Y-11.589
X-89.038 Y-11.617
X-89.044 Y-11.648
Y-11.855
X-89.04 Y-11.93
X-88.976 Y-12.066
X-88.861 Y-12.161
X-88.721 Y-12.215
X-88.571 Y-12.22
X-88.553 Y-12.215
X-88.436 Y-12.156
X-88.355 Y-12.053
X-88.326 Y-11.925
Y-11.722
X-88.334 Y-11.687
X-88.353 Y-11.657
X-88.381 Y-11.636
X-88.416 Y-11.626
X-88.451 Y-11.628
X-88.969 Y-11.762
X-88.998 Y-11.775
X-89.022 Y-11.796
X-89.038 Y-11.824
X-89.044 Y-11.855
Y-12.071
X-89.04 Y-12.146
X-88.969 Y-12.278
X-88.85 Y-12.369
X-88.709 Y-12.42
X-88.559 Y-12.421
X-88.545 Y-12.418
X-88.432 Y-12.357
X-88.354 Y-12.254
X-88.326 Y-12.129
Y-11.925
X-88.334 Y-11.889
X-88.354 Y-11.859
X-88.383 Y-11.838
X-88.417 Y-11.828
X-88.453 Y-11.832
X-88.971 Y-11.978
X-89 Y-11.991
X-89.023 Y-12.012
X-89.038 Y-12.04
X-89.044 Y-12.071
Y-12.24
X-89.04 Y-12.315
X-88.991 Y-12.456
X-88.881 Y-12.558
X-88.743 Y-12.616
X-88.593 Y-12.629
X-88.567 Y-12.624
X-88.443 Y-12.568
X-88.357 Y-12.462
X-88.326 Y-12.33
Y-12.129
X-88.333 Y-12.095
X-88.352 Y-12.065
X-88.379 Y-12.044
X-88.412 Y-12.033
X-88.447 Y-12.034
X-88.965 Y-12.145
X-88.996 Y-12.157
X-89.021 Y-12.179
X-89.037 Y-12.207
X-89.044 Y-12.24
Y-12.447
X-89.04 Y-12.522
X-88.989 Y-12.662
X-88.876 Y-12.761
X-88.738 Y-12.821
X-88.588 Y-12.83
X-88.564 Y-12.825
X-88.441 Y-12.768
X-88.356 Y-12.663
X-88.326 Y-12.531
Y-12.33
X-88.333 Y-12.296
X-88.352 Y-12.266
X-88.38 Y-12.245
X-88.413 Y-12.234
X-88.448 Y-12.236
X-88.966 Y-12.353
X-88.996 Y-12.365
X-89.021 Y-12.386
X-89.038 Y-12.415
X-89.044 Y-12.447
Y-12.662
X-89.04 Y-12.737
X-88.979 Y-12.874
X-88.864 Y-12.97
X-88.724 Y-13.025
X-88.574 Y-13.03
X-88.554 Y-13.025
X-88.436 Y-12.966
X-88.355 Y-12.862
X-88.326 Y-12.734
Y-12.531
X-88.334 Y-12.497
X-88.353 Y-12.467
X-88.381 Y-12.445
X-88.415 Y-12.435
X-88.451 Y-12.438
X-88.969 Y-12.569
X-88.998 Y-12.581
X-89.022 Y-12.603
X-89.038 Y-12.631
X-89.044 Y-12.662
Y-12.869
X-89.04 Y-12.944
X-88.976 Y-13.079
X-88.86 Y-13.174
X-88.72 Y-13.228
X-88.57 Y-13.232
X-88.552 Y-13.228
X-88.435 Y-13.168
X-88.355 Y-13.065
X-88.326 Y-12.937
Y-12.734
X-88.334 Y-12.699
X-88.353 Y-12.669
X-88.382 Y-12.648
X-88.416 Y-12.638
X-88.451 Y-12.641
X-88.969 Y-12.776
X-88.998 Y-12.789
X-89.022 Y-12.81
X-89.038 Y-12.838
X-89.044 Y-12.869
Y-13.084
X-89.04 Y-13.159
X-88.968 Y-13.291
X-88.849 Y-13.382
X-88.708 Y-13.433
X-88.558 Y-13.434
X-88.545 Y-13.43
X-88.431 Y-13.369
X-88.354 Y-13.267
X-88.326 Y-13.141
Y-12.937
X-88.334 Y-12.902
X-88.354 Y-12.872
X-88.383 Y-12.85
X-88.418 Y-12.841
X-88.453 Y-12.844
X-88.971 Y-12.992
X-89 Y-13.005
X-89.023 Y-13.026
X-89.038 Y-13.054
X-89.044 Y-13.084
Y-13.253
X-89.04 Y-13.328
X-88.991 Y-13.47
X-88.88 Y-13.571
X-88.742 Y-13.629
X-88.592 Y-13.642
X-88.566 Y-13.637
X-88.443 Y-13.58
X-88.357 Y-13.475
X-88.326 Y-13.342
Y-13.141
X-88.333 Y-13.107
X-88.352 Y-13.078
X-88.379 Y-13.056
X-88.412 Y-13.046
X-88.447 Y-13.047
X-88.965 Y-13.159
X-88.996 Y-13.171
X-89.021 Y-13.193
X-89.037 Y-13.221
X-89.044 Y-13.253
Y-13.46
X-89.04 Y-13.535
X-88.988 Y-13.676
X-88.875 Y-13.774
X-88.737 Y-13.833
X-88.587 Y-13.842
X-88.563 Y-13.837
X-88.441 Y-13.78
X-88.356 Y-13.675
X-88.326 Y-13.544
Y-13.342
X-88.333 Y-13.308
X-88.352 Y-13.279
X-88.38 Y-13.257
X-88.413 Y-13.247
X-88.448 Y-13.248
X-88.966 Y-13.366
X-88.996 Y-13.379
X-89.021 Y-13.4
X-89.038 Y-13.428
X-89.044 Y-13.46
Y-13.676
X-89.04 Y-13.75
X-88.978 Y-13.887
X-88.863 Y-13.983
X-88.723 Y-14.037
X-88.573 Y-14.043
X-88.554 Y-14.038
X-88.436 Y-13.979
X-88.355 Y-13.875
X-88.326 Y-13.747
Y-13.544
X-88.334 Y-13.509
X-88.353 Y-13.479
X-88.381 Y-13.458
X-88.415 Y-13.448
X-88.451 Y-13.45
X-88.969 Y-13.582
X-88.998 Y-13.595
X-89.022 Y-13.616
X-89.038 Y-13.644
X-89.044 Y-13.676
Y-13.883
X-89.04 Y-13.957
X-88.975 Y-14.093
X-88.859 Y-14.187
X-88.719 Y-14.241
X-88.569 Y-14.245
X-88.552 Y-14.24
X-88.435 Y-14.181
X-88.355 Y-14.078
X-88.326 Y-13.95
Y-13.747
X-88.334 Y-13.712
X-88.353 Y-13.682
X-88.382 Y-13.66
X-88.416 Y-13.651
X-88.451 Y-13.653
X-88.969 Y-13.789
X-88.999 Y-13.802
X-89.022 Y-13.824
X-89.038 Y-13.851
X-89.044 Y-13.883
Y-14.098
X-89.04 Y-14.173
X-88.968 Y-14.304
X-88.849 Y-14.395
X-88.707 Y-14.445
X-88.557 Y-14.446
X-88.544 Y-14.443
X-88.431 Y-14.382
X-88.354 Y-14.279
X-88.326 Y-14.154
Y-13.95
X-88.334 Y-13.914
X-88.354 Y-13.884
X-88.383 Y-13.863
X-88.418 Y-13.854
X-88.454 Y-13.857
X-88.972 Y-14.005
X-89 Y-14.018
X-89.023 Y-14.04
X-89.038 Y-14.067
X-89.044 Y-14.098
Y-14.267
X-89.04 Y-14.342
X-88.99 Y-14.483
X-88.879 Y-14.584
X-88.741 Y-14.642
X-88.591 Y-14.654
X-88.566 Y-14.649
X-88.443 Y-14.593
X-88.357 Y-14.488
X-88.326 Y-14.355
Y-14.154
X-88.333 Y-14.12
X-88.352 Y-14.09
X-88.379 Y-14.069
X-88.413 Y-14.058
X-88.447 Y-14.06
X-88.965 Y-14.173
X-88.996 Y-14.185
X-89.021 Y-14.206
X-89.037 Y-14.235
X-89.044 Y-14.267
Y-14.474
X-89.04 Y-14.549
X-88.987 Y-14.689
X-88.874 Y-14.788
X-88.736 Y-14.846
X-88.586 Y-14.855
X-88.562 Y-14.85
X-88.441 Y-14.793
X-88.356 Y-14.688
X-88.326 Y-14.557
Y-14.355
X-88.333 Y-14.321
X-88.352 Y-14.291
X-88.38 Y-14.27
X-88.413 Y-14.26
X-88.448 Y-14.261
X-88.966 Y-14.38
X-88.997 Y-14.392
X-89.021 Y-14.414
X-89.038 Y-14.442
X-89.044 Y-14.474
Y-14.689
X-89.04 Y-14.764
X-88.978 Y-14.9
X-88.862 Y-14.996
X-88.722 Y-15.05
X-88.572 Y-15.055
X-88.553 Y-15.051
X-88.436 Y-14.991
X-88.355 Y-14.888
X-88.326 Y-14.76
Y-14.557
X-88.334 Y-14.522
X-88.353 Y-14.492
X-88.381 Y-14.471
X-88.415 Y-14.461
X-88.451 Y-14.463
X-88.969 Y-14.596
X-88.998 Y-14.609
X-89.022 Y-14.63
X-89.038 Y-14.658
X-89.044 Y-14.689
Y-14.896
X-89.04 Y-14.971
X-88.975 Y-15.106
X-88.858 Y-15.2
X-88.718 Y-15.254
X-88.568 Y-15.258
X-88.551 Y-15.253
X-88.435 Y-15.194
X-88.355 Y-15.09
X-88.326 Y-14.963
Y-14.76
X-88.334 Y-14.725
X-88.353 Y-14.695
X-88.382 Y-14.673
X-88.416 Y-14.664
X-88.452 Y-14.666
X-88.97 Y-14.803
X-88.999 Y-14.816
X-89.022 Y-14.837
X-89.038 Y-14.865
X-89.044 Y-14.896
Y-15.111
X-89.04 Y-15.186
X-88.968 Y-15.318
X-88.848 Y-15.408
X-88.707 Y-15.459
X-88.557
X-88.544 Y-15.456
X-88.431 Y-15.395
X-88.354 Y-15.292
X-88.326 Y-15.167
Y-14.963
X-88.334 Y-14.927
X-88.354 Y-14.897
X-88.383 Y-14.876
X-88.418 Y-14.867
X-88.454 Y-14.87
X-88.972 Y-15.019
X-89 Y-15.032
X-89.023 Y-15.053
X-89.038 Y-15.081
X-89.044 Y-15.111
Y-15.28
X-89.04 Y-15.355
X-88.99 Y-15.497
X-88.879 Y-15.597
X-88.74 Y-15.655
X-88.591 Y-15.667
X-88.566 Y-15.662
X-88.442 Y-15.606
X-88.357 Y-15.5
X-88.326 Y-15.368
Y-15.167
X-88.333 Y-15.133
X-88.352 Y-15.103
X-88.379 Y-15.082
X-88.413 Y-15.071
X-88.447 Y-15.073
X-88.965 Y-15.186
X-88.996 Y-15.198
X-89.021 Y-15.22
X-89.037 Y-15.248
X-89.044 Y-15.28
Y-15.487
X-89.04 Y-15.562
X-88.987 Y-15.702
X-88.874 Y-15.801
X-88.736 Y-15.859
X-88.586 Y-15.868
X-88.562 Y-15.863
X-88.44 Y-15.805
X-88.356 Y-15.701
X-88.326 Y-15.57
Y-15.368
X-88.333 Y-15.334
X-88.352 Y-15.304
X-88.38 Y-15.283
X-88.413 Y-15.273
X-88.448 Y-15.274
X-88.966 Y-15.393
X-88.997 Y-15.406
X-89.021 Y-15.427
X-89.038 Y-15.455
X-89.044 Y-15.487
Y-15.703
X-89.04 Y-15.778
X-88.978 Y-15.914
X-88.862 Y-16.009
X-88.722 Y-16.064
X-88.572 Y-16.068
X-88.553 Y-16.064
X-88.436 Y-16.004
X-88.355 Y-15.901
X-88.326 Y-15.773
Y-15.57
X-88.334 Y-15.535
X-88.353 Y-15.505
X-88.381 Y-15.484
X-88.415 Y-15.474
X-88.451 Y-15.476
X-88.969 Y-15.609
X-88.998 Y-15.622
X-89.022 Y-15.644
X-89.038 Y-15.671
X-89.044 Y-15.703
Y-15.91
X-89.04 Y-15.985
X-88.975 Y-16.119
X-88.858 Y-16.214
X-88.718 Y-16.267
X-88.568 Y-16.271
X-88.551 Y-16.266
X-88.435 Y-16.207
X-88.355 Y-16.103
X-88.326 Y-15.976
Y-15.773
X-88.334 Y-15.738
X-88.353 Y-15.708
X-88.382 Y-15.686
X-88.416 Y-15.677
X-88.452 Y-15.679
X-88.97 Y-15.817
X-88.999 Y-15.829
X-89.022 Y-15.851
X-89.038 Y-15.878
X-89.044 Y-15.91
Y-16.125
Y-16.163
Y-16.21
X-89.042 Y-16.239
X-89.037 Y-16.246
X-88.971 Y-16.309
X-88.889 Y-16.349
X-88.799 Y-16.363
G3 X-88.675 Y-16.078 I-0.006 J0.172
X-89.044 Y-16.21 I-0.158 J-0.138
G1 Y-16.248
X-89.043 Y-16.258
X-89.041 Y-16.269
X-89.037 Y-16.279
X-89.033 Y-16.29
X-89.013 Y-16.321
X-89.004 Y-16.332
X-88.984 Y-16.348
X-88.965 Y-16.358
X-88.954 Y-16.361
X-88.944 Y-16.363
X-88.923
X-88.542
X-88.495
X-88.457
X-88.423 Y-16.361
X-88.386 Y-16.344
X-88.356 Y-16.315
X-88.338 Y-16.277
X-88.333 Y-16.236
X-88.343 Y-16.195
X-88.367 Y-16.16
X-88.401 Y-16.135
X-88.442 Y-16.124
X-88.485 Y-16.127
X-88.523 Y-16.146
X-88.553 Y-16.176
X-88.57 Y-16.215
X-88.572 Y-16.257
X-88.56 Y-16.298
X-88.534 Y-16.332
X-88.499 Y-16.354
X-88.457 Y-16.363
X-88.436
X-88.426 Y-16.362
X-88.415 Y-16.359
X-88.404 Y-16.356
X-88.394 Y-16.35
X-88.383 Y-16.344
X-88.37 Y-16.332
X-88.344 Y-16.3
X-88.338 Y-16.29
X-88.333 Y-16.279
X-88.329 Y-16.269
X-88.327 Y-16.258
X-88.326 Y-16.248
Y-15.976
X-88.331 Y-15.948
X-88.344 Y-15.922
X-88.373 Y-15.905 Z-0.983
X-88.398 Y-15.891 Z-0.966
X-88.417 Y-15.88 Z-0.939
X-88.426 Y-15.879 Z-0.916
X-88.43 Z-0.89
G0 Z2
X-84.062 Y-15.78
Z0.5
G3 X-83.578 Y-15.904 Z0.29 I0.242 J-0.062 F333.3
X-84.062 Y-15.78 Z0.079 I-0.242 J0.062
X-83.578 Y-15.904 Z-0.131 I0.242 J-0.062
X-84.062 Y-15.78 Z-0.342 I-0.242 J0.062
X-83.578 Y-15.904 Z-0.552 I0.242 J-0.062
X-84.062 Y-15.78 Z-0.763 I-0.242 J0.062
X-83.851 Y-16.09 Z-0.876 I0.242 J-0.062
X-83.57 Y-15.842 Z-0.99 I0.031 J0.248
X-84.07 I-0.25
X-83.57 I0.25
G1 X-83.532 Y-15.697 F1000
X-83.545 Y-15.623
X-83.582 Y-15.557
X-83.689 Y-15.452
X-83.834 Y-15.412
X-83.983 Y-15.434
X-84.113 Y-15.508
X-84.21 Y-15.622
X-84.262 Y-15.763
X-84.264 Y-15.913
X-84.216 Y-16.055
X-84.124 Y-16.174
X-83.999 Y-16.256
X-83.853 Y-16.291
X-83.704 Y-16.278
X-83.567 Y-16.215
X-83.459 Y-16.112
X-83.38 Y-15.984
X-83.33 Y-15.842
X-83.319 Y-15.693
X-83.327 Y-15.665
X-83.337 Y-15.641
X-83.349 Y-15.617
X-83.373 Y-15.572
X-83.381 Y-15.553
X-83.44 Y-15.415
X-83.547 Y-15.31
X-83.678 Y-15.237
X-83.825 Y-15.205
X-83.974 Y-15.215
X-84.012 Y-15.227
X-84.079 Y-15.257
X-84.137 Y-15.302
X-84.182 Y-15.36
X-84.207 Y-15.403
X-84.275 Y-15.572
X-84.312 Y-15.67
X-84.366 Y-15.825
X-84.408 Y-15.969
X-84.387 Y-16.118
X-84.32 Y-16.252
X-84.31 Y-16.263
X-84.246 Y-16.317
X-84.169 Y-16.352
X-84.086 Y-16.363
X-84.048 Y-16.354
X-84.016 Y-16.332
X-83.996 Y-16.298
X-83.989 Y-16.26
X-83.998 Y-16.222
X-84.182 Y-15.82
X-84.204 Y-15.788
X-84.237 Y-15.768
X-84.276 Y-15.761
X-84.313 Y-15.77
X-84.345 Y-15.792
X-84.366 Y-15.825
X-84.396 Y-15.913
X-84.421 Y-15.994
X-84.444 Y-16.079
X-84.456 Y-16.125
X-84.465 Y-16.163
X-84.475 Y-16.205
X-84.476 Y-16.211
Y-16.249
X-84.467 Y-16.287
X-84.451 Y-16.321
X-84.42 Y-16.345
X-84.384 Y-16.355
X-84.346 Y-16.351
X-84.312 Y-16.333
X-84.288 Y-16.303
X-84.002 Y-15.783
X-83.925 Y-15.642
X-83.913 Y-15.608
X-83.915 Y-15.573
X-83.928 Y-15.54
X-83.953 Y-15.514
X-83.985 Y-15.498
X-84.021 Y-15.494
X-84.055 Y-15.503
